sainanliu129-hub/model/applications/Body_GravityPara_Iden/data/excitation/single_run/PD-M1-v0_multi_joint_20260325-140557_safe_real.csv
time,cmd_leg_l1_joint,pos_leg_l1_joint,vel_leg_l1_joint,torque_leg_l1_joint,cmd_leg_l2_joint,pos_leg_l2_joint,vel_leg_l2_joint,torque_leg_l2_joint,cmd_leg_l3_joint,pos_leg_l3_joint,vel_leg_l3_joint,torque_leg_l3_joint,cmd_leg_l4_joint,pos_leg_l4_joint,vel_leg_l4_joint,torque_leg_l4_joint,cmd_leg_l5_joint,pos_leg_l5_joint,vel_leg_l5_joint,torque_leg_l5_joint,cmd_leg_l6_joint,pos_leg_l6_joint,vel_leg_l6_joint,torque_leg_l6_joint,cmd_leg_r1_joint,pos_leg_r1_joint,vel_leg_r1_joint,torque_leg_r1_joint,cmd_leg_r2_joint,pos_leg_r2_joint,vel_leg_r2_joint,torque_leg_r2_joint,cmd_leg_r3_joint,pos_leg_r3_joint,vel_leg_r3_joint,torque_leg_r3_joint,cmd_leg_r4_joint,pos_leg_r4_joint,vel_leg_r4_joint,torque_leg_r4_joint,cmd_leg_r5_joint,pos_leg_r5_joint,vel_leg_r5_joint,torque_leg_r5_joint,cmd_leg_r6_joint,pos_leg_r6_joint,vel_leg_r6_joint,torque_leg_r6_joint
0.000000000,0.000000000,0.015830994,-0.013187408,-1.431740570,0.000000000,-0.007438660,0.013187408,1.120880127,-0.006823000,-0.005912781,-0.065933228,-0.373617554,0.424885005,0.314526558,0.391208649,4.322357178,-0.396259993,-0.369268478,-0.382253536,-1.884341145,0.000000000,-0.001313580,-0.101552259,-0.086622384,0.000000000,0.020027161,-0.039560318,-2.092541504,-0.435999990,-0.361066818,-0.373626709,-13.674737549,0.000000000,0.008201599,-0.074726105,-1.569232178,0.000000000,0.062752724,0.004396439,-3.296691895,0.000000000,-0.005093351,0.162428995,0.594897611,0.000000000,0.002750260,-0.254364440,-0.240336184
0.001999820,-0.000031000,0.015830994,0.013187408,-1.872295380,0.000016000,-0.007057190,0.030769348,0.821969604,-0.006821000,-0.005912781,0.065933228,-0.074734497,0.424870014,0.315670967,0.443956375,4.029296875,-0.396315992,-0.369840339,-0.360265840,-1.586870801,0.000000000,-0.001753756,-0.111750336,0.042230469,0.000000000,0.020027161,0.013187408,-2.092541504,-0.435999990,-0.361829758,-0.347251892,-15.767028809,0.000000000,0.008201599,-0.048351288,-1.120880127,0.000000000,0.062752724,-0.013187408,-3.589752197,0.000000000,-0.004522312,0.153680101,0.396602787,0.000000000,0.001568358,-0.326877627,-0.240174985
0.003999639,-0.000061000,0.015830994,0.021978378,-1.652017975,0.000031000,-0.007057190,0.039560318,0.971438599,-0.006816000,-0.005912781,0.013187408,-0.224176025,0.424854010,0.316433907,0.426374435,3.882781982,-0.396375000,-0.370603034,-0.382250062,-1.388565136,0.000000000,-0.001754101,-0.081359446,0.128237861,0.000000000,0.020027161,-0.004396439,-2.092541504,-0.435999990,-0.362592697,-0.443956375,-14.870324707,0.000000000,0.008201599,-0.048351288,-2.465936279,0.000000000,0.062752724,-0.004396439,-3.296691895,0.000000000,-0.004331899,0.136136555,0.297469428,0.000000000,0.001174485,-0.308678734,-0.192122297
0.005999459,-0.000091000,0.015830994,0.013187408,-1.431740570,0.000045000,-0.007057190,-0.013187408,2.167025757,-0.006810000,-0.005912781,-0.065933228,0.074734497,0.424836993,0.317196846,0.338460922,4.029296875,-0.396436006,-0.371365730,-0.382269980,-1.289459757,0.000000000,-0.001754446,-0.040793912,0.257109924,0.000000000,0.020027161,0.013187408,-2.312818909,-0.435999990,-0.363355637,-0.391208649,-13.375827026,0.000000000,0.008201599,0.013187408,-0.971438599,0.000000000,0.062752724,0.004396439,-3.296691895,0.000000000,-0.004141753,0.127426303,0.396740579,0.000000000,-0.000006814,-0.326762137,0.048012671
0.007999279,-0.000120000,0.015830994,-0.013187408,-1.211463165,0.000057000,-0.007057190,0.030769348,0.821969604,-0.006802000,-0.005912781,0.057142258,-0.373617554,0.424820006,0.317578316,0.285715103,3.736267090,-0.396499991,-0.372128426,-0.404263753,-1.388729695,0.000000000,-0.001754792,0.009924944,0.385836776,0.000000000,0.020027161,0.013187408,-1.652017975,-0.435999990,-0.364118576,-0.294506073,-14.870324707,0.000000000,0.007820129,-0.021978378,-1.419790649,0.000000000,0.062752724,0.004396439,-3.443237305,0.000000000,-0.003951208,0.118660329,0.595082506,0.000000000,-0.000400544,-0.272270657,0.144096142
0.009999099,-0.000148000,0.015830994,-0.021978378,-1.431740570,0.000069000,-0.007057190,0.074726105,0.224176025,-0.006792000,-0.005912781,0.021978378,-0.523086548,0.424802989,0.318341255,0.259340286,3.589752197,-0.396566004,-0.372891122,-0.426230916,-1.388729813,0.000000000,-0.001755137,-0.000235483,0.385743628,0.000000000,0.020027161,0.004396439,-1.652017975,-0.435999990,-0.364881516,-0.338460922,-15.318676758,0.000000000,0.007820129,-0.013187408,-2.316494751,0.000000000,0.062752724,0.004396439,-3.589752197,0.000000000,-0.003760629,0.118674880,0.594996810,0.000000000,-0.000794227,-0.217785797,0.336238275
0.011998918,-0.000176000,0.015830994,0.021978378,-1.872295380,0.000079000,-0.007057190,-0.004396439,1.718673706,-0.006781000,-0.005912781,-0.048351288,-0.373617554,0.424784988,0.318722725,0.259340286,4.175811768,-0.396634012,-0.373844281,-0.426265571,-1.487989985,0.000000000,-0.002196122,0.060629508,0.428323443,0.000000000,0.020027161,0.013187408,-2.092541504,-0.435999990,-0.365262985,-0.356044769,-14.870324707,0.000000000,0.007820129,-0.004396439,-0.971438599,0.000000000,0.062752724,-0.004396439,-3.296691895,0.000000000,-0.003379372,0.109910349,0.396556676,0.000000000,-0.001581451,-0.181436140,0.336311817
0.013998738,-0.000202000,0.015830994,-0.004396439,-1.431740570,0.000089000,-0.007057190,-0.048351288,0.971438599,-0.006769000,-0.005912781,-0.004396439,-0.074734497,0.424766988,0.319104195,0.232967377,4.322357178,-0.396703988,-0.374797863,-0.426268051,-1.289624731,0.000000000,-0.001756003,0.081020092,0.514274834,0.000000000,0.020027161,0.004396439,-1.872295380,-0.435999990,-0.366025925,-0.408790588,-13.375827026,0.000000000,0.007820129,0.030769348,-1.270321655,0.000000000,0.062752724,-0.004396439,-3.150177002,0.000000000,-0.002998080,0.109904229,0.297307576,0.000000000,-0.001581302,-0.163268569,0.480406707
0.015998558,-0.000228000,0.015830994,-0.021978378,-1.652017975,0.000097000,-0.007057190,0.030769348,0.821969604,-0.006755000,-0.005912781,-0.004396439,-1.120880127,0.424748003,0.319867134,0.294506073,3.736267090,-0.396777004,-0.375560560,-0.413090816,-1.785436592,0.000000000,-0.001756351,0.091205966,0.385231271,0.000000000,0.020027161,-0.013187408,-1.652017975,-0.435999990,-0.366788864,-0.338460922,-14.272531128,0.000000000,0.007820129,-0.004396439,-1.419790649,0.000000000,0.062752724,0.004396439,-3.589752197,0.000000000,-0.002998080,0.079124940,0.396464112,0.000000000,-0.001581302,-0.099769035,0.528469543
0.017998378,-0.000252000,0.015830994,-0.013187408,-1.652017975,0.000104000,-0.006675720,0.013187408,0.971438599,-0.006740000,-0.005912781,0.004396439,-0.821969604,0.424728990,0.320248604,0.312088013,3.736267090,-0.396851003,-0.376323257,-0.391105532,-1.686236384,0.000000000,-0.001756699,0.060753014,0.342299355,0.000000000,0.020027161,-0.013187408,-2.092541504,-0.435999990,-0.367551804,-0.391208649,-14.421972656,0.000000000,0.007820129,-0.039560318,-1.718673706,0.000000000,0.062752724,-0.004396439,-3.150177002,0.000000000,-0.002807402,0.065925083,-0.000318285,0.000000000,-0.001974797,-0.036252871,0.528368565
0.019998197,-0.000276000,0.015830994,0.021978378,-1.431740570,0.000111000,-0.006675720,0.004396439,0.672528076,-0.006724000,-0.005912781,0.048351288,-0.224176025,0.424708992,0.321011543,0.399999619,4.175811768,-0.396926999,-0.377085954,-0.382307975,-1.884589709,0.000000000,-0.001757047,0.040444354,0.342123193,0.000000000,0.020027161,-0.030769348,-2.312818909,-0.435999990,-0.368314743,-0.417581558,-14.272531128,0.000000000,0.007820129,0.039560318,-1.718673706,0.000000000,0.062752724,0.013187408,-3.589752197,0.000000000,-0.002807402,0.043958588,0.198041126,0.000000000,-0.001974797,-0.045336788,0.528451500
0.021998017,-0.000298000,0.015830994,0.021978378,-1.431740570,0.000116000,-0.006675720,0.004396439,0.971438599,-0.006707000,-0.005912781,-0.004396439,-1.120880127,0.424688995,0.321774483,0.452747345,3.296691895,-0.397004992,-0.377658137,-0.369103326,-1.785311960,0.000000000,-0.001316230,-0.010319051,0.213716832,0.000000000,0.020027161,-0.004396439,-2.092541504,-0.435999990,-0.369077682,-0.356044769,-13.375827026,0.000000000,0.007820129,-0.004396439,-1.419790649,0.000000000,0.062752724,0.004396439,-3.589752197,0.000000000,-0.002616691,0.065908930,-0.000312515,0.000000000,-0.002368246,0.000047643,0.432329480
0.023997837,-0.000319000,0.015830994,0.013187408,-1.431740570,0.000121000,-0.006675720,0.039560318,0.821969604,-0.006690000,-0.005912781,-0.013187408,-0.074734497,0.424668998,0.322918892,0.443956375,3.589752197,-0.397085011,-0.378801813,-0.355887885,-1.586937230,0.000000000,-0.002199072,-0.061266807,0.127621236,0.000000000,0.020027161,0.013187408,-2.312818909,-0.435999990,-0.369459152,-0.303297043,-12.479122925,0.000000000,0.007438660,-0.004396439,-1.419790649,0.000000000,0.062752724,-0.004396439,-3.589752197,0.000000000,-0.002426109,0.052694183,-0.099469098,0.000000000,-0.001974602,0.081678066,0.480350644
0.025997657,-0.000339000,0.015830994,0.013187408,-1.431740570,0.000124000,-0.006675720,0.039560318,0.821969604,-0.006671000,-0.005912781,-0.013187408,-0.074734497,0.424647987,0.322918892,0.443956375,3.589752197,-0.397166014,-0.378801813,-0.355887885,-1.586937230,0.000000000,-0.002199072,-0.061266807,0.127621236,0.000000000,0.020027161,0.013187408,-2.312818909,-0.435999990,-0.369459152,-0.303297043,-12.479122925,0.000000000,0.007438660,-0.004396439,-1.419790649,0.000000000,0.062752724,-0.004396439,-3.589752197,0.000000000,-0.002426109,0.052694183,-0.099469098,0.000000000,-0.001974602,0.081678066,0.480350644
0.027997476,-0.000357000,0.015830994,0.021978378,-1.431740570,0.000127000,-0.006294250,-0.039560318,1.120880127,-0.006653000,-0.005912781,-0.013187408,-0.074734497,0.424627006,0.325589180,0.285715103,4.029296875,-0.397249013,-0.380136922,-0.325196201,-1.190153486,0.000000000,0.000890071,-0.132170490,-0.042553068,0.000000000,0.020027161,-0.004396439,-2.092541504,-0.435999990,-0.373273849,-0.356044769,-11.134066772,0.000000000,0.007438660,-0.048351288,-0.672528076,0.000000000,0.062752724,-0.004396439,-3.589752197,0.000000000,-0.002044845,0.043920106,-0.198446211,0.000000000,-0.001187449,0.081652980,0.240178762
0.029997296,-0.000374000,0.015830994,0.021978378,-1.652017975,0.000129000,-0.006294250,0.065933228,0.074734497,-0.006634000,-0.005912781,-0.004396439,-1.270321655,0.424605995,0.326352119,0.312088013,3.589752197,-0.397332996,-0.382424368,-0.289961258,-1.190177657,0.000000000,-0.002642992,-0.071513543,0.041960269,0.000000000,0.020027161,-0.004396439,-1.872295380,-0.435999990,-0.374036789,-0.338460922,-11.432977295,0.000000000,0.007438660,-0.021978378,-0.672528076,0.000000000,0.062752724,0.004396439,-3.003662109,0.000000000,-0.001854164,0.048315283,-0.198417259,0.000000000,-0.000793940,0.108856299,0.240208839
0.031997116,-0.000390000,0.015830994,0.013187408,-1.652017975,0.000130000,-0.006294250,0.004396439,0.523086548,-0.006614000,-0.005912781,-0.048351288,-0.523086548,0.424584001,0.327115059,0.338460922,3.882781982,-0.397419006,-0.382996077,-0.272410351,-1.190267365,0.000000000,-0.003085243,-0.030817582,0.127400403,0.000000000,0.020027161,-0.004396439,-2.312818909,-0.435999990,-0.374799728,-0.320878983,-11.432977295,0.000000000,0.007438660,0.004396439,-0.672528076,0.000000000,0.062752724,-0.004396439,-3.296691895,0.000000000,-0.001854164,0.052711624,-0.099225997,0.000000000,-0.000793940,0.099785331,0.192179180
0.033996936,-0.000404000,0.015830994,0.021978378,-1.652017975,0.000130000,-0.006294250,0.030769348,1.419790649,-0.006594000,-0.005912781,-0.013187408,0.074734497,0.424562007,0.327877998,0.417581558,4.029296875,-0.397507012,-0.383377427,-0.268075231,-0.991914088,0.000000000,-0.003085580,0.040478027,0.127548521,0.000000000,0.020027161,0.013187408,-1.872295380,-0.435999990,-0.375181198,-0.347251892,-11.582418823,0.000000000,0.007438660,0.048351288,-1.868142700,0.000000000,0.062752724,-0.004396439,-3.736267090,0.000000000,-0.001663449,0.043931258,-0.000005791,0.000000000,-0.000400476,0.099774283,0.048059689
0.035996755,-0.000416000,0.015830994,0.021978378,-1.652017975,0.000128000,-0.006294250,-0.013187408,0.373617554,-0.006572000,-0.005912781,0.039560318,-0.821969604,0.424539000,0.328640938,0.399999619,3.882781982,-0.397601008,-0.383949767,-0.259281556,-0.991967677,0.000000000,-0.002644127,0.040527833,0.213205911,0.000000000,0.020027161,0.004396439,-2.092541504,-0.435999990,-0.375944138,-0.329669952,-10.984625244,0.000000000,0.007438660,-0.004396439,-1.270321655,0.000000000,0.062752724,-0.004396439,-3.736267090,0.000000000,-0.001663449,0.039538151,-0.099201814,0.000000000,-0.000400476,0.090704203,-0.000008337
0.037996575,-0.000428000,0.015830994,-0.013187408,-1.211463165,0.000125000,-0.005912781,0.083517075,0.672528076,-0.006546000,-0.005912781,-0.004396439,-0.821969604,0.424515009,0.329403877,0.373626709,3.003662109,-0.397702008,-0.384331117,-0.250493560,-0.991967729,0.000000000,-0.002644411,0.040540049,0.213179907,0.000000000,0.020027161,0.039560318,-1.872295380,-0.435999990,-0.376707077,-0.364835739,-10.386804199,0.000000000,0.007057190,-0.065933228,-2.017584229,0.000000000,0.062752724,0.004396439,-3.589752197,0.000000000,-0.001663449,0.043933736,-0.000005791,0.000000000,-0.000400476,0.081633215,0.048059689
0.039996395,-0.000438000,0.015830994,-0.004396439,-1.652017975,0.000120000,-0.005912781,-0.004396439,0.821969604,-0.006518000,-0.005912781,0.048351288,-0.523086548,0.424488991,0.330166817,0.294506073,3.443237305,-0.397810012,-0.385093817,-0.237318790,-0.992039469,0.000000000,-0.002644981,0.050750705,0.298660199,0.000000000,0.020027161,0.004396439,-1.872295380,-0.435999990,-0.377470016,-0.356044769,-9.938452148,0.000000000,0.007057190,-0.030769348,-2.316494751,0.000000000,0.062752724,-0.004396439,-3.296691895,0.000000000,-0.001472702,0.026363171,-0.099201814,0.000000000,-0.000007057,0.063485260,-0.000000067
0.041996215,-0.000448000,0.015830994,0.021978378,-1.431740570,0.000114000,-0.005912781,0.039560318,0.821969604,-0.006487000,-0.005912781,-0.039560318,0.523086548,0.424463004,0.330548286,0.259340286,3.150177002,-0.397922993,-0.385475167,-0.241720021,-1.091252020,0.000000000,-0.002645266,0.060944243,0.341314535,0.000000000,0.020027161,0.021978378,-1.872295380,-0.435999990,-0.378232956,-0.312088013,-10.536273193,0.000000000,0.007057190,0.004396439,-0.672528076,0.000000000,0.062752724,0.004396439,-3.296691895,0.000000000,-0.001472702,0.035151862,-0.099201814,0.000000000,-0.000007057,0.063483292,-0.000000067
0.043996034,-0.000457000,0.015830994,0.004396439,-1.652017975,0.000107000,-0.005912781,0.021978378,0.373617554,-0.006453000,-0.005912781,0.030769348,-0.224176025,0.424436003,0.330929756,0.250549316,3.296691895,-0.398039013,-0.385856517,-0.224157533,-0.793735801,0.000000000,-0.002645551,0.081353220,0.384249328,0.000000000,0.020027161,0.004396439,-1.872295380,-0.435999990,-0.378614426,-0.338460922,-10.386804199,0.000000000,0.007057190,-0.004396439,-1.419790649,0.000000000,0.062752724,0.004396439,-3.150177002,0.000000000,-0.001472702,0.039546678,-0.198381494,0.000000000,-0.000007057,0.072554301,-0.048051797
0.045995854,-0.000466000,0.015830994,-0.039560318,-1.431740570,0.000098000,-0.005912781,-0.004396439,1.120880127,-0.006417000,-0.005912781,0.013187408,-1.419790649,0.424407989,0.331311226,0.197801590,3.882781982,-0.398158014,-0.386428805,-0.219759989,-1.091323520,0.000000000,-0.002203677,0.091596347,0.512352802,0.000000000,0.020027161,0.004396439,-1.652017975,-0.435999990,-0.379377365,-0.391208649,-9.938452148,0.000000000,0.007057190,-0.048351288,-1.419790649,0.000000000,0.062752724,0.004396439,-3.150177002,0.000000000,-0.001281921,0.057131195,-0.297562208,0.000000000,0.000386318,0.108817491,-0.192203545
0.047995674,-0.000474000,0.015830994,0.004396439,-1.431740570,0.000088000,-0.005912781,-0.004396439,0.523086548,-0.006380000,-0.005912781,-0.004396439,-0.224176025,0.424380004,0.332074165,0.250549316,3.736267090,-0.398279011,-0.386810156,-0.210935844,-0.992057385,0.000000000,-0.002203910,0.030441130,0.384101060,0.000000000,0.020027161,0.004396439,-2.092541504,-0.435999990,-0.380140305,-0.347251892,-10.087921143,0.000000000,0.007057190,-0.013187408,-0.971438599,0.000000000,0.062752724,0.004396439,-3.296691895,0.000000000,-0.001281921,0.065917434,-0.099202840,0.000000000,0.000386318,0.090679365,-0.192219938
0.049995494,-0.000482000,0.015830994,-0.004396439,-1.431740570,0.000077000,-0.005912781,0.004396439,0.672528076,-0.006340000,-0.005912781,-0.004396439,-0.373617554,0.424351990,0.332455635,0.268131256,3.443237305,-0.398400992,-0.387191506,-0.210935846,-0.992095032,0.000000000,-0.002204143,0.030444788,0.469539661,0.000000000,0.020027161,-0.021978378,-1.872295380,-0.435999990,-0.380521774,-0.312088013,-10.237362671,0.000000000,0.007057190,-0.013187408,-0.672528076,0.000000000,0.062752724,0.004396439,-3.589752197,0.000000000,-0.001091108,0.052741870,-0.099226008,0.000000000,0.000779648,0.081601503,-0.192222422
0.051995313,-0.000490000,0.015830994,0.030769348,-1.431740570,0.000065000,-0.005912781,-0.004396439,0.971438599,-0.006300000,-0.005912781,-0.039560318,0.074734497,0.424324006,0.332837105,0.285715103,3.443237305,-0.398521990,-0.387572856,-0.202147846,-1.091204329,0.000000000,-0.002204377,0.030454588,0.341216381,0.000000000,0.020027161,0.048351288,-1.872295380,-0.435999990,-0.381284714,-0.312088013,-9.191217041,0.000000000,0.007057190,-0.030769348,-2.316494751,0.000000000,0.062752724,-0.004396439,-3.150177002,0.000000000,-0.001091108,0.052741870,-0.099226008,0.000000000,0.000779648,0.081601503,-0.192222422
0.053995133,-0.000498000,0.015830994,-0.004396439,-1.652017975,0.000053000,-0.005531311,-0.013187408,0.523086548,-0.006258000,-0.005912781,-0.004396439,-1.419790649,0.424295992,0.333600044,0.356044769,3.443237305,-0.398642004,-0.387954207,-0.184570890,-1.190351200,0.000000000,-0.002204610,0.030468322,0.298388683,0.000000000,0.020027161,0.013187408,-2.092541504,-0.435999990,-0.382047653,-0.329669952,-9.490100098,0.000000000,0.007057190,0.021978378,-0.672528076,0.000000000,0.062752724,-0.004396439,-3.296691895,0.000000000,-0.000900261,0.048352528,-0.297608582,0.000000000,0.001172934,0.072524661,-0.192175465
0.055994953,-0.000506000,0.015830994,-0.021978378,-1.431740570,0.000040000,-0.005531311,0.074726105,0.074734497,-0.006215000,-0.005531311,0.030769348,-0.523086548,0.424268007,0.334362984,0.408790588,3.003662109,-0.398759007,-0.388335557,-0.184582962,-1.289557802,0.000000000,-0.002204845,0.050872663,0.341015992,0.000000000,0.020027161,-0.021978378,-1.872295380,-0.435999990,-0.382429123,-0.303297043,-9.938452148,0.000000000,0.007057190,0.039560318,-1.270321655,0.000000000,0.062752724,-0.004396439,-3.589752197,0.000000000,-0.000709814,0.061532598,-0.198417304,0.000000000,0.000779522,0.099723792,-0.240291081
0.057994773,-0.000515000,0.015830994,-0.039560318,-1.431740570,0.000026000,-0.005531311,0.039560318,0.523086548,-0.006172000,-0.005912781,-0.021978378,-0.074734497,0.424239993,0.335125923,0.417581558,3.150177002,-0.398871988,-0.388716908,-0.144993752,-1.388704673,0.000000000,-0.002205079,-0.020506762,0.298198577,0.000000000,0.020027161,0.030769348,-2.092541504,-0.435999990,-0.383192062,-0.338460922,-10.237362671,0.000000000,0.006675720,-0.013187408,-1.419790649,0.000000000,0.062752724,-0.004396439,-3.150177002,0.000000000,-0.000518968,0.079116356,-0.297643364,0.000000000,0.001172762,0.099704459,-0.288328619
0.059994592,-0.000524000,0.015449524,0.021978378,-1.431740570,0.000012000,-0.005531311,-0.013187408,1.569232178,-0.006128000,-0.005531311,0.065933228,-0.523086548,0.424214005,0.335888863,0.338460922,3.296691895,-0.398979992,-0.389098259,-0.153782699,-1.388704740,0.000000000,-0.002205314,-0.020513197,0.298162180,0.000000000,0.020027161,-0.021978378,-1.652017975,-0.435999990,-0.383955002,-0.294506073,-9.340658569,0.000000000,0.006675720,0.013187408,-1.419790649,0.000000000,0.062752724,-0.004396439,-3.589752197,0.000000000,-0.000328089,0.083509463,-0.099272384,0.000000000,0.001565957,0.072489384,-0.192249815
0.061994412,-0.000533000,0.015449524,-0.021978378,-1.652017975,-0.000002000,-0.005531311,0.039560318,0.672528076,-0.006084000,-0.005531311,-0.004396439,-0.523086548,0.424187988,0.336651802,0.276922226,2.857147217,-0.399082005,-0.389098259,-0.114228751,-1.388704740,0.000000000,-0.002205314,-0.030688340,0.298162180,0.000000000,0.020027161,-0.004396439,-1.872295380,-0.435999990,-0.384336472,-0.294506073,-8.742864990,0.000000000,0.006675720,-0.057142258,-0.373617554,0.000000000,0.062752724,-0.004396439,-3.296691895,0.000000000,-0.000328089,0.083503440,-0.099272384,0.000000000,0.001565957,0.054357472,-0.192249815
0.063994232,-0.000543000,0.015830994,0.013187408,-1.431740570,-0.000016000,-0.005531311,0.048351288,0.971438599,-0.006040000,-0.005531311,0.030769348,0.373617554,0.424163014,0.337033272,0.250549316,3.296691895,-0.399177015,-0.389288671,-0.087845637,-1.587122446,0.000000000,-0.002648134,-0.051093337,0.297846958,0.000000000,0.020027161,-0.004396439,-2.092541504,-0.435999990,-0.385099411,-0.285715103,-10.386804199,0.000000000,0.006675720,0.030769348,-1.419790649,0.000000000,0.062752724,0.004396439,-3.296691895,0.000000000,0.000053205,0.092286085,-0.297631870,0.000000000,0.001565739,0.036215122,-0.192206430
0.065994052,-0.000554000,0.015830994,0.004396439,-1.652017975,-0.000031000,-0.005531311,-0.021978378,-0.074734497,-0.005996000,-0.005531311,0.057142258,-1.120880127,0.424138993,0.337414742,0.232967377,3.443237305,-0.399264008,-0.389479609,-0.057075579,-1.587080304,0.000000000,-0.002205549,-0.081674531,0.298017868,0.000000000,0.020027161,0.004396439,-1.872295380,-0.435999990,-0.385480881,-0.268131256,-9.490100098,0.000000000,0.006675720,0.004396439,-1.120880127,0.000000000,0.062752724,0.004396439,-3.296691895,0.000000000,0.000053205,0.114252405,-0.595216363,0.000000000,0.001565739,0.027139638,-0.240170528
0.067993871,-0.000566000,0.015830994,-0.013187408,-1.431740570,-0.000045000,-0.005531311,-0.048351288,0.971438599,-0.005953000,-0.005531311,0.030769348,-0.672528076,0.424116999,0.337796211,0.224176407,3.736267090,-0.399342000,-0.389670022,-0.043876623,-1.388747009,0.000000000,-0.002648423,-0.091881380,0.297941937,0.000000000,0.020027161,0.030769348,-1.872295380,-0.435999990,-0.386243820,-0.285715103,-9.041748047,0.000000000,0.006675720,0.013187408,-0.373617554,0.000000000,0.062752724,-0.013187408,-3.589752197,0.000000000,0.000434499,0.145007393,-0.496013524,0.000000000,0.001565522,0.018059767,-0.192152385
0.069993691,-0.000578000,0.015830994,0.030769348,-1.431740570,-0.000063000,-0.005149841,0.030769348,0.672528076,-0.005907000,-0.005531311,-0.004396439,-0.373617554,0.424095988,0.338177681,0.250549316,3.882781982,-0.399416000,-0.389670022,-0.008766239,-1.487887807,0.000000000,-0.002648423,-0.030623678,0.255167349,0.000000000,0.020027161,-0.013187408,-1.652017975,-0.435999990,-0.386625290,-0.197801590,-9.490100098,0.000000000,0.006675720,0.004396439,-0.971438599,0.000000000,0.062752724,-0.004396439,-3.296691895,0.000000000,0.000625411,0.127432449,-0.297655138,0.000000000,0.001958581,0.018049909,-0.192214934
0.071993511,-0.000589000,0.015449524,-0.004396439,-1.211463165,-0.000082000,-0.005149841,0.030769348,-0.074734497,-0.005858000,-0.005531311,-0.004396439,-0.971438599,0.424077004,0.338940620,0.250549316,3.589752197,-0.399484992,-0.389670022,0.000007254,-1.587122527,0.000000000,-0.002648423,-0.010206907,0.297810484,0.000000000,0.020027161,-0.004396439,-1.872295380,-0.435999990,-0.387388229,-0.259340286,-8.892306519,0.000000000,0.006675720,-0.048351288,-2.316494751,0.000000000,0.062752724,0.013187408,-3.003662109,0.000000000,0.001006704,0.149421495,-0.496072655,0.000000000,0.001958318,0.063347897,-0.288330277
0.073993331,-0.000600000,0.015830994,0.004396439,-1.652017975,-0.000104000,-0.005149841,0.004396439,1.270321655,-0.005808000,-0.005531311,-0.030769348,-0.373617554,0.424057990,0.339322090,0.276922226,3.736267090,-0.399549991,-0.389479031,0.030725092,-1.388789157,0.000000000,-0.003091009,0.040846600,0.297794504,0.000000000,0.020027161,0.004396439,-1.872295380,-0.435999990,-0.387769699,-0.276922226,-8.145043945,0.000000000,0.006675720,-0.065933228,-1.120880127,0.000000000,0.062752724,-0.004396439,-3.296691895,0.000000000,0.001387998,0.167004427,-0.496036911,0.000000000,0.001958055,0.081452330,-0.192167062
0.075993150,-0.000612000,0.015830994,0.021978378,-1.652017975,-0.000128000,-0.005149841,0.030769348,0.373617554,-0.005756000,-0.005531311,-0.004396439,-0.523086548,0.424039990,0.340085030,0.320878983,3.296691895,-0.399612010,-0.389479031,0.039496165,-1.388789157,0.000000000,-0.003091009,0.061263434,0.297794504,0.000000000,0.020027161,0.004396439,-1.652017975,-0.435999990,-0.388532639,-0.268131256,-9.789010620,0.000000000,0.006675720,-0.004396439,-0.971438599,0.000000000,0.062752724,0.004396439,-3.296691895,0.000000000,0.001578943,0.162603754,-0.198463907,0.000000000,0.002350977,0.054248717,-0.144199532
0.077992970,-0.000623000,0.015449524,-0.004396439,-1.431740570,-0.000153000,-0.005149841,0.030769348,0.224176025,-0.005703000,-0.005531311,-0.039560318,-0.523086548,0.424023002,0.340466499,0.338460922,3.736267090,-0.399672002,-0.389288671,0.035087694,-1.190393560,0.000000000,-0.002648134,0.091865075,0.298119313,0.000000000,0.020027161,0.004396439,-1.872295380,-0.435999990,-0.388914108,-0.232967377,-10.087921143,0.000000000,0.006675720,0.039560318,-1.270321655,0.000000000,0.062752724,0.004396439,-3.589752197,0.000000000,0.001960237,0.162595666,-0.099201942,0.000000000,0.002350669,0.036121090,0.000049312
0.079992790,-0.000636000,0.015830994,0.030769348,-1.652017975,-0.000180000,-0.004768372,0.127471924,-0.074734497,-0.005649000,-0.005531311,0.048351288,-0.224176025,0.424005985,0.341229439,0.329669952,3.589752197,-0.399729997,-0.389288671,0.035087694,-1.190393560,0.000000000,-0.002648134,0.091865075,0.298119313,0.000000000,0.020027161,-0.013187408,-1.872295380,-0.435999990,-0.389295578,-0.259340286,-9.041748047,0.000000000,0.006294250,-0.030769348,-0.971438599,0.000000000,0.062752724,-0.004396439,-3.296691895,0.000000000,0.002341531,0.149408601,-0.198463972,0.000000000,0.002350360,0.027069754,-0.144233367
0.081992610,-0.000648000,0.015830994,0.039560318,-1.431740570,-0.000207000,-0.004768372,-0.004396439,0.373617554,-0.005595000,-0.005531311,-0.004396439,-0.672528076,0.423988998,0.341992378,0.294506073,3.150177002,-0.399785995,-0.389288671,0.030686445,-1.091252758,0.000000000,-0.002648134,0.102064840,0.340899057,0.000000000,0.020027161,0.039560318,-1.872295380,-0.435999990,-0.389677048,-0.250549316,-8.892306519,0.000000000,0.006294250,-0.021978378,-0.074734497,0.000000000,0.062752724,-0.004396439,-3.296691895,0.000000000,0.002531880,0.145002220,-0.099237779,0.000000000,0.001957267,-0.000087351,-0.096189722
0.083992429,-0.000662000,0.015830994,0.013187408,-1.431740570,-0.000235000,-0.004768372,0.039560318,0.821969604,-0.005540000,-0.005531311,-0.021978378,-1.270321655,0.423972011,0.342373848,0.241758347,2.417572021,-0.399841994,-0.389098259,0.048299675,-1.091144835,0.000000000,-0.002205314,0.061252871,0.255626283,0.000000000,0.020027161,-0.021978378,-1.652017975,-0.435999990,-0.390439987,-0.197801590,-9.789010620,0.000000000,0.006294250,0.021978378,-1.868142700,0.000000000,0.062752724,-0.013187408,-3.736267090,0.000000000,0.002722825,0.149391539,-0.099201962,0.000000000,0.002350052,-0.009165533,0.000049260
0.085992249,-0.000677000,0.015830994,0.013187408,-1.211463165,-0.000264000,-0.004768372,0.065933228,1.120880127,-0.005485000,-0.005531311,-0.004396439,-0.672528076,0.423954993,0.342755318,0.215385437,3.003662109,-0.399897009,-0.389098259,0.048299675,-1.190351388,0.000000000,-0.002205314,0.061252871,0.298279584,0.000000000,0.020027161,0.021978378,-1.652017975,-0.435999990,-0.390821457,-0.206592560,-7.995602417,0.000000000,0.006294250,-0.030769348,-1.569232178,0.000000000,0.062752724,-0.004396439,-3.589752197,0.000000000,0.003104119,0.153780892,-0.000104361,0.000000000,0.002349744,-0.018224129,-0.144365664
0.087992069,-0.000692000,0.015830994,0.021978378,-1.431740570,-0.000293000,-0.004768372,-0.065933228,-0.224176025,-0.005430000,-0.005531311,0.004396439,-1.569232178,0.423936993,0.343136787,0.215385437,3.003662109,-0.399953008,-0.389098259,0.043910762,-1.091144835,0.000000000,-0.002205314,0.051044775,0.255626283,0.000000000,0.020027161,-0.021978378,-2.092541504,-0.435999990,-0.391202927,-0.232967377,-9.340658569,0.000000000,0.006294250,0.004396439,-0.523086548,0.000000000,0.062752724,-0.004396439,-3.589752197,0.000000000,0.003485413,0.131797153,-0.099249434,0.000000000,0.002349436,-0.045374350,-0.096209412
0.089991889,-0.000710000,0.015830994,-0.004396439,-1.652017975,-0.000322000,-0.004386902,0.065933228,0.373617554,-0.005376000,-0.005531311,-0.021978378,-0.224176025,0.423918009,0.343518257,0.197801590,2.857147217,-0.400009006,-0.388907794,0.048306949,-1.190261501,0.000000000,-0.001762548,0.061242180,0.213010342,0.000000000,0.020027161,0.004396439,-1.652017975,-0.435999990,-0.391584396,-0.268131256,-8.892306519,0.000000000,0.006294250,0.039560318,-1.270321655,0.000000000,0.062752724,0.004396439,-3.736267090,0.000000000,0.003675763,0.105414372,-0.099201972,0.000000000,0.001956481,-0.099670960,0.000040982
0.091991708,-0.000728000,0.015830994,0.004396439,-1.652017975,-0.000351000,-0.004386902,-0.013187408,0.523086548,-0.005324000,-0.005531311,-0.030769348,-0.373617554,0.423898011,0.343900681,0.162637711,3.003662109,-0.400068015,-0.388907794,0.035138478,-1.091156450,0.000000000,-0.001762548,0.030626123,0.341201455,0.000000000,0.020027161,-0.013187408,-1.872295380,-0.435999990,-0.391965866,-0.189010620,-9.490100098,0.000000000,0.006294250,-0.048351288,-1.120880127,0.000000000,0.062752724,-0.013187408,-3.589752197,0.000000000,0.003866146,0.048285589,0.099201966,0.000000000,0.001563574,-0.144896181,-0.000032760
0.093991528,-0.000748000,0.015830994,0.004396439,-1.431740570,-0.000379000,-0.004386902,0.039560318,0.523086548,-0.005272000,-0.005531311,0.057142258,-1.120880127,0.423877001,0.344282150,0.189010620,3.296691895,-0.400128007,-0.388907794,0.008773516,-1.091108706,0.000000000,-0.001762548,0.030613602,0.255772006,0.000000000,0.020027161,0.004396439,-1.872295380,-0.435999990,-0.392347336,-0.224176407,-9.938452148,0.000000000,0.006294250,-0.048351288,-0.821969604,0.000000000,0.062752724,-0.013187408,-3.150177002,0.000000000,0.003866146,0.021922419,0.198290072,0.000000000,0.001563574,-0.144883476,-0.144465756
0.095991348,-0.000770000,0.015830994,-0.004396439,-1.652017975,-0.000406000,-0.004386902,0.048351288,-0.523086548,-0.005222000,-0.005531311,-0.021978378,-1.120880127,0.423853993,0.344663620,0.206592560,3.296691895,-0.400191009,-0.388907794,0.000004830,-0.892755371,0.000000000,-0.001762548,-0.010204372,0.255865884,0.000000000,0.020027161,-0.004396439,-1.872295380,-0.435999990,-0.393110275,-0.197801590,-7.995602417,0.000000000,0.006294250,-0.057142258,-2.167025757,0.000000000,0.062752724,-0.004396439,-3.150177002,0.000000000,0.004056562,-0.000020160,0.099145029,0.000000000,0.001170714,-0.081485775,-0.096300839
0.097991168,-0.000794000,0.015449524,0.004396439,-1.652017975,-0.000432000,-0.004386902,0.013187408,-0.224176025,-0.005174000,-0.005531311,-0.048351288,-0.672528076,0.423828989,0.345045090,0.206592560,3.589752197,-0.400258005,-0.388907794,-0.013162689,-0.991908166,0.000000000,-0.001762548,-0.040818216,0.213104220,0.000000000,0.020027161,0.013187408,-1.872295380,-0.435999990,-0.393491745,-0.206592560,-9.789010620,0.000000000,0.005912781,-0.039560318,-0.971438599,0.000000000,0.062752724,0.004396439,-3.589752197,0.000000000,0.003865715,0.008771321,0.099201953,0.000000000,0.000778025,-0.099600977,-0.000016339
0.099990987,-0.000820000,0.015449524,-0.004396439,-1.211463165,-0.000457000,-0.004386902,0.021978378,0.224176025,-0.005128000,-0.005149841,0.039560318,-0.672528076,0.423803002,0.345426559,0.215385437,3.443237305,-0.400328994,-0.388907794,-0.021951646,-1.091060962,0.000000000,-0.001762548,-0.040820914,0.170342556,0.000000000,0.020027161,0.013187408,-1.872295380,-0.435999990,-0.393873215,-0.206592560,-9.938452148,0.000000000,0.005912781,0.004396439,-0.523086548,0.000000000,0.062752724,0.004396439,-3.150177002,0.000000000,0.003865715,0.008774303,-0.099201953,0.000000000,0.000778025,-0.081492451,0.000016339
0.101990807,-0.000854000,0.015449524,-0.030769348,-1.652017975,-0.000480000,-0.004386902,0.048351288,-0.523086548,-0.005084000,-0.005149841,0.004396439,-0.523086548,0.423774004,0.346189499,0.276922226,3.150177002,-0.400402993,-0.388907794,-0.013182957,-1.091060962,0.000000000,-0.001762548,-0.000007368,0.170342556,0.000000000,0.020027161,-0.013187408,-2.092541504,-0.435999990,-0.394254684,-0.268131256,-9.639569092,0.000000000,0.005912781,0.030769348,-1.120880127,0.000000000,0.062752724,-0.004396439,-3.589752197,0.000000000,0.003865715,0.004387897,0.000011601,0.000000000,0.000778025,-0.036220076,0.048140832
0.103990627,-0.000900000,0.015449524,0.021978378,-1.652017975,-0.000504000,-0.004005432,0.048351288,0.971438599,-0.005040000,-0.005149841,0.004396439,-0.523086548,0.423741013,0.346952438,0.276922226,3.003662109,-0.400480986,-0.388907794,-0.013182957,-1.190261501,0.000000000,-0.001762548,-0.000007368,0.213010342,0.000000000,0.020027161,0.004396439,-1.652017975,-0.435999990,-0.394636154,-0.215385437,-9.191217041,0.000000000,0.005912781,-0.004396439,-1.270321655,0.000000000,0.062752724,0.004396439,-3.589752197,0.000000000,0.003865715,-0.013179559,-0.099201953,0.000000000,0.000778025,0.018111703,0.000016339
0.105990447,-0.000959000,0.015449524,0.013187408,-1.652017975,-0.000528000,-0.004005432,0.065933228,0.373617554,-0.004998000,-0.005149841,0.013187408,-0.821969604,0.423705995,0.347333908,0.312088013,2.857147217,-0.400563002,-0.388907794,-0.000004830,-1.091108706,0.000000000,-0.001762548,0.010204372,0.255772006,0.000000000,0.020027161,-0.021978378,-2.092541504,-0.435999990,-0.395017624,-0.127471924,-9.639569092,0.000000000,0.005912781,0.004396439,-0.672528076,0.000000000,0.062752724,-0.004396439,-3.296691895,0.000000000,0.003865715,0.008792200,-0.099203020,0.000000000,0.000778025,0.027162636,-0.096254587
0.107990266,-0.001028000,0.015449524,0.039560318,-1.652017975,-0.000551000,-0.004005432,0.057142258,-0.074734497,-0.004956000,-0.005149841,-0.004396439,-0.074734497,0.423667997,0.348096848,0.276922226,2.564117432,-0.400647014,-0.388907794,0.004374686,-1.091108706,0.000000000,-0.001762548,0.040813305,0.255772006,0.000000000,0.020027161,-0.021978378,-2.092541504,-0.435999990,-0.395399094,-0.083517075,-9.340658569,0.000000000,0.005912781,0.030769348,-2.017584229,0.000000000,0.062752724,0.004396439,-3.150177002,0.000000000,0.003865715,-0.017567994,-0.297538395,0.000000000,0.000778025,0.045277516,0.096309192
0.109990086,-0.001107000,0.015449524,0.013187408,-1.211463165,-0.000575000,-0.004005432,-0.004396439,0.074734497,-0.004914000,-0.005149841,0.057142258,-0.971438599,0.423628002,0.348478317,0.241758347,2.857147217,-0.400732994,-0.388907794,0.017572130,-1.289462041,0.000000000,-0.001762548,0.010211982,0.255678127,0.000000000,0.020027161,0.004396439,-2.092541504,-0.435999990,-0.395780563,-0.215385437,-8.443954468,0.000000000,0.005912781,-0.021978378,-1.419790649,0.000000000,0.062752724,-0.004396439,-3.443237305,0.000000000,0.003865715,-0.004390880,-0.297538395,0.000000000,0.000778025,0.018111550,0.096309192
0.111989906,-0.001196000,0.015449524,0.013187408,-1.211463165,-0.000598000,-0.004005432,0.013187408,-0.074734497,-0.004873000,-0.005149841,-0.021978378,-1.120880127,0.423586011,0.348859787,0.215385437,3.003662109,-0.400821000,-0.388907794,-0.000014487,-1.190309245,0.000000000,-0.001762548,0.030608690,0.298439791,0.000000000,0.020027161,0.004396439,-2.092541504,-0.435999990,-0.396162033,-0.189010620,-8.294512939,0.000000000,0.005912781,-0.039560318,-1.120880127,0.000000000,0.062752724,-0.004396439,-3.296691895,0.000000000,0.003865715,-0.004390880,-0.198324841,0.000000000,0.000778025,0.018111550,0.144433684
0.113989726,-0.001292000,0.015449524,-0.030769348,-1.872295380,-0.000621000,-0.004005432,0.021978378,-0.821969604,-0.004833000,-0.005149841,-0.004396439,-0.971438599,0.423541009,0.349241257,0.197801590,3.296691895,-0.400911003,-0.388907794,-0.004403660,-1.190261501,0.000000000,-0.001762548,0.020404076,0.213010342,0.000000000,0.019645691,-0.039560318,-1.872295380,-0.435999990,-0.396543503,-0.189010620,-8.892306519,0.000000000,0.005912781,-0.004396439,-1.569232178,0.000000000,0.062752724,-0.004396439,-3.589752197,0.000000000,0.003865715,-0.004394816,-0.297561592,0.000000000,0.000778025,0.000001059,0.000049011
0.115989545,-0.001396000,0.015449524,-0.030769348,-1.652017975,-0.000644000,-0.004005432,-0.030769348,-0.074734497,-0.004794000,-0.005149841,-0.004396439,-0.523086548,0.423494011,0.349622726,0.189010620,3.003662109,-0.401001990,-0.388907794,-0.004394955,-1.091108706,0.000000000,-0.001762548,-0.000002456,0.255772006,0.000000000,0.020027161,-0.021978378,-1.652017975,-0.435999990,-0.396543503,-0.136262894,-10.237362671,0.000000000,0.005912781,-0.065933228,-2.167025757,0.000000000,0.062752724,-0.004396439,-3.589752197,0.000000000,0.003865715,-0.004394816,-0.297584790,0.000000000,0.000778025,0.000001059,-0.096211171
0.117989365,-0.001506000,0.015449524,0.013187408,-1.652017975,-0.000666000,-0.004005432,0.039560318,0.672528076,-0.004755000,-0.005149841,0.013187408,-0.821969604,0.423446000,0.350004196,0.162637711,2.857147217,-0.401093990,-0.388907794,-0.008793785,-1.091108706,0.000000000,-0.001762548,0.010197247,0.255772006,0.000000000,0.020027161,0.004396439,-2.092541504,-0.435999990,-0.396924973,-0.241758347,-8.443954468,0.000000000,0.005912781,0.004396439,-1.120880127,0.000000000,0.062752724,-0.004396439,-3.589752197,0.000000000,0.003865715,-0.013179559,-0.099201953,0.000000000,0.000778025,0.018111703,0.000016339
0.119989185,-0.001622000,0.015449524,0.004396439,-1.431740570,-0.000689000,-0.003623962,0.013187408,-0.224176025,-0.004716000,-0.005149841,0.004396439,-1.419790649,0.423395991,0.350385666,0.189010620,3.003662109,-0.401185989,-0.388907794,-0.000004830,-1.190261501,0.000000000,-0.001762548,0.010204372,0.213010342,0.000000000,0.020027161,-0.004396439,-1.652017975,-0.435999990,-0.397306442,-0.109889984,-9.041748047,0.000000000,0.005912781,0.039560318,-1.419790649,0.000000000,0.062752724,0.004396439,-3.296691895,0.000000000,0.003865715,0.004396846,-0.297561592,0.000000000,0.000778025,0.018109432,0.000049011
0.121989005,-0.001742000,0.015449524,-0.039560318,-1.431740570,-0.000711000,-0.003623962,0.004396439,0.523086548,-0.004678000,-0.005149841,0.004396439,-1.120880127,0.423345000,0.350767136,0.189010620,3.296691895,-0.401279002,-0.388907794,0.004384343,-1.289414297,0.000000000,-0.001762548,0.020408987,0.170248678,0.000000000,0.020027161,-0.021978378,-2.092541504,-0.435999990,-0.397687912,-0.118680954,-9.789010620,0.000000000,0.005912781,-0.048351288,-1.270321655,0.000000000,0.062752724,0.004396439,-3.296691895,0.000000000,0.003865715,0.000001492,-0.297584790,0.000000000,0.000778025,0.009056228,-0.096211171
0.123988824,-0.001865000,0.015449524,-0.004396439,-1.652017975,-0.000733000,-0.003623962,0.083517075,0.224176025,-0.004641000,-0.005149841,0.030769348,-0.672528076,0.423292011,0.351148605,0.189010620,3.150177002,-0.401371002,-0.388907794,-0.017572130,-1.190261501,0.000000000,-0.001762548,-0.010211982,0.213010342,0.000000000,0.019645691,0.013187408,-1.872295380,-0.435999990,-0.398069382,-0.153846741,-8.443954468,0.000000000,0.005912781,-0.039560318,-1.569232178,0.000000000,0.062752724,-0.004396439,-3.296691895,0.000000000,0.003865715,0.000001492,-0.396753011,0.000000000,0.000778025,0.009056228,-0.048064744
0.125988644,-0.001991000,0.015449524,0.057142258,-1.652017975,-0.000755000,-0.003623962,0.074726105,0.074734497,-0.004603000,-0.005149841,-0.004396439,-0.821969604,0.423238993,0.351530075,0.197801590,3.443237305,-0.401463002,-0.388907794,0.008784127,-1.190261501,0.000000000,-0.001762548,0.010207071,0.213010342,0.000000000,0.020027161,0.021978378,-1.872295380,-0.435999990,-0.398069382,-0.162637711,-8.294512939,0.000000000,0.005531311,-0.030769348,-0.672528076,0.000000000,0.062752724,0.004396439,-3.589752197,0.000000000,0.003865715,0.008792200,-0.396753011,0.000000000,0.000778025,0.027162636,-0.048064744
0.127988464,-0.002119000,0.015449524,0.004396439,-1.652017975,-0.000776000,-0.003623962,0.013187408,0.672528076,-0.004567000,-0.005149841,-0.004396439,-0.373617554,0.423184991,0.351911545,0.197801590,3.589752197,-0.401553005,-0.388907794,0.000004830,-1.190261501,0.000000000,-0.001762548,-0.010204372,0.213010342,0.000000000,0.019645691,-0.013187408,-2.092541504,-0.435999990,-0.398450851,-0.136262894,-9.340658569,0.000000000,0.005531311,-0.021978378,-2.465936279,0.000000000,0.062752724,-0.004396439,-2.857147217,0.000000000,0.003865715,0.000001492,-0.297561592,0.000000000,0.000778025,0.009056228,0.000049011
0.129988284,-0.002248000,0.015449524,0.021978378,-1.431740570,-0.000797000,-0.003623962,-0.057142258,0.224176025,-0.004530000,-0.004768372,0.074726105,0.672528076,0.423130006,0.352293015,0.232967377,2.857147217,-0.401641995,-0.388907794,-0.004403660,-1.289462041,0.000000000,-0.001762548,0.020404076,0.255678127,0.000000000,0.019645691,0.013187408,-1.872295380,-0.435999990,-0.398832321,-0.189010620,-8.593395996,0.000000000,0.005531311,-0.021978378,-0.971438599,0.000000000,0.062752724,-0.004396439,-3.589752197,0.000000000,0.003865715,0.008790170,-0.495921232,0.000000000,0.000778025,0.009052145,0.000081682
0.131988103,-0.002377000,0.015449524,-0.013187408,-1.431740570,-0.000818000,-0.003623962,0.048351288,0.074734497,-0.004494000,-0.004768372,0.057142258,-1.120880127,0.423074991,0.352674484,0.224176407,3.589752197,-0.401730001,-0.388907794,-0.004394955,-1.388614836,0.000000000,-0.001762548,-0.000002456,0.212916463,0.000000000,0.020027161,0.048351288,-2.312818909,-0.435999990,-0.399213791,-0.127471924,-9.340658569,0.000000000,0.005531311,-0.021978378,-0.971438599,0.000000000,0.062752724,-0.004396439,-3.150177002,0.000000000,0.003865715,0.008790170,-0.495921232,0.000000000,0.000778025,0.009052145,0.000081682
0.133987923,-0.002505000,0.015449524,-0.004396439,-1.872295380,-0.000839000,-0.003623962,0.048351288,0.074734497,-0.004458000,-0.004768372,-0.021978378,-0.523086548,0.423018992,0.353055954,0.197801590,3.589752197,-0.401814997,-0.388907794,-0.013192615,-1.091108706,0.000000000,-0.001762548,0.020396950,0.255772006,0.000000000,0.019645691,0.030769348,-1.872295380,-0.435999990,-0.399595261,-0.145055771,-8.892306519,0.000000000,0.005531311,0.057142258,-1.569232178,0.000000000,0.062752724,0.004396439,-3.589752197,0.000000000,0.003865715,-0.000001492,-0.396753011,0.000000000,0.000778025,-0.009056228,-0.048064744
0.135987743,-0.002641000,0.015449524,-0.004396439,-1.872295380,-0.000858000,-0.003242493,0.030769348,-0.821969604,-0.004423000,-0.004768372,0.039560318,-0.523086548,0.422962993,0.353818893,0.232967377,3.443237305,-0.401901007,-0.388907794,-0.008802489,-1.289462041,0.000000000,-0.001762548,0.030603779,0.255678127,0.000000000,0.019645691,-0.021978378,-1.872295380,-0.435999990,-0.399595261,-0.127471924,-9.490100098,0.000000000,0.005531311,-0.030769348,-2.017584229,0.000000000,0.062752724,-0.004396439,-3.150177002,0.000000000,0.003865715,0.000001492,-0.297561592,0.000000000,0.000778025,0.009056228,0.000049011
0.137987563,-0.002788000,0.015449524,0.021978378,-1.652017975,-0.000877000,-0.003242493,-0.021978378,-0.224176025,-0.004387000,-0.004768372,0.004396439,-0.074734497,0.422904015,0.354200363,0.206592560,2.857147217,-0.401988000,-0.388907794,-0.004403660,-1.289462041,0.000000000,-0.001762548,0.020404076,0.255678127,0.000000000,0.020027161,0.004396439,-1.652017975,-0.435999990,-0.399976730,-0.083517075,-9.789010620,0.000000000,0.005531311,0.004396439,-2.017584229,0.000000000,0.062752724,-0.004396439,-3.296691895,0.000000000,0.003865715,0.004394816,-0.495944429,0.000000000,0.000778025,-0.000001059,-0.096178499
0.139987382,-0.002945000,0.015449524,-0.004396439,-1.872295380,-0.000895000,-0.003242493,-0.030769348,-0.224176025,-0.004352000,-0.004768372,-0.021978378,-0.971438599,0.422845006,0.354581833,0.180219650,3.003662109,-0.402076006,-0.388907794,0.004384343,-1.289462041,0.000000000,-0.001762548,0.020408987,0.255678127,0.000000000,0.019645691,0.013187408,-1.652017975,-0.435999990,-0.399976730,-0.127471924,-11.134066772,0.000000000,0.005531311,0.004396439,-1.868142700,0.000000000,0.062752724,-0.004396439,-3.296691895,0.000000000,0.003865715,0.008792200,-0.297584790,0.000000000,0.000778025,0.027162636,-0.096211171
0.141987202,-0.003109000,0.015449524,0.030769348,-2.092541504,-0.000912000,-0.003242493,-0.021978378,-0.074734497,-0.004317000,-0.004768372,-0.004396439,-0.971438599,0.422782987,0.354581833,0.171428680,3.150177002,-0.402164996,-0.388907794,-0.004403660,-1.388614836,0.000000000,-0.001762548,0.020404076,0.212916463,0.000000000,0.019645691,0.013187408,-1.872295380,-0.435999990,-0.400358200,-0.145055771,-7.995602417,0.000000000,0.005531311,0.065933228,-1.718673706,0.000000000,0.062752724,0.013187408,-3.296691895,0.000000000,0.003865715,-0.004390880,-0.198393371,0.000000000,0.000778025,0.018111550,-0.048097416
0.143987022,-0.003282000,0.015449524,-0.013187408,-1.652017975,-0.000929000,-0.003242493,-0.021978378,0.224176025,-0.004282000,-0.004768372,-0.004396439,-0.224176025,0.422719985,0.354963303,0.153846741,2.710632324,-0.402253002,-0.388907794,0.004394955,-1.289414297,0.000000000,-0.001762548,0.000002456,0.170248678,0.000000000,0.019645691,0.021978378,-1.652017975,-0.435999990,-0.400358200,-0.065933228,-9.938452148,0.000000000,0.005531311,0.030769348,-0.821969604,0.000000000,0.062752724,-0.013187408,-3.589752197,0.000000000,0.003865715,0.000001492,-0.297538395,0.000000000,0.000778025,0.009056228,0.096309192
0.145986842,-0.003461000,0.015449524,0.004396439,-1.872295380,-0.000946000,-0.003242493,-0.039560318,-0.224176025,-0.004247000,-0.004768372,0.030769348,-0.224176025,0.422654986,0.355344772,0.145055771,2.710632324,-0.402341008,-0.388907794,-0.004403660,-1.388614836,0.000000000,-0.001762548,0.020404076,0.212916463,0.000000000,0.019645691,-0.013187408,-2.092541504,-0.435999990,-0.400739670,-0.092308044,-10.835156250,0.000000000,0.005531311,-0.004396439,-1.868142700,0.000000000,0.062752724,-0.013187408,-3.296691895,0.000000000,0.003865715,0.000004474,-0.495921232,0.000000000,0.000778025,0.027164754,0.000081682
0.147986661,-0.003645000,0.015449524,-0.013187408,-1.431740570,-0.000962000,-0.003242493,0.030769348,-0.672528076,-0.004213000,-0.004768372,0.101099014,-0.672528076,0.422589004,0.355726242,0.145055771,2.417572021,-0.402429014,-0.388907794,-0.000004830,-1.388614836,0.000000000,-0.001762548,0.010204372,0.212916463,0.000000000,0.019645691,0.030769348,-1.872295380,-0.435999990,-0.400739670,-0.083517075,-10.087921143,0.000000000,0.005531311,-0.004396439,-1.569232178,0.000000000,0.062752724,-0.004396439,-3.296691895,0.000000000,0.003865715,-0.000001492,-0.297584790,0.000000000,0.000778025,-0.009056228,-0.096211171
0.149986481,-0.003834000,0.015449524,-0.013187408,-1.652017975,-0.000979000,-0.003242493,0.039560318,-0.074734497,-0.004180000,-0.004768372,0.021978378,-0.971438599,0.422520012,0.355726242,0.136262894,2.710632324,-0.402516007,-0.388907794,-0.013192615,-1.388567092,0.000000000,-0.001762548,0.020396950,0.127487013,0.000000000,0.019645691,-0.021978378,-1.872295380,-0.435999990,-0.400739670,-0.013187408,-10.087921143,0.000000000,0.005531311,0.004396439,-1.120880127,0.000000000,0.062752724,0.004396439,-3.736267090,0.000000000,0.003865715,-0.004394816,-0.396776208,0.000000000,0.000778025,0.000001059,-0.144324926
0.151986301,-0.004026000,0.015449524,-0.013187408,-1.652017975,-0.000996000,-0.003242493,-0.004396439,-0.971438599,-0.004147000,-0.004768372,-0.065933228,-0.373617554,0.422450006,0.356107712,0.136262894,2.564117432,-0.402601004,-0.388907794,-0.004403660,-1.289462041,0.000000000,-0.001762548,0.020404076,0.255678127,0.000000000,0.019645691,0.021978378,-1.872295380,-0.435999990,-0.400739670,-0.048351288,-10.685714722,0.000000000,0.005531311,-0.039560318,-1.120880127,0.000000000,0.062752724,-0.004396439,-3.150177002,0.000000000,0.003865715,-0.004390880,-0.495944429,0.000000000,0.000778025,0.018111550,-0.096178499
0.153986121,-0.004221000,0.015449524,0.013187408,-1.652017975,-0.001013000,-0.003242493,-0.004396439,0.523086548,-0.004114000,-0.004768372,0.065933228,0.074734497,0.422376990,0.356489182,0.101099014,2.857147217,-0.402684987,-0.388907794,0.000004830,-1.190261501,0.000000000,-0.001762548,-0.010204372,0.213010342,0.000000000,0.019645691,0.039560318,-1.431740570,-0.435999990,-0.401121140,-0.048351288,-9.639569092,0.000000000,0.005531311,-0.004396439,-0.523086548,0.000000000,0.062752724,0.004396439,-3.589752197,0.000000000,0.003865715,0.004394816,-0.297561592,0.000000000,0.000778025,-0.000001059,0.000049011
0.155985940,-0.004418000,0.015449524,0.004396439,-1.872295380,-0.001031000,-0.002861023,0.065933228,-0.224176025,-0.004082000,-0.004386902,0.101099014,-1.120880127,0.422302991,0.356489182,0.136262894,2.417572021,-0.402767003,-0.388907794,-0.021970960,-1.388614836,0.000000000,-0.001762548,-0.000012279,0.212916463,0.000000000,0.019645691,0.013187408,-1.431740570,-0.435999990,-0.401121140,-0.048351288,-10.685714722,0.000000000,0.005531311,0.013187408,-1.718673706,0.000000000,0.062752724,-0.004396439,-3.589752197,0.000000000,0.003865715,0.000001492,-0.396729813,0.000000000,0.000778025,0.009056228,0.048195437
0.157985760,-0.004616000,0.015449524,-0.048351288,-1.872295380,-0.001050000,-0.002861023,0.057142258,-0.373617554,-0.004051000,-0.004386902,-0.030769348,-0.821969604,0.422226995,0.356870651,0.145055771,3.003662109,-0.402846992,-0.388907794,-0.004413317,-1.388614836,0.000000000,-0.001762548,0.040808393,0.212916463,0.000000000,0.019645691,0.004396439,-2.092541504,-0.435999990,-0.401502609,-0.083517075,-9.789010620,0.000000000,0.005531311,-0.021978378,-0.821969604,0.000000000,0.062752724,-0.004396439,-3.589752197,0.000000000,0.003865715,-0.013175622,-0.495921232,0.000000000,0.000778025,0.036222194,0.000081682
0.159985580,-0.004813000,0.015449524,-0.004396439,-1.872295380,-0.001069000,-0.002861023,-0.004396439,0.523086548,-0.004021000,-0.004386902,0.030769348,-1.270321655,0.422147989,0.357252121,0.136262894,3.003662109,-0.402925014,-0.388907794,0.013182957,-1.388567092,0.000000000,-0.001762548,0.000007368,0.127487013,0.000000000,0.019645691,-0.039560318,-1.872295380,-0.435999990,-0.401502609,0.004396439,-10.685714722,0.000000000,0.005531311,0.039560318,-0.523086548,0.000000000,0.062752724,0.004396439,-3.589752197,0.000000000,0.003865715,0.004394816,-0.396753011,0.000000000,0.000778025,-0.000001059,-0.048064744
0.161985400,-0.005009000,0.015449524,0.013187408,-2.092541504,-0.001090000,-0.002861023,0.004396439,-0.523086548,-0.003991000,-0.004386902,0.004396439,-0.373617554,0.422066987,0.357252121,0.127471924,3.003662109,-0.402999014,-0.388907794,0.004403660,-1.487815375,0.000000000,-0.001762548,-0.020404076,0.255584249,0.000000000,0.019645691,0.021978378,-1.872295380,-0.435999990,-0.401502609,-0.057142258,-10.087921143,0.000000000,0.005531311,0.030769348,-1.419790649,0.000000000,0.062752724,0.004396439,-3.296691895,0.000000000,0.003865715,0.004394816,-0.396753011,0.000000000,0.000778025,-0.000001059,-0.048064744
0.163985219,-0.005203000,0.015449524,-0.039560318,-1.872295380,-0.001112000,-0.002861023,0.030769348,-1.868142700,-0.003963000,-0.004386902,-0.004396439,-0.523086548,0.421983987,0.357633591,0.127471924,3.296691895,-0.403070003,-0.388907794,-0.000004830,-1.289414297,0.000000000,-0.001762548,0.010204372,0.170248678,0.000000000,0.019645691,0.004396439,-2.092541504,-0.435999990,-0.401502609,-0.039560318,-9.639569092,0.000000000,0.005531311,-0.004396439,-1.868142700,0.000000000,0.062752724,-0.021978378,-3.589752197,0.000000000,0.003865715,0.000001492,-0.297584790,0.000000000,0.000778025,0.009056228,-0.096211171
0.165985039,-0.005393000,0.015449524,-0.048351288,-1.872295380,-0.001135000,-0.002479553,0.101099014,-0.821969604,-0.003935000,-0.004386902,0.013187408,-0.821969604,0.421898991,0.358015060,0.136262894,3.443237305,-0.403138012,-0.388907794,-0.004394955,-1.388614836,0.000000000,-0.001762548,-0.000002456,0.212916463,0.000000000,0.019645691,-0.013187408,-1.652017975,-0.435999990,-0.401502609,0.004396439,-10.685714722,0.000000000,0.005531311,0.004396439,-1.270321655,0.000000000,0.062752724,0.013187408,-2.857147217,0.000000000,0.003865715,-0.004390880,-0.297561592,0.000000000,0.000778025,0.018111550,0.000049011
0.167984859,-0.005581000,0.015449524,-0.013187408,-1.872295380,-0.001160000,-0.002479553,0.021978378,-0.373617554,-0.003908000,-0.004386902,-0.021978378,-0.523086548,0.421810001,0.358015060,0.136262894,2.857147217,-0.403203011,-0.388907794,0.008793785,-1.388614836,0.000000000,-0.001762548,-0.010197247,0.212916463,0.000000000,0.019645691,0.004396439,-1.872295380,-0.435999990,-0.401502609,-0.083517075,-10.984625244,0.000000000,0.005531311,-0.030769348,-1.718673706,0.000000000,0.062752724,0.004396439,-3.296691895,0.000000000,0.003865715,-0.004387897,-0.297561592,0.000000000,0.000778025,0.036220076,0.000049011
0.169984679,-0.005771000,0.015449524,0.030769348,-2.312818909,-0.001188000,-0.002861023,-0.021978378,0.074734497,-0.003882000,-0.004386902,0.048351288,-0.224176025,0.421716988,0.358396530,0.145055771,2.271057129,-0.403266996,-0.388907794,0.008793785,-1.487767631,0.000000000,-0.001762548,-0.010197247,0.170154799,0.000000000,0.019645691,-0.013187408,-2.092541504,-0.435999990,-0.401502609,-0.030769348,-11.432977295,0.000000000,0.005531311,0.039560318,-0.971438599,0.000000000,0.062752724,-0.013187408,-3.296691895,0.000000000,0.003865715,-0.004390880,-0.396753011,0.000000000,0.000778025,0.018111550,-0.048064744
0.171984498,-0.005962000,0.015449524,0.021978378,-2.312818909,-0.001217000,-0.002479553,0.004396439,-0.523086548,-0.003856000,-0.004386902,-0.004396439,0.971438599,0.421618998,0.358778000,0.162637711,3.003662109,-0.403329998,-0.388907794,-0.008793785,-1.190261501,0.000000000,-0.001762548,0.010197247,0.213010342,0.000000000,0.019645691,-0.013187408,-2.092541504,-0.435999990,-0.401884079,-0.030769348,-9.191217041,0.000000000,0.005531311,0.092308044,-0.672528076,0.000000000,0.062752724,-0.004396439,-3.589752197,0.000000000,0.003865715,-0.004390880,-0.198393371,0.000000000,0.000778025,0.018111550,-0.048097416
0.173984318,-0.006154000,0.015449524,-0.021978378,-1.872295380,-0.001248000,-0.002479553,-0.004396439,-1.270321655,-0.003831000,-0.004386902,0.074726105,-1.270321655,0.421516001,0.358778000,0.136262894,3.443237305,-0.403391987,-0.388907794,0.017572130,-1.388614836,0.000000000,-0.001762548,0.010211982,0.212916463,0.000000000,0.019645691,0.013187408,-2.092541504,-0.435999990,-0.401884079,0.004396439,-12.030770874,0.000000000,0.005531311,0.004396439,-1.718673706,0.000000000,0.062752724,0.004396439,-3.296691895,0.000000000,0.003865715,0.000001492,-0.396753011,0.000000000,0.000778025,0.009056228,-0.048064744
0.175984138,-0.006348000,0.015449524,0.004396439,-1.872295380,-0.001281000,-0.002479553,-0.004396439,-0.672528076,-0.003806000,-0.004386902,-0.074726105,-0.074734497,0.421409994,0.359159470,0.153846741,3.150177002,-0.403452992,-0.388907794,0.008784127,-1.487815375,0.000000000,-0.001762548,0.010207071,0.255584249,0.000000000,0.019645691,0.004396439,-1.872295380,-0.435999990,-0.401884079,-0.004396439,-10.984625244,0.000000000,0.005531311,0.030769348,-1.718673706,0.000000000,0.062752724,-0.004396439,-3.296691895,0.000000000,0.003865715,-0.008787187,-0.297584790,0.000000000,0.000778025,0.009056381,-0.096211171
0.177983957,-0.006543000,0.015068054,-0.030769348,-2.092541504,-0.001316000,-0.002479553,-0.004396439,0.373617554,-0.003782000,-0.004386902,-0.030769348,-0.074734497,0.421299011,0.359540939,0.136262894,3.003662109,-0.403513014,-0.388907794,0.008773516,-1.388614836,0.000000000,-0.001762548,0.030613602,0.212916463,0.000000000,0.019645691,0.039560318,-1.652017975,-0.435999990,-0.401884079,-0.074726105,-9.938452148,0.000000000,0.005531311,-0.013187408,-1.270321655,0.000000000,0.062752724,-0.004396439,-3.296691895,0.000000000,0.003865715,0.004396846,-0.297561592,0.000000000,0.000778025,0.018109432,0.000049011
0.179983777,-0.006739000,0.015068054,0.013187408,-2.092541504,-0.001351000,-0.002479553,0.039560318,-0.672528076,-0.003758000,-0.004386902,0.048351288,-0.672528076,0.421186000,0.359922409,0.162637711,3.003662109,-0.403571993,-0.388907794,0.004384343,-1.289462041,0.000000000,-0.001762548,0.020408987,0.255678127,0.000000000,0.019645691,0.048351288,-1.872295380,-0.435999990,-0.401884079,0.004396439,-12.030770874,0.000000000,0.005531311,0.004396439,-1.569232178,0.000000000,0.062752724,-0.004396439,-3.589752197,0.000000000,0.003865715,0.000001492,-0.495921232,0.000000000,0.000778025,0.009056228,0.000081682
0.181983597,-0.006935000,0.015068054,-0.021978378,-2.092541504,-0.001388000,-0.002479553,-0.004396439,-0.821969604,-0.003735000,-0.004386902,-0.048351288,-0.821969604,0.421068996,0.359922409,0.145055771,2.710632324,-0.403629005,-0.388907794,-0.000004830,-1.388614836,0.000000000,-0.001762548,0.010204372,0.212916463,0.000000000,0.019645691,-0.021978378,-2.092541504,-0.435999990,-0.401884079,-0.030769348,-11.283508301,0.000000000,0.005531311,-0.030769348,-0.971438599,0.000000000,0.062752724,0.004396439,-3.296691895,0.000000000,0.003865715,0.008792200,-0.297584790,0.000000000,0.000778025,0.027162636,-0.096211171
0.183983417,-0.007133000,0.015068054,0.004396439,-2.092541504,-0.001426000,-0.002479553,0.083517075,-0.074734497,-0.003712000,-0.004386902,0.030769348,-0.224176025,0.420949012,0.360303879,0.153846741,3.150177002,-0.403683990,-0.388907794,-0.000004830,-1.487815375,0.000000000,-0.001762548,0.010204372,0.255584249,0.000000000,0.019645691,0.004396439,-2.312818909,-0.435999990,-0.401884079,-0.021978378,-12.030770874,0.000000000,0.005531311,-0.030769348,-1.868142700,0.000000000,0.062752724,-0.004396439,-3.589752197,0.000000000,0.003865715,-0.008783251,-0.099203020,0.000000000,0.000778025,0.027166872,-0.096254587
0.185983236,-0.007330000,0.015068054,-0.039560318,-1.872295380,-0.001465000,-0.002479553,0.004396439,-0.074734497,-0.003689000,-0.004005432,0.004396439,-0.523086548,0.420828015,0.360685349,0.136262894,2.710632324,-0.403737992,-0.388907794,-0.000004830,-1.388614836,0.000000000,-0.001762548,0.010204372,0.212916463,0.000000000,0.019645691,0.030769348,-2.312818909,-0.435999990,-0.401884079,0.030769348,-11.731860352,0.000000000,0.005531311,-0.048351288,-1.270321655,0.000000000,0.062752724,-0.013187408,-3.589752197,0.000000000,0.003865715,0.004394816,-0.595112650,0.000000000,0.000778025,-0.000001059,-0.048032073
0.187983056,-0.007529000,0.015068054,0.039560318,-1.872295380,-0.001505000,-0.002479553,0.004396439,-1.120880127,-0.003667000,-0.004005432,0.039560318,0.523086548,0.420704007,0.361066818,0.127471924,3.150177002,-0.403789014,-0.388907794,-0.008793785,-1.586968171,0.000000000,-0.001762548,0.010197247,0.212822584,0.000000000,0.019645691,-0.013187408,-1.652017975,-0.435999990,-0.401884079,0.057142258,-11.134066772,0.000000000,0.005531311,0.013187408,-1.120880127,0.000000000,0.062752724,-0.004396439,-3.589752197,0.000000000,0.003865715,-0.004394816,-0.495944429,0.000000000,0.000778025,0.000001059,-0.096178499
0.189982876,-0.007727000,0.015068054,-0.021978378,-1.872295380,-0.001545000,-0.002479553,0.021978378,-0.523086548,-0.003646000,-0.004005432,0.030769348,-0.672528076,0.420578003,0.361066818,0.109889984,2.710632324,-0.403838009,-0.388907794,-0.008784127,-1.388614836,0.000000000,-0.001762548,-0.010207071,0.212916463,0.000000000,0.019645691,-0.013187408,-2.092541504,-0.435999990,-0.401884079,0.013187408,-11.134066772,0.000000000,0.005531311,0.004396439,-1.270321655,0.000000000,0.062752724,0.004396439,-3.589752197,0.000000000,0.003865715,0.013182541,-0.396753011,0.000000000,0.000778025,-0.000003177,-0.048064744
0.191982696,-0.007925000,0.015068054,0.021978378,-2.312818909,-0.001586000,-0.002098083,0.030769348,-0.672528076,-0.003624000,-0.004005432,-0.004396439,-0.821969604,0.420450985,0.361448288,0.083517075,2.857147217,-0.403885007,-0.388907794,-0.004384343,-1.487815375,0.000000000,-0.001762548,-0.020408987,0.255584249,0.000000000,0.019645691,-0.013187408,-1.652017975,-0.435999990,-0.401884079,0.039560318,-11.731860352,0.000000000,0.005531311,-0.030769348,-1.270321655,0.000000000,0.062752724,0.004396439,-3.589752197,0.000000000,0.003865715,-0.008790170,-0.495944429,0.000000000,0.000778025,-0.009052145,-0.096178499
0.193982515,-0.008124000,0.015068054,-0.021978378,-2.092541504,-0.001626000,-0.002479553,-0.048351288,-0.224176025,-0.003603000,-0.004005432,-0.021978378,-1.419790649,0.420323998,0.361448288,0.074726105,3.150177002,-0.403928995,-0.388907794,0.000004830,-1.388567092,0.000000000,-0.001762548,-0.010204372,0.127487013,0.000000000,0.019645691,0.030769348,-1.872295380,-0.435999990,-0.401884079,-0.004396439,-12.180212402,0.000000000,0.005531311,0.030769348,-1.419790649,0.000000000,0.062752724,-0.013187408,-3.150177002,0.000000000,0.003865715,0.008792200,-0.297585856,0.000000000,0.000778025,0.027162636,-0.192482097
0.195982335,-0.008321000,0.015068054,-0.004396439,-2.092541504,-0.001667000,-0.002098083,0.021978378,-0.672528076,-0.003583000,-0.004005432,-0.004396439,-0.224176025,0.420195013,0.361448288,0.074726105,2.857147217,-0.403970987,-0.388907794,-0.000024144,-1.586968171,0.000000000,-0.001762548,0.051013008,0.212822584,0.000000000,0.019645691,-0.021978378,-1.872295380,-0.435999990,-0.401884079,0.013187408,-11.283508301,0.000000000,0.005531311,0.021978378,0.074734497,0.000000000,0.062752724,-0.004396439,-3.150177002,0.000000000,0.003865715,-0.013179559,-0.396753011,0.000000000,0.000778025,0.018111703,-0.048064744
0.197982155,-0.008519000,0.015068054,-0.021978378,-2.312818909,-0.001707000,-0.002098083,0.057142258,-1.270321655,-0.003562000,-0.004005432,-0.004396439,-0.224176025,0.420065999,0.361829758,0.083517075,2.857147217,-0.404009014,-0.388907794,0.008773516,-1.586968171,0.000000000,-0.001762548,0.030613602,0.212822584,0.000000000,0.019645691,-0.013187408,-2.092541504,-0.435999990,-0.401502609,0.021978378,-12.628564453,0.000000000,0.005531311,-0.013187408,-1.569232178,0.000000000,0.062752724,-0.004396439,-3.296691895,0.000000000,0.003865715,-0.004390880,-0.396753011,0.000000000,0.000778025,0.018111550,-0.048064744
0.199981975,-0.008716000,0.015068054,-0.048351288,-2.312818909,-0.001748000,-0.002098083,-0.004396439,-0.523086548,-0.003542000,-0.004005432,0.004396439,-0.224176025,0.419937998,0.361829758,0.074726105,3.150177002,-0.404044986,-0.388907794,-0.008793785,-1.586968171,0.000000000,-0.001762548,0.010197247,0.212822584,0.000000000,0.019645691,-0.004396439,-1.872295380,-0.435999990,-0.401502609,0.013187408,-12.180212402,0.000000000,0.005531311,-0.030769348,-0.971438599,0.000000000,0.062752724,0.004396439,-3.296691895,0.000000000,0.003865715,0.013185524,-0.595112650,0.000000000,0.000778025,0.018105350,-0.048032073
0.201981794,-0.008910000,0.015068054,0.004396439,-2.312818909,-0.001789000,-0.002098083,-0.004396439,-0.971438599,-0.003521000,-0.004005432,-0.004396439,-0.523086548,0.419806987,0.362211227,0.074726105,3.003662109,-0.404076993,-0.388907794,-0.000004830,-1.487815375,-0.000001000,-0.001762548,0.010204372,0.255584249,0.000000000,0.019645691,0.004396439,-1.872295380,-0.435999990,-0.401502609,-0.004396439,-12.030770874,0.000000000,0.005531311,0.092308044,-0.971438599,0.000000000,0.062752724,-0.004396439,-3.296691895,0.000000000,0.003865715,0.004396846,-0.396753011,0.000000000,0.000778025,0.018109432,-0.048064744
0.203981614,-0.009102000,0.014686584,-0.039560318,-2.312818909,-0.001833000,-0.002098083,-0.004396439,-0.672528076,-0.003500000,-0.004005432,0.074726105,-0.074734497,0.419672012,0.362211227,0.074726105,2.710632324,-0.404105991,-0.388907794,-0.004394955,-1.586968171,-0.000002000,-0.001762548,-0.000002456,0.212822584,0.000000000,0.019645691,-0.013187408,-1.652017975,-0.435999990,-0.401502609,-0.004396439,-12.479122925,0.000000000,0.005531311,0.013187408,-1.569232178,0.000000000,0.062752724,-0.004396439,-3.150177002,0.000000000,0.003865715,-0.004390880,-0.396729813,0.000000000,0.000778025,0.018111550,0.048195437
0.205981434,-0.009292000,0.014686584,-0.021978378,-2.092541504,-0.001880000,-0.002098083,0.013187408,-0.523086548,-0.003479000,-0.004005432,0.030769348,-0.224176025,0.419533014,0.362211227,0.083517075,2.564117432,-0.404132009,-0.388907794,-0.008802489,-1.388614836,-0.000004000,-0.001762548,0.030603779,0.212916463,0.000000000,0.019645691,0.004396439,-1.872295380,-0.435999990,-0.401502609,0.004396439,-12.927474976,0.000000000,0.005531311,0.048351288,-0.074734497,0.000000000,0.062752724,0.004396439,-3.589752197,0.000000000,0.003865715,0.000004474,-0.198394438,0.000000000,0.000778025,0.027164754,-0.144368342
0.207981254,-0.009480000,0.014686584,-0.057142258,-2.312818909,-0.001928000,-0.002098083,0.021978378,0.373617554,-0.003457000,-0.004005432,-0.021978378,-0.224176025,0.419391990,0.362592697,0.074726105,3.150177002,-0.404155999,-0.388907794,-0.008802489,-1.586968171,-0.000008000,-0.001762548,0.030603779,0.212822584,0.000000000,0.019645691,0.013187408,-1.652017975,-0.435999990,-0.401502609,0.013187408,-12.927474976,0.000000000,0.005531311,0.048351288,-0.373617554,0.000000000,0.062752724,-0.004396439,-3.296691895,0.000000000,0.003865715,-0.008787187,-0.495921232,0.000000000,0.000778025,0.009056381,0.000081682
0.209981073,-0.009667000,0.014686584,0.004396439,-2.533096313,-0.001977000,-0.002098083,-0.004396439,-0.224176025,-0.003434000,-0.004005432,0.021978378,-0.523086548,0.419247001,0.362592697,0.074726105,2.857147217,-0.404177994,-0.388907794,-0.000004830,-1.487767631,-0.000012000,-0.001762548,0.010204372,0.170154799,0.000000000,0.019645691,0.030769348,-2.092541504,-0.435999990,-0.401502609,-0.004396439,-11.881329346,0.000000000,0.005531311,-0.013187408,-1.569232178,0.000000000,0.062752724,-0.004396439,-3.150177002,0.000000000,0.003865715,0.004394816,-0.396753011,0.000000000,0.000778025,-0.000001059,-0.048064744
0.211980893,-0.009854000,0.014686584,-0.013187408,-2.312818909,-0.002027000,-0.002098083,-0.030769348,-0.672528076,-0.003413000,-0.004005432,-0.039560318,0.523086548,0.419101000,0.362592697,0.092308044,3.003662109,-0.404199004,-0.388907794,-0.004394955,-1.487815375,-0.000018000,-0.001762548,-0.000002456,0.255584249,0.000000000,0.019645691,-0.021978378,-2.092541504,-0.435999990,-0.401121140,0.004396439,-11.582418823,0.000000000,0.005531311,-0.013187408,-1.569232178,0.000000000,0.062752724,0.004396439,-3.296691895,0.000000000,0.003865715,0.004394816,-0.495944429,0.000000000,0.000778025,-0.000001059,-0.096178499
0.213980713,-0.010042000,0.014686584,-0.030769348,-2.312818909,-0.002077000,-0.002098083,0.004396439,-0.971438599,-0.003391000,-0.004005432,0.021978378,-0.523086548,0.418951988,0.362974167,0.074726105,2.857147217,-0.404217988,-0.388907794,0.004394955,-1.586968171,-0.000024000,-0.001762548,0.000002456,0.212822584,0.000000000,0.019645691,0.004396439,-1.872295380,-0.435999990,-0.401121140,0.092308044,-13.226385498,0.000000000,0.005531311,0.004396439,-1.868142700,0.000000000,0.062752724,-0.004396439,-3.296691895,0.000000000,0.003865715,0.004394816,-0.198393371,0.000000000,0.000778025,-0.000001059,-0.048097416
0.215980533,-0.010230000,0.014686584,0.013187408,-2.312818909,-0.002127000,-0.002098083,0.013187408,-0.523086548,-0.003370000,-0.004005432,-0.030769348,-0.971438599,0.418803006,0.362974167,0.083517075,2.857147217,-0.404237986,-0.388907794,0.004384343,-1.686120966,-0.000031000,-0.001762548,0.020408987,0.170060920,0.000000000,0.019645691,0.039560318,-1.652017975,-0.435999990,-0.401121140,0.057142258,-12.479122925,0.000000000,0.005531311,-0.013187408,-1.569232178,0.000000000,0.062752724,-0.004396439,-3.296691895,0.000000000,0.003865715,0.013182541,-0.396776208,0.000000000,0.000778025,-0.000003177,-0.144324926
0.217980352,-0.010420000,0.014686584,0.013187408,-2.092541504,-0.002177000,-0.002098083,0.048351288,0.224176025,-0.003350000,-0.004005432,0.013187408,-0.523086548,0.418653011,0.363355637,0.083517075,3.003662109,-0.404256999,-0.388907794,-0.004394955,-1.388614836,-0.000039000,-0.001762548,-0.000002456,0.212916463,0.000000000,0.019645691,0.039560318,-1.872295380,-0.435999990,-0.401121140,0.021978378,-12.778033447,0.000000000,0.005531311,-0.004396439,-0.821969604,0.000000000,0.062752724,0.004396439,-3.589752197,0.000000000,0.003865715,-0.004394816,-0.198393371,0.000000000,0.000778025,0.000001059,-0.048097416
0.219980172,-0.010613000,0.014686584,-0.021978378,-2.092541504,-0.002226000,-0.002098083,-0.030769348,-0.373617554,-0.003331000,-0.004005432,-0.065933228,0.224176025,0.418502986,0.363355637,0.074726105,2.710632324,-0.404278010,-0.388907794,-0.004394955,-1.487767631,-0.000047000,-0.001762548,-0.000002456,0.170154799,0.000000000,0.019645691,-0.021978378,-2.312818909,-0.435999990,-0.400739670,0.118680954,-12.927474976,0.000000000,0.005531311,0.013187408,-1.718673706,0.000000000,0.062752724,-0.013187408,-3.589752197,0.000000000,0.003865715,0.000004474,-0.396729813,0.000000000,0.000778025,0.027164754,0.048195437
0.221979992,-0.010808000,0.014686584,-0.021978378,-2.312818909,-0.002273000,-0.002098083,-0.004396439,-0.672528076,-0.003313000,-0.004005432,0.039560318,0.523086548,0.418352991,0.363355637,0.074726105,3.003662109,-0.404298991,-0.388907794,0.008784127,-1.487767631,-0.000057000,-0.001762548,0.010207071,0.170154799,0.000000000,0.019645691,0.004396439,-1.872295380,-0.435999990,-0.400739670,0.039560318,-13.824179077,0.000000000,0.005531311,-0.039560318,-1.120880127,0.000000000,0.062752724,-0.004396439,-3.589752197,0.000000000,0.003865715,0.004396846,-0.595112650,0.000000000,0.000778025,0.018109432,-0.048032073
0.223979812,-0.011007000,0.014686584,-0.013187408,-2.533096313,-0.002319000,-0.002098083,0.021978378,-0.971438599,-0.003296000,-0.004005432,-0.065933228,-0.672528076,0.418204010,0.363737106,0.092308044,2.857147217,-0.404321015,-0.388907794,0.004394955,-1.785343643,-0.000067000,-0.001762548,0.000002456,0.212738228,0.000000000,0.019645691,0.013187408,-2.092541504,-0.435999990,-0.400739670,0.021978378,-12.628564453,0.000000000,0.005531311,-0.021978378,-1.569232178,0.000000000,0.062752724,-0.004396439,-3.150177002,0.000000000,0.003865715,-0.004396846,-0.495944429,0.000000000,0.000778025,-0.018109432,-0.096178499
0.225979631,-0.011210000,0.014686584,-0.013187408,-2.312818909,-0.002362000,-0.001716614,0.004396439,-1.120880127,-0.003282000,-0.004005432,-0.074726105,0.224176025,0.418056995,0.363737106,0.074726105,2.857147217,-0.404345989,-0.388907794,-0.004384343,-1.487815375,-0.000079000,-0.001762548,-0.020408987,0.255584249,0.000000000,0.019645691,-0.021978378,-1.872295380,-0.435999990,-0.400358200,0.092308044,-12.927474976,0.000000000,0.005531311,-0.013187408,-2.017584229,0.000000000,0.062752724,-0.004396439,-3.150177002,0.000000000,0.003865715,-0.004396846,-0.595089453,0.000000000,0.000778025,-0.018109432,0.048228108
0.227979451,-0.011419000,0.014305115,-0.039560318,-2.312818909,-0.002402000,-0.002098083,0.039560318,0.373617554,-0.003269000,-0.004005432,-0.074726105,0.224176025,0.417910993,0.364118576,0.048351288,3.003662109,-0.404372990,-0.388907794,-0.004384343,-1.487815375,-0.000091000,-0.001762548,-0.020408987,0.255584249,0.000000000,0.019645691,0.039560318,-2.092541504,-0.435999990,-0.400358200,0.109889984,-13.076916504,0.000000000,0.005531311,-0.039560318,-1.569232178,0.000000000,0.062752724,0.004396439,-3.296691895,0.000000000,0.003865715,0.000001492,-0.198394438,0.000000000,0.000778025,0.009056228,-0.144368342
0.229979271,-0.011632000,0.014305115,-0.030769348,-2.312818909,-0.002439000,-0.001716614,0.048351288,-0.971438599,-0.003258000,-0.004005432,-0.004396439,-0.074734497,0.417768002,0.364118576,0.065933228,2.857147217,-0.404404014,-0.388907794,0.013182957,-1.586968171,-0.000103000,-0.001762548,0.000007368,0.212822584,0.000000000,0.019645691,0.004396439,-1.872295380,-0.435999990,-0.400358200,0.048351288,-13.525268555,0.000000000,0.005531311,0.039560318,-1.120880127,0.000000000,0.062752724,-0.004396439,-3.296691895,0.000000000,0.003865715,0.004394816,-0.495921232,0.000000000,0.000778025,-0.000001059,0.000081682
0.231979091,-0.011852000,0.014305115,-0.013187408,-2.092541504,-0.002473000,-0.001716614,0.065933228,-1.120880127,-0.003249000,-0.004005432,0.030769348,-0.523086548,0.417627007,0.364118576,0.057142258,2.417572021,-0.404437006,-0.388907794,-0.013182957,-1.487767631,-0.000117000,-0.001762548,-0.000007368,0.170154799,0.000000000,0.019645691,0.004396439,-2.312818909,-0.435999990,-0.399976730,0.083517075,-13.375827026,0.000000000,0.005531311,0.039560318,-1.120880127,0.000000000,0.062752724,-0.004396439,-3.296691895,0.000000000,0.003865715,0.004394816,-0.396729813,0.000000000,0.000778025,-0.000001059,0.048195437
0.233978910,-0.012080000,0.014305115,-0.021978378,-2.533096313,-0.002502000,-0.001716614,0.004396439,-0.821969604,-0.003243000,-0.004005432,-0.065933228,-0.224176025,0.417490005,0.364500046,0.057142258,2.857147217,-0.404475003,-0.388907794,0.004394955,-1.586968171,-0.000132000,-0.001762548,0.000002456,0.212822584,0.000000000,0.019645691,-0.013187408,-2.092541504,-0.435999990,-0.399976730,0.136262894,-13.973620605,0.000000000,0.005531311,0.057142258,-1.270321655,0.000000000,0.062752724,-0.004396439,-3.150177002,0.000000000,0.003865715,-0.000001492,-0.495921232,0.000000000,0.000778025,-0.009056228,0.000081682
0.235978730,-0.012321000,0.014305115,-0.013187408,-2.533096313,-0.002531000,-0.001716614,0.021978378,-0.373617554,-0.003238000,-0.004005432,-0.057142258,0.224176025,0.417353988,0.364500046,0.074726105,2.857147217,-0.404518992,-0.388907794,0.004394955,-1.487815375,-0.000160000,-0.001762548,0.000002456,0.255584249,0.000000000,0.019645691,-0.021978378,-2.312818909,-0.435999990,-0.399595261,0.039560318,-13.525268555,0.000000000,0.005531311,-0.048351288,-1.270321655,0.000000000,0.062752724,-0.004396439,-3.296691895,0.000000000,0.003865715,0.000001492,-0.297584790,0.000000000,0.000778025,0.009056228,-0.096211171
0.237978550,-0.012576000,0.014305115,0.039560318,-2.533096313,-0.002560000,-0.001716614,0.057142258,-1.120880127,-0.003233000,-0.004005432,0.030769348,-0.373617554,0.417219996,0.364500046,0.057142258,2.857147217,-0.404569000,-0.388907794,-0.008773516,-1.388614836,-0.000205000,-0.001762548,-0.030613602,0.212916463,0.000000000,0.019645691,-0.013187408,-1.872295380,-0.435999990,-0.399595261,0.074726105,-12.778033447,0.000000000,0.005531311,0.048351288,-1.270321655,0.000000000,0.062752724,-0.004396439,-3.589752197,0.000000000,0.003865715,-0.021967284,-0.297561592,0.000000000,0.000778025,0.018113821,0.000049011
0.239978370,-0.012842000,0.014305115,-0.013187408,-2.312818909,-0.002590000,-0.001716614,-0.057142258,-0.373617554,-0.003228000,-0.004005432,0.057142258,-0.672528076,0.417086989,0.364881516,0.065933228,2.857147217,-0.404624999,-0.388907794,0.004384343,-1.586968171,-0.000265000,-0.001762548,0.020408987,0.212822584,0.000000000,0.019645691,-0.013187408,-2.092541504,-0.435999990,-0.399595261,0.127471924,-14.421972656,0.000000000,0.005531311,-0.021978378,-2.017584229,0.000000000,0.062752724,-0.004396439,-3.296691895,0.000000000,0.003865715,-0.000001492,-0.495921232,0.000000000,0.000778025,-0.009056228,0.000081682
0.241978189,-0.013119000,0.014305115,-0.021978378,-2.312818909,-0.002619000,-0.001716614,-0.004396439,-0.672528076,-0.003223000,-0.004005432,-0.039560318,0.523086548,0.416954011,0.364881516,0.065933228,1.831512451,-0.404686987,-0.388907794,0.004384343,-1.586968171,-0.000339000,-0.001762548,0.020408987,0.212822584,0.000000000,0.019645691,-0.021978378,-1.872295380,-0.435999990,-0.399213791,0.127471924,-14.720883179,0.000000000,0.005531311,-0.004396439,-1.120880127,0.000000000,0.062752724,0.004396439,-3.589752197,0.000000000,0.003865715,-0.004384915,-0.495921232,0.000000000,0.000778025,0.054328602,0.000081682
0.243978009,-0.013403000,0.013923645,-0.030769348,-2.753342438,-0.002647000,-0.001716614,0.004396439,-0.672528076,-0.003218000,-0.004005432,-0.048351288,0.224176025,0.416823000,0.364881516,0.057142258,3.003662109,-0.404754013,-0.388907794,-0.008793785,-1.388614836,-0.000428000,-0.001762548,0.010197247,0.212916463,0.000000000,0.019645691,-0.021978378,-2.092541504,-0.435999990,-0.399213791,0.057142258,-13.525268555,0.000000000,0.005531311,0.021978378,-1.270321655,0.000000000,0.062752724,0.004396439,-3.589752197,0.000000000,0.003865715,-0.013182541,-0.495921232,0.000000000,0.000778025,0.000003177,0.000081682
0.245977829,-0.013692000,0.013923645,0.065933228,-2.533096313,-0.002675000,-0.001716614,0.039560318,-1.569232178,-0.003214000,-0.004005432,0.021978378,-0.074734497,0.416691989,0.364881516,0.030769348,1.978027344,-0.404826999,-0.388907794,-0.013182957,-1.586968171,-0.000529000,-0.001762548,-0.000007368,0.212822584,0.000000000,0.019645691,0.039560318,-1.872295380,-0.435999990,-0.399213791,0.065933228,-12.927474976,0.000000000,0.005531311,0.021978378,-1.270321655,0.000000000,0.062752724,-0.004396439,-3.882781982,0.000000000,0.003865715,-0.004394816,-0.396729813,0.000000000,0.000778025,0.000001059,0.048195437
0.247977649,-0.013985000,0.013923645,-0.074726105,-2.312818909,-0.002702000,-0.001716614,0.004396439,-0.821969604,-0.003210000,-0.004005432,0.039560318,0.523086548,0.416561991,0.365262985,0.021978378,3.150177002,-0.404904991,-0.388907794,-0.004394955,-1.586968171,-0.000643000,-0.001762548,-0.000002456,0.212822584,0.000000000,0.019645691,-0.004396439,-1.872295380,-0.435999990,-0.398832321,0.048351288,-15.468118286,0.000000000,0.005531311,-0.039560318,-1.120880127,0.000000000,0.062752724,0.004396439,-3.296691895,0.000000000,0.003865715,-0.013179559,-0.396753011,0.000000000,0.000778025,0.018111703,-0.048064744
0.249977468,-0.014279000,0.013923645,-0.021978378,-2.753342438,-0.002727000,-0.001716614,0.065933228,0.523086548,-0.003206000,-0.004005432,0.039560318,0.523086548,0.416433007,0.365262985,-0.004396439,3.150177002,-0.404987007,-0.388907794,0.000004830,-1.686190848,-0.000769000,-0.001762548,-0.010204372,0.255499892,0.000000000,0.019645691,0.004396439,-2.092541504,-0.435999990,-0.398832321,0.057142258,-13.375827026,0.000000000,0.005531311,0.048351288,-1.419790649,0.000000000,0.062752724,-0.004396439,-3.150177002,0.000000000,0.003865715,0.000001492,-0.198393371,0.000000000,0.000778025,0.009056228,-0.048097416
0.251977288,-0.014573000,0.013923645,-0.048351288,-2.753342438,-0.002750000,-0.001716614,0.021978378,-0.523086548,-0.003203000,-0.004005432,0.004396439,-0.074734497,0.416303992,0.365262985,-0.004396439,3.296691895,-0.405074000,-0.388907794,-0.000014487,-1.388614836,-0.000905000,-0.001762548,0.030608690,0.212916463,0.000000000,0.019645691,0.004396439,-1.872295380,-0.435999990,-0.398450851,0.136262894,-13.824179077,0.000000000,0.005531311,0.004396439,-1.419790649,0.000000000,0.062752724,-0.004396439,-3.150177002,0.000000000,0.003865715,0.008790170,-0.297584790,0.000000000,0.000778025,0.009052145,-0.096211171
0.253977108,-0.014864000,0.013923645,-0.004396439,-2.312818909,-0.002772000,-0.001716614,0.039560318,-0.971438599,-0.003200000,-0.004005432,0.013187408,0.373617554,0.416175991,0.364881516,-0.021978378,3.736267090,-0.405166000,-0.388907794,-0.000004830,-1.388614836,-0.001051000,-0.001762548,0.010204372,0.212916463,0.000000000,0.019645691,0.021978378,-2.312818909,-0.435999990,-0.398450851,0.065933228,-13.824179077,0.000000000,0.005531311,-0.004396439,-1.120880127,0.000000000,0.062752724,-0.004396439,-3.296691895,0.000000000,0.003865715,0.004399828,-0.297584790,0.000000000,0.000778025,0.036217958,-0.096211171
0.255976928,-0.015150000,0.013923645,-0.021978378,-2.753342438,-0.002791000,-0.001716614,-0.048351288,-1.868142700,-0.003197000,-0.004005432,-0.021978378,-0.672528076,0.416049004,0.364881516,-0.021978378,3.003662109,-0.405261993,-0.388907794,-0.004403660,-1.586968171,-0.001206000,-0.001762548,0.020404076,0.212822584,0.000000000,0.019645691,0.004396439,-2.092541504,-0.435999990,-0.398450851,0.083517075,-14.870324707,0.000000000,0.005531311,-0.013187408,-1.419790649,0.000000000,0.062752724,0.004396439,-3.296691895,0.000000000,0.003865715,-0.000001492,-0.297584790,0.000000000,0.000778025,-0.009056228,-0.096211171
0.257976747,-0.015429000,0.013923645,-0.004396439,-2.533096313,-0.002807000,-0.001716614,-0.083517075,-1.120880127,-0.003195000,-0.004005432,0.021978378,-0.373617554,0.415921986,0.364881516,-0.013187408,3.443237305,-0.405360997,-0.388907794,0.008784127,-1.686120966,-0.001370000,-0.001762548,0.010207071,0.170060920,0.000000000,0.019645691,0.004396439,-1.652017975,-0.435999990,-0.398069382,0.048351288,-14.421972656,0.000000000,0.005531311,-0.013187408,-1.419790649,0.000000000,0.062371254,-0.004396439,-3.296691895,0.000000000,0.003865715,0.013185524,-0.297584790,0.000000000,0.000778025,0.018105350,-0.096211171
0.259976567,-0.015698999,0.013542175,-0.048351288,-2.753342438,-0.002821000,-0.001716614,0.013187408,-1.718673706,-0.003193000,-0.004005432,-0.057142258,0.224176025,0.415796012,0.364881516,-0.013187408,3.296691895,-0.405463994,-0.388907794,0.004394955,-1.586920427,-0.001541000,-0.001762548,0.000002456,0.127393135,0.000000000,0.019645691,0.004396439,-2.092541504,-0.435999990,-0.398069382,0.048351288,-13.824179077,0.000000000,0.005531311,0.004396439,-1.569232178,0.000000000,0.062752724,-0.004396439,-3.296691895,0.000000000,0.003865715,-0.004394816,-0.495921232,0.000000000,0.000778025,0.000001059,0.000081682
0.261976387,-0.015958000,0.013542175,-0.013187408,-2.973619843,-0.002832000,-0.001716614,0.021978378,-1.419790649,-0.003192000,-0.004005432,-0.048351288,-0.373617554,0.415668994,0.364881516,0.004396439,2.710632324,-0.405571014,-0.388907794,0.008784127,-1.586920427,-0.001719000,-0.001762548,0.010207071,0.127393135,0.000000000,0.019645691,-0.004396439,-2.092541504,-0.435999990,-0.397687912,0.065933228,-14.421972656,0.000000000,0.005531311,0.065933228,-1.868142700,0.000000000,0.062752724,0.004396439,-3.589752197,0.000000000,0.003865715,0.000004474,-0.297584790,0.000000000,0.000778025,0.027164754,-0.096211171
0.263976207,-0.016204000,0.013542175,-0.039560318,-2.533096313,-0.002839000,-0.001335144,-0.013187408,-1.120880127,-0.003191000,-0.004005432,-0.030769348,-1.270321655,0.415542990,0.364881516,-0.013187408,3.003662109,-0.405681014,-0.388907794,-0.013182957,-1.686073222,-0.001903000,-0.001762548,-0.000007368,0.084631471,0.000000000,0.019645691,0.004396439,-1.872295380,-0.435999990,-0.397687912,0.048351288,-14.571441650,0.000000000,0.005531311,0.021978378,-1.120880127,0.000000000,0.062752724,0.004396439,-3.589752197,0.000000000,0.003865715,0.004394816,-0.495944429,0.000000000,0.000778025,-0.000001059,-0.096178499
0.265976026,-0.016434999,0.013542175,-0.021978378,-2.753342438,-0.002842000,-0.001335144,-0.030769348,-0.672528076,-0.003190000,-0.004005432,-0.021978378,0.224176025,0.415417999,0.364881516,-0.004396439,3.003662109,-0.405793011,-0.389098259,-0.013182954,-1.586998337,-0.002092000,-0.002205314,-0.000009222,0.212620771,0.000000000,0.019645691,-0.004396439,-2.092541504,-0.435999990,-0.397687912,0.057142258,-14.272531128,0.000000000,0.005531311,0.048351288,-1.120880127,0.000000000,0.062752724,0.013187408,-3.150177002,0.000000000,0.003865715,0.004396846,-0.495944429,0.000000000,0.000778025,0.018109432,-0.096178499
0.267975846,-0.016652999,0.013542175,-0.013187408,-2.753342438,-0.002840000,-0.001335144,0.013187408,-0.224176025,-0.003192000,-0.004005432,0.013187408,0.074734497,0.415291995,0.364881516,0.013187408,2.710632324,-0.405910999,-0.389098259,-0.013206158,-1.686145135,-0.002297000,-0.002205314,0.040804223,0.169850067,0.000000000,0.019645691,0.004396439,-2.092541504,-0.435999990,-0.397306442,0.065933228,-13.375827026,0.000000000,0.005531311,-0.021978378,-0.672528076,0.000000000,0.062752724,0.004396439,-3.589752197,0.000000000,0.003865715,-0.004394816,-0.297584790,0.000000000,0.000778025,0.000001059,-0.096211171
0.269975666,-0.016868001,0.013542175,-0.004396439,-2.973619843,-0.002827000,-0.001335144,0.004396439,-2.017584229,-0.003202000,-0.004005432,-0.004396439,0.523086548,0.415167004,0.364881516,0.013187408,3.150177002,-0.406042010,-0.389098259,0.000006040,-1.686085380,-0.002548000,-0.002205314,-0.010205021,0.084426061,0.000000000,0.019645691,0.021978378,-2.533096313,-0.435999990,-0.397306442,0.092308044,-14.571441650,0.000000000,0.005531311,0.004396439,-0.971438599,0.000000000,0.062371254,-0.013187408,-3.589752197,0.000000000,0.003865715,-0.004390880,-0.396753011,0.000000000,0.000778025,0.018111550,-0.048064744
0.271975486,-0.017082000,0.013542175,-0.048351288,-2.973619843,-0.002805000,-0.001335144,0.013187408,-0.821969604,-0.003218000,-0.004005432,-0.004396439,-0.821969604,0.415042996,0.364881516,0.004396439,2.710632324,-0.406185001,-0.389098259,-0.004369843,-1.586938582,-0.002845000,-0.002205314,-0.040816518,0.127196766,0.000000000,0.019645691,0.048351288,-1.872295380,-0.435999990,-0.397306442,0.030769348,-14.720883179,0.000000000,0.005531311,0.048351288,-0.971438599,0.000000000,0.062371254,0.004396439,-3.443237305,0.000000000,0.003865715,0.000001492,-0.297561592,0.000000000,0.000778025,0.009056228,0.000049011
0.273975305,-0.017294001,0.013160706,-0.039560318,-2.753342438,-0.002774000,-0.001335144,-0.021978378,-0.821969604,-0.003242000,-0.004005432,0.013187408,0.672528076,0.414918989,0.364881516,0.004396439,2.417572021,-0.406340003,-0.389098259,-0.004381921,-1.686025625,-0.003185000,-0.002205314,-0.020410902,-0.000997944,0.000000000,0.019645691,0.021978378,-2.092541504,-0.435999990,-0.396924973,-0.039560318,-14.571441650,0.000000000,0.005531311,-0.048351288,-0.523086548,0.000000000,0.062752724,-0.004396439,-3.589752197,0.000000000,0.003865715,0.004396846,-0.396753011,0.000000000,0.000778025,0.018109432,-0.048064744
0.275975125,-0.017502001,0.013160706,-0.048351288,-2.753342438,-0.002735000,-0.001335144,-0.004396439,-1.270321655,-0.003272000,-0.004005432,0.013187408,0.672528076,0.414795995,0.364881516,0.004396439,3.003662109,-0.406506002,-0.389098259,-0.004381921,-1.884438732,-0.003564000,-0.002205314,-0.020410902,0.084308658,0.000000000,0.019645691,0.030769348,-1.872295380,-0.435999990,-0.396924973,0.030769348,-14.870324707,0.000000000,0.005531311,0.057142258,-1.419790649,0.000000000,0.062371254,0.004396439,-3.589752197,0.000000000,0.003865715,0.004396846,-0.396729813,0.000000000,0.000778025,0.018109432,0.048195437
0.277974945,-0.017707000,0.013160706,-0.030769348,-2.753342438,-0.002688000,-0.001335144,-0.004396439,-1.419790649,-0.003307000,-0.004005432,-0.004396439,-0.373617554,0.414671987,0.364881516,-0.013187408,3.003662109,-0.406682014,-0.389098259,-0.021983033,-1.686085380,-0.003979000,-0.002205314,0.020390246,0.084426061,0.000000000,0.019645691,0.021978378,-1.872295380,-0.435999990,-0.396924973,0.021978378,-15.019793701,0.000000000,0.005531311,-0.013187408,-1.120880127,0.000000000,0.062371254,-0.004396439,-3.150177002,0.000000000,0.003865715,0.000001492,-0.297561592,0.000000000,0.000778025,0.009056228,0.000049011
0.279974765,-0.017907999,0.013160706,0.004396439,-2.973619843,-0.002635000,-0.001335144,0.039560318,-0.672528076,-0.003348000,-0.004005432,0.065933228,1.120880127,0.414550006,0.364881516,-0.004396439,3.003662109,-0.406866014,-0.389098259,0.000030196,-1.586878826,-0.004427000,-0.002205314,-0.051016251,0.041772760,0.000000000,0.019645691,0.021978378,-1.652017975,-0.435999990,-0.396543503,0.083517075,-13.824179077,0.000000000,0.005531311,-0.004396439,-1.718673706,0.000000000,0.062752724,0.004396439,-3.296691895,0.000000000,0.003865715,-0.000001492,-0.297584790,0.000000000,0.000778025,-0.009056228,-0.096211171
0.281974584,-0.018103000,0.013160706,-0.057142258,-2.973619843,-0.002577000,-0.001335144,-0.048351288,-0.373617554,-0.003393000,-0.004005432,-0.065933228,0.821969604,0.414427996,0.364881516,-0.004396439,2.564117432,-0.407059014,-0.389098259,-0.008794993,-1.686085380,-0.004903000,-0.002205314,0.010196660,0.084426061,0.000000000,0.019645691,0.030769348,-2.092541504,-0.435999990,-0.396543503,0.101099014,-15.617587280,0.000000000,0.005531311,0.057142258,-1.419790649,0.000000000,0.062752724,0.004396439,-3.296691895,0.000000000,0.003865715,0.008790170,-0.396753011,0.000000000,0.000778025,0.009052145,-0.048064744
0.283974404,-0.018293001,0.013160706,-0.065933228,-3.414174652,-0.002513000,-0.001335144,0.013187408,-1.120880127,-0.003443000,-0.004005432,0.039560318,-0.523086548,0.414306015,0.364881516,0.004396439,3.003662109,-0.407260001,-0.389098259,-0.008794993,-1.785172423,-0.005405000,-0.002205314,0.010196660,-0.043768649,0.000000000,0.019645691,0.030769348,-2.092541504,-0.435999990,-0.396543503,0.048351288,-14.421972656,0.000000000,0.005531311,0.057142258,-1.419790649,0.000000000,0.062371254,-0.004396439,-3.150177002,0.000000000,0.003865715,-0.004396846,-0.495944429,0.000000000,0.000778025,-0.018109432,-0.096178499
0.285974224,-0.018476000,0.013160706,-0.021978378,-2.753342438,-0.002446000,-0.001335144,-0.021978378,-0.672528076,-0.003496000,-0.004005432,-0.048351288,0.672528076,0.414184988,0.364881516,0.013187408,2.710632324,-0.407467008,-0.389098259,-0.004369843,-1.586878826,-0.005928000,-0.002205314,-0.040816518,0.041772760,0.000000000,0.019645691,-0.021978378,-1.872295380,-0.435999990,-0.396162033,0.057142258,-15.019793701,0.000000000,0.005531311,0.048351288,-1.419790649,0.000000000,0.062371254,-0.004396439,-3.443237305,0.000000000,0.003865715,-0.008783251,-0.396753011,0.000000000,0.000778025,0.027166872,-0.048064744
0.287974044,-0.018652000,0.012779236,-0.021978378,-2.533096313,-0.002375000,-0.001335144,-0.004396439,-0.971438599,-0.003553000,-0.004005432,-0.065933228,0.074734497,0.414063990,0.364881516,0.013187408,2.710632324,-0.407678992,-0.389098259,-0.026358916,-1.686025625,-0.006471000,-0.002205314,-0.010221250,-0.000997944,0.000000000,0.019645691,0.004396439,-1.872295380,-0.435999990,-0.396162033,0.048351288,-15.019793701,0.000000000,0.005531311,0.004396439,-1.120880127,0.000000000,0.062371254,-0.004396439,-3.003662109,0.000000000,0.003865715,0.000001492,-0.297584790,0.000000000,0.000778025,0.009056228,-0.096211171
0.289973863,-0.018820999,0.012779236,-0.074726105,-2.973619843,-0.002302000,-0.001335144,-0.021978378,-0.971438599,-0.003611000,-0.004005432,0.030769348,-0.373617554,0.413944006,0.364881516,0.004396439,3.003662109,-0.407896012,-0.389288671,-0.008751747,-1.586813229,-0.007028000,-0.002648134,-0.051026882,-0.043836772,0.000000000,0.019645691,-0.013187408,-1.872295380,-0.435999990,-0.396162033,0.065933228,-15.019793701,0.000000000,0.005531311,-0.013187408,-1.569232178,0.000000000,0.062371254,-0.004396439,-3.589752197,0.000000000,0.003865715,0.000001492,-0.396753011,0.000000000,0.000778025,0.009056228,-0.048064744
0.291973683,-0.018981000,0.012779236,0.013187408,-2.973619843,-0.002228000,-0.001335144,0.083517075,-0.373617554,-0.003672000,-0.004005432,-0.013187408,0.074734497,0.413823992,0.364881516,0.013187408,2.417572021,-0.408116996,-0.389288671,-0.026328699,-1.785166602,-0.007597000,-0.002648134,-0.051039436,-0.043977707,0.000000000,0.019645691,-0.013187408,-2.092541504,-0.435999990,-0.395780563,0.065933228,-15.468118286,0.000000000,0.005531311,0.030769348,-1.419790649,0.000000000,0.062371254,0.004396439,-3.589752197,0.000000000,0.003865715,0.004396846,-0.297561592,0.000000000,0.000778025,0.018109432,0.000049011
0.293973503,-0.019131999,0.012779236,-0.074726105,-2.973619843,-0.002153000,-0.001335144,-0.030769348,-1.270321655,-0.003735000,-0.004005432,-0.030769348,0.074734497,0.413704008,0.364881516,0.013187408,2.710632324,-0.408340991,-0.389288671,-0.039489898,-1.685954031,-0.008174000,-0.002648134,-0.081663097,-0.086616516,0.000000000,0.019645691,-0.004396439,-2.092541504,-0.435999990,-0.395780563,0.092308044,-13.973620605,0.000000000,0.005531311,-0.013187408,-1.419790649,0.000000000,0.062371254,-0.004396439,-3.296691895,0.000000000,0.003865715,-0.004390880,-0.297584790,0.000000000,0.000778025,0.018111550,-0.096211171
0.295973323,-0.019273000,0.012779236,-0.048351288,-2.973619843,-0.002078000,-0.001335144,-0.057142258,-0.672528076,-0.003798000,-0.004005432,0.013187408,-0.224176025,0.413585007,0.364881516,0.021978378,2.857147217,-0.408565998,-0.389479031,-0.043847853,-1.785077025,-0.008756000,-0.003091009,-0.112292706,-0.129599912,0.000000000,0.019645691,0.039560318,-1.872295380,-0.435999990,-0.395399094,0.109889984,-15.019793701,0.000000000,0.005531311,0.030769348,-1.120880127,0.000000000,0.062371254,0.004396439,-3.296691895,0.000000000,0.003865715,0.000001492,-0.198393371,0.000000000,0.000778025,0.009056228,-0.048097416
0.297973142,-0.019404000,0.012779236,-0.048351288,-2.973619843,-0.002004000,-0.001335144,0.039560318,-0.971438599,-0.003861000,-0.004005432,-0.030769348,0.523086548,0.413466007,0.364881516,0.004396439,2.857147217,-0.408793002,-0.389479031,-0.035059858,-1.685858435,-0.009339000,-0.003091009,-0.112284086,-0.172224223,0.000000000,0.019645691,-0.013187408,-1.872295380,-0.435999990,-0.395399094,0.030769348,-15.617587280,0.000000000,0.005531311,-0.030769348,-1.419790649,0.000000000,0.062371254,-0.004396439,-3.296691895,0.000000000,0.003865715,0.008792200,-0.495921232,0.000000000,0.000778025,0.027162636,0.000081682
0.299972962,-0.019523000,0.012779236,0.004396439,-2.973619843,-0.001932000,-0.001335144,0.013187408,-0.821969604,-0.003925000,-0.004005432,0.004396439,-0.373617554,0.413347989,0.364881516,0.013187408,2.710632324,-0.409020990,-0.389669338,-0.043834505,-1.685834631,-0.009921000,-0.003533940,-0.112306049,-0.172413414,0.000000000,0.019645691,0.004396439,-1.872295380,-0.435999990,-0.395399094,0.127471924,-14.123089600,0.000000000,0.005531311,0.004396439,-2.167025757,0.000000000,0.062371254,0.013187408,-3.589752197,0.000000000,0.003865715,-0.008783251,-0.495944429,0.000000000,0.000778025,0.027166872,-0.096178499
0.301972782,-0.019638000,0.012397766,-0.048351288,-2.753342438,-0.001858000,-0.001335144,0.030769348,-0.074734497,-0.003993000,-0.004386902,-0.030769348,0.523086548,0.413228005,0.364881516,-0.004396439,2.710632324,-0.409251988,-0.389859593,-0.048226985,-1.685810851,-0.010522000,-0.003976925,-0.102117327,-0.172602644,0.000000000,0.019645691,0.030769348,-2.092541504,-0.435999990,-0.395017624,0.048351288,-15.617587280,0.000000000,0.005531311,-0.030769348,-1.270321655,0.000000000,0.062371254,-0.004396439,-3.589752197,0.000000000,0.003865715,-0.004390880,-0.396753011,0.000000000,0.000778025,0.018111550,-0.048064744
0.303972602,-0.019755000,0.012397766,-0.030769348,-3.193897247,-0.001778000,-0.000953674,-0.039560318,-0.523086548,-0.004068000,-0.004386902,-0.030769348,0.523086548,0.413105994,0.364881516,0.004396439,1.978027344,-0.409491986,-0.389859593,-0.048226985,-1.685810851,-0.011167000,-0.003976925,-0.102117327,-0.172602644,0.000000000,0.019645691,0.013187408,-1.872295380,-0.435999990,-0.395017624,0.065933228,-15.468118286,0.000000000,0.005531311,0.013187408,-1.569232178,0.000000000,0.062371254,0.004396439,-3.150177002,0.000000000,0.003865715,0.004396846,-0.396753011,0.000000000,0.000778025,0.018109432,-0.048064744
0.305972421,-0.019871000,0.012397766,-0.021978378,-2.973619843,-0.001691000,-0.000953674,-0.004396439,-1.120880127,-0.004152000,-0.004005432,-0.039560318,-0.373617554,0.412981004,0.364881516,0.004396439,2.710632324,-0.409738988,-0.389859593,-0.070164299,-1.586688036,-0.011849000,-0.003976925,-0.132761292,-0.129795784,0.000000000,0.019645691,-0.013187408,-2.092541504,-0.435999990,-0.395017624,0.074726105,-15.468118286,0.000000000,0.005531311,0.004396439,-1.270321655,0.000000000,0.062371254,-0.004396439,-3.589752197,0.000000000,0.003865715,0.000001492,-0.396753011,0.000000000,0.000778025,0.009056228,-0.048064744
0.307972241,-0.019987000,0.012397766,-0.048351288,-2.973619843,-0.001600000,-0.000953674,0.057142258,-1.120880127,-0.004243000,-0.004386902,-0.057142258,-0.224176025,0.412854999,0.364881516,0.013187408,2.710632324,-0.409994006,-0.390049796,-0.078913237,-1.586550428,-0.012566000,-0.004419966,-0.153206341,-0.215372685,0.000000000,0.019645691,0.004396439,-1.652017975,-0.435999990,-0.394636154,0.048351288,-15.019793701,0.000000000,0.005531311,-0.013187408,-1.270321655,0.000000000,0.062371254,-0.004396439,-3.150177002,0.000000000,0.003865715,0.004394816,-0.495898034,0.000000000,0.000778025,-0.000001059,0.096341863
0.309972061,-0.020101000,0.012016296,-0.048351288,-2.973619843,-0.001504000,-0.000953674,-0.039560318,-0.971438599,-0.004341000,-0.004386902,-0.083517075,-0.224176025,0.412728995,0.364881516,0.013187408,2.124542236,-0.410255998,-0.390239946,-0.078894995,-1.685653610,-0.013311000,-0.004863061,-0.153227275,-0.258381954,0.000000000,0.019645691,-0.004396439,-1.872295380,-0.435999990,-0.394636154,0.057142258,-15.468118286,0.000000000,0.005531311,0.021978378,-1.120880127,0.000000000,0.062371254,-0.004396439,-3.296691895,0.000000000,0.003865715,-0.017574913,-0.297584790,0.000000000,0.000778025,0.009058499,-0.096211171
0.311971881,-0.020212000,0.012016296,-0.030769348,-2.973619843,-0.001404000,-0.000953674,0.057142258,-0.821969604,-0.004445000,-0.004386902,0.030769348,0.821969604,0.412602991,0.364881516,0.004396439,2.564117432,-0.410524011,-0.390430043,-0.074409174,-1.685617874,-0.014081000,-0.005306212,-0.204279863,-0.258565802,0.000000000,0.019645691,0.013187408,-2.092541504,-0.435999990,-0.394636154,0.083517075,-14.870324707,0.000000000,0.005531311,0.004396439,-1.270321655,0.000000000,0.062371254,0.004396439,-2.710632324,0.000000000,0.003865715,0.000001492,-0.396776208,0.000000000,0.000778025,0.009056228,-0.144324926
0.313971700,-0.020318000,0.012016296,-0.048351288,-3.193897247,-0.001301000,-0.000953674,-0.021978378,-1.270321655,-0.004554000,-0.004386902,0.074726105,0.074734497,0.412476987,0.364881516,0.004396439,2.124542236,-0.410798013,-0.390620087,-0.100685789,-1.487206432,-0.014872000,-0.005749418,-0.245183702,-0.258434291,0.000000000,0.019645691,0.013187408,-1.652017975,-0.435999990,-0.394254684,-0.004396439,-14.870324707,0.000000000,0.005531311,0.004396439,-1.270321655,0.000000000,0.062371254,-0.004396439,-3.589752197,0.000000000,0.003865715,-0.004394816,-0.297584790,0.000000000,0.000778025,0.000001059,-0.096211171
0.315971520,-0.020419000,0.012016296,-0.048351288,-2.973619843,-0.001195000,-0.000953674,-0.048351288,-0.821969604,-0.004668000,-0.004386902,-0.039560318,0.523086548,0.412351996,0.364881516,-0.004396439,2.710632324,-0.411078006,-0.390810079,-0.100623609,-1.487170693,-0.015678000,-0.006192679,-0.265633232,-0.258594616,0.000000000,0.019645691,0.021978378,-1.652017975,-0.435999990,-0.394254684,0.065933228,-15.169235229,0.000000000,0.005531311,-0.030769348,-0.971438599,0.000000000,0.062371254,-0.013187408,-3.150177002,0.000000000,0.003865715,0.004390880,-0.495921232,0.000000000,0.000778025,-0.018111550,0.000081682
0.317971340,-0.020514000,0.012016296,-0.065933228,-2.973619843,-0.001087000,-0.000953674,-0.004396439,-0.523086548,-0.004787000,-0.004386902,0.013187408,-0.224176025,0.412230015,0.364881516,0.004396439,2.417572021,-0.411363006,-0.391000019,-0.104967748,-1.685510794,-0.016496001,-0.006635996,-0.275883120,-0.259117530,0.000000000,0.019645691,-0.021978378,-1.652017975,-0.435999990,-0.394254684,0.013187408,-14.870324707,0.000000000,0.005531311,0.057142258,-1.868142700,0.000000000,0.062371254,-0.004396439,-3.296691895,0.000000000,0.003865715,0.000001492,-0.396753011,0.000000000,0.000778025,0.009056228,-0.048064744
0.319971160,-0.020601001,0.012016296,-0.013187408,-2.753342438,-0.000978000,-0.000953674,0.013187408,-0.971438599,-0.004910000,-0.004386902,-0.057142258,0.373617554,0.412111014,0.364881516,0.013187408,3.150177002,-0.411653012,-0.391189905,-0.122511695,-1.685475144,-0.017321000,-0.007079368,-0.275953037,-0.259301500,0.000000000,0.019645691,-0.004396439,-1.872295380,-0.435999990,-0.393873215,0.065933228,-15.468118286,0.000000000,0.005531311,-0.039560318,-0.672528076,0.000000000,0.062371254,-0.004396439,-3.150177002,0.000000000,0.003865715,0.008790170,-0.495898034,0.000000000,0.000778025,0.009052145,0.096341863
