sainanliu129-hub/model/applications/Body_GravityPara_Iden/data/excitation/single_run/PD-M1-v0_multi_joint_20260325-140507_safe_sim.csv
time,cmd_leg_l1_joint,pos_leg_l1_joint,vel_leg_l1_joint,torque_leg_l1_joint,cmd_leg_l2_joint,pos_leg_l2_joint,vel_leg_l2_joint,torque_leg_l2_joint,cmd_leg_l3_joint,pos_leg_l3_joint,vel_leg_l3_joint,torque_leg_l3_joint,cmd_leg_l4_joint,pos_leg_l4_joint,vel_leg_l4_joint,torque_leg_l4_joint,cmd_leg_l5_joint,pos_leg_l5_joint,vel_leg_l5_joint,torque_leg_l5_joint,cmd_leg_l6_joint,pos_leg_l6_joint,vel_leg_l6_joint,torque_leg_l6_joint,cmd_leg_r1_joint,pos_leg_r1_joint,vel_leg_r1_joint,torque_leg_r1_joint,cmd_leg_r2_joint,pos_leg_r2_joint,vel_leg_r2_joint,torque_leg_r2_joint,cmd_leg_r3_joint,pos_leg_r3_joint,vel_leg_r3_joint,torque_leg_r3_joint,cmd_leg_r4_joint,pos_leg_r4_joint,vel_leg_r4_joint,torque_leg_r4_joint,cmd_leg_r5_joint,pos_leg_r5_joint,vel_leg_r5_joint,torque_leg_r5_joint,cmd_leg_r6_joint,pos_leg_r6_joint,vel_leg_r6_joint,torque_leg_r6_joint
0.000000000,0.000000000,0.000146821,0.146427111,0.844431220,0.000000000,-0.000754426,0.001059214,0.232070264,-0.006823000,-0.009985802,-0.015668984,1.223513218,0.424885005,0.348019870,0.373460288,2.213685322,-0.396259993,-0.378096019,-0.411455858,-0.670227437,0.000000000,0.000010485,-0.002488471,-0.007549461,0.000000000,-0.000170827,-0.001604728,0.027371477,-0.435999990,-0.361136479,-0.392875127,-12.367645651,0.000000000,0.004501757,0.000602263,-1.293570066,0.000000000,0.011754962,-0.003145601,-0.720079638,0.000000000,0.006459448,-0.015645526,-0.608510195,0.000000000,0.001330542,0.001492315,-0.138493179
0.001999820,-0.000031000,-0.000146010,-0.146415681,-0.843695296,0.000016000,-0.000755836,-0.000704941,0.190483397,-0.006821000,-0.010015120,-0.014658973,1.253427490,0.424870014,0.348761767,0.370948683,2.200630688,-0.396315992,-0.378916348,-0.410164858,-0.665973157,0.000000000,0.000014016,0.001765420,0.006015012,0.000000000,-0.000174032,-0.001602259,0.027283539,-0.435999990,-0.361922108,-0.392814213,-12.393135815,0.000000000,0.004502932,0.000587300,-1.293224491,0.000000000,0.011748532,-0.003215056,-0.720143285,0.000000000,0.006428166,-0.015641206,-0.608343920,0.000000000,0.001333605,0.001531864,-0.138713837
0.003999639,-0.000061000,0.000146343,0.146176829,0.840239886,0.000031000,-0.000753641,0.001097508,0.235335500,-0.006816000,-0.010044876,-0.014877907,1.239484028,0.424854010,0.349502982,0.370607764,2.170674345,-0.396375000,-0.379723064,-0.403357582,-0.592396340,0.000000000,0.000009567,-0.002224489,-0.006435645,0.000000000,-0.000177251,-0.001609937,0.027611154,-0.435999990,-0.362707000,-0.392446069,-12.171202691,0.000000000,0.004503959,0.000513765,-1.293219918,0.000000000,0.011741954,-0.003289308,-0.719243436,0.000000000,0.006397431,-0.015367238,-0.605194646,0.000000000,0.001334269,0.000332067,-0.139135910
0.005999459,-0.000091000,-0.000145711,-0.146027408,-0.848731144,0.000045000,-0.000754996,-0.000677473,0.198205652,-0.006810000,-0.010070122,-0.012622937,1.254315205,0.424836993,0.350230316,0.363666830,2.125267839,-0.396436006,-0.380500504,-0.388720175,-0.536182458,0.000000000,0.000013388,0.001910178,0.005357302,0.000000000,-0.000180828,-0.001788412,0.027997784,-0.435999990,-0.363490712,-0.391856049,-11.956428085,0.000000000,0.004504818,0.000429310,-1.291848690,0.000000000,0.011735096,-0.003429029,-0.718300115,0.000000000,0.006367623,-0.014904052,-0.602867355,0.000000000,0.001332302,-0.000983487,-0.135792009
0.007999279,-0.000120000,0.000145487,0.145598985,0.831616828,0.000057000,-0.000752888,0.001053624,0.242718530,-0.006802000,-0.010094644,-0.012260975,1.212191545,0.424820006,0.350952179,0.360931483,2.127587075,-0.396499991,-0.381247247,-0.373371488,-0.505390100,0.000000000,0.000008976,-0.002205854,-0.006783661,0.000000000,-0.000184801,-0.001986170,0.029388323,-0.435999990,-0.364272944,-0.391116057,-11.747007489,0.000000000,0.004505393,0.000287851,-1.290182472,0.000000000,0.011728070,-0.003512988,-0.716873791,0.000000000,0.006338981,-0.014321242,-0.601171638,0.000000000,0.001327606,-0.002348302,-0.131853097
0.009999099,-0.000148000,-0.000146034,-0.145760416,-0.851661030,0.000069000,-0.000754422,-0.000766972,0.206374808,-0.006792000,-0.010114109,-0.009732684,1.213248542,0.424802989,0.351657518,0.352669311,2.100360444,-0.396566004,-0.381953872,-0.353312387,-0.480023540,0.000000000,0.000012691,0.001857451,0.005364086,0.000000000,-0.000189394,-0.002296690,0.030930062,-0.435999990,-0.365053219,-0.390137618,-11.541399805,0.000000000,0.004505718,0.000162377,-1.287146440,0.000000000,0.011720746,-0.003661641,-0.715833219,0.000000000,0.006311754,-0.013613169,-0.599933813,0.000000000,0.001320357,-0.003624361,-0.127498263
0.011998918,-0.000176000,-0.000145223,0.000405892,0.824065654,0.000079000,-0.000752511,0.000955551,0.251401823,-0.006781000,-0.010132627,-0.009258934,1.164436532,0.424784988,0.352356001,0.349241492,2.113460358,-0.396634012,-0.382623382,-0.334755154,-0.472308045,0.000000000,0.000008217,-0.002237092,-0.006563335,0.000000000,-0.000194561,-0.002583246,0.033175670,-0.435999990,-0.365831193,-0.388987093,-11.341741799,0.000000000,0.004505717,-0.000000396,-1.284400670,0.000000000,0.011713232,-0.003757268,-0.714314013,0.000000000,0.006286015,-0.012869770,-0.599195235,0.000000000,0.001310560,-0.004898399,-0.123137835
0.013998738,-0.000202000,0.000145176,0.145199104,-0.005575950,0.000089000,-0.000751149,0.000680893,0.214739290,-0.006769000,-0.010147998,-0.007685236,1.162111054,0.424766988,0.353041835,0.342917389,2.092568606,-0.396703988,-0.383251430,-0.314023893,-0.464275515,0.000000000,0.000008409,0.000096023,0.005529633,0.000000000,-0.000200444,-0.002941750,0.035346853,-0.435999990,-0.366606419,-0.387613003,-11.146630238,0.000000000,0.004505427,-0.000145049,-1.280718674,0.000000000,0.011705436,-0.003898079,-0.713159642,0.000000000,0.006261832,-0.012091605,-0.598707353,0.000000000,0.001298498,-0.006031104,-0.118525633
0.015998558,-0.000228000,-0.000146454,-0.145815069,-0.858107112,0.000097000,-0.000753043,-0.000946864,0.223407152,-0.006755000,-0.010158423,-0.005212865,1.134295515,0.424748003,0.353711005,0.334584971,2.093062569,-0.396777004,-0.383836989,-0.292779790,-0.466812949,0.000000000,0.000012394,0.001992684,-0.001122822,0.000000000,-0.000207065,-0.003310521,0.038001326,-0.435999990,-0.367378507,-0.386043637,-10.957356680,0.000000000,0.004504809,-0.000309084,-1.277364309,0.000000000,0.011697419,-0.004008423,-0.711666313,0.000000000,0.006239154,-0.011338636,-0.598475599,0.000000000,0.001284326,-0.007086023,-0.114086285
0.017998378,-0.000252000,-0.000145809,0.000322626,0.815892145,0.000104000,-0.000751343,0.000850121,0.263037627,-0.006740000,-0.010168296,-0.004936108,1.085315888,0.424728990,0.354373964,0.331479105,2.108822142,-0.396851003,-0.384386060,-0.274535288,-0.475409683,0.000000000,0.000007305,-0.002544452,-0.006917810,0.000000000,-0.000214339,-0.003637064,0.040792474,-0.435999990,-0.368147141,-0.384317038,-10.773392227,0.000000000,0.004503850,-0.000479661,-1.273478287,0.000000000,0.011689227,-0.004095780,-0.710375602,0.000000000,0.006217952,-0.010601053,-0.598324411,0.000000000,0.001268211,-0.008057399,-0.109654852
0.019998197,-0.000276000,-0.000145414,0.000197813,-0.013143540,0.000111000,-0.000750174,0.000584462,0.223898070,-0.006724000,-0.010175446,-0.003575374,1.086125690,0.424708992,0.355025180,0.325608375,2.087821872,-0.396926999,-0.384896380,-0.255160023,-0.479265706,0.000000000,0.000007147,-0.000079234,0.006495578,0.000000000,-0.000222369,-0.004014932,0.043414442,-0.435999990,-0.368911909,-0.382383996,-10.593965786,0.000000000,0.004502594,-0.000628116,-1.269347338,0.000000000,0.011680790,-0.004218801,-0.709237251,0.000000000,0.006198193,-0.009879573,-0.598278568,0.000000000,0.001250478,-0.008866709,-0.105264590
0.021998017,-0.000298000,-0.000145267,0.000073477,-0.015038100,0.000116000,-0.000749166,0.000504073,0.231564469,-0.006707000,-0.010179975,-0.002264092,1.061927760,0.424688995,0.355665119,0.319969463,2.087153781,-0.397004992,-0.385370164,-0.236892208,-0.490454616,0.000000000,0.000007629,0.000240904,-0.000497021,0.000000000,-0.000231108,-0.004369378,0.046407205,-0.435999990,-0.369672462,-0.380276538,-10.420307784,0.000000000,0.004501014,-0.000789941,-1.265632354,0.000000000,0.011672178,-0.004306087,-0.707829853,0.000000000,0.006179776,-0.009208693,-0.598332779,0.000000000,0.001231247,-0.009615232,-0.101171493
0.023997837,-0.000319000,0.000145314,0.145290335,-0.016695667,0.000121000,-0.000748196,0.000484806,0.234517449,-0.006690000,-0.010182103,-0.001064403,1.038387121,0.424668998,0.356294375,0.314627754,2.085550288,-0.397085011,-0.385809698,-0.219766783,-0.502389319,0.000000000,0.000007629,0.000000191,-0.001455868,0.000000000,-0.000240526,-0.004709077,0.049343077,-0.435999990,-0.370428454,-0.377995910,-10.251792973,0.000000000,0.004499135,-0.000939358,-1.261522948,0.000000000,0.011663381,-0.004398484,-0.706665442,0.000000000,0.006162640,-0.008567715,-0.598378737,0.000000000,0.001210707,-0.010269985,-0.097099915
0.025997657,-0.000339000,-0.000148977,-0.147145582,-0.871109041,0.000124000,-0.000750394,-0.001098944,0.236098860,-0.006671000,-0.010180097,0.001003343,1.016688593,0.424647987,0.356909035,0.307330104,2.082509095,-0.397166014,-0.386215483,-0.202892501,-0.514742586,0.000000000,0.000010699,0.001535242,-0.000771559,0.000000000,-0.000250625,-0.005049457,0.052267977,-0.435999990,-0.371179532,-0.375539374,-10.088491589,0.000000000,0.004496977,-0.001078905,-1.257609273,0.000000000,0.011654395,-0.004492823,-0.705453022,0.000000000,0.006146704,-0.007968357,-0.598469245,0.000000000,0.001189060,-0.010823722,-0.093162580
0.027997476,-0.000357000,-0.000149411,-0.000216897,0.811853377,0.000127000,-0.000748942,0.000725976,0.273399175,-0.006653000,-0.010178233,0.000931773,0.974748614,0.424627006,0.357519351,0.305158126,2.094228643,-0.397249013,-0.386594433,-0.189475017,-0.529892044,0.000000000,0.000005322,-0.002688650,-0.005446026,0.000000000,-0.000261287,-0.005331156,0.055269290,-0.435999990,-0.371925427,-0.372947402,-9.930565611,0.000000000,0.004494532,-0.001222446,-1.253839516,0.000000000,0.011645283,-0.004555816,-0.704214882,0.000000000,0.006131876,-0.007413878,-0.598562575,0.000000000,0.001166417,-0.011321691,-0.089400506
0.029997296,-0.000374000,-0.000149849,-0.000219110,-0.020900783,0.000129000,-0.000748039,0.000451755,0.232561348,-0.006634000,-0.010174273,0.001980321,0.980954082,0.424605995,0.358119659,0.300153835,2.069791183,-0.397332996,-0.386944970,-0.175268226,-0.538127708,0.000000000,0.000005195,-0.000063676,0.007105955,0.000000000,-0.000272583,-0.005647949,0.057998811,-0.435999990,-0.372665765,-0.370168936,-9.777176563,0.000000000,0.004491856,-0.001337943,-1.249897821,0.000000000,0.011635973,-0.004655101,-0.703191590,0.000000000,0.006118100,-0.006887978,-0.598640392,0.000000000,0.001143025,-0.011695916,-0.085696327
0.031997116,-0.000390000,-0.000150516,-0.000333203,-0.022653620,0.000130000,-0.000747300,0.000369346,0.239075602,-0.006614000,-0.010168249,0.003011923,0.961511813,0.424584001,0.358710276,0.295308428,2.066116108,-0.397419006,-0.387269631,-0.162330698,-0.551578381,0.000000000,0.000005786,0.000295455,-0.000343976,0.000000000,-0.000284441,-0.005928920,0.060994327,-0.435999990,-0.373400243,-0.367238996,-9.629585333,0.000000000,0.004488932,-0.001461999,-1.246524785,0.000000000,0.011626534,-0.004719678,-0.701897795,0.000000000,0.006105262,-0.006419172,-0.598743258,0.000000000,0.001118944,-0.012040311,-0.082268312
0.033996936,-0.000404000,-0.000151626,-0.000555275,-0.023642866,0.000130000,-0.000746595,0.000352459,0.241013895,-0.006594000,-0.010160319,0.003964745,0.942150706,0.424562007,0.359291628,0.290676201,2.061861690,-0.397507012,-0.387570751,-0.150560025,-0.564240418,0.000000000,0.000005885,0.000049486,-0.001424706,0.000000000,-0.000296814,-0.006186765,0.063847173,-0.435999990,-0.374128563,-0.364160144,-9.487085953,0.000000000,0.004485791,-0.001570766,-1.242887622,0.000000000,0.011616955,-0.004789516,-0.700842544,0.000000000,0.006093298,-0.005981825,-0.598778568,0.000000000,0.001094309,-0.012317655,-0.078855486
0.035996755,-0.000416000,-0.000153296,-0.000834708,-0.023760959,0.000128000,-0.000745909,0.000343133,0.241195499,-0.006572000,-0.010150572,0.004873556,0.924029839,0.424539000,0.359863962,0.286166862,2.056677175,-0.397601008,-0.387850380,-0.139814651,-0.576166095,0.000000000,0.000005631,-0.000126859,-0.000735418,0.000000000,-0.000309668,-0.006426976,0.066624205,-0.435999990,-0.374850441,-0.360938687,-9.349705115,0.000000000,0.004482450,-0.001670508,-1.239534467,0.000000000,0.011607245,-0.004855059,-0.699741077,0.000000000,0.006082133,-0.005582609,-0.598812839,0.000000000,0.001069258,-0.012525557,-0.075577230
0.037996575,-0.000428000,-0.000155622,-0.001163459,-0.023281921,0.000125000,-0.000745257,0.000326149,0.240642874,-0.006546000,-0.010139071,0.005750393,0.906956195,0.424515009,0.360427464,0.281751011,2.051124831,-0.397702008,-0.388110506,-0.130062839,-0.587954214,0.000000000,0.000005319,-0.000155825,-0.000208426,0.000000000,-0.000322967,-0.006649062,0.069352724,-0.435999990,-0.375565594,-0.357576801,-9.217381221,0.000000000,0.004478926,-0.001762085,-1.236328726,0.000000000,0.011597414,-0.004915322,-0.698661859,0.000000000,0.006071695,-0.005218848,-0.598819396,0.000000000,0.001043903,-0.012677170,-0.072454374
0.039996395,-0.000438000,-0.000158722,-0.001549867,-0.022453910,0.000120000,-0.000744647,0.000304604,0.239988902,-0.006518000,-0.010125870,0.006600467,0.891244406,0.424488991,0.360982294,0.277415211,2.045403714,-0.397810012,-0.388353086,-0.121290041,-0.599596588,0.000000000,0.000005066,-0.000126665,-0.000094581,0.000000000,-0.000336671,-0.006852343,0.072026097,-0.435999990,-0.376273751,-0.354078130,-9.090144885,0.000000000,0.004475236,-0.001845058,-1.233255624,0.000000000,0.011587471,-0.004971287,-0.697612556,0.000000000,0.006061920,-0.004887598,-0.598798683,0.000000000,0.001018343,-0.012779967,-0.069460902
0.041996215,-0.000448000,-0.000162715,-0.001996278,-0.021004286,0.000114000,-0.000744081,0.000283069,0.238881835,-0.006487000,-0.010111018,0.007426148,0.876223192,0.424463004,0.361528597,0.273151196,2.039533320,-0.397922993,-0.388580027,-0.113470419,-0.610936679,0.000000000,0.000004875,-0.000095595,-0.000151880,0.000000000,-0.000350745,-0.007036805,0.074636458,-0.435999990,-0.376974646,-0.350447781,-8.967991449,0.000000000,0.004471396,-0.001919583,-1.230329948,0.000000000,0.011577425,-0.005022964,-0.696586732,0.000000000,0.006052746,-0.004587014,-0.598752496,0.000000000,0.000992670,-0.012836943,-0.066585434
0.043996034,-0.000457000,-0.000167706,-0.002495631,-0.019120181,0.000107000,-0.000743554,0.000263723,0.237502546,-0.006453000,-0.010094554,0.008231990,0.862137027,0.424436003,0.362066486,0.268944563,2.033693236,-0.398039013,-0.388793120,-0.106546370,-0.621650473,0.000000000,0.000004725,-0.000074814,-0.000220888,0.000000000,-0.000365150,-0.007202742,0.077179725,-0.435999990,-0.377668028,-0.346690896,-8.850880266,0.000000000,0.004467424,-0.001985996,-1.227553007,0.000000000,0.011567285,-0.005070170,-0.695584859,0.000000000,0.006044116,-0.004315027,-0.598679883,0.000000000,0.000966968,-0.012850722,-0.063828721
0.045995854,-0.000466000,-0.000173769,-0.003031340,-0.016723633,0.000098000,-0.000743060,0.000247083,0.235800483,-0.006417000,-0.010076508,0.009022805,0.848894139,0.424407989,0.362596043,0.264778644,2.027912710,-0.398158014,-0.388994000,-0.100440359,-0.631524933,0.000000000,0.000004606,-0.000059736,-0.000264847,0.000000000,-0.000379851,-0.007350520,0.079653612,-0.435999990,-0.378353652,-0.342812266,-8.738766942,0.000000000,0.004463335,-0.002044564,-1.224921790,0.000000000,0.011557059,-0.005112895,-0.694608810,0.000000000,0.006035977,-0.004069238,-0.598580946,0.000000000,0.000941319,-0.012824540,-0.061192030
0.047995674,-0.000474000,-0.000180935,-0.003582954,-0.014007297,0.000088000,-0.000742595,0.000232374,0.233478195,-0.006380000,-0.010056907,0.009800637,0.836110093,0.424380004,0.363117331,0.260644010,2.022305055,-0.398279011,-0.389184165,-0.095082586,-0.640609116,0.000000000,0.000004518,-0.000043738,-0.000295638,0.000000000,-0.000394812,-0.007480557,0.082056310,-0.435999990,-0.379031286,-0.338816510,-8.631612326,0.000000000,0.004459144,-0.002095539,-1.222434731,0.000000000,0.011546757,-0.005151190,-0.693659207,0.000000000,0.006028283,-0.003847294,-0.598457208,0.000000000,0.000915795,-0.012761760,-0.058674243
0.049995494,-0.000482000,-0.000189189,-0.004127448,-0.010976828,0.000077000,-0.000742156,0.000219423,0.230836358,-0.006340000,-0.010035777,0.010565128,0.823461831,0.424351990,0.363630406,0.256537193,2.016999238,-0.398400992,-0.389364970,-0.090402155,-0.648850825,0.000000000,0.000004466,-0.000026199,-0.000332279,0.000000000,-0.000409999,-0.007593310,0.084386402,-0.435999990,-0.379700702,-0.334708247,-8.529378540,0.000000000,0.004454866,-0.002139217,-1.220090443,0.000000000,0.011536387,-0.005185058,-0.692736253,0.000000000,0.006020989,-0.003647042,-0.598310541,0.000000000,0.000890464,-0.012665512,-0.056273192
0.051995313,-0.000490000,-0.000198479,-0.004644782,-0.007870545,0.000065000,-0.000741739,0.000208302,0.227877844,-0.006300000,-0.010013138,0.011319297,0.811533527,0.424324006,0.364135300,0.252447097,2.012012639,-0.398521990,-0.389537612,-0.086320897,-0.656212302,0.000000000,0.000004452,-0.000006966,-0.000376848,0.000000000,-0.000425378,-0.007689279,0.086642793,-0.435999990,-0.380361686,-0.330492100,-8.432025045,0.000000000,0.004450514,-0.002175932,-1.217886355,0.000000000,0.011525958,-0.005214471,-0.691840489,0.000000000,0.006014056,-0.003466487,-0.598142681,0.000000000,0.000865387,-0.012538639,-0.053986743
0.053995133,-0.000498000,-0.000208718,-0.005119649,-0.004807562,0.000053000,-0.000741343,0.000198280,0.224600032,-0.006258000,-0.009989016,0.012061146,0.799409815,0.424295992,0.364632046,0.248373359,2.007425763,-0.398642004,-0.389703128,-0.082758117,-0.662595880,0.000000000,0.000004479,0.000013750,-0.000430118,0.000000000,-0.000440916,-0.007768964,0.088824728,-0.435999990,-0.381014032,-0.326172680,-8.339508616,0.000000000,0.004446102,-0.002205985,-1.215818916,0.000000000,0.011515479,-0.005239434,-0.690972682,0.000000000,0.006007448,-0.003303737,-0.597955319,0.000000000,0.000840620,-0.012383762,-0.051813009
0.055994953,-0.000506000,-0.000219801,-0.005541497,-0.001883498,0.000040000,-0.000740964,0.000189420,0.221303065,-0.006215000,-0.009963433,0.012791772,0.787711546,0.424268007,0.365120666,0.244310000,2.003235369,-0.398759007,-0.389862409,-0.079640735,-0.668126176,0.000000000,0.000004548,0.000034365,-0.000491796,0.000000000,-0.000456581,-0.007832891,0.090931564,-0.435999990,-0.381657541,-0.321754576,-8.251783664,0.000000000,0.004441643,-0.002229715,-1.213885058,0.000000000,0.011504959,-0.005259924,-0.690133347,0.000000000,0.006001134,-0.003157027,-0.597750233,0.000000000,0.000816213,-0.012203310,-0.049750194
0.057994773,-0.000515000,-0.000231612,-0.005905103,0.000830673,0.000026000,-0.000740602,0.000181084,0.217700598,-0.006172000,-0.009936411,0.013510681,0.776136097,0.424239993,0.365601174,0.240253939,1.999486406,-0.398871988,-0.390016188,-0.076889541,-0.672716111,0.000000000,0.000004660,0.000055790,-0.000557351,0.000000000,-0.000472345,-0.007881582,0.092962919,-0.435999990,-0.382292025,-0.317242325,-8.168802509,0.000000000,0.004437148,-0.002247422,-1.212080737,0.000000000,0.011494407,-0.005275965,-0.689323213,0.000000000,0.005995085,-0.003024688,-0.597529198,0.000000000,0.000792214,-0.011999558,-0.047796564
0.059994592,-0.000524000,-0.000244034,-0.006211191,0.003186413,0.000012000,-0.000740257,0.000172307,0.213806780,-0.006128000,-0.009907979,0.014216033,0.764416969,0.424214005,0.366073586,0.236205702,1.996196094,-0.398979992,-0.390165051,-0.074431382,-0.676414456,0.000000000,0.000004816,0.000078313,-0.000629537,0.000000000,-0.000488176,-0.007915568,0.094918498,-0.435999990,-0.382917306,-0.312640437,-8.090516019,0.000000000,0.004432629,-0.002259410,-1.210402593,0.000000000,0.011483832,-0.005287573,-0.688542686,0.000000000,0.005989274,-0.002905183,-0.597294059,0.000000000,0.000768665,-0.011774624,-0.045950360
0.061994412,-0.000533000,-0.000256957,-0.006461527,0.005282144,-0.000002000,-0.000739931,0.000162927,0.209927914,-0.006084000,-0.009878167,0.014906144,0.752887673,0.424187988,0.366537919,0.232166839,1.993489584,-0.399082005,-0.390309448,-0.072198398,-0.679273572,0.000000000,0.000005017,0.000100138,-0.000709398,0.000000000,-0.000504046,-0.007935374,0.096798161,-0.435999990,-0.383533213,-0.307953389,-8.016873178,0.000000000,0.004428097,-0.002265987,-1.208846988,0.000000000,0.011473243,-0.005294759,-0.687792199,0.000000000,0.005983680,-0.002797101,-0.597046587,0.000000000,0.000745604,-0.011530476,-0.044209844
0.063994232,-0.000543000,-0.000270277,-0.006659798,0.007115958,-0.000016000,-0.000739626,0.000152546,0.206068042,-0.006040000,-0.009847008,0.015579283,0.741310809,0.424163014,0.366994196,0.228138258,1.991224793,-0.399177015,-0.390449699,-0.070125641,-0.681338462,0.000000000,0.000005258,0.000120835,-0.000791690,0.000000000,-0.000519929,-0.007941521,0.098601858,-0.435999990,-0.384139584,-0.303185614,-7.947821087,0.000000000,0.004423562,-0.002267439,-1.207410020,0.000000000,0.011462647,-0.005297563,-0.687072228,0.000000000,0.005978282,-0.002699137,-0.596788487,0.000000000,0.000723066,-0.011268951,-0.042573300
0.065994052,-0.000554000,-0.000283901,-0.006812356,0.008591018,-0.000031000,-0.000739345,0.000140685,0.202236692,-0.005996000,-0.009814541,0.016233484,0.729735282,0.424138993,0.367442440,0.224122241,1.989461736,-0.399264008,-0.390586005,-0.068153042,-0.682658982,0.000000000,0.000005539,0.000140469,-0.000874956,0.000000000,-0.000535799,-0.007934533,0.100329626,-0.435999990,-0.384736267,-0.298341501,-7.883305387,0.000000000,0.004419034,-0.002264051,-1.206088155,0.000000000,0.011452055,-0.005296021,-0.686383058,0.000000000,0.005973062,-0.002610107,-0.596521421,0.000000000,0.000701082,-0.010991760,-0.041039022
0.067993871,-0.000566000,-0.000297754,-0.006926345,0.009733507,-0.000045000,-0.000739091,0.000126707,0.198161329,-0.005953000,-0.009780807,0.016867201,0.718216084,0.424116999,0.367882681,0.220120356,1.988176953,-0.399342000,-0.390718453,-0.066223953,-0.683283252,0.000000000,0.000005859,0.000160143,-0.000959168,0.000000000,-0.000551628,-0.007914923,0.101981620,-0.435999990,-0.385323118,-0.293425387,-7.823270235,0.000000000,0.004414522,-0.002256098,-1.204877714,0.000000000,0.011441475,-0.005290178,-0.685724970,0.000000000,0.005968004,-0.002528931,-0.596246953,0.000000000,0.000679681,-0.010700504,-0.039605311
0.069993691,-0.000578000,-0.000311770,-0.007008233,0.010575599,-0.000063000,-0.000738871,0.000110390,0.194426027,-0.005907000,-0.009745854,0.017476574,0.706515764,0.424095988,0.368314961,0.216140139,1.987425285,-0.399416000,-0.390847033,-0.064289953,-0.683264134,0.000000000,0.000006214,0.000177252,-0.001047472,0.000000000,-0.000567395,-0.007883190,0.103558062,-0.435999990,-0.385900001,-0.288441586,-7.767658407,0.000000000,0.004410034,-0.002243843,-1.203775035,0.000000000,0.011430915,-0.005280089,-0.685098195,0.000000000,0.005963094,-0.002454631,-0.595966564,0.000000000,0.000658888,-0.010396661,-0.038270462
0.071993511,-0.000589000,-0.000325898,-0.007063649,0.011253617,-0.000082000,-0.000738689,0.000090885,0.189615933,-0.005858000,-0.009709728,0.018063107,0.695872341,0.424077004,0.368739324,0.212181495,1.987084549,-0.399484992,-0.390971736,-0.062351635,-0.683246294,0.000000000,0.000006609,0.000197722,-0.001131941,0.000000000,-0.000583074,-0.007839846,0.105059184,-0.435999990,-0.386466790,-0.283394328,-7.716410845,0.000000000,0.004405579,-0.002227559,-1.202776630,0.000000000,0.011420383,-0.005265800,-0.684502874,0.000000000,0.005958322,-0.002386320,-0.595681645,0.000000000,0.000638725,-0.010081624,-0.037032807
0.073993331,-0.000600000,-0.000340090,-0.007095988,0.011900337,-0.000104000,-0.000738553,0.000067865,0.184604808,-0.005808000,-0.009672475,0.018626333,0.686264882,0.424057990,0.369155821,0.208248267,1.987218572,-0.399549991,-0.391092547,-0.060405192,-0.683126508,0.000000000,0.000007047,0.000218698,-0.001230101,0.000000000,-0.000598645,-0.007785364,0.106485400,-0.435999990,-0.387023365,-0.278287828,-7.669467949,0.000000000,0.004401164,-0.002207486,-1.201878596,0.000000000,0.011409888,-0.005247391,-0.683939214,0.000000000,0.005953675,-0.002323198,-0.595393503,0.000000000,0.000619211,-0.009756680,-0.035890659
0.075993150,-0.000612000,-0.000354310,-0.007110093,0.012423449,-0.000128000,-0.000738473,0.000039924,0.178833516,-0.005756000,-0.009634145,0.019164706,0.677148620,0.424039990,0.369564514,0.204346323,1.987666940,-0.399612010,-0.391209459,-0.058456192,-0.683019656,0.000000000,0.000007532,0.000242614,-0.001333941,0.000000000,-0.000614086,-0.007720221,0.107837020,-0.435999990,-0.387569618,-0.273126239,-7.626768014,0.000000000,0.004396796,-0.002183844,-1.201077703,0.000000000,0.011399439,-0.005224954,-0.683407161,0.000000000,0.005949146,-0.002264544,-0.595103373,0.000000000,0.000600365,-0.009423024,-0.034842357
0.077992970,-0.000623000,-0.000368534,-0.007112061,0.012739874,-0.000153000,-0.000738461,0.000006312,0.172620932,-0.005703000,-0.009594789,0.019678156,0.668856951,0.424023002,0.369965472,0.200479346,1.988449875,-0.399672002,-0.391322492,-0.056516633,-0.683012824,0.000000000,0.000008069,0.000268626,-0.001450975,0.000000000,-0.000629375,-0.007644894,0.109114467,-0.435999990,-0.388105445,-0.267913666,-7.588248468,0.000000000,0.004392483,-0.002156877,-1.200370956,0.000000000,0.011389041,-0.005198556,-0.682906577,0.000000000,0.005944727,-0.002209729,-0.594812393,0.000000000,0.000582202,-0.009081772,-0.033886267
0.079992790,-0.000636000,-0.000382740,-0.007102792,0.013094663,-0.000180000,-0.000738527,-0.000033116,0.166271498,-0.005649000,-0.009554459,0.020164916,0.661121406,0.424005985,0.370358782,0.196654959,1.989536789,-0.399729997,-0.391431703,-0.054605413,-0.683166382,0.000000000,0.000008658,0.000294424,-0.001579224,0.000000000,-0.000644495,-0.007559831,0.110318260,-0.435999990,-0.388630754,-0.262654165,-7.553845413,0.000000000,0.004388229,-0.002126798,-1.199754768,0.000000000,0.011378705,-0.005168289,-0.682437482,0.000000000,0.005940411,-0.002158178,-0.594521580,0.000000000,0.000564734,-0.008733972,-0.033020748
0.081992610,-0.000648000,-0.000396918,-0.007089158,0.013170752,-0.000207000,-0.000738685,-0.000079191,0.159507534,-0.005595000,-0.009513208,0.020625740,0.653997046,0.423988998,0.370744530,0.192873857,1.990802226,-0.399785995,-0.391537168,-0.052732208,-0.683423886,0.000000000,0.000009301,0.000321632,-0.001712079,0.000000000,-0.000659426,-0.007465496,0.111448866,-0.435999990,-0.389145457,-0.257351719,-7.523493787,0.000000000,0.004384041,-0.002093821,-1.199226058,0.000000000,0.011368436,-0.005134252,-0.681999704,0.000000000,0.005936192,-0.002109381,-0.594231908,0.000000000,0.000547973,-0.008380596,-0.032244146
0.083992429,-0.000662000,-0.000411059,-0.007070682,0.013325851,-0.000235000,-0.000738949,-0.000131602,0.152920097,-0.005540000,-0.009471089,0.021059411,0.647197356,0.423972011,0.371122812,0.189140879,1.992239533,-0.399841994,-0.391638980,-0.050906382,-0.683750140,0.000000000,0.000009995,0.000346739,-0.001854442,0.000000000,-0.000674151,-0.007362319,0.112506925,-0.435999990,-0.389649478,-0.252010275,-7.497127942,0.000000000,0.004379925,-0.002058150,-1.198781657,0.000000000,0.011358243,-0.005096540,-0.681593030,0.000000000,0.005932066,-0.002062893,-0.593944269,0.000000000,0.000531928,-0.008022562,-0.031554821
0.085992249,-0.000677000,-0.000425165,-0.007052920,0.013236433,-0.000264000,-0.000739330,-0.000190823,0.146221537,-0.005485000,-0.009428155,0.021466795,0.641049615,0.423954993,0.371493726,0.185457188,1.993806375,-0.399897009,-0.391737278,-0.049148746,-0.684310752,0.000000000,0.000010737,0.000371207,-0.001995908,0.000000000,-0.000688652,-0.007250743,0.113492988,-0.435999990,-0.390142745,-0.246633701,-7.474680755,0.000000000,0.004375885,-0.002019985,-1.198418454,0.000000000,0.011348133,-0.005055258,-0.681217242,0.000000000,0.005928029,-0.002018317,-0.593659461,0.000000000,0.000516606,-0.007660710,-0.030951113
0.087992069,-0.000692000,-0.000439243,-0.007038988,0.013040680,-0.000293000,-0.000739844,-0.000257112,0.139426450,-0.005430000,-0.009384460,0.021847899,0.635264742,0.423936993,0.371857375,0.181824364,1.995486354,-0.399953008,-0.391832210,-0.047465863,-0.684933374,0.000000000,0.000011527,0.000394767,-0.002140502,0.000000000,-0.000702915,-0.007131185,0.114407767,-0.435999990,-0.390625197,-0.241225815,-7.456084679,0.000000000,0.004371926,-0.001979511,-1.198133367,0.000000000,0.011338112,-0.005010521,-0.680872041,0.000000000,0.005924079,-0.001975304,-0.593378228,0.000000000,0.000502014,-0.007295843,-0.030431397
0.089991889,-0.000710000,-0.000453301,-0.007029174,0.012863618,-0.000322000,-0.000740505,-0.000330264,0.132828895,-0.005376000,-0.009340054,0.022202653,0.629857755,0.423918009,0.372213865,0.178245026,1.997201584,-0.400009006,-0.391923967,-0.045878841,-0.685783031,0.000000000,0.000012358,0.000415686,-0.002287279,0.000000000,-0.000716923,-0.007004054,0.115251921,-0.435999990,-0.391096777,-0.235790384,-7.441271193,0.000000000,0.004368052,-0.001936913,-1.197923519,0.000000000,0.011328187,-0.004962436,-0.680557058,0.000000000,0.005920212,-0.001933554,-0.593101246,0.000000000,0.000488157,-0.006928693,-0.029994007
0.091991708,-0.000728000,-0.000467361,-0.007029540,0.012387968,-0.000351000,-0.000741326,-0.000410695,0.126428163,-0.005324000,-0.009294992,0.022531159,0.624560821,0.423898011,0.372563304,0.174719684,1.998926693,-0.400068015,-0.392012752,-0.044392130,-0.686680937,0.000000000,0.000013227,0.000434440,-0.002430774,0.000000000,-0.000730662,-0.006869758,0.116026150,-0.435999990,-0.391557440,-0.230331103,-7.430170724,0.000000000,0.004364267,-0.001892358,-1.197785930,0.000000000,0.011318365,-0.004911132,-0.680271938,0.000000000,0.005916426,-0.001892801,-0.592829112,0.000000000,0.000475037,-0.006559943,-0.029637319
0.093991528,-0.000748000,-0.000481438,-0.007038824,0.011969965,-0.000379000,-0.000742323,-0.000498151,0.120237811,-0.005272000,-0.009249330,0.022831121,0.619102307,0.423877001,0.372905817,0.171256372,2.000649357,-0.400128007,-0.392098825,-0.043036564,-0.687898381,0.000000000,0.000014127,0.000450204,-0.002571904,0.000000000,-0.000744120,-0.006728683,0.116731227,-0.435999990,-0.392007143,-0.224851613,-7.422713266,0.000000000,0.004360575,-0.001846017,-1.197717923,0.000000000,0.011308651,-0.004856724,-0.680016184,0.000000000,0.005912720,-0.001852819,-0.592562381,0.000000000,0.000462657,-0.006190243,-0.029359714
0.095991348,-0.000770000,-0.000495559,-0.007060300,0.011391192,-0.000406000,-0.000743506,-0.000591934,0.114540312,-0.005222000,-0.009203119,0.023105537,0.614118925,0.423853993,0.373241514,0.167848442,2.002304623,-0.400191009,-0.392182442,-0.041808515,-0.689116374,0.000000000,0.000015052,0.000462147,-0.002707722,0.000000000,-0.000757282,-0.006581223,0.117367893,-0.435999990,-0.392445854,-0.219355486,-7.418827954,0.000000000,0.004356979,-0.001798062,-1.197716687,0.000000000,0.011299052,-0.004799327,-0.679789367,0.000000000,0.005909094,-0.001813418,-0.592301538,0.000000000,0.000451016,-0.005820186,-0.029159537
0.097991168,-0.000794000,-0.000509751,-0.007096347,0.010672758,-0.000432000,-0.000744891,-0.000692130,0.109323473,-0.005174000,-0.009156412,0.023353293,0.608988868,0.423828989,0.373570513,0.164499512,2.003870632,-0.400258005,-0.392263893,-0.040725836,-0.690524269,0.000000000,0.000015992,0.000470152,-0.002835090,0.000000000,-0.000770137,-0.006427743,0.117937020,-0.435999990,-0.392873546,-0.213846233,-7.418443448,0.000000000,0.004353482,-0.001748633,-1.197779199,0.000000000,0.011289574,-0.004739083,-0.679591047,0.000000000,0.005905545,-0.001774423,-0.592047011,0.000000000,0.000440116,-0.005450336,-0.029035175
0.099990987,-0.000820000,-0.000524049,-0.007148894,0.009831222,-0.000457000,-0.000746488,-0.000798404,0.104592915,-0.005128000,-0.009109264,0.023574238,0.603752622,0.423803002,0.373892935,0.161211153,2.005314211,-0.400328994,-0.392343506,-0.039806385,-0.692141326,0.000000000,0.000016940,0.000474220,-0.002952880,0.000000000,-0.000782675,-0.006268612,0.118439384,-0.435999990,-0.393290201,-0.208327298,-7.421487818,0.000000000,0.004350086,-0.001697883,-1.197903157,0.000000000,0.011280222,-0.004676116,-0.679420570,0.000000000,0.005902073,-0.001735702,-0.591799208,0.000000000,0.000429953,-0.005081215,-0.028984981
0.101990807,-0.000854000,-0.000538488,-0.007219543,0.008881009,-0.000480000,-0.000748308,-0.000910305,0.100344492,-0.005084000,-0.009061727,0.023768252,0.598428599,0.423774004,0.374208904,0.157984480,2.006680551,-0.400402993,-0.392421628,-0.039060685,-0.693883777,0.000000000,0.000017889,0.000474488,-0.003060298,0.000000000,-0.000794883,-0.006104186,0.118875865,-0.435999990,-0.393695805,-0.202802061,-7.427888620,0.000000000,0.004346794,-0.001645958,-1.198085826,0.000000000,0.011271001,-0.004610554,-0.679277410,0.000000000,0.005898679,-0.001697138,-0.591558456,0.000000000,0.000420527,-0.004713309,-0.029007327
0.103990627,-0.000900000,-0.000553133,-0.007322502,0.007195500,-0.000504000,-0.000750365,-0.001028333,0.096855429,-0.005040000,-0.009013852,0.023937752,0.593034914,0.423741013,0.374518529,0.154812665,2.007825930,-0.400480986,-0.392498591,-0.038481597,-0.695587191,0.000000000,0.000018831,0.000470873,-0.003156969,0.000000000,-0.000806753,-0.005934820,0.119247347,-0.435999990,-0.394090353,-0.197273835,-7.437573001,0.000000000,0.004343608,-0.001592995,-1.198324617,0.000000000,0.011261916,-0.004542531,-0.679160973,0.000000000,0.005895362,-0.001658640,-0.591325050,0.000000000,0.000411832,-0.004347068,-0.029100580
0.105990447,-0.000959000,-0.000568095,-0.007480672,0.004435542,-0.000528000,-0.000752673,-0.001154233,0.093287824,-0.004998000,-0.008965675,0.024088158,0.588099375,0.423705995,0.374821895,0.151682683,2.008729819,-0.400563002,-0.392574723,-0.038065888,-0.697337582,0.000000000,0.000019766,0.000467407,-0.003241870,0.000000000,-0.000818274,-0.005760859,0.119554791,-0.435999990,-0.394473844,-0.191745848,-7.450467746,0.000000000,0.004340530,-0.001539132,-1.198616983,0.000000000,0.011252972,-0.004472177,-0.679070618,0.000000000,0.005892122,-0.001620133,-0.591099238,0.000000000,0.000403867,-0.003982924,-0.029263133
0.107990266,-0.001028000,-0.000583526,-0.007715793,0.000635820,-0.000551000,-0.000755253,-0.001289933,0.089969841,-0.004956000,-0.008917237,0.024218901,0.582941850,0.423667997,0.375119087,0.148596064,2.009603763,-0.400647014,-0.392650357,-0.037817487,-0.699114131,0.000000000,0.000020691,0.000462613,-0.003326493,0.000000000,-0.000829440,-0.005582613,0.119799166,-0.435999990,-0.394846287,-0.186221292,-7.466499692,0.000000000,0.004337561,-0.001484480,-1.198960317,0.000000000,0.011244172,-0.004399637,-0.679005729,0.000000000,0.005888958,-0.001581553,-0.590881238,0.000000000,0.000396624,-0.003621277,-0.029493323
0.109990086,-0.001107000,-0.000599608,-0.008040764,-0.003744536,-0.000575000,-0.000758124,-0.001435385,0.087234934,-0.004914000,-0.008868570,0.024333865,0.578154604,0.423628002,0.375410171,0.145542169,2.010371164,-0.400732994,-0.392725783,-0.037712530,-0.700667036,0.000000000,0.000021599,0.000453686,-0.003406370,0.000000000,-0.000840240,-0.005400395,0.119981307,-0.435999990,-0.395207694,-0.180703301,-7.485594679,0.000000000,0.004334703,-0.001429177,-1.199352577,0.000000000,0.011235522,-0.004325025,-0.678965533,0.000000000,0.005885873,-0.001542868,-0.590671239,0.000000000,0.000390099,-0.003262478,-0.029789517
0.111989906,-0.001196000,-0.000616541,-0.008466405,-0.008613433,-0.000598000,-0.000761307,-0.001591518,0.084519028,-0.004873000,-0.008819700,0.024434905,0.573658935,0.423586011,0.375695203,0.142515763,2.011165641,-0.400821000,-0.392801248,-0.037732865,-0.702032133,0.000000000,0.000022486,0.000443642,-0.003472695,0.000000000,-0.000850669,-0.005214516,0.120102145,-0.435999990,-0.395558083,-0.175194917,-7.507678079,0.000000000,0.004331956,-0.001373325,-1.199791012,0.000000000,0.011227025,-0.004248490,-0.678949494,0.000000000,0.005882865,-0.001504032,-0.590469363,0.000000000,0.000384285,-0.002906865,-0.030150139
0.113989726,-0.001292000,-0.000634542,-0.009000787,-0.013888219,-0.000621000,-0.000764824,-0.001758734,0.082417713,-0.004833000,-0.008770657,0.024521505,0.569136575,0.423541009,0.375974238,0.139517520,2.012020930,-0.400911003,-0.392876982,-0.037866822,-0.703241730,0.000000000,0.000023347,0.000430620,-0.003533814,0.000000000,-0.000860720,-0.005025275,0.120162651,-0.435999990,-0.395897482,-0.169699128,-7.532675675,0.000000000,0.004329322,-0.001317036,-1.200273597,0.000000000,0.011218685,-0.004170164,-0.678956798,0.000000000,0.005879935,-0.001465029,-0.590275764,0.000000000,0.000379176,-0.002554758,-0.030573580
0.115989545,-0.001396000,-0.000653831,-0.009644360,-0.019180285,-0.000644000,-0.000768698,-0.001936645,0.080662178,-0.004794000,-0.008721469,0.024594071,0.564607426,0.423494011,0.376247329,0.136545621,2.012864666,-0.401001990,-0.392953183,-0.038100785,-0.704303024,0.000000000,0.000024177,0.000415163,-0.003583833,0.000000000,-0.000870386,-0.004832962,0.120163798,-0.435999990,-0.396225919,-0.164218845,-7.560512668,0.000000000,0.004326801,-0.001260418,-1.200798094,0.000000000,0.011210505,-0.004090173,-0.678986723,0.000000000,0.005877083,-0.001425853,-0.590090521,0.000000000,0.000374763,-0.002206457,-0.031058229
0.117989365,-0.001506000,-0.000674629,-0.010398853,-0.024570438,-0.000666000,-0.000772948,-0.002125076,0.079249658,-0.004755000,-0.008672163,0.024652716,0.560070016,0.423446000,0.376514526,0.133598722,2.013770469,-0.401093990,-0.393030013,-0.038414509,-0.705132103,0.000000000,0.000024974,0.000398169,-0.003623805,0.000000000,-0.000879662,-0.004637871,0.120106583,-0.435999990,-0.396543433,-0.158756905,-7.591114414,0.000000000,0.004324394,-0.001203574,-1.201362200,0.000000000,0.011202487,-0.004008655,-0.679038581,0.000000000,0.005874310,-0.001386502,-0.589913691,0.000000000,0.000371038,-0.001862238,-0.031602458
0.119989185,-0.001622000,-0.000697150,-0.011260802,-0.029812020,-0.000689000,-0.000777594,-0.002323021,0.078466493,-0.004716000,-0.008622768,0.024697615,0.555814276,0.423395991,0.376775879,0.130676227,2.014806854,-0.401185989,-0.393107597,-0.038792464,-0.705773418,0.000000000,0.000025730,0.000378090,-0.003655973,0.000000000,-0.000888542,-0.004440275,0.119992062,-0.435999990,-0.396850065,-0.153316087,-7.624406316,0.000000000,0.004322101,-0.001146608,-1.201963739,0.000000000,0.011194636,-0.003925729,-0.679111604,0.000000000,0.005871616,-0.001346987,-0.589745312,0.000000000,0.000367994,-0.001522358,-0.032204658
0.121989005,-0.001742000,-0.000721605,-0.012227323,-0.034901757,-0.000711000,-0.000782654,-0.002530183,0.077726781,-0.004678000,-0.008573308,0.024729940,0.551843926,0.423345000,0.377031427,0.127774191,2.015912845,-0.401279002,-0.393186019,-0.039210797,-0.706155729,0.000000000,0.000026446,0.000357837,-0.003675312,0.000000000,-0.000897023,-0.004240447,0.119821254,-0.435999990,-0.397145863,-0.147899083,-7.660313511,0.000000000,0.004319922,-0.001089610,-1.202600401,0.000000000,0.011186953,-0.003841534,-0.679205102,0.000000000,0.005869001,-0.001307317,-0.589585386,0.000000000,0.000365620,-0.001187058,-0.032863222
0.123988824,-0.001865000,-0.000748185,-0.013289908,-0.039620445,-0.000733000,-0.000788145,-0.002745590,0.077597571,-0.004641000,-0.008523814,0.024747213,0.547855303,0.423292011,0.377281225,0.124898783,2.017177907,-0.401371002,-0.393265350,-0.039665479,-0.706441092,0.000000000,0.000027116,0.000335008,-0.003690064,0.000000000,-0.000905100,-0.004038638,0.119595222,-0.435999990,-0.397430881,-0.142508540,-7.698761584,0.000000000,0.004317856,-0.001032666,-1.203270209,0.000000000,0.011179440,-0.003756200,-0.679318256,0.000000000,0.005866466,-0.001267514,-0.589433920,0.000000000,0.000363906,-0.000856555,-0.033576539
0.125988644,-0.001991000,-0.000777062,-0.014438793,-0.043889151,-0.000755000,-0.000794081,-0.002968012,0.077777327,-0.004603000,-0.008474315,0.024749657,0.543913145,0.423238993,0.377525320,0.122047786,2.018490827,-0.401463002,-0.393345610,-0.040129930,-0.706428806,0.000000000,0.000027737,0.000310794,-0.003692873,0.000000000,-0.000912771,-0.003835105,0.119314964,-0.435999990,-0.397705175,-0.137147019,-7.739675593,0.000000000,0.004315905,-0.000975863,-1.203971174,0.000000000,0.011172101,-0.003669849,-0.679450293,0.000000000,0.005864011,-0.001227603,-0.589290877,0.000000000,0.000362844,-0.000531047,-0.034343025
0.127988464,-0.002119000,-0.000808392,-0.015664987,-0.047744679,-0.000776000,-0.000800474,-0.003196290,0.078242172,-0.004567000,-0.008424838,0.024738095,0.540589327,0.423184991,0.377763761,0.119220036,2.019988507,-0.401553005,-0.393426798,-0.040593854,-0.706294864,0.000000000,0.000028309,0.000285917,-0.003686857,0.000000000,-0.000920031,-0.003630100,0.118981569,-0.435999990,-0.397968809,-0.131817013,-7.782981111,0.000000000,0.004314066,-0.000919292,-1.204701227,0.000000000,0.011164935,-0.003582600,-0.679600461,0.000000000,0.005861636,-0.001187612,-0.589156209,0.000000000,0.000362423,-0.000210724,-0.035161103
0.129988284,-0.002248000,-0.000842307,-0.016957187,-0.051114809,-0.000797000,-0.000807333,-0.003429387,0.079253514,-0.004530000,-0.008375419,0.024709843,0.537020257,0.423130006,0.377996601,0.116420255,2.021616065,-0.401641995,-0.393508868,-0.041035463,-0.705866847,0.000000000,0.000028827,0.000259158,-0.003673924,0.000000000,-0.000926878,-0.003423846,0.118596142,-0.435999990,-0.398221851,-0.126520950,-7.828603883,0.000000000,0.004312340,-0.000863012,-1.205458201,0.000000000,0.011157946,-0.003494594,-0.679768035,0.000000000,0.005859341,-0.001147567,-0.589029851,0.000000000,0.000362631,0.000104240,-0.036029189
0.131988103,-0.002377000,-0.000878914,-0.018303798,-0.053942764,-0.000818000,-0.000814664,-0.003665729,0.080506341,-0.004494000,-0.008326085,0.024667025,0.534129060,0.423074991,0.378223889,0.113643774,2.023336387,-0.401730001,-0.393591752,-0.041441609,-0.705310604,0.000000000,0.000029291,0.000231755,-0.003650230,0.000000000,-0.000933312,-0.003216587,0.118159688,-0.435999990,-0.398464373,-0.121261184,-7.876469623,0.000000000,0.004310726,-0.000807119,-1.206240576,0.000000000,0.011151134,-0.003405927,-0.679952116,0.000000000,0.005857126,-0.001107511,-0.588911741,0.000000000,0.000363459,0.000413689,-0.036945701
0.133987923,-0.002505000,-0.000918297,-0.019691466,-0.056175979,-0.000839000,-0.000822473,-0.003904376,0.081966969,-0.004458000,-0.008276870,0.024607132,0.531307366,0.423018992,0.378445683,0.110896967,2.025239969,-0.401814997,-0.393675370,-0.041809325,-0.704673691,0.000000000,0.000029699,0.000204227,-0.003619168,0.000000000,-0.000939329,-0.003008533,0.117673359,-0.435999990,-0.398696453,-0.116040000,-7.926504494,0.000000000,0.004309222,-0.000751666,-1.207045976,0.000000000,0.011144501,-0.003316739,-0.680152087,0.000000000,0.005854991,-0.001067470,-0.588801759,0.000000000,0.000364894,0.000717472,-0.037909082
0.135987743,-0.002641000,-0.000960510,-0.021106658,-0.057774593,-0.000858000,-0.000830761,-0.004143770,0.083615377,-0.004423000,-0.008227807,0.024531490,0.528906092,0.422962993,0.378662034,0.108175641,2.027217513,-0.401901007,-0.393759598,-0.042113908,-0.703767500,0.000000000,0.000030053,0.000176780,-0.003582185,0.000000000,-0.000944929,-0.002799906,0.117138184,-0.435999990,-0.398918172,-0.110859616,-7.978634874,0.000000000,0.004307829,-0.000696730,-1.207872973,0.000000000,0.011138047,-0.003227131,-0.680367036,0.000000000,0.005852936,-0.001027488,-0.588699830,0.000000000,0.000366925,0.001015460,-0.038917759
0.137987563,-0.002788000,-0.001005621,-0.022555149,-0.059768599,-0.000877000,-0.000839530,-0.004384525,0.085985261,-0.004387000,-0.008178932,0.024437717,0.526619702,0.422904015,0.378873010,0.105488158,2.029357714,-0.401988000,-0.393844357,-0.042379537,-0.703081634,0.000000000,0.000030350,0.000148684,-0.003539886,0.000000000,-0.000950110,-0.002590918,0.116555293,-0.435999990,-0.399129617,-0.105722182,-8.032787398,0.000000000,0.004306544,-0.000642365,-1.208719476,0.000000000,0.011131772,-0.003137232,-0.680596283,0.000000000,0.005850960,-0.000987602,-0.588605811,0.000000000,0.000369540,0.001307544,-0.039970195
0.139987382,-0.002945000,-0.001053723,-0.024051031,-0.062438009,-0.000895000,-0.000848784,-0.004627231,0.088522806,-0.004352000,-0.008130271,0.024330402,0.525080920,0.422845006,0.379078661,0.102825274,2.031408630,-0.402076006,-0.393929586,-0.042614427,-0.702552220,0.000000000,0.000030594,0.000121637,-0.003490065,0.000000000,-0.000954874,-0.002381778,0.115925809,-0.435999990,-0.399330876,-0.100629761,-8.088889016,0.000000000,0.004305367,-0.000588646,-1.209583982,0.000000000,0.011125678,-0.003047134,-0.680838959,0.000000000,0.005849065,-0.000947855,-0.588519584,0.000000000,0.000372727,0.001593600,-0.041064886
0.141987202,-0.003109000,-0.001104930,-0.025603442,-0.065586446,-0.000912000,-0.000858529,-0.004872363,0.091526688,-0.004317000,-0.008081856,0.024207695,0.523625281,0.422782987,0.379279048,0.100193530,2.033619218,-0.402164996,-0.394015256,-0.042834932,-0.702165127,0.000000000,0.000030780,0.000093353,-0.003437757,0.000000000,-0.000959219,-0.002172658,0.115250880,-0.435999990,-0.399522045,-0.095584372,-8.146867471,0.000000000,0.004304296,-0.000535614,-1.210464403,0.000000000,0.011119764,-0.002956962,-0.681094427,0.000000000,0.005847248,-0.000908280,-0.588440993,0.000000000,0.000376474,0.001873519,-0.042200255
0.143987022,-0.003282000,-0.001159358,-0.027214290,-0.068830391,-0.000929000,-0.000868767,-0.005119192,0.095009043,-0.004282000,-0.008033712,0.024071868,0.522587532,0.422719985,0.379474225,0.097588521,2.035750791,-0.402253002,-0.394101350,-0.043046879,-0.701873754,0.000000000,0.000030906,0.000062742,-0.003376214,0.000000000,-0.000963147,-0.001963745,0.114531484,-0.435999990,-0.399703221,-0.090587969,-8.206650360,0.000000000,0.004303329,-0.000483336,-1.211359452,0.000000000,0.011114030,-0.002866803,-0.681361817,0.000000000,0.005845510,-0.000868924,-0.588369914,0.000000000,0.000380768,0.002147225,-0.043374759
0.145986842,-0.003461000,-0.001217137,-0.028889165,-0.072359826,-0.000946000,-0.000879503,-0.005368014,0.098670127,-0.004247000,-0.007985863,0.023924358,0.521923774,0.422654986,0.379664238,0.095006837,2.037959311,-0.402341008,-0.394187827,-0.043238881,-0.701464476,0.000000000,0.000030970,0.000032228,-0.003301868,0.000000000,-0.000966657,-0.001755223,0.113768718,-0.435999990,-0.399874506,-0.085642417,-8.268165644,0.000000000,0.004302465,-0.000431855,-1.212267162,0.000000000,0.011108477,-0.002776770,-0.681640506,0.000000000,0.005843851,-0.000829818,-0.588306168,0.000000000,0.000385598,0.002414643,-0.044586925
0.147986661,-0.003645000,-0.001278389,-0.030626323,-0.075809663,-0.000962000,-0.000890740,-0.005618513,0.102517731,-0.004213000,-0.007938332,0.023765789,0.521608136,0.422589004,0.379849134,0.092447795,2.040202052,-0.402429014,-0.394274653,-0.043412706,-0.701073090,0.000000000,0.000030974,0.000001737,-0.003221631,0.000000000,-0.000969752,-0.001547261,0.112963712,-0.435999990,-0.400036005,-0.080749526,-8.331342226,0.000000000,0.004301703,-0.000381224,-1.213186102,0.000000000,0.011103103,-0.002686956,-0.681929670,0.000000000,0.005842269,-0.000791003,-0.588249617,0.000000000,0.000390949,0.002675695,-0.045835266
0.149986481,-0.003834000,-0.001343231,-0.032420748,-0.079069921,-0.000979000,-0.000902480,-0.005870043,0.106829925,-0.004180000,-0.007891143,0.023594550,0.521348456,0.422520012,0.380028966,0.089916063,2.042545017,-0.402516007,-0.394361798,-0.043572772,-0.700698249,0.000000000,0.000030914,-0.000029856,-0.003135296,0.000000000,-0.000972432,-0.001340020,0.112117539,-0.435999990,-0.400187827,-0.075911041,-8.396109236,0.000000000,0.004301040,-0.000331482,-1.214114596,0.000000000,0.011097908,-0.002597462,-0.682228628,0.000000000,0.005840764,-0.000752516,-0.588200081,0.000000000,0.000396810,0.002930322,-0.047118274
0.151986301,-0.004026000,-0.001411768,-0.034268816,-0.082156759,-0.000996000,-0.000914725,-0.006122277,0.111024175,-0.004147000,-0.007844319,0.023411950,0.521188550,0.422450006,0.380203782,0.087407814,2.044823571,-0.402601004,-0.394449215,-0.043708352,-0.700227762,0.000000000,0.000030795,-0.000059558,-0.003039444,0.000000000,-0.000974699,-0.001133672,0.111231263,-0.435999990,-0.400330084,-0.071128623,-8.462396246,0.000000000,0.004300475,-0.000282675,-1.215051272,0.000000000,0.011092891,-0.002508379,-0.682536611,0.000000000,0.005839335,-0.000714396,-0.588157393,0.000000000,0.000403167,0.003178471,-0.048434487
0.153986121,-0.004221000,-0.001484094,-0.036162591,-0.084866013,-0.001013000,-0.000927473,-0.006374192,0.115377723,-0.004114000,-0.007797881,0.023218696,0.521389412,0.422376990,0.380373624,0.084921174,2.047188065,-0.402684987,-0.394536826,-0.043805509,-0.699597684,0.000000000,0.000030618,-0.000088448,-0.002942963,0.000000000,-0.000976556,-0.000928370,0.110306047,-0.435999990,-0.400462892,-0.066403878,-8.530133855,0.000000000,0.004300005,-0.000234851,-1.215994528,0.000000000,0.011088052,-0.002419790,-0.682852931,0.000000000,0.005837982,-0.000676680,-0.588121370,0.000000000,0.000410007,0.003420089,-0.049782436
0.155985940,-0.004418000,-0.001560283,-0.038094851,-0.087232853,-0.001031000,-0.000940724,-0.006625169,0.119867304,-0.004082000,-0.007751850,0.023015736,0.521941111,0.422302991,0.380538532,0.082453995,2.049522976,-0.402767003,-0.394624551,-0.043862495,-0.698954793,0.000000000,0.000030385,-0.000116407,-0.002842951,0.000000000,-0.000978004,-0.000724261,0.109342976,-0.435999990,-0.400586368,-0.061738347,-8.599252912,0.000000000,0.004299629,-0.000188043,-1.216942748,0.000000000,0.011083388,-0.002331787,-0.683176932,0.000000000,0.005836703,-0.000639401,-0.588091818,0.000000000,0.000417317,0.003655145,-0.051160661
0.157985760,-0.004616000,-0.001640397,-0.040056669,-0.089183375,-0.001050000,-0.000954473,-0.006874758,0.124194076,-0.004051000,-0.007706246,0.022801781,0.522543558,0.422226995,0.380698551,0.080009349,2.051969113,-0.402846992,-0.394712297,-0.043872919,-0.698215804,0.000000000,0.000030101,-0.000141993,-0.002739933,0.000000000,-0.000979047,-0.000521485,0.108343137,-0.435999990,-0.400700635,-0.057133495,-8.669684936,0.000000000,0.004299344,-0.000142277,-1.217894601,0.000000000,0.011078899,-0.002244462,-0.683507883,0.000000000,0.005835498,-0.000602590,-0.588068560,0.000000000,0.000425084,0.003883603,-0.052567737
0.159985580,-0.004813000,-0.001724473,-0.042038150,-0.090655076,-0.001069000,-0.000968718,-0.007122210,0.128347132,-0.004021000,-0.007661093,0.022576609,0.523232023,0.422147989,0.380853726,0.077587657,2.054437795,-0.402925014,-0.394799958,-0.043830663,-0.697402266,0.000000000,0.000029771,-0.000164993,-0.002638490,0.000000000,-0.000979688,-0.000320185,0.107307615,-0.435999990,-0.400805817,-0.052590732,-8.741362246,0.000000000,0.004299149,-0.000097594,-1.218848895,0.000000000,0.011074583,-0.002157887,-0.683845046,0.000000000,0.005834365,-0.000566286,-0.588051412,0.000000000,0.000433295,0.004105440,-0.054002236
0.161985400,-0.005009000,-0.001812525,-0.044025887,-0.091486554,-0.001090000,-0.000983450,-0.007366225,0.132592485,-0.003991000,-0.007616413,0.022340167,0.524017879,0.422066987,0.381004104,0.075188748,2.056859119,-0.402999014,-0.394887423,-0.043732240,-0.696548250,0.000000000,0.000029397,-0.000186949,-0.002539752,0.000000000,-0.000979929,-0.000120489,0.106237523,-0.435999990,-0.400902040,-0.048111405,-8.814217707,0.000000000,0.004299041,-0.000054025,-1.219804105,0.000000000,0.011070439,-0.002072139,-0.684187810,0.000000000,0.005833304,-0.000530519,-0.588040162,0.000000000,0.000441937,0.004320641,-0.055462751
0.163985219,-0.005203000,-0.001904543,-0.046008948,-0.091752325,-0.001112000,-0.000998662,-0.007606125,0.136330332,-0.003963000,-0.007572224,0.022094338,0.525193226,0.421983987,0.381149718,0.072806990,2.059295433,-0.403070003,-0.394974533,-0.043555247,-0.695467196,0.000000000,0.000028987,-0.000204912,-0.002439543,0.000000000,-0.000979774,0.000077470,0.105133924,-0.435999990,-0.400989433,-0.043696779,-8.888184739,0.000000000,0.004299018,-0.000011597,-1.220758888,0.000000000,0.011066465,-0.001987296,-0.684535533,0.000000000,0.005832313,-0.000495315,-0.588034613,0.000000000,0.000450995,0.004529192,-0.056947899
0.165985039,-0.005393000,-0.002000492,-0.047974466,-0.091408550,-0.001135000,-0.001014345,-0.007841433,0.139827264,-0.003935000,-0.007528551,0.021836435,0.526152004,0.421898991,0.381290615,0.070448633,2.061784596,-0.403138012,-0.395061132,-0.043299561,-0.694341079,0.000000000,0.000028548,-0.000219786,-0.002347055,0.000000000,-0.000979227,0.000273579,0.103997949,-0.435999990,-0.401068129,-0.039348074,-8.963197984,0.000000000,0.004299077,0.000029673,-1.221711968,0.000000000,0.011062658,-0.001903436,-0.684887547,0.000000000,0.005831392,-0.000460703,-0.588034579,0.000000000,0.000460457,0.004731086,-0.058456296
0.167984859,-0.005581000,-0.002100307,-0.049907513,-0.090318647,-0.001160000,-0.001030487,-0.008070763,0.143069822,-0.003908000,-0.007485416,0.021567586,0.527530634,0.421810001,0.381426838,0.068111424,2.064279234,-0.403203011,-0.395147056,-0.042961761,-0.693189176,0.000000000,0.000028084,-0.000232103,-0.002260342,0.000000000,-0.000978291,0.000467716,0.102830633,-0.435999990,-0.401138262,-0.035066443,-9.039192366,0.000000000,0.004299217,0.000069747,-1.222662324,0.000000000,0.011059016,-0.001820612,-0.685243162,0.000000000,0.005830538,-0.000426715,-0.588039859,0.000000000,0.000470310,0.004926328,-0.059986576
0.169984679,-0.005771000,-0.002203906,-0.051799723,-0.088787079,-0.001188000,-0.001047075,-0.008294101,0.145739060,-0.003882000,-0.007442839,0.021288521,0.529025377,0.421716988,0.381558424,0.065793187,2.066666564,-0.403266996,-0.395232136,-0.042540218,-0.692034791,0.000000000,0.000027604,-0.000239818,-0.002178411,0.000000000,-0.000976972,0.000659769,0.101633077,-0.435999990,-0.401199968,-0.030852964,-9.116103651,0.000000000,0.004299434,0.000108616,-1.223608409,0.000000000,0.011055539,-0.001738905,-0.685601875,0.000000000,0.005829752,-0.000393369,-0.588050234,0.000000000,0.000480540,0.005114921,-0.061537407
0.171984498,-0.005962000,-0.002311212,-0.053653129,-0.087296245,-0.001217000,-0.001064100,-0.008512645,0.147547002,-0.003856000,-0.007400840,0.020999694,0.530625612,0.421618998,0.381685413,0.063494269,2.068957772,-0.403329998,-0.395316244,-0.042053572,-0.691101285,0.000000000,0.000027122,-0.000240834,-0.002108003,0.000000000,-0.000975272,0.000849623,0.100406368,-0.435999990,-0.401253385,-0.026708655,-9.193868716,0.000000000,0.004299726,0.000146259,-1.224549326,0.000000000,0.011052222,-0.001658378,-0.685962971,0.000000000,0.005829030,-0.000360691,-0.588065527,0.000000000,0.000491133,0.005296874,-0.063107457
0.173984318,-0.006154000,-0.002422148,-0.055467802,-0.085736349,-0.001248000,-0.001081553,-0.008726351,0.149086513,-0.003831000,-0.007359433,0.020703266,0.532610830,0.421516001,0.381807834,0.061210642,2.071087709,-0.403391987,-0.395399275,-0.041515630,-0.690351839,0.000000000,0.000026645,-0.000238891,-0.002056435,0.000000000,-0.000973198,0.001037186,0.099151619,-0.435999990,-0.401298654,-0.022634496,-9.272425232,0.000000000,0.004300092,0.000182650,-1.225483920,0.000000000,0.011049064,-0.001579076,-0.686325858,0.000000000,0.005828373,-0.000328710,-0.588085524,0.000000000,0.000502078,0.005472203,-0.064695406
0.175984138,-0.006348000,-0.002536635,-0.057243732,-0.084115149,-0.001281000,-0.001099424,-0.008935763,0.150069561,-0.003806000,-0.007318633,0.020399813,0.534652238,0.421409994,0.381925717,0.058941484,2.073081193,-0.403452992,-0.395481152,-0.040938534,-0.689754556,0.000000000,0.000026178,-0.000233533,-0.002013671,0.000000000,-0.000970753,0.001222368,0.097869838,-0.435999990,-0.401335917,-0.018631390,-9.351711162,0.000000000,0.004300527,0.000217788,-1.226410882,0.000000000,0.011046062,-0.001501071,-0.686690049,0.000000000,0.005827778,-0.000297436,-0.588110004,0.000000000,0.000513360,0.005640931,-0.066299961
0.177983957,-0.006543000,-0.002654602,-0.058983193,-0.082547668,-0.001316000,-0.001117707,-0.009141427,0.150506063,-0.003782000,-0.007278452,0.020090466,0.537025060,0.421299011,0.382039088,0.056685593,2.075068368,-0.403513014,-0.395561817,-0.040332619,-0.689285840,0.000000000,0.000025728,-0.000224556,-0.001981700,0.000000000,-0.000967943,0.001405070,0.096562043,-0.435999990,-0.401365318,-0.014700180,-9.431665663,0.000000000,0.004301031,0.000251653,-1.227329485,0.000000000,0.011043213,-0.001424410,-0.687054877,0.000000000,0.005827244,-0.000266892,-0.588138794,0.000000000,0.000524966,0.005803088,-0.067919858
0.179983777,-0.006739000,-0.002775974,-0.060686242,-0.080922222,-0.001351000,-0.001136395,-0.009343844,0.150406199,-0.003758000,-0.007238901,0.019775758,0.539422897,0.421186000,0.382147972,0.054442051,2.076931850,-0.403571993,-0.395641229,-0.039706195,-0.688922135,0.000000000,0.000025304,-0.000212451,-0.001961831,0.000000000,-0.000964773,0.001585211,0.095229322,-0.435999990,-0.401387001,-0.010841657,-9.512228774,0.000000000,0.004301599,0.000284237,-1.228238542,0.000000000,0.011040514,-0.001349144,-0.687419842,0.000000000,0.005826770,-0.000237094,-0.588171683,0.000000000,0.000536883,0.005958695,-0.069553847
0.181983597,-0.006935000,-0.002900678,-0.062352025,-0.079246133,-0.001388000,-0.001155480,-0.009542773,0.150347969,-0.003735000,-0.007199990,0.019455713,0.542120820,0.421068996,0.382252397,0.052212255,2.078862981,-0.403629005,-0.395719364,-0.039067390,-0.688637936,0.000000000,0.000024903,-0.000200186,-0.001953304,0.000000000,-0.000961247,0.001762707,0.093872687,-0.435999990,-0.401401114,-0.007056557,-9.593341348,0.000000000,0.004302230,0.000315527,-1.229137147,0.000000000,0.011037964,-0.001275317,-0.687784393,0.000000000,0.005826354,-0.000208060,-0.588208475,0.000000000,0.000549099,0.006107795,-0.071200671
0.183983417,-0.007133000,-0.003028635,-0.063978473,-0.077425722,-0.001426000,-0.001174957,-0.009738476,0.149755470,-0.003712000,-0.007161728,0.019131001,0.544837167,0.420949012,0.382352385,0.049994182,2.080725842,-0.403683990,-0.395796188,-0.038411724,-0.688319269,0.000000000,0.000024532,-0.000185725,-0.001947710,0.000000000,-0.000957372,0.001937480,0.092493162,-0.435999990,-0.401407805,-0.003345541,-9.674944931,0.000000000,0.004302921,0.000345520,-1.230024256,0.000000000,0.011035558,-0.001202980,-0.688148045,0.000000000,0.005825994,-0.000179797,-0.588248965,0.000000000,0.000561600,0.006250417,-0.072859130
0.185983236,-0.007330000,-0.003159771,-0.065568087,-0.075694197,-0.001465000,-0.001194820,-0.009931318,0.148916963,-0.003689000,-0.007124122,0.018802874,0.547843654,0.420828015,0.382447956,0.047785277,2.082597341,-0.403737992,-0.395871660,-0.037736277,-0.687976254,0.000000000,0.000024192,-0.000169703,-0.001951282,0.000000000,-0.000953153,0.002109447,0.091091781,-0.435999990,-0.401407224,0.000290777,-9.756982485,0.000000000,0.004303670,0.000374204,-1.230899104,0.000000000,0.011033294,-0.001132170,-0.688510241,0.000000000,0.005825690,-0.000152323,-0.588292974,0.000000000,0.000574373,0.006386603,-0.074528000
0.187983056,-0.007529000,-0.003294004,-0.067116327,-0.073725474,-0.001505000,-0.001215062,-0.010121093,0.147839171,-0.003667000,-0.007087181,0.018470162,0.551113995,0.420704007,0.382539136,0.045590174,2.084618725,-0.403789014,-0.395945764,-0.037051946,-0.687726610,0.000000000,0.000023886,-0.000153224,-0.001962531,0.000000000,-0.000948596,0.002278549,0.089669607,-0.435999990,-0.401399520,0.003851835,-9.839397670,0.000000000,0.004304473,0.000401576,-1.231760626,0.000000000,0.011031168,-0.001062926,-0.688870535,0.000000000,0.005825438,-0.000125646,-0.588340293,0.000000000,0.000587406,0.006516393,-0.076206101
0.189982876,-0.007727000,-0.003431256,-0.068626029,-0.071873846,-0.001545000,-0.001235679,-0.010308335,0.146515632,-0.003646000,-0.007050915,0.018133434,0.554392877,0.420578003,0.382625949,0.043406695,2.086629175,-0.403838009,-0.396018456,-0.036346104,-0.687339349,0.000000000,0.000023615,-0.000135677,-0.001978408,0.000000000,-0.000943707,0.002444710,0.088227588,-0.435999990,-0.401384846,0.007337134,-9.922134971,0.000000000,0.004305328,0.000427640,-1.232608062,0.000000000,0.011029177,-0.000995292,-0.689228442,0.000000000,0.005825239,-0.000099775,-0.588390739,0.000000000,0.000600685,0.006639844,-0.077892254
0.191982696,-0.007925000,-0.003571442,-0.070092727,-0.069811739,-0.001586000,-0.001256664,-0.010492525,0.145241235,-0.003624000,-0.007015331,0.017791542,0.557669780,0.420450985,0.382708426,0.041238198,2.088706719,-0.403885007,-0.396089698,-0.035620772,-0.686951099,0.000000000,0.000023376,-0.000119275,-0.002000870,0.000000000,-0.000938491,0.002607876,0.086766773,-0.435999990,-0.401363353,0.010746215,-10.005140032,0.000000000,0.004306233,0.000452388,-1.233440697,0.000000000,0.011027319,-0.000929293,-0.689583448,0.000000000,0.005825089,-0.000074720,-0.588444124,0.000000000,0.000614199,0.006757003,-0.079585335
0.193982515,-0.008124000,-0.003714473,-0.071515570,-0.067680137,-0.001626000,-0.001278011,-0.010673536,0.143718293,-0.003603000,-0.006980439,0.017446273,0.561542152,0.420323998,0.382786589,0.039081729,2.090887712,-0.403928995,-0.396159447,-0.034874630,-0.686563073,0.000000000,0.000023171,-0.000102550,-0.002023393,0.000000000,-0.000932955,0.002767977,0.085288113,-0.435999990,-0.401335196,0.014078693,-10.088359158,0.000000000,0.004307184,0.000475814,-1.234257648,0.000000000,0.011025589,-0.000864958,-0.689935170,0.000000000,0.005824988,-0.000050486,-0.588500250,0.000000000,0.000627935,0.006867927,-0.081284211
0.195982335,-0.008321000,-0.003860262,-0.072894734,-0.065599833,-0.001667000,-0.001299714,-0.010851368,0.142510568,-0.003583000,-0.006946248,0.017095463,0.565402880,0.420195013,0.382860475,0.036942854,2.093257524,-0.403970987,-0.396227655,-0.034103747,-0.686080815,0.000000000,0.000022995,-0.000087811,-0.002050212,0.000000000,-0.000927105,0.002924968,0.083792650,-0.435999990,-0.401300527,0.017334217,-10.171740068,0.000000000,0.004308180,0.000497935,-1.235058031,0.000000000,0.011023984,-0.000802329,-0.690283195,0.000000000,0.005824934,-0.000027073,-0.588558944,0.000000000,0.000641880,0.006972674,-0.082987783
0.197982155,-0.008519000,-0.004008712,-0.074225078,-0.063259279,-0.001707000,-0.001321765,-0.011025652,0.141047807,-0.003562000,-0.006912770,0.016738876,0.569304146,0.420065999,0.382930120,0.034822730,2.095646351,-0.404009014,-0.396294275,-0.033310354,-0.685622913,0.000000000,0.000022848,-0.000073469,-0.002074366,0.000000000,-0.000920948,0.003078794,0.082281311,-0.435999990,-0.401259502,0.020512501,-10.255231099,0.000000000,0.004309218,0.000518746,-1.235841452,0.000000000,0.011022501,-0.000741422,-0.690627005,0.000000000,0.005824925,-0.000004489,-0.588620035,0.000000000,0.000656023,0.007071299,-0.084694965
0.199981975,-0.008716000,-0.004159729,-0.075508584,-0.061017812,-0.001748000,-0.001344157,-0.011195999,0.139888127,-0.003542000,-0.006880013,0.016378657,0.573823015,0.419937998,0.382995553,0.032716479,2.098167852,-0.404044986,-0.396359231,-0.032478027,-0.684988784,0.000000000,0.000022726,-0.000061038,-0.002100292,0.000000000,-0.000914489,0.003229398,0.080755076,-0.435999990,-0.401212276,0.023613302,-10.338781853,0.000000000,0.004310294,0.000538242,-1.236607079,0.000000000,0.011021137,-0.000682255,-0.690966269,0.000000000,0.005824960,0.000017261,-0.588683333,0.000000000,0.000670351,0.007163873,-0.086404677
0.201981794,-0.008910000,-0.004313215,-0.076742563,-0.058660973,-0.001789000,-0.001366883,-0.011362757,0.138451949,-0.003521000,-0.006847989,0.016011818,0.578344651,0.419806987,0.383056819,0.030632994,2.100920831,-0.404076993,-0.396422467,-0.031617880,-0.684425754,-0.000001000,0.000022629,-0.000048584,-0.002123296,0.000000000,-0.000907735,0.003376748,0.079214953,-0.435999990,-0.401159003,0.026636436,-10.422342799,0.000000000,0.004311407,0.000556448,-1.237354055,0.000000000,0.011019887,-0.000624866,-0.691300634,0.000000000,0.005825036,0.000038186,-0.588748658,0.000000000,0.000684852,0.007250453,-0.088115900
0.203981614,-0.009102000,-0.004469058,-0.077921842,-0.056001391,-0.001833000,-0.001389932,-0.011524517,0.137029430,-0.003500000,-0.006816705,0.015642347,0.583508751,0.419672012,0.383113944,0.028562130,2.103585060,-0.404105991,-0.396483892,-0.030712533,-0.683715087,-0.000002000,0.000022516,-0.000056547,-0.002249945,0.000000000,-0.000900694,0.003520793,0.077661825,-0.435999990,-0.401099839,0.029581752,-10.505865597,0.000000000,0.004312554,0.000573348,-1.238082185,0.000000000,0.011018748,-0.000569252,-0.691629615,0.000000000,0.005825153,0.000058275,-0.588815866,0.000000000,0.000699514,0.007331114,-0.089827582
0.205981434,-0.009292000,-0.004627148,-0.079044713,-0.053186501,-0.001880000,-0.001413297,-0.011682488,0.134733072,-0.003479000,-0.006786161,0.015271638,0.588942430,0.419533014,0.383166944,0.026500390,2.106170834,-0.404132009,-0.396543414,-0.029760782,-0.683011714,-0.000004000,0.000022378,-0.000069052,-0.002316942,0.000000000,-0.000893371,0.003661497,0.076096670,-0.435999990,-0.401034941,0.032449173,-10.589302631,0.000000000,0.004313732,0.000588968,-1.238790386,0.000000000,0.011017717,-0.000515449,-0.691953008,0.000000000,0.005825308,0.000077541,-0.588884757,0.000000000,0.000714326,0.007405921,-0.091538737
0.207981254,-0.009480000,-0.004787368,-0.080110248,-0.050238082,-0.001928000,-0.001436971,-0.011837174,0.131588082,-0.003457000,-0.006756360,0.014900781,0.594614904,0.419391990,0.383215835,0.024445458,2.108698075,-0.404155999,-0.396600941,-0.028763847,-0.682331446,-0.000008000,0.000022179,-0.000099183,-0.002469563,0.000000000,-0.000885773,0.003798823,0.074520418,-0.435999990,-0.400964464,0.035238650,-10.672607870,0.000000000,0.004314938,0.000603311,-1.239478506,0.000000000,0.011016791,-0.000463465,-0.692270324,0.000000000,0.005825500,0.000095979,-0.588955204,0.000000000,0.000729276,0.007474949,-0.093248373
0.209981073,-0.009667000,-0.004949602,-0.081116980,-0.047173509,-0.001977000,-0.001460947,-0.011988161,0.128172466,-0.003434000,-0.006727300,0.014530126,0.600785743,0.419247001,0.383260632,0.022398458,2.111308517,-0.404177994,-0.396656410,-0.027734086,-0.681776333,-0.000012000,0.000021831,-0.000174416,-0.002768113,0.000000000,-0.000877908,0.003932746,0.072933991,-0.435999990,-0.400888563,0.037950163,-10.755735854,0.000000000,0.004316171,0.000616387,-1.240145928,0.000000000,0.011015964,-0.000413306,-0.692581275,0.000000000,0.005825727,0.000113592,-0.589027025,0.000000000,0.000744352,0.007538287,-0.094955532
0.211980893,-0.009854000,-0.005113734,-0.082066098,-0.044120326,-0.002027000,-0.001485220,-0.012136417,0.124474815,-0.003413000,-0.006698976,0.014161621,0.607446980,0.419101000,0.383301344,0.020355744,2.113870811,-0.404199004,-0.396709767,-0.026678501,-0.681320887,-0.000018000,0.000021298,-0.000266225,-0.002923229,0.000000000,-0.000869781,0.004063235,0.071338258,-0.435999990,-0.400807396,0.040583758,-10.838641847,0.000000000,0.004317428,0.000628208,-1.240792087,0.000000000,0.011015234,-0.000364986,-0.692885590,0.000000000,0.005825988,0.000130388,-0.589100057,0.000000000,0.000759544,0.007596012,-0.096659315
0.213980713,-0.010042000,-0.005279654,-0.082959610,-0.041190616,-0.002077000,-0.001509785,-0.012282288,0.120515371,-0.003391000,-0.006671394,0.013790900,0.613700652,0.418951988,0.383338003,0.018329750,2.116596691,-0.404217988,-0.396761006,-0.025619596,-0.681052831,-0.000024000,0.000020500,-0.000399233,-0.003214796,0.000000000,-0.000861401,0.004190271,0.069734125,-0.435999990,-0.400721117,0.043139522,-10.921282597,0.000000000,0.004318705,0.000638806,-1.241416601,0.000000000,0.011014597,-0.000318527,-0.693182942,0.000000000,0.005826281,0.000146379,-0.589174165,0.000000000,0.000774841,0.007648200,-0.098358810
0.215980533,-0.010230000,-0.005447260,-0.083803013,-0.038491399,-0.002127000,-0.001534637,-0.012426186,0.116584954,-0.003370000,-0.006644551,0.013421614,0.620499361,0.418803006,0.383370629,0.016312666,2.119269539,-0.404237986,-0.396810115,-0.024554812,-0.680803433,-0.000031000,0.000019407,-0.000546266,-0.003362346,0.000000000,-0.000852773,0.004313814,0.068122435,-0.435999990,-0.400629882,0.045617586,-11.003615809,0.000000000,0.004320001,0.000648161,-1.242019474,0.000000000,0.011014049,-0.000273902,-0.693472931,0.000000000,0.005826604,0.000161557,-0.589249216,0.000000000,0.000790231,0.007694931,-0.100053110
0.217980352,-0.010420000,-0.005616455,-0.084597695,-0.035895840,-0.002177000,-0.001559774,-0.012568383,0.112691711,-0.003350000,-0.006618452,0.013049835,0.627191311,0.418653011,0.383399263,0.014317303,2.122135758,-0.404256999,-0.396857154,-0.023519480,-0.680888384,-0.000039000,0.000017980,-0.000713583,-0.003541369,0.000000000,-0.000843905,0.004433861,0.066504166,-0.435999990,-0.400533845,0.048018121,-11.085600289,0.000000000,0.004321314,0.000656312,-1.242599552,0.000000000,0.011013587,-0.000231137,-0.693755523,0.000000000,0.005826956,0.000175943,-0.589325021,0.000000000,0.000805703,0.007736281,-0.101741342
0.219980172,-0.010613000,-0.005787155,-0.085350053,-0.033619520,-0.002226000,-0.001585192,-0.012709166,0.108840774,-0.003331000,-0.006593100,0.012675705,0.633866835,0.418502986,0.383423951,0.012344106,2.125035649,-0.404278010,-0.396902186,-0.022515735,-0.680999476,-0.000047000,0.000016175,-0.000902513,-0.003729973,0.000000000,-0.000834805,0.004550383,0.064880070,-0.435999990,-0.400433163,0.050341344,-11.167195812,0.000000000,0.004322641,0.000663264,-1.243157022,0.000000000,0.011013206,-0.000190224,-0.694030301,0.000000000,0.005827335,0.000189540,-0.589401485,0.000000000,0.000821248,0.007772341,-0.103422636
0.221979992,-0.010808000,-0.005959290,-0.086067376,-0.031741911,-0.002273000,-0.001610891,-0.012849325,0.105322207,-0.003313000,-0.006568505,0.012297436,0.640523889,0.418352991,0.383444752,0.010400447,2.128025383,-0.404298991,-0.396945334,-0.021574235,-0.681425459,-0.000057000,0.000013985,-0.001095037,-0.003818938,0.000000000,-0.000825478,0.004663367,0.063251071,-0.435999990,-0.400327988,0.052587506,-11.248363342,0.000000000,0.004323979,0.000669032,-1.243691337,0.000000000,0.011012904,-0.000151160,-0.694297077,0.000000000,0.005827739,0.000202357,-0.589478453,0.000000000,0.000836854,0.007803194,-0.105096178
0.223979812,-0.011007000,-0.006132798,-0.086754207,-0.030122739,-0.002319000,-0.001636866,-0.012987728,0.102437627,-0.003296000,-0.006544675,0.011915021,0.647205381,0.418204010,0.383461726,0.008486979,2.131052578,-0.404321015,-0.396986727,-0.020696208,-0.681861770,-0.000067000,0.000011341,-0.001321754,-0.004060904,0.000000000,-0.000815932,0.004772806,0.061617992,-0.435999990,-0.400218474,0.054756894,-11.329064743,0.000000000,0.004325326,0.000673633,-1.244202139,0.000000000,0.011012676,-0.000113940,-0.694555651,0.000000000,0.005828168,0.000214407,-0.589555795,0.000000000,0.000852512,0.007828930,-0.106761153
0.225979631,-0.011210000,-0.006307636,-0.087418867,-0.028955845,-0.002362000,-0.001663117,-0.013125390,0.099876315,-0.003282000,-0.006521619,0.011527892,0.653913851,0.418056995,0.383474939,0.006606592,2.134170917,-0.404345989,-0.397026510,-0.019891728,-0.682400526,-0.000079000,0.000008239,-0.001551401,-0.004159831,0.000000000,-0.000806175,0.004878684,0.059981626,-0.435999990,-0.400104774,0.056849850,-11.409262863,0.000000000,0.004326680,0.000677085,-1.244689146,0.000000000,0.011012519,-0.000078565,-0.694805815,0.000000000,0.005828620,0.000225703,-0.589633389,0.000000000,0.000868211,0.007849634,-0.108416780
0.227979451,-0.011419000,-0.006483771,-0.088067460,-0.028199105,-0.002402000,-0.001689640,-0.013261621,0.098229194,-0.003269000,-0.006499356,0.011131621,0.660096216,0.417910993,0.383484484,0.004772245,2.137415904,-0.404372990,-0.397064888,-0.019189033,-0.683190978,-0.000091000,0.000004659,-0.001789886,-0.004406140,0.000000000,-0.000796213,0.004981004,0.058342828,-0.435999990,-0.399987041,0.058866732,-11.488922018,0.000000000,0.004328039,0.000679415,-1.245152153,0.000000000,0.011012429,-0.000045031,-0.695047338,0.000000000,0.005829092,0.000236256,-0.589711125,0.000000000,0.000883942,0.007865397,-0.110062288
0.229979271,-0.011632000,-0.006661193,-0.088710902,-0.028034460,-0.002439000,-0.001716433,-0.013396323,0.097479939,-0.003258000,-0.006477900,0.010728097,0.666426476,0.417768002,0.383490445,0.002980327,2.140629371,-0.404404014,-0.397102069,-0.018590541,-0.684038907,-0.000103000,0.000001656,-0.001501294,-0.004579117,0.000000000,-0.000786053,0.005079748,0.056702338,-0.435999990,-0.399865425,0.060807951,-11.568007013,0.000000000,0.004329400,0.000680624,-1.245591093,0.000000000,0.011012402,-0.000013314,-0.695280008,0.000000000,0.005829584,0.000246075,-0.589788883,0.000000000,0.000899695,0.007876314,-0.111696935
0.231979091,-0.011852000,-0.006839901,-0.089354026,-0.028188150,-0.002473000,-0.001743479,-0.013522833,0.097625360,-0.003249000,-0.006457270,0.010314786,0.672581677,0.417627007,0.383492923,0.001239254,2.143957762,-0.404437006,-0.397138310,-0.018120162,-0.685118177,-0.000117000,-0.000005863,-0.003759413,-0.006308906,0.000000000,-0.000775703,0.005174932,0.055061023,-0.435999990,-0.399740077,0.062673934,-11.646484147,0.000000000,0.004330762,0.000680748,-1.246005364,0.000000000,0.011012436,0.000016582,-0.695503769,0.000000000,0.005830095,0.000255181,-0.589866536,0.000000000,0.000915460,0.007882477,-0.113320011
0.233978910,-0.012080000,-0.007019913,-0.090006190,-0.028952652,-0.002502000,-0.001770821,-0.013671317,0.098510142,-0.003243000,-0.006437486,0.009892363,0.678624672,0.417490005,0.383492017,-0.000452849,2.147270811,-0.404475003,-0.397173851,-0.017770416,-0.686127089,-0.000132000,-0.000010491,-0.002314096,-0.000544095,0.000000000,-0.000765170,0.005266500,0.053419544,-0.435999990,-0.399611147,0.064465243,-11.724320322,0.000000000,0.004332121,0.000679776,-1.246395170,0.000000000,0.011012525,0.000044685,-0.695718367,0.000000000,0.005830622,0.000263580,-0.589944006,0.000000000,0.000931228,0.007883922,-0.114930818
0.235978730,-0.012321000,-0.007201277,-0.090681967,-0.030379751,-0.002531000,-0.001798414,-0.013796421,0.101397600,-0.003238000,-0.006418572,0.009456977,0.684261229,0.417353988,0.383487848,-0.002084591,2.150701806,-0.404518992,-0.397208987,-0.017568219,-0.687369746,-0.000160000,-0.000016277,-0.002893102,-0.005701358,0.000000000,-0.000754461,0.005354577,0.051778993,-0.435999990,-0.399478782,0.066182206,-11.801485802,0.000000000,0.004333477,0.000677799,-1.246759631,0.000000000,0.011012667,0.000070968,-0.695923764,0.000000000,0.005831164,0.000271298,-0.590021161,0.000000000,0.000946989,0.007880877,-0.116528505
0.237978550,-0.012576000,-0.007384078,-0.091400274,-0.032914981,-0.002560000,-0.001826254,-0.013919736,0.103827359,-0.003233000,-0.006400545,0.009013255,0.690154274,0.417219996,0.383480517,-0.003665397,2.153972012,-0.404569000,-0.397244038,-0.017525402,-0.688839198,-0.000205000,-0.000023418,-0.003570690,-0.006300281,0.000000000,-0.000743583,0.005439022,0.050139410,-0.435999990,-0.399343131,0.067825527,-11.877945690,0.000000000,0.004334826,0.000674760,-1.247100231,0.000000000,0.011012858,0.000095499,-0.696119552,0.000000000,0.005831721,0.000278335,-0.590097940,0.000000000,0.000962736,0.007873346,-0.118112810
0.239978370,-0.012842000,-0.007568450,-0.092186240,-0.036548822,-0.002590000,-0.001854329,-0.014037666,0.106286760,-0.003228000,-0.006383418,0.008563760,0.696488093,0.417086989,0.383470118,-0.005199760,2.157207867,-0.404624999,-0.397279347,-0.017654476,-0.690472607,-0.000265000,-0.000032639,-0.004610173,-0.008200081,0.000000000,-0.000732543,0.005519901,0.048502359,-0.435999990,-0.399204340,0.069395765,-11.953674105,0.000000000,0.004336168,0.000670706,-1.247415081,0.000000000,0.011013094,0.000118271,-0.696305982,0.000000000,0.005832290,0.000284718,-0.590174205,0.000000000,0.000978459,0.007861382,-0.119682838
0.241978189,-0.013119000,-0.007754560,-0.093054743,-0.040805089,-0.002619000,-0.001882630,-0.014150585,0.108407146,-0.003223000,-0.006367196,0.008110881,0.703208055,0.416954011,0.383456733,-0.006692609,2.160369573,-0.404686987,-0.397315270,-0.017961419,-0.692196644,-0.000339000,-0.000044774,-0.006067754,-0.010376878,0.000000000,-0.000721349,0.005597236,0.046868233,-0.435999990,-0.399062553,0.070893504,-12.028642128,0.000000000,0.004337499,0.000665665,-1.247704683,0.000000000,0.011013373,0.000139300,-0.696482788,0.000000000,0.005832871,0.000290456,-0.590249902,0.000000000,0.000994149,0.007845119,-0.121237847
0.243978009,-0.013403000,-0.007942594,-0.094017228,-0.045581859,-0.002647000,-0.001911149,-0.014259664,0.110762606,-0.003218000,-0.006351883,0.007656747,0.710261935,0.416823000,0.383440435,-0.008148896,2.163426669,-0.404754013,-0.397352166,-0.018448149,-0.693958366,-0.000428000,-0.000060640,-0.007933041,-0.012485308,0.000000000,-0.000710007,0.005671040,0.045237665,-0.435999990,-0.398917914,0.072319352,-12.102821726,0.000000000,0.004338818,0.000659660,-1.247969086,0.000000000,0.011013690,0.000158607,-0.696649859,0.000000000,0.005833463,0.000295564,-0.590324927,0.000000000,0.001009798,0.007824687,-0.122777345
0.245977829,-0.013692000,-0.008132742,-0.095073986,-0.050368199,-0.002675000,-0.001939879,-0.014364669,0.113377493,-0.003214000,-0.006337478,0.007202131,0.717602459,0.416691989,0.383421293,-0.009570666,2.166532092,-0.404826999,-0.397390378,-0.019105842,-0.695619591,-0.000529000,-0.000081048,-0.010203937,-0.014573576,0.000000000,-0.000698524,0.005741337,0.043611324,-0.435999990,-0.398770566,0.073673960,-12.176185797,0.000000000,0.004340124,0.000652720,-1.248208268,0.000000000,0.011014043,0.000176211,-0.696807129,0.000000000,0.005834063,0.000300065,-0.590399192,0.000000000,0.001025399,0.007800184,-0.124300860
0.247977649,-0.013985000,-0.008325182,-0.096220210,-0.054929031,-0.002702000,-0.001968812,-0.014466903,0.115959858,-0.003210000,-0.006323984,0.006747216,0.724928046,0.416561991,0.383399376,-0.010958739,2.169571784,-0.404904991,-0.397430242,-0.019932457,-0.697264225,-0.000643000,-0.000106656,-0.012803879,-0.016262465,0.000000000,-0.000686908,0.005808132,0.041989838,-0.435999990,-0.398620650,0.074958028,-12.248708601,0.000000000,0.004341414,0.000644870,-1.248422350,0.000000000,0.011014427,0.000192130,-0.696954518,0.000000000,0.005834671,0.000303979,-0.590472640,0.000000000,0.001040942,0.007771696,-0.125807848
0.249977468,-0.014279000,-0.008520080,-0.097449018,-0.059165943,-0.002727000,-0.001997944,-0.014565877,0.118821956,-0.003206000,-0.006311397,0.006293240,0.732519049,0.416433007,0.383374743,-0.012316711,2.172611319,-0.404987007,-0.397472071,-0.020914443,-0.698767541,-0.000769000,-0.000138068,-0.015706103,-0.017804191,0.000000000,-0.000675165,0.005871438,0.040373909,-0.435999990,-0.398468305,0.076172264,-12.320365808,0.000000000,0.004342686,0.000636127,-1.248611403,0.000000000,0.011014840,0.000206395,-0.697091942,0.000000000,0.005835285,0.000307318,-0.590545211,0.000000000,0.001056421,0.007739321,-0.127297751
0.251977288,-0.014573000,-0.008717574,-0.098746780,-0.062780600,-0.002750000,-0.002027266,-0.014660693,0.122235100,-0.003203000,-0.006299716,0.005840802,0.740346880,0.416303992,0.383347448,-0.013647389,2.175672453,-0.405074000,-0.397516134,-0.022031084,-0.700037266,-0.000905000,-0.000175806,-0.018868708,-0.019112683,0.000000000,-0.000663303,0.005931278,0.038764215,-0.435999990,-0.398313671,0.077317405,-12.391133800,0.000000000,0.004343939,0.000626516,-1.248775271,0.000000000,0.011015278,0.000219031,-0.697219415,0.000000000,0.005835905,0.000310097,-0.590616820,0.000000000,0.001071827,0.007703154,-0.128770057
0.253977108,-0.014864000,-0.008917771,-0.100098278,-0.065728563,-0.002772000,-0.002056768,-0.014751162,0.126176586,-0.003200000,-0.006288938,0.005389090,0.748112865,0.416175991,0.383317548,-0.014949824,2.178705803,-0.405166000,-0.397562681,-0.023273914,-0.701201456,-0.001051000,-0.000220252,-0.022223093,-0.020052310,0.000000000,-0.000651327,0.005987670,0.037161366,-0.435999990,-0.398156882,0.078394216,-12.460989905,0.000000000,0.004345171,0.000616067,-1.248914040,0.000000000,0.011015738,0.000230057,-0.697336902,0.000000000,0.005836530,0.000312337,-0.590687402,0.000000000,0.001087154,0.007663294,-0.130224273
0.255976928,-0.015150000,-0.009120738,-0.101483951,-0.067764675,-0.002791000,-0.002086440,-0.014835944,0.130355427,-0.003197000,-0.006279061,0.004938433,0.756119249,0.416049004,0.383285098,-0.016225109,2.181766937,-0.405261993,-0.397611948,-0.024633120,-0.702261693,-0.001206000,-0.000271710,-0.025729364,-0.020779322,0.000000000,-0.000639246,0.006040629,0.035565996,-0.435999990,-0.397998075,0.079403492,-12.529912618,0.000000000,0.004346381,0.000604798,-1.249027926,0.000000000,0.011016217,0.000239505,-0.697444332,0.000000000,0.005837158,0.000314052,-0.590756903,0.000000000,0.001102393,0.007619833,-0.131659932
0.257976747,-0.015429000,-0.009326501,-0.102881205,-0.068779335,-0.002807000,-0.002116266,-0.014913147,0.135306492,-0.003195000,-0.006270083,0.004488768,0.764357937,0.415921986,0.383250150,-0.017474172,2.184860200,-0.405360997,-0.397664131,-0.026091512,-0.703119939,-0.001370000,-0.000330404,-0.029346899,-0.021275395,0.000000000,-0.000627066,0.006090182,0.033978744,-0.435999990,-0.397837383,0.080346035,-12.597881511,0.000000000,0.004347566,0.000592733,-1.249116854,0.000000000,0.011016712,0.000247403,-0.697541750,0.000000000,0.005837789,0.000315259,-0.590825258,0.000000000,0.001117539,0.007572875,-0.133076571
0.259976567,-0.015698999,-0.009535032,-0.104265345,-0.068684407,-0.002821000,-0.002146227,-0.014980512,0.140982826,-0.003193000,-0.006262004,0.004039525,0.772545532,0.415796012,0.383212754,-0.018697912,2.187922996,-0.405463994,-0.397719381,-0.027625365,-0.703705623,-0.001541000,-0.000396508,-0.033051899,-0.021633511,0.000000000,-0.000614793,0.006136355,0.032400193,-0.435999990,-0.397674938,0.081222680,-12.664876824,0.000000000,0.004348726,0.000579906,-1.249180936,0.000000000,0.011017219,0.000253774,-0.697629146,0.000000000,0.005838421,0.000315977,-0.590892411,0.000000000,0.001132584,0.007522519,-0.134473773
0.261976387,-0.015958000,-0.009746253,-0.105610576,-0.067409102,-0.002832000,-0.002176300,-0.015036482,0.147043367,-0.003192000,-0.006254823,0.003590622,0.780979009,0.415668994,0.383172961,-0.019896532,2.191026270,-0.405571014,-0.397777829,-0.029223897,-0.704170337,-0.001719000,-0.000470088,-0.036789829,-0.021701535,0.000000000,-0.000602435,0.006179164,0.030830916,-0.435999990,-0.397510869,0.082034289,-12.730879921,0.000000000,0.004349859,0.000566334,-1.249220463,0.000000000,0.011017737,0.000258651,-0.697706484,0.000000000,0.005839053,0.000316222,-0.590958322,0.000000000,0.001147522,0.007468859,-0.135851137
0.263976207,-0.016204000,-0.009960032,-0.106889774,-0.064894749,-0.002839000,-0.002206458,-0.015078693,0.153730796,-0.003191000,-0.006248540,0.003141384,0.789375756,0.415542990,0.383130821,-0.021069663,2.194036532,-0.405681014,-0.397839586,-0.030878483,-0.704534675,-0.001903000,-0.000551160,-0.040536202,-0.021627849,0.000000000,-0.000589997,0.006218642,0.029271531,-0.435999990,-0.397345306,0.082781732,-12.795873378,0.000000000,0.004350963,0.000552047,-1.249235430,0.000000000,0.011018261,0.000262061,-0.697773827,0.000000000,0.005839685,0.000316014,-0.591022938,0.000000000,0.001162346,0.007411992,-0.137208262
0.265976026,-0.016434999,-0.010176181,-0.108074525,-0.061095281,-0.002842000,-0.002236666,-0.015104364,0.161267928,-0.003190000,-0.006243156,0.002691805,0.798035491,0.415417999,0.383086385,-0.022218264,2.197077818,-0.405793011,-0.397904731,-0.032572240,-0.704706408,-0.002092000,-0.000639682,-0.044261052,-0.021379291,0.000000000,-0.000577488,0.006254817,0.027722567,-0.435999990,-0.397178374,0.083465900,-12.859840395,0.000000000,0.004352037,0.000537066,-1.249226101,0.000000000,0.011018789,0.000264040,-0.697831172,0.000000000,0.005840316,0.000315366,-0.591086220,0.000000000,0.001177050,0.007352024,-0.138544777
0.267975846,-0.016652999,-0.010394453,-0.109135757,-0.055978468,-0.002840000,-0.002266888,-0.015110865,0.169582509,-0.003192000,-0.006238673,0.002241973,0.806958502,0.415291995,0.383039697,-0.023344007,2.200153856,-0.405910999,-0.397973296,-0.034282874,-0.704626221,-0.002297000,-0.000735545,-0.047931548,-0.020944346,0.000000000,-0.000564912,0.006287719,0.026184570,-0.435999990,-0.397010198,0.084087705,-12.922765105,0.000000000,0.004353080,0.000521420,-1.249192569,0.000000000,0.011019318,0.000264615,-0.697878591,0.000000000,0.005840944,0.000314299,-0.591148123,0.000000000,0.001191628,0.007289051,-0.139860352
0.269975666,-0.016868001,-0.010614556,-0.110051428,-0.049948292,-0.002827000,-0.002297072,-0.015091837,0.178888437,-0.003202000,-0.006235097,0.001787589,0.815290217,0.415167004,0.382990825,-0.024436049,2.203145629,-0.406042010,-0.398045363,-0.036033333,-0.704757686,-0.002548000,-0.000839038,-0.051746589,-0.021539040,0.000000000,-0.000552277,0.006317385,0.024658071,-0.435999990,-0.396840902,0.084648065,-12.984632745,0.000000000,0.004354090,0.000505153,-1.249135103,0.000000000,0.011019846,0.000263803,-0.697916107,0.000000000,0.005841570,0.000312834,-0.591208620,0.000000000,0.001206074,0.007223182,-0.141154657
0.271975486,-0.017082000,-0.010836196,-0.110820299,-0.044226399,-0.002805000,-0.002327136,-0.015032170,0.190732741,-0.003218000,-0.006232463,0.001317009,0.821709300,0.415042996,0.382939901,-0.025461880,2.206099814,-0.406185001,-0.398121185,-0.037910980,-0.705738342,-0.002845000,-0.000951786,-0.056373747,-0.025600661,0.000000000,-0.000539590,0.006343856,0.023143541,-0.435999990,-0.396670607,0.085147883,-13.045429101,0.000000000,0.004355067,0.000488309,-1.249054328,0.000000000,0.011020369,0.000261627,-0.697943666,0.000000000,0.005842192,0.000310983,-0.591267689,0.000000000,0.001220383,0.007154546,-0.142427413
0.273975305,-0.017294001,-0.011059094,-0.111448809,-0.039063930,-0.002774000,-0.002356986,-0.014924851,0.204182218,-0.003242000,-0.006230805,0.000829354,0.827056669,0.414918989,0.382887066,-0.026417379,2.208775092,-0.406340003,-0.398201090,-0.039952697,-0.707188687,-0.003185000,-0.001075949,-0.062081573,-0.031067124,0.000000000,-0.000526855,0.006367123,0.021641439,-0.435999990,-0.396499430,0.085588171,-13.105140194,0.000000000,0.004356008,0.000470869,-1.248950929,0.000000000,0.011020885,0.000258165,-0.697961252,0.000000000,0.005842810,0.000308751,-0.591325284,0.000000000,0.001234550,0.007083193,-0.143678429
0.275975125,-0.017502001,-0.011282978,-0.111942275,-0.034348176,-0.002735000,-0.002386522,-0.014768304,0.219050983,-0.003272000,-0.006230162,0.000321411,0.830793610,0.414795995,0.382832476,-0.027295106,2.211071150,-0.406506002,-0.398285464,-0.042186736,-0.708973711,-0.003564000,-0.001213742,-0.068896301,-0.036653329,0.000000000,-0.000514081,0.006387226,0.020152495,-0.435999990,-0.396327490,0.085969939,-13.163755092,0.000000000,0.004356914,0.000452865,-1.248824150,0.000000000,0.011021392,0.000253438,-0.697969255,0.000000000,0.005843422,0.000306166,-0.591381346,0.000000000,0.001248568,0.007009170,-0.144907297
0.277974945,-0.017707000,-0.011507586,-0.112303692,-0.029864432,-0.002688000,-0.002415649,-0.014563375,0.234991195,-0.003307000,-0.006230575,-0.000206594,0.833572692,0.414671987,0.382776282,-0.028096856,2.212989296,-0.406682014,-0.398374701,-0.044618754,-0.710871816,-0.003979000,-0.001367163,-0.076710800,-0.041656671,0.000000000,-0.000501273,0.006404204,0.018677158,-0.435999990,-0.396154902,0.086294180,-13.221263355,0.000000000,0.004357783,0.000434308,-1.248674350,0.000000000,0.011021887,0.000247491,-0.697967674,0.000000000,0.005844028,0.000303238,-0.591435883,0.000000000,0.001262433,0.006932589,-0.146113615
0.279974765,-0.017907999,-0.011732665,-0.112539431,-0.025730525,-0.002635000,-0.002444274,-0.014312350,0.251994581,-0.003348000,-0.006232079,-0.000752220,0.835684503,0.414550006,0.382718619,-0.028831574,2.214404679,-0.406866014,-0.398469179,-0.047238849,-0.712727505,-0.004427000,-0.001537923,-0.085379949,-0.045876461,0.000000000,-0.000488436,0.006418103,0.017215873,-0.435999990,-0.395981778,0.086561884,-13.277654735,0.000000000,0.004358613,0.000415230,-1.248501523,0.000000000,0.011022368,0.000240353,-0.697956671,0.000000000,0.005844628,0.000299988,-0.591488852,0.000000000,0.001276140,0.006853577,-0.147297178
0.281974584,-0.018103000,-0.011957972,-0.112653523,-0.021830792,-0.002577000,-0.002472311,-0.014018448,0.269518041,-0.003393000,-0.006234712,-0.001316391,0.836799585,0.414427996,0.382659617,-0.029500914,2.215564427,-0.407059014,-0.398569225,-0.050023127,-0.714326100,-0.004903000,-0.001727411,-0.094743972,-0.049249359,0.000000000,-0.000475578,0.006428975,0.015769037,-0.435999990,-0.395808230,0.086774062,-13.332919498,0.000000000,0.004359404,0.000395674,-1.248306046,0.000000000,0.011022832,0.000232043,-0.697936297,0.000000000,0.005845221,0.000296443,-0.591540249,0.000000000,0.001289685,0.006772242,-0.148457861
0.283974404,-0.018293001,-0.012183265,-0.112646855,-0.017955147,-0.002513000,-0.002499681,-0.013685274,0.287325817,-0.003443000,-0.006238505,-0.001896538,0.837517920,0.414306015,0.382599390,-0.030113788,2.216342141,-0.407260001,-0.398675137,-0.052955614,-0.715804753,-0.005405000,-0.001936623,-0.104606082,-0.051583774,0.000000000,-0.000462705,0.006436856,0.014337006,-0.435999990,-0.395634367,0.086931733,-13.387048932,0.000000000,0.004360156,0.000375653,-1.248088652,0.000000000,0.011023277,0.000222611,-0.697906540,0.000000000,0.005845807,0.000292615,-0.591590091,0.000000000,0.001303062,0.006688684,-0.149595500
0.285974224,-0.018476000,-0.012408310,-0.112522069,-0.014230936,-0.002446000,-0.002526313,-0.013315694,0.305761395,-0.003496000,-0.006243490,-0.002492477,0.837506215,0.414184988,0.382538041,-0.030674313,2.216797800,-0.407467008,-0.398787169,-0.056016140,-0.717076510,-0.005928000,-0.002166263,-0.114819689,-0.053136410,0.000000000,-0.000449821,0.006441799,0.012920203,-0.435999990,-0.395460295,0.087035921,-13.440035123,0.000000000,0.004360866,0.000355207,-1.247849339,0.000000000,0.011023701,0.000212080,-0.697867624,0.000000000,0.005846384,0.000288529,-0.591638354,0.000000000,0.001316268,0.006603004,-0.150709928
0.287974044,-0.018652000,-0.012632868,-0.112279225,-0.010454953,-0.002375000,-0.002552139,-0.012913250,0.324016119,-0.003553000,-0.006249692,-0.003100841,0.837337672,0.414063990,0.382475652,-0.031194380,2.217012412,-0.407678992,-0.398905500,-0.059165686,-0.717974050,-0.006471000,-0.002416670,-0.125203667,-0.053747618,0.000000000,-0.000436933,0.006443837,0.011518962,-0.435999990,-0.395286119,0.087087680,-13.491870790,0.000000000,0.004361535,0.000334355,-1.247588814,0.000000000,0.011024102,0.000200495,-0.697819557,0.000000000,0.005846952,0.000284197,-0.591685057,0.000000000,0.001329299,0.006515288,-0.151801006
0.289973863,-0.018820999,-0.012856704,-0.111918159,-0.006652238,-0.002302000,-0.002577099,-0.012480150,0.342435709,-0.003611000,-0.006257134,-0.003720933,0.836659092,0.413944006,0.382412293,-0.031679918,2.217007030,-0.407896012,-0.399030237,-0.062368473,-0.718484884,-0.007028000,-0.002687973,-0.135651333,-0.053796865,0.000000000,-0.000424047,0.006443023,0.010133709,-0.435999990,-0.395111943,0.087088052,-13.542549999,0.000000000,0.004362161,0.000313129,-1.247307222,0.000000000,0.011024478,0.000187886,-0.697762543,0.000000000,0.005847511,0.000279636,-0.591730186,0.000000000,0.001342150,0.006425627,-0.152868563
0.291973683,-0.018981000,-0.013079585,-0.111440394,-0.002848916,-0.002228000,-0.002601140,-0.012020195,0.360484107,-0.003672000,-0.006265832,-0.004348870,0.836314063,0.413823992,0.382348008,-0.032142471,2.216881556,-0.408116996,-0.399161425,-0.065593881,-0.718705999,-0.007597000,-0.002979958,-0.145992687,-0.052968137,0.000000000,-0.000411169,0.006439387,0.008764768,-0.435999990,-0.394937867,0.087038106,-13.592067105,0.000000000,0.004362744,0.000291543,-1.247005131,0.000000000,0.011024827,0.000174302,-0.697696651,0.000000000,0.005848061,0.000274855,-0.591773741,0.000000000,0.001354818,0.006334112,-0.153912469
0.293973503,-0.019131999,-0.013301272,-0.110843364,0.001151777,-0.002153000,-0.002624212,-0.011536258,0.377947905,-0.003735000,-0.006275801,-0.004984605,0.835650710,0.413704008,0.382282837,-0.032585304,2.216649262,-0.408340991,-0.399299052,-0.068813605,-0.718611445,-0.008174000,-0.003292189,-0.156115368,-0.051564142,0.000000000,-0.000398303,0.006432988,0.007412552,-0.435999990,-0.394763989,0.086938908,-13.640417678,0.000000000,0.004363283,0.000269640,-1.246682613,0.000000000,0.011025146,0.000159764,-0.697622118,0.000000000,0.005848601,0.000269878,-0.591815708,0.000000000,0.001367300,0.006240826,-0.154932605
0.295973323,-0.019273000,-0.013521523,-0.110125375,0.005310314,-0.002078000,-0.002646275,-0.011031160,0.394878313,-0.003798000,-0.006287054,-0.005626508,0.834956667,0.413585007,0.382216807,-0.033014957,2.216334619,-0.408565998,-0.399443045,-0.071996445,-0.718186456,-0.008756000,-0.003623988,-0.165899378,-0.049544309,0.000000000,-0.000385455,0.006423864,0.006077327,-0.435999990,-0.394590406,0.086791525,-13.687597815,0.000000000,0.004363778,0.000247435,-1.246340476,0.000000000,0.011025435,0.000144320,-0.697538965,0.000000000,0.005849130,0.000264710,-0.591856108,0.000000000,0.001379592,0.006145869,-0.155928852
0.297973142,-0.019404000,-0.013740091,-0.109284087,0.009697541,-0.002004000,-0.002667289,-0.010507268,0.411043005,-0.003861000,-0.006299596,-0.006271131,0.834767052,0.413466007,0.382149923,-0.033442189,2.216042695,-0.408793002,-0.399593246,-0.075100471,-0.717325386,-0.009339000,-0.003974475,-0.175243896,-0.047014890,0.000000000,-0.000372631,0.006412059,0.004759458,-0.435999990,-0.394417212,0.086597039,-13.733604269,0.000000000,0.004364228,0.000224949,-1.245978899,0.000000000,0.011025691,0.000128013,-0.697447420,0.000000000,0.005849649,0.000259365,-0.591894919,0.000000000,0.001391690,0.006049328,-0.156901153
0.299972962,-0.019523000,-0.013956727,-0.108317938,0.014274143,-0.001932000,-0.002687225,-0.009967857,0.426200544,-0.003925000,-0.006313430,-0.006916819,0.835005404,0.413347989,0.382082179,-0.033871930,2.215787539,-0.409020990,-0.399749460,-0.078107035,-0.716262772,-0.009921000,-0.004342558,-0.184041511,-0.043947323,0.000000000,-0.000359836,0.006397619,0.003459272,-0.435999990,-0.394244499,0.086356537,-13.778434731,0.000000000,0.004364633,0.000202214,-1.245598162,0.000000000,0.011025912,0.000110870,-0.697347678,0.000000000,0.005850157,0.000253864,-0.591932150,0.000000000,0.001403593,0.005951288,-0.157849439
0.301972782,-0.019638000,-0.014171170,-0.107221662,0.019217701,-0.001858000,-0.002706055,-0.009415199,0.440131828,-0.003993000,-0.006328558,-0.007564197,0.835350749,0.413228005,0.382013572,-0.034303575,2.215666621,-0.409251988,-0.399911455,-0.080997587,-0.714968920,-0.010522000,-0.004727009,-0.192225127,-0.040555246,0.000000000,-0.000347074,0.006380597,0.002177058,-0.435999990,-0.394072357,0.086071104,-13.822087640,0.000000000,0.004364991,0.000179261,-1.245198866,0.000000000,0.011026098,0.000092925,-0.697239835,0.000000000,0.005850653,0.000248218,-0.591967823,0.000000000,0.001415297,0.005851835,-0.158773645
0.303972602,-0.019755000,-0.014383183,-0.106006317,0.023618159,-0.001778000,-0.002723741,-0.008843125,0.454017867,-0.004068000,-0.006344991,-0.008216386,0.834965292,0.413105994,0.381944111,-0.034730097,2.215489523,-0.409491986,-0.400079016,-0.083780610,-0.713724830,-0.011167000,-0.005127361,-0.200176184,-0.039174751,0.000000000,-0.000334352,0.006361046,0.000913074,-0.435999990,-0.393900873,0.085741793,-13.864561999,0.000000000,0.004365303,0.000156129,-1.244781608,0.000000000,0.011026247,0.000074206,-0.697124021,0.000000000,0.005851138,0.000242437,-0.592001946,0.000000000,0.001426799,0.005751090,-0.159673730
0.305972421,-0.019871000,-0.014592567,-0.104692014,0.026872948,-0.001691000,-0.002740221,-0.008239574,0.468844908,-0.004152000,-0.006362752,-0.008880341,0.833069750,0.412981004,0.381873848,-0.035131658,2.215201893,-0.409738988,-0.400252057,-0.086520163,-0.713133530,-0.011849000,-0.005544484,-0.208561361,-0.041295259,0.000000000,-0.000321674,0.006339015,-0.000332436,-0.435999990,-0.393730134,0.085369671,-13.905856669,0.000000000,0.004365569,0.000132845,-1.244347139,0.000000000,0.011026356,0.000054756,-0.697000339,0.000000000,0.005851611,0.000236530,-0.592034514,0.000000000,0.001438097,0.005649148,-0.160549781
0.307972241,-0.019987000,-0.014799147,-0.103290095,0.029394556,-0.001600000,-0.002755424,-0.007601540,0.484606661,-0.004243000,-0.006381872,-0.009560302,0.829259506,0.412854999,0.381802851,-0.035498633,2.214599315,-0.409994006,-0.400430537,-0.089240322,-0.712819882,-0.012566000,-0.005979553,-0.217534516,-0.044226031,0.000000000,-0.000309045,0.006314530,-0.001559227,-0.435999990,-0.393560222,0.084955875,-13.945971453,0.000000000,0.004365788,0.000109414,-1.243896013,0.000000000,0.011026425,0.000034631,-0.696869004,0.000000000,0.005852072,0.000230510,-0.592065530,0.000000000,0.001449189,0.005546036,-0.161401823
0.309972061,-0.020101000,-0.015002778,-0.101815806,0.031121834,-0.001504000,-0.002769283,-0.006929702,0.500362651,-0.004341000,-0.006402387,-0.010257454,0.824208170,0.412728995,0.381731196,-0.035827538,2.213733259,-0.410255998,-0.400614467,-0.091965040,-0.712821767,-0.013311000,-0.006433757,-0.227101905,-0.047208716,0.000000000,-0.000296470,0.006287619,-0.002766924,-0.435999990,-0.393391219,0.084501548,-13.984908353,0.000000000,0.004365960,0.000085843,-1.243428231,0.000000000,0.011026453,0.000013878,-0.696730337,0.000000000,0.005852521,0.000224390,-0.592095007,0.000000000,0.001460073,0.005441802,-0.162229694
0.311971881,-0.020212000,-0.015203337,-0.100279138,0.032338799,-0.001404000,-0.002781738,-0.006227527,0.516393322,-0.004445000,-0.006424335,-0.010974143,0.817952228,0.412602991,0.381658969,-0.036113369,2.212638152,-0.410524011,-0.400803880,-0.094706513,-0.712964742,-0.014081000,-0.006907983,-0.237113146,-0.049397885,0.000000000,-0.000283953,0.006258337,-0.003955159,-0.435999990,-0.393223203,0.084007791,-14.022670225,0.000000000,0.004366084,0.000062153,-1.242943871,0.000000000,0.011026438,-0.000007470,-0.696584574,0.000000000,0.005852957,0.000218181,-0.592122966,0.000000000,0.001470746,0.005336535,-0.163033310
0.313971700,-0.020318000,-0.015400713,-0.098688024,0.033195071,-0.001301000,-0.002792735,-0.005498356,0.532475619,-0.004554000,-0.006447757,-0.011710706,0.810840268,0.412476987,0.381586255,-0.036356991,2.211272983,-0.410798013,-0.400998806,-0.097463008,-0.713114371,-0.014872000,-0.007402830,-0.247423712,-0.050828373,0.000000000,-0.000271500,0.006226740,-0.005123747,-0.435999990,-0.393056252,0.083475692,-14.059259519,0.000000000,0.004366161,0.000038370,-1.242443360,0.000000000,0.011026380,-0.000029380,-0.696431886,0.000000000,0.005853381,0.000211895,-0.592149414,0.000000000,0.001481207,0.005230347,-0.163812709
0.315971520,-0.020419000,-0.015594804,-0.097045764,0.033937340,-0.001195000,-0.002802226,-0.004745720,0.548385476,-0.004668000,-0.006472690,-0.012466660,0.803175273,0.412351996,0.381513133,-0.036561109,2.209638571,-0.411078006,-0.401199271,-0.100232260,-0.713269524,-0.015678000,-0.007918586,-0.257877685,-0.051446020,0.000000000,-0.000259114,0.006192881,-0.006272509,-0.435999990,-0.392890439,0.082906343,-14.094679059,0.000000000,0.004366190,0.000014519,-1.241927218,0.000000000,0.011026276,-0.000051816,-0.696272445,0.000000000,0.005853792,0.000205548,-0.592174372,0.000000000,0.001491453,0.005123333,-0.164568025
0.317971340,-0.020514000,-0.015785514,-0.095355021,0.034573166,-0.001087000,-0.002810175,-0.003974104,0.564189473,-0.004787000,-0.006499175,-0.013242648,0.794957450,0.412230015,0.381439682,-0.036725409,2.207813155,-0.411363006,-0.401405300,-0.103014494,-0.713434071,-0.016496001,-0.008455151,-0.268282618,-0.051058959,0.000000000,-0.000246800,0.006156809,-0.007401258,-0.435999990,-0.392725838,0.082300840,-14.128932385,0.000000000,0.004366171,-0.000009369,-1.241395987,0.000000000,0.011026126,-0.000074752,-0.696106421,0.000000000,0.005854190,0.000199159,-0.592197876,0.000000000,0.001501484,0.005015577,-0.165299364
0.319971160,-0.020601001,-0.015972747,-0.093616340,0.035213889,-0.000978000,-0.002816548,-0.003186842,0.579694003,-0.004910000,-0.006527255,-0.014039799,0.786212743,0.412111014,0.381365985,-0.036848485,2.205915595,-0.411653012,-0.401616903,-0.105801737,-0.713505343,-0.017321000,-0.009012138,-0.278493591,-0.049921052,0.000000000,-0.000234563,0.006118572,-0.008509803,-0.435999990,-0.392562517,0.081660277,-14.162023711,0.000000000,0.004366104,-0.000033267,-1.240850344,0.000000000,0.011025930,-0.000098154,-0.695933947,0.000000000,0.005854576,0.000192737,-0.592219966,0.000000000,0.001511299,0.004907156,-0.166006814
