sainanliu129-hub/model/applications/Body_GravityPara_Iden/data/excitation/single_run/PD-M1-v0_multi_joint_20260325-140652_0_sim.csv
time,cmd_leg_l1_joint,pos_leg_l1_joint,vel_leg_l1_joint,torque_leg_l1_joint,cmd_leg_l2_joint,pos_leg_l2_joint,vel_leg_l2_joint,torque_leg_l2_joint,cmd_leg_l3_joint,pos_leg_l3_joint,vel_leg_l3_joint,torque_leg_l3_joint,cmd_leg_l4_joint,pos_leg_l4_joint,vel_leg_l4_joint,torque_leg_l4_joint,cmd_leg_l5_joint,pos_leg_l5_joint,vel_leg_l5_joint,torque_leg_l5_joint,cmd_leg_l6_joint,pos_leg_l6_joint,vel_leg_l6_joint,torque_leg_l6_joint,cmd_leg_r1_joint,pos_leg_r1_joint,vel_leg_r1_joint,torque_leg_r1_joint,cmd_leg_r2_joint,pos_leg_r2_joint,vel_leg_r2_joint,torque_leg_r2_joint,cmd_leg_r3_joint,pos_leg_r3_joint,vel_leg_r3_joint,torque_leg_r3_joint,cmd_leg_r4_joint,pos_leg_r4_joint,vel_leg_r4_joint,torque_leg_r4_joint,cmd_leg_r5_joint,pos_leg_r5_joint,vel_leg_r5_joint,torque_leg_r5_joint,cmd_leg_r6_joint,pos_leg_r6_joint,vel_leg_r6_joint,torque_leg_r6_joint
0.000000000,0.000000000,-0.000146531,-0.146238258,-0.843275026,0.000000000,-0.000959593,0.002146232,0.182900638,-0.006823000,-0.008482573,-0.036983992,1.329100239,0.424885005,0.348285288,0.365292893,2.217976997,-0.396259993,-0.378075174,-0.411535029,-0.663808599,0.000000000,0.000011730,0.002037367,0.004588501,0.000000000,-0.000011214,0.000129876,0.000382481,0.000000000,0.000927885,-0.002867113,-0.198355331,0.000000000,0.006253662,-0.022127555,-1.275167752,0.000000000,0.012462865,-0.008745734,-0.724793542,0.000000000,0.006781582,-0.016216799,-0.639229742,0.000000000,0.000004528,-0.000006261,-0.000374280
0.001999820,-0.000031000,0.000145900,0.146215765,0.842596421,0.000016000,-0.000951679,0.003956624,0.224213802,-0.006821000,-0.008558619,-0.038023202,1.308266186,0.424870014,0.349020917,0.367814706,2.241919378,-0.396315992,-0.378900875,-0.412850687,-0.667854786,0.000000000,0.000007585,-0.002072433,-0.006977758,0.000000000,-0.000010933,0.000140443,0.000460860,0.000000000,0.000922120,-0.002882785,-0.198895543,0.000000000,0.006209322,-0.022169814,-1.277068896,0.000000000,0.012445374,-0.008745656,-0.725052204,0.000000000,0.006749135,-0.016223687,-0.639276291,0.000000000,0.000004475,-0.000026798,-0.000439838
0.003999639,-0.000061000,-0.000146189,-0.146044933,-0.845706354,0.000031000,-0.000947307,0.002186421,0.185563153,-0.006816000,-0.008630762,-0.036071250,1.353956397,0.424854010,0.349745406,0.362244443,2.176581417,-0.396375000,-0.379707431,-0.403278167,-0.586324354,0.000000000,0.000011566,0.001990167,0.005125304,0.000000000,-0.000010653,0.000140067,0.000371162,0.000000000,0.000916407,-0.002856265,-0.196902221,0.000000000,0.006165137,-0.022092650,-1.263509713,0.000000000,0.012427377,-0.008998109,-0.723947918,0.000000000,0.006717533,-0.015801234,-0.635977415,0.000000000,0.000004453,-0.000010787,-0.000376033
0.005999459,-0.000091000,0.000145386,0.145787456,0.834964634,0.000045000,-0.000939337,0.003984867,0.228624087,-0.006810000,-0.008702331,-0.035784609,1.331732501,0.424836993,0.350465758,0.360175841,2.169401620,-0.396436006,-0.380489777,-0.391173048,-0.537988113,0.000000000,0.000007437,-0.002064372,-0.006826942,0.000000000,-0.000010325,0.000164006,0.000343428,0.000000000,0.000910683,-0.002862333,-0.195878327,0.000000000,0.006121086,-0.022025632,-1.252695635,0.000000000,0.012408831,-0.009273415,-0.721016749,0.000000000,0.006687179,-0.015176797,-0.633984544,0.000000000,0.000004373,-0.000040129,-0.000419373
0.007999279,-0.000120000,-0.000145945,-0.145665077,-0.849624901,0.000057000,-0.000935080,0.002128504,0.189659113,-0.006802000,-0.008768759,-0.033214104,1.347297641,0.424820006,0.351170078,0.352160281,2.137529341,-0.396499991,-0.381235951,-0.373086574,-0.499500661,0.000000000,0.000011417,0.001990175,0.005117384,0.000000000,-0.000009990,0.000167609,0.000173088,0.000000000,0.000905003,-0.002839573,-0.194113867,0.000000000,0.006077299,-0.021893240,-1.241690153,0.000000000,0.012389541,-0.009645048,-0.717888368,0.000000000,0.006658315,-0.014432142,-0.632692133,0.000000000,0.000004321,-0.000025727,-0.000327842
0.009999099,-0.000148000,-0.000144931,0.000506716,0.826501533,0.000069000,-0.000927330,0.003875164,0.233849110,-0.006792000,-0.008833974,-0.032607111,1.310311257,0.424802989,0.351867481,0.348701143,2.148942526,-0.396566004,-0.381947096,-0.355572596,-0.481975220,0.000000000,0.000007277,-0.002069967,-0.006811965,0.000000000,-0.000009623,0.000183111,0.000116984,0.000000000,0.000899307,-0.002848327,-0.193014400,0.000000000,0.006033711,-0.021794234,-1.232238642,0.000000000,0.012369610,-0.009965056,-0.714028341,0.000000000,0.006631022,-0.013646513,-0.631892016,0.000000000,0.000004212,-0.000054761,-0.000363585
0.011998918,-0.000176000,0.000145163,0.145047285,-0.003192589,0.000079000,-0.000920171,0.003579315,0.195549358,-0.006781000,-0.008895658,-0.030842117,1.317960961,0.424784988,0.352551786,0.342152497,2.128403777,-0.396634012,-0.382617467,-0.335185551,-0.466567086,0.000000000,0.000007769,0.000245830,0.005149421,0.000000000,-0.000009260,0.000181443,-0.000009716,0.000000000,0.000893640,-0.002833192,-0.191197162,0.000000000,0.005990415,-0.021647677,-1.222088256,0.000000000,0.012348942,-0.010334395,-0.710494839,0.000000000,0.006605357,-0.012832154,-0.631367191,0.000000000,0.000004124,-0.000043795,-0.000269972
0.013998738,-0.000202000,-0.000145128,-0.145145673,-0.854475871,0.000089000,-0.000916364,0.001903197,0.203048802,-0.006769000,-0.008951941,-0.028141506,1.298698648,0.424766988,0.353218739,0.333476515,2.130590420,-0.396703988,-0.383245028,-0.313780705,-0.463649716,0.000000000,0.000012038,0.002134466,-0.001484080,0.000000000,-0.000008916,0.000172095,-0.000038966,0.000000000,0.000888010,-0.002815222,-0.189928845,0.000000000,0.005947392,-0.021511849,-1.213096757,0.000000000,0.012327613,-0.010664185,-0.706564029,0.000000000,0.006581269,-0.012044370,-0.631088649,0.000000000,0.000004017,-0.000053677,-0.000292299
0.015998558,-0.000228000,-0.000144677,0.000225465,0.814736709,0.000097000,-0.000908948,0.003708101,0.242721412,-0.006755000,-0.009007148,-0.027603404,1.257022669,0.424748003,0.353878649,0.329955202,2.148994204,-0.396777004,-0.383835054,-0.295012852,-0.468151306,0.000000000,0.000007262,-0.002388247,-0.007284911,0.000000000,-0.000008599,0.000158449,-0.000022789,0.000000000,0.000882369,-0.002820516,-0.188734896,0.000000000,0.005904612,-0.021389764,-1.203939761,0.000000000,0.012305699,-0.010957236,-0.702872680,0.000000000,0.006558741,-0.011263903,-0.630893792,0.000000000,0.000003860,-0.000078617,-0.000253354
0.017998378,-0.000252000,0.000144725,0.144701243,-0.010156562,0.000104000,-0.000902108,0.003420109,0.202062221,-0.006740000,-0.009059103,-0.025977524,1.264523053,0.424728990,0.354525962,0.323656467,2.131141325,-0.396851003,-0.384384832,-0.274889248,-0.469256693,0.000000000,0.000007380,0.000059358,0.006055899,0.000000000,-0.000008340,0.000129914,0.000020600,0.000000000,0.000876764,-0.002802679,-0.187011720,0.000000000,0.005862155,-0.021228413,-1.194541337,0.000000000,0.012283142,-0.011278145,-0.699405442,0.000000000,0.006537717,-0.010511969,-0.630835886,0.000000000,0.000003737,-0.000061524,-0.000166559
0.019998197,-0.000276000,-0.000146361,-0.145543027,-0.860573317,0.000111000,-0.000898641,0.001733604,0.208621752,-0.006724000,-0.009106021,-0.023459256,1.246778886,0.424708992,0.355156822,0.315430139,2.133824197,-0.396926999,-0.384894559,-0.254863301,-0.478383456,0.000000000,0.000011544,0.002082068,-0.000914642,0.000000000,-0.000008165,0.000087074,0.000154271,0.000000000,0.000871201,-0.002781178,-0.185821864,0.000000000,0.005819993,-0.021081037,-1.186122795,0.000000000,0.012260040,-0.011551271,-0.695699655,0.000000000,0.006518083,-0.009816766,-0.630848851,0.000000000,0.000003598,-0.000069012,-0.000202717
0.021998017,-0.000298000,-0.000145916,0.000222259,0.809227328,0.000116000,-0.000891551,0.003544713,0.247772981,-0.006707000,-0.009152254,-0.023116513,1.207702482,0.424688995,0.355781717,0.312447310,2.151185514,-0.397004992,-0.385371042,-0.238241291,-0.491482231,0.000000000,0.000006802,-0.002371393,-0.007086053,0.000000000,0.000008130,0.008147500,0.000377965,0.000000000,0.000865636,-0.002782494,-0.184727127,0.000000000,0.005778098,-0.020947588,-1.177471942,0.000000000,0.012236466,-0.011786887,-0.692299006,0.000000000,0.006499795,-0.009144058,-0.630841049,0.000000000,0.000003413,-0.000092523,-0.000167479
0.023997837,-0.000319000,-0.000145580,0.000167971,-0.017467800,0.000121000,-0.000885042,0.003254498,0.206213589,-0.006690000,-0.009195622,-0.021683806,1.217923621,0.424668998,0.356395156,0.306719378,2.131652853,-0.397085011,-0.385812602,-0.220780058,-0.498465221,0.000000000,0.000006945,0.000071625,0.006054463,0.000000000,-0.000008143,-0.008136223,-0.046940664,0.000000000,0.000860143,-0.002746553,-0.183115552,0.000000000,0.005736426,-0.020836039,-1.168581935,0.000000000,0.012212655,-0.011905782,-0.689135209,0.000000000,0.006482598,-0.008598690,-0.630905271,0.000000000,0.000003340,-0.000036872,-0.000081938
0.025997657,-0.000339000,-0.000145402,0.000089012,-0.019435042,0.000124000,-0.000878740,0.003151438,0.212349030,-0.006671000,-0.009236188,-0.020283148,1.202676377,0.424647987,0.356997581,0.301212831,2.132356006,-0.397166014,-0.386221798,-0.204598101,-0.511568375,0.000000000,0.000007712,0.000383455,-0.000905514,0.000000000,0.000008132,0.008137239,0.046878309,0.000000000,0.000854673,-0.002735056,-0.182367094,0.000000000,0.005695213,-0.020606167,-1.159259977,0.000000000,0.012188032,-0.012311174,-0.686786046,0.000000000,0.006466865,-0.007866566,-0.630717696,0.000000000,0.000003094,-0.000122647,-0.000232699
0.027997476,-0.000357000,-0.000145417,-0.000007280,-0.021139347,0.000127000,-0.000872529,0.003105462,0.213741319,-0.006653000,-0.009274138,-0.018974972,1.187926440,0.424627006,0.357589543,0.295980715,2.132117184,-0.397249013,-0.386601071,-0.189636567,-0.524404804,0.000000000,0.000007983,0.000135465,-0.001869555,0.000000000,-0.000008106,-0.008118828,-0.046882849,0.000000000,0.000849254,-0.002709462,-0.181072307,0.000000000,0.005654198,-0.020507946,-1.152745060,0.000000000,0.012163321,-0.012355783,-0.682349248,0.000000000,0.006451993,-0.007435916,-0.631209055,0.000000000,0.000002984,-0.000055450,0.000035951
0.029997296,-0.000374000,-0.000145613,-0.000097929,-0.022511920,0.000129000,-0.000866396,0.003066378,0.213868578,-0.006634000,-0.009309583,-0.017722356,1.174240212,0.424605995,0.358171403,0.290930038,2.130590562,-0.397332996,-0.386952667,-0.175797711,-0.536997545,0.000000000,0.000007932,-0.000025520,-0.001191899,0.000000000,0.000008192,0.008148804,0.046776016,0.000000000,0.000843856,-0.002699247,-0.180110914,0.000000000,0.005613661,-0.020268110,-1.143308163,0.000000000,0.012137869,-0.012725718,-0.680471262,0.000000000,0.006438413,-0.006789719,-0.630930374,0.000000000,0.000002742,-0.000120819,-0.000143883
0.031997116,-0.000390000,-0.000146023,-0.000205398,-0.023790484,0.000130000,-0.000860366,0.003014755,0.213577896,-0.006614000,-0.009342610,-0.016513689,1.161382892,0.424584001,0.358743461,0.286028899,2.128410444,-0.397419006,-0.387278735,-0.163034482,-0.549295155,0.000000000,0.000007825,-0.000053578,-0.000729060,0.000000000,0.000008114,-0.000038993,-0.046954644,0.000000000,0.000838511,-0.002672533,-0.178807468,0.000000000,0.005573335,-0.020163366,-1.137210790,0.000000000,0.012112404,-0.012732393,-0.676234123,0.000000000,0.006425523,-0.006445382,-0.631395105,0.000000000,0.000002629,-0.000056208,0.000066383
0.033996936,-0.000404000,-0.000146742,-0.000359261,-0.024844435,0.000130000,-0.000854449,0.002958740,0.213315944,-0.006594000,-0.009373292,-0.015340799,1.149116861,0.424562007,0.359305969,0.281254194,2.125724451,-0.397507012,-0.387581368,-0.151316379,-0.561319404,0.000000000,0.000007773,-0.000025818,-0.000638461,0.000000000,0.000008089,-0.000012075,-0.000644339,0.000000000,0.000833220,-0.002645196,-0.177892412,0.000000000,0.005533378,-0.019978534,-1.128117319,0.000000000,0.012086561,-0.012921774,-0.674578194,0.000000000,0.006413586,-0.005968321,-0.631071251,0.000000000,0.000002463,-0.000083056,-0.000105945
0.035996755,-0.000416000,-0.000147925,-0.000591336,-0.025390034,0.000128000,-0.000848649,0.002899984,0.212900931,-0.006572000,-0.009401700,-0.014203914,1.136993300,0.424539000,0.359859172,0.276601229,2.122742952,-0.397601008,-0.387862588,-0.140610004,-0.572942741,0.000000000,0.000007767,-0.000003042,-0.000712165,0.000000000,-0.000008101,-0.008095253,-0.000793981,0.000000000,0.000827978,-0.002621100,-0.177006971,0.000000000,0.005493798,-0.019789882,-1.120940444,0.000000000,0.012060379,-0.013090736,-0.671599667,0.000000000,0.006402505,-0.005540742,-0.631221158,0.000000000,0.000002296,-0.000083829,-0.000012828
0.037996575,-0.000428000,-0.000149771,-0.000923357,-0.025230690,0.000125000,-0.000842965,0.002841990,0.212012834,-0.006546000,-0.009427893,-0.013096671,1.125606186,0.424515009,0.360403278,0.272053417,2.119419935,-0.397702008,-0.388124386,-0.130898895,-0.584459223,0.000000000,0.000007786,0.000009837,-0.000776304,0.000000000,0.000008173,0.008137066,0.046642168,0.000000000,0.000822752,-0.002613016,-0.176061927,0.000000000,0.005454721,-0.019538540,-1.113957211,0.000000000,0.012033612,-0.013383598,-0.668744932,0.000000000,0.006392372,-0.005066220,-0.631316813,0.000000000,0.000002105,-0.000095464,0.000006313
0.039996395,-0.000438000,-0.000152512,-0.001370479,-0.024435371,0.000120000,-0.000837399,0.002782747,0.210856231,-0.006518000,-0.009451920,-0.012013470,1.115397215,0.424488991,0.360938470,0.267595774,2.115861886,-0.397810012,-0.388368711,-0.122162304,-0.595816885,0.000000000,0.000007815,0.000014255,-0.000814907,0.000000000,0.000008119,-0.000027181,-0.046886289,0.000000000,0.000817586,-0.002583211,-0.174759310,0.000000000,0.005415876,-0.019422561,-1.108534835,0.000000000,0.012006972,-0.013320215,-0.664972521,0.000000000,0.006382629,-0.004871634,-0.631641847,0.000000000,0.000002014,-0.000045277,0.000058687
0.041996215,-0.000448000,-0.000156372,-0.001930001,-0.022680655,0.000114000,-0.000831945,0.002727046,0.209193051,-0.006487000,-0.009473819,-0.010949579,1.105684748,0.424463004,0.361464898,0.263214207,2.112098043,-0.397922993,-0.388597450,-0.114369478,-0.606877731,0.000000000,0.000007863,0.000023804,-0.000830348,0.000000000,0.000008090,-0.000014319,-0.000711680,0.000000000,0.000812484,-0.002550816,-0.173964943,0.000000000,0.005377427,-0.019224176,-1.100116640,0.000000000,0.011980075,-0.013448461,-0.663740303,0.000000000,0.006373577,-0.004525750,-0.631210351,0.000000000,0.000001939,-0.000037808,-0.000074841
0.043996034,-0.000457000,-0.000161550,-0.002588934,-0.020171030,0.000107000,-0.000826600,0.002672639,0.207197190,-0.006453000,-0.009493626,-0.009903492,1.096656922,0.424436003,0.361982700,0.258900639,2.108348863,-0.398039013,-0.388812382,-0.107466170,-0.617333617,0.000000000,0.000007926,0.000031818,-0.000862308,0.000000000,0.000008074,-0.000007799,-0.000781361,0.000000000,0.000807441,-0.002521430,-0.173247577,0.000000000,0.005339386,-0.019020823,-1.093675153,0.000000000,0.011952950,-0.013562377,-0.661129786,0.000000000,0.006365146,-0.004215884,-0.631278908,0.000000000,-0.000001945,-0.001941895,-0.000088433
0.045995854,-0.000466000,-0.000168181,-0.003315546,-0.016852172,0.000098000,-0.000821358,0.002620930,0.204918733,-0.006417000,-0.009511366,-0.008869900,1.088289775,0.424407989,0.362491974,0.254637226,2.104597275,-0.398158014,-0.389015131,-0.101374645,-0.626963190,0.000000000,0.000008009,0.000041155,-0.000891522,0.000000000,0.000008066,-0.000004466,-0.000816570,0.000000000,0.000802406,-0.002517314,-0.172478853,0.000000000,0.005301754,-0.018816056,-1.087461660,0.000000000,0.011925634,-0.013658249,-0.658606732,0.000000000,0.006357267,-0.003939263,-0.631307701,0.000000000,0.000002374,0.002159648,0.005717401
0.047995674,-0.000474000,-0.000176323,-0.004070692,-0.012995690,0.000088000,-0.000816213,0.002572468,0.202040165,-0.006380000,-0.009527061,-0.007847558,1.080186178,0.424380004,0.362992806,0.250416095,2.100963773,-0.398279011,-0.389207185,-0.096026970,-0.635817342,0.000000000,0.000008116,0.000053508,-0.000926385,0.000000000,0.000008061,-0.000002148,-0.000834466,0.000000000,0.000797483,-0.002461832,-0.171140882,0.000000000,0.005264536,-0.018608763,-1.081396531,0.000000000,0.011898155,-0.013739251,-0.656199829,0.000000000,0.006349889,-0.003688983,-0.631297893,0.000000000,0.000002000,-0.000186833,-0.006379817
0.049995494,-0.000482000,-0.000185947,-0.004812137,-0.008710269,0.000077000,-0.000811160,0.002526566,0.198831439,-0.006340000,-0.009540735,-0.006837255,1.072040158,0.424351990,0.363485275,0.246234170,2.097564878,-0.398400992,-0.389389891,-0.091352820,-0.643839452,0.000000000,0.000008252,0.000068157,-0.000972321,0.000000000,-0.000008058,-0.008059383,-0.000847118,0.000000000,0.000792611,-0.002436075,-0.170996294,0.000000000,0.005227739,-0.018398689,-1.075506398,0.000000000,0.011870540,-0.013807431,-0.653888385,0.000000000,0.006342966,-0.003461397,-0.631263784,0.000000000,-0.000001940,-0.001970066,0.000328995
0.051995313,-0.000490000,-0.000196954,-0.005503403,-0.004344260,0.000065000,-0.000806191,0.002484472,0.195306681,-0.006300000,-0.009552407,-0.005835901,1.064444915,0.424324006,0.363969434,0.242079818,2.094413721,-0.398521990,-0.389564440,-0.087274432,-0.650990916,0.000000000,0.000008423,0.000085447,-0.001027744,0.000000000,0.000008327,0.008192344,0.046434685,0.000000000,0.000787722,-0.002444397,-0.170194009,0.000000000,0.005191490,-0.018124139,-1.069798607,0.000000000,0.011842522,-0.014009179,-0.651659472,0.000000000,0.006336641,-0.003162896,-0.631211158,0.000000000,0.000002183,0.002061429,0.005796936
0.053995133,-0.000498000,-0.000209198,-0.006122188,-0.000114652,0.000053000,-0.000801305,0.002442908,0.191435481,-0.006258000,-0.009562100,-0.004846244,1.056482696,0.424295992,0.364445342,0.237954115,2.091593272,-0.398642004,-0.389731863,-0.083711750,-0.657173598,0.000000000,0.000008624,0.000100758,-0.001094171,0.000000000,0.000008340,0.000006476,-0.047215313,0.000000000,0.000782962,-0.002379848,-0.168616170,0.000000000,0.005155521,-0.017984485,-1.065705244,0.000000000,0.011814800,-0.013860877,-0.648455671,0.000000000,0.006330388,-0.003126115,-0.631420479,0.000000000,0.000001925,-0.000129179,-0.006081282
0.055994953,-0.000506000,-0.000222497,-0.006649650,0.003836992,0.000040000,-0.000796495,0.002405195,0.187575888,-0.006215000,-0.009569830,-0.003865282,1.048790940,0.424268007,0.364913035,0.233846203,2.089088513,-0.398759007,-0.389893044,-0.080590220,-0.662510855,0.000000000,0.000008867,0.000121544,-0.001158065,0.000000000,0.000008378,0.000018921,-0.000925609,0.000000000,0.000778275,-0.002343462,-0.168723285,0.000000000,0.005119996,-0.017762449,-1.058640081,0.000000000,0.011786981,-0.013909354,-0.647758753,0.000000000,0.006324542,-0.002922967,-0.630893167,0.000000000,-0.000002177,-0.002051002,0.000172726
0.057994773,-0.000515000,-0.000236670,-0.007086158,0.007384652,0.000026000,-0.000791759,0.002367795,0.183366423,-0.006172000,-0.009575622,-0.002895724,1.041022482,0.424239993,0.365372550,0.229757433,2.086978122,-0.398871988,-0.390048711,-0.077833437,-0.666920664,0.000000000,0.000009149,0.000140671,-0.001241730,0.000000000,0.000008434,0.000028053,-0.001000017,0.000000000,0.000773610,-0.002332824,-0.168214050,0.000000000,0.005084925,-0.017535816,-1.053564555,0.000000000,0.011759087,-0.013947094,-0.645657007,0.000000000,0.006319057,-0.002742742,-0.630879897,0.000000000,0.000001928,0.002052587,0.006051040
0.059994592,-0.000524000,-0.000251541,-0.007435440,0.010404436,0.000012000,-0.000787098,0.002330613,0.178886869,-0.006128000,-0.009579498,-0.001938046,1.032960818,0.424214005,0.365823920,0.225685159,2.085246328,-0.398979992,-0.390199444,-0.075366828,-0.670444112,0.000000000,0.000009470,0.000160438,-0.001324540,0.000000000,0.000008516,0.000041095,-0.001057640,0.000000000,0.000769063,-0.002273295,-0.167128497,0.000000000,0.005050308,-0.017308403,-1.048721810,0.000000000,0.011731149,-0.013969252,-0.643626820,0.000000000,0.006313888,-0.002584231,-0.630837888,0.000000000,-0.000002228,-0.002078132,-0.006030352
0.061994412,-0.000533000,-0.000266949,-0.007704458,0.013005419,-0.000002000,-0.000782514,0.002292217,0.174423524,-0.006084000,-0.009581486,-0.000994237,1.024907607,0.424187988,0.366267182,0.221630955,2.084039733,-0.399082005,-0.390345690,-0.073122840,-0.673138169,0.000000000,0.000009830,0.000180454,-0.001413167,0.000000000,0.000008620,0.000052091,-0.001140156,0.000000000,0.000764531,-0.002266206,-0.167182635,0.000000000,0.005016149,-0.017079648,-1.044026014,0.000000000,0.011703191,-0.013978681,-0.641704586,0.000000000,0.006309004,-0.002442385,-0.630766182,0.000000000,-0.000001927,0.000150567,0.006133334
0.063994232,-0.000543000,-0.000282754,-0.007902300,0.015209854,-0.000016000,-0.000778008,0.002253104,0.170009482,-0.006040000,-0.009581618,-0.000066027,1.016631545,0.424163014,0.366702373,0.217595596,2.083214989,-0.399177015,-0.390487764,-0.071037169,-0.675047486,0.000000000,0.000010229,0.000199201,-0.001506548,0.000000000,0.000008755,0.000067055,-0.001213440,0.000000000,0.000760073,-0.002228850,-0.166054666,0.000000000,0.004982451,-0.016848767,-1.039490610,0.000000000,0.011675237,-0.013977113,-0.639871638,0.000000000,0.006304377,-0.002313154,-0.630675772,0.000000000,0.000002033,0.001980117,-0.000233292
0.065994052,-0.000554000,-0.000298835,-0.008040349,0.016947373,-0.000031000,-0.000773583,0.002212220,0.165633884,-0.005996000,-0.009579929,0.000844439,1.008180761,0.424138993,0.367129536,0.213581303,2.082831963,-0.399264008,-0.390625864,-0.069050097,-0.676220471,0.000000000,0.000010662,0.000216760,-0.001600109,0.000000000,0.000008924,0.000084908,-0.001312358,0.000000000,0.000755734,-0.002169536,-0.165632535,0.000000000,0.004949219,-0.016615987,-1.035134564,0.000000000,0.011647307,-0.013965159,-0.638117052,0.000000000,0.006299987,-0.002195156,-0.630575616,0.000000000,-0.000002113,-0.002073068,-0.005834942
0.067993871,-0.000566000,-0.000315094,-0.008129597,0.018269594,-0.000045000,-0.000769246,0.002168332,0.161037323,-0.005953000,-0.009576458,0.001735515,0.999613634,0.424116999,0.367548715,0.209589392,2.082866559,-0.399342000,-0.390760074,-0.067104974,-0.676704566,0.000000000,0.000011132,0.000234929,-0.001693844,0.000000000,0.000009124,0.000099770,-0.001431416,0.000000000,0.000751414,-0.002160005,-0.165740805,0.000000000,0.004916457,-0.016381316,-1.030953781,0.000000000,0.011619420,-0.013943670,-0.636437801,0.000000000,0.006295813,-0.002086791,-0.630467378,0.000000000,-0.000001931,0.000090962,0.006107292
0.069993691,-0.000578000,-0.000331453,-0.008179708,0.019228292,-0.000063000,-0.000765002,0.002122099,0.156817934,-0.005907000,-0.009571252,0.002603291,0.990694313,0.424095988,0.367959969,0.205627330,2.083374380,-0.399416000,-0.390890382,-0.065153867,-0.676552952,0.000000000,0.000011632,0.000250111,-0.001792986,0.000000000,0.000009360,0.000118095,-0.001536732,0.000000000,0.000747172,-0.002121058,-0.164728449,0.000000000,0.004884167,-0.016144563,-1.026949194,0.000000000,0.011591593,-0.013913033,-0.634829043,0.000000000,0.006291841,-0.001986309,-0.630353657,0.000000000,0.000001951,0.001941311,-0.000063433
0.071993511,-0.000589000,-0.000347851,-0.008198882,0.019976353,-0.000082000,-0.000760858,0.002072155,0.151540874,-0.005858000,-0.009564354,0.003449057,0.982661393,0.424077004,0.368363359,0.201695014,2.084232673,-0.399484992,-0.391016777,-0.063197570,-0.676409123,0.000000000,0.000012170,0.000268689,-0.001886702,0.000000000,0.000009636,0.000138154,-0.001665534,0.000000000,0.000743051,-0.002060226,-0.164403587,0.000000000,0.004852355,-0.015906092,-1.023126302,0.000000000,0.011563847,-0.013873391,-0.633289175,0.000000000,0.006288054,-0.001893329,-0.630237834,0.000000000,-0.000002390,-0.002170641,-0.005716370
0.073993331,-0.000600000,-0.000364235,-0.008192018,0.020660138,-0.000104000,-0.000756823,0.002017665,0.146091907,-0.005808000,-0.009555809,0.004272236,0.975498288,0.424057990,0.368758951,0.197796040,2.085504317,-0.399549991,-0.391139241,-0.061232150,-0.676169466,0.000000000,0.000012746,0.000288300,-0.001993829,0.000000000,0.000009941,0.000152409,-0.001808422,0.000000000,0.000738951,-0.002050167,-0.164608332,0.000000000,0.004821023,-0.015665979,-1.019477825,0.000000000,0.011536196,-0.013825309,-0.631818330,0.000000000,0.006284440,-0.001806940,-0.630119478,0.000000000,-0.000002102,0.000144042,0.006412658
0.075993150,-0.000612000,-0.000380566,-0.008165332,0.021195214,-0.000128000,-0.000752906,0.001958198,0.139924003,-0.005756000,-0.009545667,0.005071226,0.968662307,0.424039990,0.369146824,0.193936210,2.087029639,-0.399612010,-0.391257769,-0.059263582,-0.675949411,0.000000000,0.000013367,0.000310473,-0.002107857,0.000000000,0.000010280,0.000169181,-0.001921525,0.000000000,0.000734933,-0.002008976,-0.163670356,0.000000000,0.004790175,-0.015424047,-1.016002981,0.000000000,0.011508658,-0.013769029,-0.630413540,0.000000000,0.006280989,-0.001725873,-0.629999846,0.000000000,-0.000001984,0.000059099,-0.000197100
0.077992970,-0.000623000,-0.000396818,-0.008125971,0.021505922,-0.000153000,-0.000749121,0.001892398,0.133333996,-0.005703000,-0.009533975,0.005845746,0.962487726,0.424023002,0.369527062,0.190119149,2.088828341,-0.399672002,-0.391372377,-0.057303929,-0.675835014,0.000000000,0.000014037,0.000334662,-0.002233652,0.000000000,0.000010647,0.000183799,-0.002052435,0.000000000,0.000730993,-0.001969703,-0.163459959,0.000000000,0.004759814,-0.015180726,-1.012706831,0.000000000,0.011481249,-0.013704566,-0.629074141,0.000000000,0.006277688,-0.001650209,-0.629881467,0.000000000,-0.000001937,0.000023124,0.000032447
0.079992790,-0.000636000,-0.000412968,-0.008075337,0.021843146,-0.000180000,-0.000745481,0.001820223,0.126640388,-0.005649000,-0.009520787,0.006593948,0.956710662,0.424005985,0.369899767,0.186352270,2.090869251,-0.399729997,-0.391483121,-0.055372096,-0.675886564,0.000000000,0.000014754,0.000358657,-0.002370067,0.000000000,0.000011040,0.000196269,-0.002174284,0.000000000,0.000727132,-0.001930841,-0.163228530,0.000000000,0.004729942,-0.014935964,-1.009580402,0.000000000,0.011453984,-0.013632377,-0.627801045,0.000000000,0.006274530,-0.001579104,-0.629763025,0.000000000,-0.000001922,0.000007510,0.000130050
0.081992610,-0.000648000,-0.000429010,-0.008020819,0.021892649,-0.000207000,-0.000741999,0.001740916,0.119563507,-0.005595000,-0.009506154,0.007316486,0.951387688,0.423988998,0.370265039,0.182636103,2.093027458,-0.399785995,-0.391590076,-0.053477838,-0.676047700,0.000000000,0.000015522,0.000384059,-0.002510779,0.000000000,0.000011453,0.000206624,-0.002286643,0.000000000,0.000723348,-0.001891724,-0.163009892,0.000000000,0.004700562,-0.014689882,-1.006625744,0.000000000,0.011426879,-0.013552627,-0.626591986,0.000000000,0.006271506,-0.001512096,-0.629645991,0.000000000,-0.000001919,0.000001483,0.000172922
0.083992429,-0.000662000,-0.000444934,-0.007962194,0.022015157,-0.000235000,-0.000738689,0.001654827,0.112693050,-0.005540000,-0.009490130,0.008012030,0.946234462,0.423972011,0.370622989,0.178975334,2.095296548,-0.399841994,-0.391693338,-0.051630602,-0.676283094,0.000000000,0.000016337,0.000407249,-0.002660628,0.000000000,0.000011883,0.000214853,-0.002389253,0.000000000,0.000719644,-0.001852229,-0.162819243,0.000000000,0.004671677,-0.014442600,-1.003840816,0.000000000,0.011399948,-0.013465505,-0.625446743,0.000000000,0.006268608,-0.001448782,-0.629530856,0.000000000,0.000001919,0.001919180,0.000189758
0.085992249,-0.000677000,-0.000460745,-0.007905317,0.021888761,-0.000264000,-0.000735566,0.001561637,0.105740684,-0.005485000,-0.009472768,0.008681342,0.941580740,0.423954993,0.370973731,0.175370975,2.097634335,-0.399897009,-0.391793040,-0.049851305,-0.676758187,0.000000000,0.000017196,0.000429611,-0.002808873,0.000000000,0.000012330,0.000223841,-0.002481591,0.000000000,0.000716066,-0.001788993,-0.162659601,0.000000000,0.004643288,-0.014194195,-1.001223610,0.000000000,0.011373205,-0.013371212,-0.624364908,0.000000000,0.006265831,-0.001388770,-0.629418014,0.000000000,-0.000002952,-0.002435454,-0.005650179
0.087992069,-0.000692000,-0.000476452,-0.007853286,0.021653528,-0.000293000,-0.000732645,0.001460537,0.098717660,-0.005430000,-0.009454119,0.009324316,0.937139696,0.423936993,0.371317380,0.171824338,2.100024614,-0.399953008,-0.391889333,-0.048146333,-0.677300384,0.000000000,0.000018099,0.000451473,-0.002959287,0.000000000,0.000012778,0.000223615,-0.002580137,0.000000000,0.000712507,-0.001779314,-0.163072910,0.000000000,0.004615399,-0.013944919,-0.998773024,0.000000000,0.011346666,-0.013269970,-0.623345963,0.000000000,0.006263167,-0.001331960,-0.629307916,0.000000000,-0.000002684,0.000134020,0.007222323
0.089991889,-0.000710000,-0.000492065,-0.007806535,0.021434607,-0.000322000,-0.000729940,0.001352747,0.091931059,-0.005376000,-0.009434237,0.009940853,0.932929018,0.423918009,0.371654056,0.168337906,2.102390533,-0.400009006,-0.391982407,-0.046537117,-0.678075295,0.000000000,0.000019039,0.000470158,-0.003112697,0.000000000,0.000013231,0.000226869,-0.002626526,0.000000000,0.000709036,-0.001735576,-0.162280322,0.000000000,0.004588010,-0.013694561,-0.996483859,0.000000000,0.011320341,-0.013162037,-0.622389195,0.000000000,0.006260612,-0.001277430,-0.629200197,0.000000000,-0.000002565,0.000059165,-0.000109779
0.091991708,-0.000728000,-0.000507607,-0.007771244,0.020915800,-0.000351000,-0.000727465,0.001237207,0.085357009,-0.005324000,-0.009413176,0.010530879,0.928681513,0.423898011,0.371983880,0.164912036,2.104706835,-0.400068015,-0.392072463,-0.045028054,-0.678903244,0.000000000,0.000020012,0.000486649,-0.003260849,0.000000000,0.000013686,0.000227581,-0.002693294,0.000000000,0.000705648,-0.001694179,-0.162282968,0.000000000,0.004561122,-0.013443559,-0.994361480,0.000000000,0.011294247,-0.013047373,-0.621493622,0.000000000,0.006258161,-0.001225663,-0.629097019,0.000000000,-0.000002522,0.000021622,0.000091075
0.093991528,-0.000748000,-0.000523099,-0.007745989,0.020454276,-0.000379000,-0.000725237,0.001114300,0.079023968,-0.005272000,-0.009390991,0.011092060,0.924129724,0.423877001,0.372306989,0.161554476,2.106961444,-0.400128007,-0.392159763,-0.043649921,-0.680055692,0.000000000,0.000021013,0.000500266,-0.003406099,0.000000000,0.000014139,0.000226457,-0.002745840,0.000000000,0.000702341,-0.001653562,-0.162256214,0.000000000,0.004534739,-0.013191844,-0.992396362,0.000000000,0.011268394,-0.012926409,-0.620660374,0.000000000,0.006255808,-0.001176077,-0.628996450,0.000000000,-0.000002522,-0.000000082,0.000193437
0.095991348,-0.000770000,-0.000538567,-0.007734059,0.019830944,-0.000406000,-0.000723267,0.000984822,0.073211672,-0.005222000,-0.009367737,0.011627319,0.919911385,0.423853993,0.372623506,0.158258360,2.109090665,-0.400191009,-0.392244561,-0.042399131,-0.681213865,0.000000000,0.000022033,0.000510071,-0.003545934,0.000000000,0.000014587,0.000224006,-0.002787756,0.000000000,0.000699115,-0.001613010,-0.162234904,0.000000000,0.004508860,-0.012939549,-0.990590478,0.000000000,0.011242795,-0.012799253,-0.619887200,0.000000000,0.006253551,-0.001128470,-0.628899702,0.000000000,-0.000002551,-0.000014241,0.000255159
0.097991168,-0.000794000,-0.000554043,-0.007737811,0.019067233,-0.000432000,-0.000721570,0.000848729,0.067905874,-0.005174000,-0.009343466,0.012135453,0.915406566,0.423828989,0.372933560,0.155027122,2.111073416,-0.400258005,-0.392327149,-0.041293601,-0.682567033,0.000000000,0.000023065,0.000515871,-0.003676910,0.000000000,0.000015028,0.000220478,-0.002821651,0.000000000,0.000695970,-0.001572391,-0.162235152,0.000000000,0.004483486,-0.012686771,-0.988941121,0.000000000,0.011217463,-0.012666083,-0.619174093,0.000000000,0.006251386,-0.001082659,-0.628806953,0.000000000,-0.000002599,-0.000023817,0.000298293
0.099990987,-0.000820000,-0.000569561,-0.007759146,0.018179820,-0.000457000,-0.000720157,0.000706385,0.063111295,-0.005128000,-0.009318233,0.012616227,0.910658067,0.423803002,0.373237284,0.151862129,2.112877094,-0.400328994,-0.392407851,-0.040351226,-0.684134292,0.000000000,0.000024100,0.000517671,-0.003797672,0.000000000,0.000015460,0.000216020,-0.002848704,0.000000000,0.000692906,-0.001531749,-0.162260025,0.000000000,0.004458619,-0.012433613,-0.987446404,0.000000000,0.011192409,-0.012527079,-0.618520554,0.000000000,0.006249309,-0.001038486,-0.628718355,0.000000000,-0.000002658,-0.000029939,0.000330330
0.101990807,-0.000854000,-0.000585160,-0.007799623,0.017183200,-0.000480000,-0.000719040,0.000558268,0.058823277,-0.005084000,-0.009292095,0.013069447,0.905686480,0.423774004,0.373534813,0.148764282,2.114547612,-0.400402993,-0.392487016,-0.039582551,-0.685831787,0.000000000,0.000025131,0.000515638,-0.003907426,0.000000000,0.000015882,0.000210769,-0.002869546,0.000000000,0.000689924,-0.001491124,-0.162308527,0.000000000,0.004434259,-0.012180172,-0.986104207,0.000000000,0.011167644,-0.012382423,-0.617926052,0.000000000,0.006247318,-0.000995802,-0.628634029,0.000000000,-0.000002725,-0.000033268,0.000353787
0.103990627,-0.000900000,-0.000600907,-0.007873485,0.015450726,-0.000504000,-0.000718232,0.000403912,0.055318528,-0.005040000,-0.009265100,0.013497459,0.900511979,0.423741013,0.373826266,0.145726534,2.115942079,-0.400480986,-0.392564977,-0.038980454,-0.687495035,0.000000000,0.000026151,0.000509718,-0.004005873,0.000000000,0.000016292,0.000204857,-0.002884786,0.000000000,0.000687023,-0.001450525,-0.162379743,0.000000000,0.004410405,-0.011926543,-0.984912482,0.000000000,0.011143180,-0.012232300,-0.617389994,0.000000000,0.006245409,-0.000954476,-0.628554097,0.000000000,-0.000002794,-0.000034396,0.000369977
0.105990447,-0.000959000,-0.000616915,-0.008003706,0.012643685,-0.000528000,-0.000717749,0.000241624,0.051758405,-0.004998000,-0.009237288,0.013905613,0.895664354,0.423705995,0.374111737,0.142735644,2.117040872,-0.400563002,-0.392642060,-0.038541719,-0.689210008,0.000000000,0.000027159,0.000503969,-0.004092072,0.000000000,0.000016688,0.000198407,-0.002895023,0.000000000,0.000684203,-0.001409937,-0.162473440,0.000000000,0.004387060,-0.011672824,-0.983869195,0.000000000,0.011119026,-0.012076885,-0.616911763,0.000000000,0.006243580,-0.000914382,-0.628478661,0.000000000,-0.000002862,-0.000033898,0.000380135
0.107990266,-0.001028000,-0.000633339,-0.008212002,0.008797417,-0.000551000,-0.000717610,0.000069519,0.048469942,-0.004956000,-0.009208702,0.014293271,0.890465489,0.423667997,0.374391323,0.139792936,2.118056429,-0.400647014,-0.392718601,-0.038270302,-0.690955839,0.000000000,0.000028153,0.000496914,-0.004177595,0.000000000,0.000017072,0.000191547,-0.002900845,0.000000000,0.000681464,-0.001369372,-0.162589967,0.000000000,0.004364222,-0.011419095,-0.982972174,0.000000000,0.011095193,-0.011916372,-0.616490779,0.000000000,0.006241829,-0.000875403,-0.628407825,0.000000000,-0.000002926,-0.000032281,0.000385571
0.109990086,-0.001107000,-0.000650361,-0.008511202,0.004371152,-0.000575000,-0.000717835,-0.000112312,0.045785639,-0.004914000,-0.009179373,0.014664246,0.885509731,0.423628002,0.374665098,0.136887562,2.118913008,-0.400732994,-0.392794886,-0.038142363,-0.692482649,0.000000000,0.000029124,0.000485747,-0.004257979,0.000000000,0.000017440,0.000184388,-0.002902890,0.000000000,0.000678807,-0.001328858,-0.162729030,0.000000000,0.004341891,-0.011165465,-0.982219631,0.000000000,0.011071691,-0.011750919,-0.616126314,0.000000000,0.006240154,-0.000837450,-0.628341695,0.000000000,-0.000002986,-0.000029941,0.000387500
0.111989906,-0.001196000,-0.000668185,-0.008912022,-0.000543193,-0.000598000,-0.000718444,-0.000304754,0.043140431,-0.004873000,-0.009149333,0.015020327,0.880720424,0.423586011,0.374933126,0.134014084,2.119745133,-0.400821000,-0.392871165,-0.038139771,-0.693826204,0.000000000,0.000030071,0.000473493,-0.004324413,0.000000000,0.000017794,0.000177008,-0.002901710,0.000000000,0.000676230,-0.001288405,-0.162889976,0.000000000,0.004320067,-0.010912008,-0.981609040,0.000000000,0.011048530,-0.011580723,-0.615817857,0.000000000,0.006238553,-0.000800425,-0.628280323,0.000000000,-0.000003040,-0.000027175,0.000386900
0.113989726,-0.001292000,-0.000687030,-0.009422406,-0.005863341,-0.000621000,-0.000719461,-0.000508182,0.041128904,-0.004833000,-0.009118611,0.015360930,0.875781388,0.423541009,0.375195472,0.131172977,2.120587425,-0.400911003,-0.392947667,-0.038250882,-0.695018733,0.000000000,0.000030988,0.000458290,-0.004385284,0.000000000,0.000018133,0.000169486,-0.002897715,0.000000000,0.000673734,-0.001248042,-0.163072539,0.000000000,0.004298749,-0.010658810,-0.981138611,0.000000000,0.011025718,-0.011405963,-0.615564617,0.000000000,0.006237025,-0.000764256,-0.628223795,0.000000000,-0.000003089,-0.000024192,0.000384527
0.115989545,-0.001396000,-0.000707115,-0.010042661,-0.011201238,-0.000644000,-0.000720905,-0.000722177,0.039481510,-0.004794000,-0.009087238,0.015686397,0.870714622,0.423494011,0.375452197,0.128362221,2.121368416,-0.401001990,-0.393024591,-0.038462105,-0.696067347,0.000000000,0.000031869,0.000440679,-0.004434696,0.000000000,0.000018457,0.000161886,-0.002891309,0.000000000,0.000671318,-0.001207788,-0.163276015,0.000000000,0.004277937,-0.010405959,-0.980806266,0.000000000,0.011003264,-0.011226812,-0.615365897,0.000000000,0.006235567,-0.000728877,-0.628172143,0.000000000,-0.000003131,-0.000021134,0.000380938
0.117989365,-0.001506000,-0.000728664,-0.010774410,-0.016638335,-0.000666000,-0.000722798,-0.000946538,0.038194766,-0.004755000,-0.009055245,0.015996776,0.865520773,0.423446000,0.375703357,0.125580276,2.122162621,-0.401093990,-0.393102098,-0.038753213,-0.696888047,0.000000000,0.000032712,0.000421560,-0.004473701,0.000000000,0.000018766,0.000154253,-0.002882839,0.000000000,0.000668983,-0.001167661,-0.163499887,0.000000000,0.004257630,-0.010153535,-0.980609822,0.000000000,0.010981177,-0.011043451,-0.615221022,0.000000000,0.006234179,-0.000694226,-0.628125398,0.000000000,-0.000003167,-0.000018083,0.000376513
0.119989185,-0.001622000,-0.000751892,-0.011614075,-0.021928477,-0.000689000,-0.000725159,-0.001180241,0.037554309,-0.004716000,-0.009022660,0.016292180,0.860491876,0.423395991,0.375949010,0.122826353,2.123039476,-0.401185989,-0.393180315,-0.039108699,-0.697525195,0.000000000,0.000033511,0.000399380,-0.004504557,0.000000000,0.000019059,0.000146636,-0.002872562,0.000000000,0.000666728,-0.001127684,-0.163743732,0.000000000,0.004237827,-0.009901626,-0.980547232,0.000000000,0.010959465,-0.010856050,-0.615129228,0.000000000,0.006232858,-0.000660253,-0.628083588,0.000000000,-0.000003197,-0.000015091,0.000371497
0.121989005,-0.001742000,-0.000777010,-0.012558696,-0.027068914,-0.000711000,-0.000728004,-0.001422969,0.036973750,-0.004678000,-0.008989513,0.016573719,0.855633768,0.423345000,0.376189202,0.120096313,2.123938934,-0.401279002,-0.393259325,-0.039504727,-0.697907465,0.000000000,0.000034265,0.000377053,-0.004522225,0.000000000,0.000019337,0.000139066,-0.002860749,0.000000000,0.000664552,-0.001087867,-0.164006889,0.000000000,0.004218526,-0.009650305,-0.980616183,0.000000000,0.010938136,-0.010664794,-0.615089829,0.000000000,0.006231604,-0.000626906,-0.628046715,0.000000000,-0.000003222,-0.000012181,0.000366039
0.123988824,-0.001865000,-0.000804209,-0.013599679,-0.031840807,-0.000733000,-0.000731352,-0.001673752,0.037019564,-0.004641000,-0.008955835,0.016838853,0.850644901,0.423292011,0.376423995,0.117396136,2.124951400,-0.401371002,-0.393339199,-0.039937289,-0.698196828,0.000000000,0.000034969,0.000352164,-0.004534962,0.000000000,0.000019600,0.000131580,-0.002847584,0.000000000,0.000662455,-0.001048242,-0.164289061,0.000000000,0.004199727,-0.009399648,-0.980814715,0.000000000,0.010917196,-0.010469857,-0.615101997,0.000000000,0.006230416,-0.000594148,-0.628014804,0.000000000,-0.000003240,-0.000009362,0.000360228
0.125988644,-0.001991000,-0.000833664,-0.014727227,-0.036165634,-0.000755000,-0.000735215,-0.001931354,0.037390162,-0.004603000,-0.008921660,0.017087747,0.845592185,0.423238993,0.376653442,0.114723422,2.125966578,-0.401463002,-0.393419959,-0.040379824,-0.698192488,0.000000000,0.000035621,0.000325907,-0.004535388,0.000000000,0.000019849,0.000124199,-0.002833302,0.000000000,0.000660438,-0.001008825,-0.164589428,0.000000000,0.004181427,-0.009149731,-0.981140722,0.000000000,0.010896653,-0.010271414,-0.615164947,0.000000000,0.006229292,-0.000561944,-0.627987841,0.000000000,-0.000003254,-0.000006633,0.000354108
0.127988464,-0.002119000,-0.000865528,-0.015932348,-0.040080333,-0.000776000,-0.000739604,-0.002194610,0.038061411,-0.004567000,-0.008887017,0.017321163,0.841049644,0.423184991,0.376877595,0.112076821,2.127122316,-0.401553005,-0.393501603,-0.040822048,-0.698070346,0.000000000,0.000036219,0.000298998,-0.004526613,0.000000000,0.000020082,0.000116938,-0.002818041,0.000000000,0.000658498,-0.000969631,-0.164907501,0.000000000,0.004163626,-0.008900638,-0.981592050,0.000000000,0.010876514,-0.010069628,-0.615277898,0.000000000,0.006228232,-0.000530267,-0.627965811,0.000000000,-0.000003262,-0.000003991,0.000347689
0.129988284,-0.002248000,-0.000899936,-0.017203742,-0.043512633,-0.000797000,-0.000744529,-0.002462495,0.039294469,-0.004530000,-0.008851944,0.017536360,0.836155861,0.423130006,0.377096517,0.109460878,2.128364667,-0.401641995,-0.393584087,-0.041242191,-0.697657896,0.000000000,0.000036760,0.000270213,-0.004510547,0.000000000,0.000020302,0.000109821,-0.002801912,0.000000000,0.000656637,-0.000930682,-0.165242806,0.000000000,0.004146321,-0.008652423,-0.982166375,0.000000000,0.010856784,-0.009864690,-0.615440090,0.000000000,0.006227233,-0.000499085,-0.627948686,0.000000000,-0.000003265,-0.000001436,0.000340985
0.131988103,-0.002377000,-0.000936996,-0.018529854,-0.046405688,-0.000818000,-0.000749996,-0.002733433,0.040784517,-0.004494000,-0.008816474,0.017735404,0.831836153,0.423074991,0.377310258,0.106870746,2.129657451,-0.401730001,-0.393667341,-0.041627119,-0.697120891,0.000000000,0.000037241,0.000240790,-0.004483330,0.000000000,0.000020508,0.000102851,-0.002785073,0.000000000,0.000654853,-0.000891994,-0.165594694,0.000000000,0.004129511,-0.008405178,-0.982861922,0.000000000,0.010837471,-0.009656748,-0.615650586,0.000000000,0.006226297,-0.000468385,-0.627936456,0.000000000,-0.000003262,0.000001041,0.000334010
0.133987923,-0.002505000,-0.000976790,-0.019897361,-0.048706630,-0.000839000,-0.000756009,-0.003006494,0.042497647,-0.004458000,-0.008780642,0.017915725,0.827484354,0.423018992,0.377518884,0.104312631,2.131092099,-0.401814997,-0.393751289,-0.041973880,-0.696506804,0.000000000,0.000037664,0.000211241,-0.004448350,0.000000000,0.000020700,0.000096044,-0.002767588,0.000000000,0.000653146,-0.000853582,-0.165962692,0.000000000,0.004113193,-0.008158955,-0.983676100,0.000000000,0.010818579,-0.009445989,-0.615908702,0.000000000,0.006225420,-0.000438138,-0.627929062,0.000000000,-0.000003256,0.000003439,0.000326759
0.135987743,-0.002641000,-0.001019376,-0.021292782,-0.050375357,-0.000858000,-0.000762569,-0.003280123,0.044414028,-0.004423000,-0.008744485,0.018078597,0.823453653,0.422962993,0.377722448,0.101782171,2.132560214,-0.401901007,-0.393835805,-0.042257782,-0.695626926,0.000000000,0.000038027,0.000181771,-0.004407042,0.000000000,0.000020879,0.000089402,-0.002749566,0.000000000,0.000651515,-0.000815461,-0.166346294,0.000000000,0.004097365,-0.007913832,-0.984607141,0.000000000,0.010800114,-0.009232568,-0.616213464,0.000000000,0.006224604,-0.000408336,-0.627926494,0.000000000,-0.000003244,0.000005764,0.000319247
0.137987563,-0.002788000,-0.001064820,-0.022721967,-0.052441494,-0.000877000,-0.000769679,-0.003554935,0.047067303,-0.004387000,-0.008708042,0.018221580,0.819440728,0.422904015,0.377921023,0.099287563,2.134151435,-0.401988000,-0.393920811,-0.042503014,-0.694970779,0.000000000,0.000038331,0.000151671,-0.004360001,0.000000000,0.000021044,0.000082922,-0.002731064,0.000000000,0.000649960,-0.000777652,-0.166744957,0.000000000,0.004082026,-0.007669864,-0.985652629,0.000000000,0.010782081,-0.009016664,-0.616564111,0.000000000,0.006223846,-0.000378968,-0.627928683,0.000000000,-0.000003228,0.000008027,0.000311472
0.139987382,-0.002945000,-0.001113218,-0.024199092,-0.055184513,-0.000895000,-0.000777342,-0.003831486,0.049903583,-0.004352000,-0.008671343,0.018349211,0.816080580,0.422845006,0.378114662,0.096819401,2.135614710,-0.402076006,-0.394006246,-0.042717795,-0.694474395,0.000000000,0.000038576,0.000122659,-0.004305083,0.000000000,0.000021198,0.000076602,-0.002712099,0.000000000,0.000648479,-0.000740156,-0.167158080,0.000000000,0.004067171,-0.007427130,-0.986810702,0.000000000,0.010764484,-0.008798422,-0.616959681,0.000000000,0.006223146,-0.000350029,-0.627935575,0.000000000,-0.000003208,0.000010221,0.000303415
0.141987202,-0.003109000,-0.001164685,-0.025733325,-0.058407460,-0.000912000,-0.000785562,-0.004110243,0.053220635,-0.004317000,-0.008634424,0.018459586,0.812710948,0.422782987,0.378303430,0.094384070,2.137199939,-0.402164996,-0.394092083,-0.042918492,-0.694123576,0.000000000,0.000038761,0.000092454,-0.004247395,0.000000000,0.000021339,0.000070459,-0.002692692,0.000000000,0.000647073,-0.000702994,-0.167585431,0.000000000,0.004052800,-0.007185681,-0.988078851,0.000000000,0.010747328,-0.008578018,-0.617399438,0.000000000,0.006222503,-0.000321497,-0.627947098,0.000000000,-0.000003183,0.000012342,0.000295110
0.143987022,-0.003282000,-0.001219338,-0.027326590,-0.061726512,-0.000929000,-0.000794343,-0.004390463,0.057030299,-0.004282000,-0.008597314,0.018554926,0.809668860,0.422719985,0.378487384,0.091977007,2.138669320,-0.402253002,-0.394178305,-0.043110935,-0.693871627,0.000000000,0.000038881,0.000059959,-0.004180210,0.000000000,0.000021468,0.000064498,-0.002672975,0.000000000,0.000645741,-0.000666190,-0.168026349,0.000000000,0.004038909,-0.006945594,-0.989455198,0.000000000,0.010730616,-0.008355596,-0.617882408,0.000000000,0.006221916,-0.000293371,-0.627963231,0.000000000,-0.000003154,0.000014399,0.000286586
0.145986842,-0.003461000,-0.001277307,-0.028984482,-0.065331438,-0.000946000,-0.000803688,-0.004672419,0.061032365,-0.004247000,-0.008560041,0.018636618,0.806912666,0.422654986,0.378666573,0.089594648,2.140179742,-0.402341008,-0.394264873,-0.043283741,-0.693504853,0.000000000,0.000038936,0.000027604,-0.004099947,0.000000000,0.000021585,0.000058708,-0.002653010,0.000000000,0.000644481,-0.000629752,-0.168480091,0.000000000,0.004025495,-0.006706920,-0.990937230,0.000000000,0.010714354,-0.008131324,-0.618407825,0.000000000,0.006221385,-0.000265641,-0.627983893,0.000000000,-0.000003121,0.000016397,0.000277828
0.147986661,-0.003645000,-0.001338717,-0.030705239,-0.068856996,-0.000962000,-0.000813600,-0.004955790,0.065234000,-0.004213000,-0.008522631,0.018705237,0.804418728,0.422589004,0.378841046,0.087236159,2.141689405,-0.402429014,-0.394351750,-0.043438685,-0.693158973,0.000000000,0.000038927,-0.000004695,-0.004013540,0.000000000,0.000021691,0.000053094,-0.002632784,0.000000000,0.000643294,-0.000593696,-0.168946285,0.000000000,0.004012556,-0.006469725,-0.992522983,0.000000000,0.010698543,-0.007905348,-0.618974723,0.000000000,0.006220908,-0.000238307,-0.628009035,0.000000000,-0.000003085,0.000018330,0.000268834
0.149986481,-0.003834000,-0.001403685,-0.032483825,-0.072193177,-0.000979000,-0.000824080,-0.005239928,0.069912947,-0.004180000,-0.008485112,0.018759121,0.801897159,0.422520012,0.379010858,0.084906065,2.143265221,-0.402516007,-0.394438911,-0.043580195,-0.692832558,0.000000000,0.000038850,-0.000038071,-0.003920765,0.000000000,0.000021787,0.000047657,-0.002612356,0.000000000,0.000642178,-0.000558044,-0.169424319,0.000000000,0.004000087,-0.006234062,-0.994210121,0.000000000,0.010683187,-0.007677829,-0.619582272,0.000000000,0.006220485,-0.000211364,-0.628038577,0.000000000,-0.000003044,0.000020202,0.000259632
0.151986301,-0.004026000,-0.001472318,-0.034316595,-0.075356135,-0.000996000,-0.000835128,-0.005524490,0.074486555,-0.004147000,-0.008447513,0.018799533,0.799394076,0.422450006,0.379176059,0.082600395,2.144743442,-0.402601004,-0.394526306,-0.043697546,-0.692413328,0.000000000,0.000038711,-0.000069533,-0.003818182,0.000000000,0.000021871,0.000042386,-0.002591771,0.000000000,0.000641132,-0.000522797,-0.169913501,0.000000000,0.003988087,-0.005999988,-0.995996589,0.000000000,0.010668290,-0.007448914,-0.620229539,0.000000000,0.006220116,-0.000184811,-0.628072454,0.000000000,-0.000003000,0.000022009,0.000250229
0.153986121,-0.004221000,-0.001544709,-0.036195584,-0.078141719,-0.001013000,-0.000846745,-0.005808450,0.079231512,-0.004114000,-0.008409859,0.018827136,0.797172734,0.422376990,0.379336693,0.080317127,2.146275332,-0.402684987,-0.394613859,-0.043776805,-0.691837258,0.000000000,0.000038511,-0.000100167,-0.003714679,0.000000000,0.000021946,0.000037279,-0.002570998,0.000000000,0.000640156,-0.000487971,-0.170413544,0.000000000,0.003976552,-0.005767569,-0.997880163,0.000000000,0.010653852,-0.007218743,-0.620915646,0.000000000,0.006219798,-0.000158649,-0.628110588,0.000000000,-0.000002953,0.000023746,0.000240643
0.155985940,-0.004418000,-0.001620936,-0.038113545,-0.080585137,-0.001031000,-0.000858928,-0.006091184,0.084124279,-0.004082000,-0.008372173,0.018842831,0.795225449,0.422302991,0.379492801,0.078053974,2.147746299,-0.402767003,-0.394701492,-0.043816224,-0.691251054,0.000000000,0.000038251,-0.000129857,-0.003607341,0.000000000,0.000022011,0.000032333,-0.002550067,0.000000000,0.000639249,-0.000453578,-0.170923867,0.000000000,0.003965479,-0.005536854,-0.999858453,0.000000000,0.010639877,-0.006987468,-0.621639755,0.000000000,0.006219533,-0.000132877,-0.628152897,0.000000000,-0.000002902,0.000025413,0.000230904
0.157985760,-0.004616000,-0.001701059,-0.040061517,-0.082612532,-0.001050000,-0.000871672,-0.006372241,0.088865802,-0.004051000,-0.008334483,0.018845285,0.793254386,0.422226995,0.379644429,0.075813874,2.149298073,-0.402846992,-0.394789111,-0.043809421,-0.690571359,0.000000000,0.000037937,-0.000157161,-0.003496686,0.000000000,0.000022066,0.000027541,-0.002528987,0.000000000,0.000638410,-0.000419627,-0.171443930,0.000000000,0.003954863,-0.005307889,-1.001929340,0.000000000,0.010626367,-0.006755240,-0.622400931,0.000000000,0.006219318,-0.000107489,-0.628199311,0.000000000,-0.000002848,0.000027006,0.000221027
0.159985580,-0.004813000,-0.001785118,-0.042029570,-0.084161502,-0.001069000,-0.000884974,-0.006650867,0.093444949,-0.004021000,-0.008296814,0.018834236,0.791297106,0.422147989,0.379791623,0.073597114,2.150842856,-0.402925014,-0.394876611,-0.043750279,-0.689819634,0.000000000,0.000037573,-0.000181870,-0.003387293,0.000000000,0.000022111,0.000022900,-0.002507765,0.000000000,0.000637638,-0.000386129,-0.171973319,0.000000000,0.003944701,-0.005080731,-1.004090827,0.000000000,0.010613322,-0.006522191,-0.623198220,0.000000000,0.006219153,-0.000082494,-0.628249760,0.000000000,-0.000002791,0.000028519,0.000211039
0.161985400,-0.005009000,-0.001873127,-0.044004269,-0.085070743,-0.001090000,-0.000898826,-0.006925768,0.098127479,-0.003991000,-0.008259195,0.018809586,0.789367247,0.422066987,0.379934430,0.071403391,2.152311647,-0.402999014,-0.394963882,-0.043635314,-0.689029872,0.000000000,0.000037162,-0.000205535,-0.003280282,0.000000000,0.000022148,0.000018407,-0.002486398,0.000000000,0.000636932,-0.000353100,-0.172511512,0.000000000,0.003934990,-0.004855436,-1.006340554,0.000000000,0.010600745,-0.006288458,-0.624030782,0.000000000,0.006219037,-0.000057892,-0.628304147,0.000000000,-0.000002731,0.000029947,0.000200974
0.163985219,-0.005203000,-0.001965076,-0.045974646,-0.085414855,-0.001112000,-0.000913218,-0.007196253,0.102313530,-0.003963000,-0.008221649,0.018773182,0.787759158,0.421983987,0.380072884,0.069226939,2.153767708,-0.403070003,-0.395050766,-0.043442123,-0.688015437,0.000000000,0.000036712,-0.000225202,-0.003171460,0.000000000,0.000022176,0.000014049,-0.002464915,0.000000000,0.000636291,-0.000320540,-0.173057851,0.000000000,0.003925726,-0.004632050,-1.008676241,0.000000000,0.010588637,-0.006054179,-0.624897740,0.000000000,0.006218969,-0.000033682,-0.628362388,0.000000000,-0.000002668,0.000031279,0.000190862
0.165985039,-0.005393000,-0.002060932,-0.047927797,-0.085150122,-0.001135000,-0.000928142,-0.007461857,0.106269267,-0.003935000,-0.008184204,0.018722297,0.785868994,0.421898991,0.380207031,0.067073886,2.155249825,-0.403138012,-0.395137107,-0.043170586,-0.686958240,0.000000000,0.000036228,-0.000241779,-0.003070026,0.000000000,0.000022196,0.000009827,-0.002443267,0.000000000,0.000635714,-0.000288462,-0.173612115,0.000000000,0.003916905,-0.004410614,-1.011095734,0.000000000,0.010576998,-0.005819496,-0.625798169,0.000000000,0.006218950,-0.000009864,-0.628424410,0.000000000,-0.000002603,0.000032502,0.000180750
0.167984859,-0.005581000,-0.002160629,-0.049848767,-0.084140098,-0.001160000,-0.000943584,-0.007721192,0.109981305,-0.003908000,-0.008146888,0.018658021,0.784335445,0.421810001,0.380336915,0.064941852,2.156711499,-0.403203011,-0.395222742,-0.042817283,-0.685877469,0.000000000,0.000035717,-0.000255801,-0.002974027,0.000000000,0.000022207,0.000005736,-0.002421487,0.000000000,0.000635200,-0.000256881,-0.174173687,0.000000000,0.003908523,-0.004191189,-1.013597012,0.000000000,0.010565829,-0.005584523,-0.626731121,0.000000000,0.006218977,0.000013553,-0.628490131,0.000000000,-0.000002536,0.000033598,0.000170705
0.169984679,-0.005771000,-0.002264088,-0.051729156,-0.082689352,-0.001188000,-0.000959533,-0.007974239,0.113130504,-0.003882000,-0.008109726,0.018581049,0.782857003,0.421716988,0.380462572,0.062828541,2.158040850,-0.403266996,-0.395307503,-0.042380586,-0.684796360,0.000000000,0.000035186,-0.000265215,-0.002882458,0.000000000,0.000022211,0.000001763,-0.002399573,0.000000000,0.000634748,-0.000225796,-0.174741993,0.000000000,0.003900575,-0.003973809,-1.016177530,0.000000000,0.010555130,-0.005349405,-0.627695814,0.000000000,0.006219050,0.000036576,-0.628559446,0.000000000,-0.000002467,0.000034543,0.000160796
0.171984498,-0.005962000,-0.002371230,-0.053570969,-0.081280407,-0.001217000,-0.000975977,-0.008222179,0.115428597,-0.003856000,-0.008072743,0.018491802,0.781425251,0.421618998,0.380584040,0.060734183,2.159249967,-0.403329998,-0.395391261,-0.041879134,-0.683938205,0.000000000,0.000034650,-0.000267902,-0.002802086,0.000000000,0.000022207,-0.000002101,-0.002377485,0.000000000,0.000634358,-0.000195208,-0.175316742,0.000000000,0.003893058,-0.003758516,-1.018835386,0.000000000,0.010544902,-0.005114267,-0.628691243,0.000000000,0.006219168,0.000059197,-0.628632291,0.000000000,-0.000002396,0.000035295,0.000151129
0.173984318,-0.006154000,-0.002481978,-0.055374261,-0.079803585,-0.001248000,-0.000992907,-0.008464958,0.117467884,-0.003831000,-0.008035958,0.018392409,0.780321890,0.421516001,0.380701350,0.058654629,2.160274573,-0.403391987,-0.395473915,-0.041326728,-0.683266114,0.000000000,0.000034115,-0.000267601,-0.002740294,0.000000000,0.000022195,-0.000005853,-0.002355181,0.000000000,0.000634028,-0.000165140,-0.175897626,0.000000000,0.003885967,-0.003545367,-1.021568416,0.000000000,0.010535143,-0.004879218,-0.629716519,0.000000000,0.006219331,0.000081410,-0.628708568,0.000000000,-0.000002325,0.000035797,0.000141858
0.175984138,-0.006348000,-0.002596256,-0.057139002,-0.078266686,-0.001281000,-0.001010313,-0.008703111,0.118959941,-0.003806000,-0.007999391,0.018283415,0.779220269,0.421409994,0.380814528,0.056588945,2.161140406,-0.403452992,-0.395555386,-0.040735512,-0.682748134,0.000000000,0.000033587,-0.000263848,-0.002687061,0.000000000,0.000022176,-0.000009494,-0.002332719,0.000000000,0.000633756,-0.000135599,-0.176483867,0.000000000,0.003879299,-0.003334391,-1.024374120,0.000000000,0.010525854,-0.004644396,-0.630770851,0.000000000,0.006219538,0.000103223,-0.628788175,0.000000000,-0.000002253,0.000035968,0.000133194
0.177983957,-0.006543000,-0.002713991,-0.058867448,-0.076784809,-0.001316000,-0.001028187,-0.008937165,0.119914260,-0.003782000,-0.007963059,0.018165921,0.778397780,0.421299011,0.380923599,0.054535820,2.161978484,-0.403513014,-0.395635617,-0.040115822,-0.682360596,0.000000000,0.000033075,-0.000256436,-0.002644397,0.000000000,0.000022150,-0.000013034,-0.002310105,0.000000000,0.000633543,-0.000106596,-0.177074961,0.000000000,0.003873047,-0.003125634,-1.027250621,0.000000000,0.010517035,-0.004409911,-0.631853244,0.000000000,0.006219787,0.000124629,-0.628871054,0.000000000,-0.000002182,0.000035675,0.000125438
0.179983777,-0.006739000,-0.002835110,-0.060559643,-0.075246322,-0.001351000,-0.001046523,-0.009167614,0.120340442,-0.003758000,-0.007926978,0.018040433,0.777550172,0.421186000,0.381028588,0.052494225,2.162672295,-0.403571993,-0.395714569,-0.039475968,-0.682079875,0.000000000,0.000032583,-0.000245852,-0.002613639,0.000000000,0.000022117,-0.000016473,-0.002287308,0.000000000,0.000633387,-0.000078143,-0.177670386,0.000000000,0.003867209,-0.002919133,-1.030195609,0.000000000,0.010508683,-0.004175881,-0.632962859,0.000000000,0.006220078,0.000145628,-0.628957104,0.000000000,-0.000002112,0.000034701,0.000119060
0.181983597,-0.006935000,-0.002959540,-0.062214730,-0.073658604,-0.001388000,-0.001065311,-0.009394211,0.120816083,-0.003735000,-0.007891164,0.017906947,0.776954644,0.421068996,0.381129519,0.050465454,2.163414052,-0.403629005,-0.395792217,-0.038824077,-0.681880396,0.000000000,0.000032113,-0.000235072,-0.002594032,0.000000000,0.000022077,-0.000019815,-0.002264345,0.000000000,0.000633286,-0.000050265,-0.178269528,0.000000000,0.003861779,-0.002714932,-1.033206954,0.000000000,0.010500798,-0.003942416,-0.634098802,0.000000000,0.006220411,0.000166215,-0.629046239,0.000000000,-0.000002047,0.000032693,0.000114814
0.183983417,-0.007133000,-0.003087201,-0.063830628,-0.071927947,-0.001426000,-0.001084545,-0.009617208,0.120764955,-0.003712000,-0.007855632,0.017766110,0.776331653,0.420949012,0.381226413,0.048447380,2.164068704,-0.403683990,-0.395868529,-0.038155670,-0.681648113,0.000000000,0.000031669,-0.000222058,-0.002577165,0.000000000,0.000022031,-0.000023067,-0.002241226,0.000000000,0.000633240,-0.000022970,-0.178871524,0.000000000,0.003856753,-0.002513060,-1.036282366,0.000000000,0.010493379,-0.003709633,-0.635260229,0.000000000,0.006220783,0.000186395,-0.629138366,0.000000000,-0.000001989,0.000029040,0.000113914
0.185983236,-0.007330000,-0.003218021,-0.065409837,-0.070287601,-0.001465000,-0.001104219,-0.009836956,0.120474865,-0.003689000,-0.007820394,0.017619149,0.775955014,0.420828015,0.381319288,0.046437346,2.164714014,-0.403737992,-0.395943464,-0.037467826,-0.681393075,0.000000000,0.000031254,-0.000207438,-0.002569282,0.000000000,0.000021979,-0.000026241,-0.002217917,0.000000000,0.000633248,0.000003717,-0.179475849,0.000000000,0.003852126,-0.002313558,-1.039419866,0.000000000,0.010486424,-0.003477636,-0.636446209,0.000000000,0.006221196,0.000206161,-0.629233413,0.000000000,-0.000001943,0.000022662,0.000118431
0.187983056,-0.007529000,-0.003351916,-0.066947810,-0.068411456,-0.001505000,-0.001124326,-0.010053252,0.119952037,-0.003667000,-0.007785464,0.017464870,0.775800496,0.420704007,0.381408168,0.044439896,2.165492100,-0.403789014,-0.396017007,-0.036771446,-0.681232936,0.000000000,0.000030869,-0.000192325,-0.002568917,0.000000000,0.000021920,-0.000029335,-0.002194377,0.000000000,0.000633307,0.000029756,-0.180081610,0.000000000,0.003847893,-0.002116462,-1.042617149,0.000000000,0.010479930,-0.003246530,-0.637655916,0.000000000,0.006221647,0.000225516,-0.629331279,0.000000000,-0.000001920,0.000011592,0.000131982
0.189982876,-0.007727000,-0.003488811,-0.068447386,-0.066653810,-0.001545000,-0.001144859,-0.010266615,0.119189788,-0.003646000,-0.007750856,0.017303822,0.775614907,0.420578003,0.381493073,0.042452753,2.166242950,-0.403838009,-0.396089115,-0.036053901,-0.680936628,0.000000000,0.000030517,-0.000176101,-0.002573007,0.000000000,0.000021855,-0.000032369,-0.002170624,0.000000000,0.000633418,0.000055088,-0.180687495,0.000000000,0.003844049,-0.001921796,-1.045872092,0.000000000,0.010473898,-0.003016428,-0.638888480,0.000000000,0.006222136,0.000244460,-0.629431889,0.000000000,0.000001936,0.001928054,0.000161111
0.191982696,-0.007925000,-0.003628619,-0.069904144,-0.064687046,-0.001586000,-0.001165812,-0.010476400,0.118482527,-0.003624000,-0.007716587,0.017134838,0.775389737,0.420450985,0.381574032,0.040479208,2.167045450,-0.403885007,-0.396159750,-0.035317263,-0.680640714,0.000000000,0.000030195,-0.000161114,-0.002583538,0.000000000,0.000021792,-0.000031735,-0.002146564,0.000000000,0.000633624,0.000103188,-0.181291797,0.000000000,0.003840590,-0.001729562,-1.049182723,0.000000000,0.010468323,-0.002787432,-0.640142981,0.000000000,0.006222662,0.000263026,-0.629535158,0.000000000,-0.000002508,-0.002221977,-0.005677109
0.193982515,-0.008124000,-0.003771254,-0.071317088,-0.062651867,-0.001626000,-0.001187178,-0.010683043,0.117529338,-0.003603000,-0.007682667,0.016959665,0.775724424,0.420323998,0.381651064,0.038516142,2.167936614,-0.403928995,-0.396228870,-0.034560005,-0.680346177,0.000000000,0.000029904,-0.000145320,-0.002593579,0.000000000,0.000021713,-0.000039582,-0.002143387,0.000000000,0.000633823,0.000099369,-0.182438431,0.000000000,0.003837510,-0.001539976,-1.052547626,0.000000000,0.010463204,-0.002559575,-0.641418552,0.000000000,0.006223224,0.000280938,-0.629641108,0.000000000,-0.000002148,0.000180046,0.006570559
0.195982335,-0.008321000,-0.003916627,-0.072686554,-0.060669852,-0.001667000,-0.001208949,-0.010885601,0.116906786,-0.003583000,-0.007649115,0.016776184,0.776014400,0.420195013,0.381724202,0.036569100,2.169003160,-0.403970987,-0.396296426,-0.033778470,-0.679959118,0.000000000,0.000029640,-0.000131930,-0.002609108,0.000000000,0.000021630,-0.000041157,-0.002090574,0.000000000,0.000634076,0.000126637,-0.182408543,0.000000000,0.003834805,-0.001352700,-1.055960407,0.000000000,0.010458537,-0.002333149,-0.642714804,0.000000000,0.006223821,0.000298889,-0.629748816,0.000000000,-0.000001968,0.000089877,-0.000294785
0.197982155,-0.008519000,-0.004064642,-0.074007421,-0.058428520,-0.001707000,-0.001231118,-0.011084342,0.116022762,-0.003562000,-0.007615947,0.016584056,0.776312335,0.420065999,0.381793481,0.034639208,2.170075661,-0.404009014,-0.396362376,-0.032974816,-0.679597250,0.000000000,0.000029402,-0.000118899,-0.002620508,0.000000000,0.000021543,-0.000043592,-0.002072892,0.000000000,0.000634377,0.000150723,-0.183097301,0.000000000,0.003832469,-0.001168119,-1.059427403,0.000000000,0.010454321,-0.002107943,-0.644029492,0.000000000,0.006224454,0.000316117,-0.629860268,0.000000000,0.000001923,0.001945375,-0.000056601
0.199981975,-0.008716000,-0.004215205,-0.075281639,-0.056287044,-0.001748000,-0.001253675,-0.011278653,0.115449636,-0.003542000,-0.007583176,0.016385461,0.777199328,0.419937998,0.381858924,0.032721443,2.171268174,-0.404044986,-0.396426641,-0.032132572,-0.679060114,0.000000000,0.000029187,-0.000107716,-0.002633524,0.000000000,0.000021458,-0.000042775,-0.002049826,0.000000000,0.000634770,0.000196388,-0.183727793,0.000000000,0.003830497,-0.000986064,-1.062938366,0.000000000,0.010450553,-0.001884293,-0.645363964,0.000000000,0.006225120,0.000332990,-0.629973143,0.000000000,-0.000002477,-0.002199775,-0.005725001
0.201981794,-0.008910000,-0.004368218,-0.076506372,-0.054031111,-0.001789000,-0.001276614,-0.011469400,0.114602496,-0.003521000,-0.007550821,0.016177378,0.778061318,0.419806987,0.381920573,0.030824552,2.172680768,-0.404076993,-0.396489167,-0.031262669,-0.678595104,-0.000001000,0.000028995,-0.000095982,-0.002643543,0.000000000,0.000021357,-0.000050391,-0.002045330,0.000000000,0.000635151,0.000190261,-0.184872329,0.000000000,0.003828883,-0.000806743,-1.066495699,0.000000000,0.010447228,-0.001662181,-0.646715627,0.000000000,0.006225818,0.000349237,-0.630088419,0.000000000,-0.000002046,0.000215446,0.006504300
0.203981614,-0.009102000,-0.004523571,-0.077676618,-0.051474170,-0.001833000,-0.001299922,-0.011654217,0.113783200,-0.003500000,-0.007518894,0.015963841,0.779540398,0.419672012,0.381978449,0.028938388,2.173994493,-0.404105991,-0.396549863,-0.030348019,-0.677983973,-0.000002000,0.000028785,-0.000105142,-0.002758566,0.000000000,0.000021254,-0.000051675,-0.001991518,0.000000000,0.000635582,0.000215487,-0.184841900,0.000000000,0.003827623,-0.000629857,-1.070093137,0.000000000,0.010444345,-0.001441833,-0.648084415,0.000000000,0.006226549,0.000365525,-0.630205201,0.000000000,0.000001921,0.001983785,-0.000405720
0.205981434,-0.009292000,-0.004681152,-0.078790728,-0.048762636,-0.001880000,-0.001323592,-0.011834828,0.112082100,-0.003479000,-0.007487401,0.015746143,0.781264241,0.419533014,0.382032568,0.027059463,2.175219881,-0.404132009,-0.396608637,-0.029387398,-0.677380727,-0.000004000,0.000028547,-0.000118945,-0.002812339,0.000000000,0.000021153,-0.000050357,-0.001973239,0.000000000,0.000636102,0.000260238,-0.185534997,0.000000000,0.003826712,-0.000455725,-1.073736058,0.000000000,0.010441899,-0.001223073,-0.649468498,0.000000000,0.006227311,0.000381136,-0.630325391,0.000000000,-0.000002417,-0.002169411,-0.005834089
0.207981254,-0.009480000,-0.004840847,-0.079847529,-0.045917907,-0.001928000,-0.001347617,-0.012012217,0.109535819,-0.003457000,-0.007456350,0.015525388,0.783205998,0.419391990,0.382082939,0.025185237,2.176377044,-0.404155999,-0.396665401,-0.028381727,-0.676801149,-0.000008000,0.000028247,-0.000149768,-0.002951182,0.000000000,0.000021037,-0.000057759,-0.001969962,0.000000000,0.000636607,0.000252648,-0.186695172,0.000000000,0.003826143,-0.000284382,-1.077415675,0.000000000,0.010439886,-0.001006155,-0.650868937,0.000000000,0.006228104,0.000396125,-0.630446813,0.000000000,-0.000001976,0.000220802,0.006411949
0.209981073,-0.009667000,-0.005002539,-0.080845698,-0.042958731,-0.001977000,-0.001371986,-0.012184979,0.106733221,-0.003434000,-0.007425747,0.015301988,0.785626607,0.419247001,0.382129572,0.023316822,2.177609573,-0.404177994,-0.396720088,-0.027343645,-0.676348111,-0.000012000,0.000027795,-0.000226102,-0.003237541,0.000000000,0.000020919,-0.000058935,-0.001915789,0.000000000,0.000637159,0.000276040,-0.186667117,0.000000000,0.003825912,-0.000115524,-1.081129607,0.000000000,0.010438304,-0.000791273,-0.652283677,0.000000000,0.006228926,0.000411166,-0.630569495,0.000000000,0.000001966,0.001970932,-0.000428059
0.211980893,-0.009854000,-0.005166112,-0.081786513,-0.040011811,-0.002027000,-0.001396696,-0.012354581,0.103639991,-0.003413000,-0.007395591,0.015077790,0.788518297,0.419101000,0.382172474,0.021450597,2.178786469,-0.404199004,-0.396772648,-0.026280153,-0.675995242,-0.000018000,0.000027157,-0.000319100,-0.003379083,0.000000000,0.000020804,-0.000057511,-0.001896575,0.000000000,0.000637797,0.000318790,-0.187353137,0.000000000,0.003826013,0.000050511,-1.084883335,0.000000000,0.010437147,-0.000578206,-0.653711097,0.000000000,0.006229777,0.000425529,-0.630695365,0.000000000,-0.000002116,-0.002041221,-0.005802061
0.213980713,-0.010042000,-0.005331455,-0.082671766,-0.037188654,-0.002077000,-0.001421739,-0.012521836,0.100287374,-0.003391000,-0.007365894,0.014848437,0.790987048,0.418951988,0.382211671,0.019598805,2.180119549,-0.404217988,-0.396823075,-0.025213488,-0.675830182,-0.000024000,0.000026251,-0.000452742,-0.003656579,0.000000000,0.000020675,-0.000064495,-0.001892364,0.000000000,0.000638419,0.000310956,-0.188501341,0.000000000,0.003826441,0.000213717,-1.088667605,0.000000000,0.010436413,-0.000367224,-0.655152535,0.000000000,0.006230656,0.000439280,-0.630822212,0.000000000,0.000001930,0.002023199,0.006017082
0.215980533,-0.010230000,-0.005498470,-0.083507153,-0.034597500,-0.002127000,-0.001447111,-0.012686066,0.096976833,-0.003370000,-0.007336659,0.014617651,0.793986963,0.418803006,0.382247179,0.017753639,2.181393848,-0.404237986,-0.396871358,-0.024141397,-0.675684934,-0.000031000,0.000025050,-0.000600890,-0.003791513,0.000000000,0.000020551,-0.000062226,-0.001839124,0.000000000,0.000639128,0.000354457,-0.188500915,0.000000000,0.003827189,0.000374403,-1.092480653,0.000000000,0.010436096,-0.000158496,-0.656605801,0.000000000,0.006231562,0.000453099,-0.630950098,0.000000000,-0.000002169,-0.002049383,-0.005947012
0.217980352,-0.010420000,-0.005667058,-0.084293972,-0.032110349,-0.002177000,-0.001472809,-0.012848691,0.093691230,-0.003350000,-0.007307896,0.014381380,0.796866241,0.418653011,0.382279034,0.015927866,2.182856034,-0.404256999,-0.396917556,-0.023098983,-0.675874221,-0.000039000,0.000023512,-0.000768943,-0.003956324,0.000000000,0.000020413,-0.000068856,-0.001838690,0.000000000,0.000639819,0.000345750,-0.189686372,0.000000000,0.003828254,0.000532056,-1.096328045,0.000000000,0.010436192,0.000048249,-0.658069419,0.000000000,0.006232494,0.000466000,-0.631080971,0.000000000,0.000001933,0.002050935,0.006045579
0.219980172,-0.010613000,-0.005837135,-0.085038737,-0.029943245,-0.002226000,-0.001498827,-0.013008882,0.090461700,-0.003331000,-0.007279616,0.014139872,0.799719729,0.418502986,0.382307278,0.014121880,2.184347025,-0.404278010,-0.396961733,-0.022088605,-0.676090445,-0.000047000,0.000021593,-0.000959166,-0.004131642,0.000000000,0.000020280,-0.000066440,-0.001786515,0.000000000,0.000640596,0.000388375,-0.189685982,0.000000000,0.003829628,0.000687191,-1.100196471,0.000000000,0.010436698,0.000252535,-0.659545059,0.000000000,0.006233452,0.000478984,-0.631211839,0.000000000,-0.000002104,-0.002018460,-0.006026180
0.221979992,-0.010808000,-0.006008632,-0.085748638,-0.028174940,-0.002273000,-0.001525164,-0.013168543,0.087552513,-0.003313000,-0.007251834,0.013891233,0.802544651,0.418352991,0.382331964,0.012342979,2.185923634,-0.404298991,-0.397004015,-0.021140663,-0.676621619,-0.000057000,0.000019288,-0.001152782,-0.004205484,0.000000000,0.000020134,-0.000072973,-0.001786014,0.000000000,0.000641354,0.000378728,-0.190870898,0.000000000,0.003831306,0.000839263,-1.104096136,0.000000000,0.010437607,0.000454699,-0.661029029,0.000000000,0.006234434,0.000491052,-0.631345572,0.000000000,0.000001974,0.002039000,0.005951101
0.223979812,-0.011007000,-0.006181489,-0.086428346,-0.026665689,-0.002319000,-0.001551815,-0.013325422,0.085290515,-0.003296000,-0.007224563,0.013635564,0.805387962,0.418204010,0.382353148,0.010591779,2.187534331,-0.404321015,-0.397044528,-0.020256624,-0.677163885,-0.000067000,0.000016524,-0.001382074,-0.004432672,0.000000000,0.000019993,-0.000070533,-0.001733516,0.000000000,0.000642193,0.000419935,-0.190868010,0.000000000,0.003833284,0.000988786,-1.108012972,0.000000000,0.010438915,0.000654281,-0.662523449,0.000000000,0.006235440,0.000503213,-0.631479136,0.000000000,-0.000001984,-0.001979334,-0.005996403
0.225979631,-0.011210000,-0.006355661,-0.087086093,-0.025608542,-0.002362000,-0.001578778,-0.013481645,0.083339105,-0.003282000,-0.007197818,0.013372190,0.808251478,0.418056995,0.382370890,0.008871108,2.189233364,-0.404345989,-0.397083421,-0.019446319,-0.677808582,-0.000079000,0.000013289,-0.001617524,-0.004512085,0.000000000,0.000019840,-0.000076890,-0.001732277,0.000000000,0.000643013,0.000409575,-0.192038787,0.000000000,0.003835554,0.001135227,-1.111957143,0.000000000,0.010440619,0.000851613,-0.664024732,0.000000000,0.006236469,0.000514473,-0.631615423,0.000000000,0.000002120,0.002052299,0.005827804
0.227979451,-0.011419000,-0.006531117,-0.087728112,-0.024961837,-0.002402000,-0.001606049,-0.013635462,0.082314332,-0.003269000,-0.007171625,0.013096785,0.810586162,0.417910993,0.382385278,0.007193906,2.191057016,-0.404372990,-0.397120897,-0.018738233,-0.678705628,-0.000091000,0.000009517,-0.001885590,-0.004728530,0.000000000,0.000019691,-0.000074357,-0.001679933,0.000000000,0.000643912,0.000449753,-0.192037307,0.000000000,0.003838113,0.001279104,-1.115914860,0.000000000,0.010442711,0.001046239,-0.665534951,0.000000000,0.006237521,0.000525828,-0.631751428,0.000000000,0.000001925,-0.000097602,-0.006048957
0.229979271,-0.011632000,-0.006707848,-0.088365264,-0.024906714,-0.002439000,-0.001633625,-0.013788021,0.082175383,-0.003258000,-0.007146002,0.012811143,0.813065378,0.417768002,0.382396391,0.005556516,2.192847571,-0.404404014,-0.397157166,-0.018134578,-0.679660003,-0.000103000,0.000005243,-0.002137068,-0.004798065,0.000000000,0.000019537,-0.000077158,-0.001678408,0.000000000,0.000644834,0.000461155,-0.193201765,0.000000000,0.003840952,0.001419907,-1.119896357,0.000000000,0.010445188,0.001238500,-0.667050528,0.000000000,0.006238594,0.000536322,-0.631889996,0.000000000,-0.000002049,-0.001987117,0.000082937
0.231979091,-0.011852000,-0.006885852,-0.089002079,-0.025169654,-0.002473000,-0.001661502,-0.013938442,0.082947377,-0.003249000,-0.007120977,0.012512774,0.815370031,0.417627007,0.382404325,0.003967325,2.194752122,-0.404437006,-0.397192485,-0.017659264,-0.680846114,-0.000117000,-0.000001653,-0.003448190,-0.004863929,0.000000000,0.000019371,-0.000082738,-0.001646119,0.000000000,0.000645735,0.000450225,-0.193721833,0.000000000,0.003844068,0.001557946,-1.123888386,0.000000000,0.010448044,0.001428012,-0.668573580,0.000000000,0.006239687,0.000546646,-0.632028235,0.000000000,0.000002119,0.002084044,0.005856484
0.233978910,-0.012080000,-0.007065151,-0.089649432,-0.026044868,-0.002502000,-0.001689698,-0.014098402,0.084609281,-0.003243000,-0.007096572,0.012202341,0.817563594,0.417490005,0.382409174,0.002424542,2.196640963,-0.404475003,-0.397227095,-0.017305279,-0.681962219,-0.000132000,-0.000004831,-0.001588940,-0.001854335,0.000000000,0.000019212,-0.000079806,-0.001596926,0.000000000,0.000646714,0.000489468,-0.193730547,0.000000000,0.003847455,0.001693244,-1.127896364,0.000000000,0.010451274,0.001614871,-0.670101029,0.000000000,0.006240800,0.000556794,-0.632168080,0.000000000,0.000001937,-0.000090705,-0.006139074
0.235978730,-0.012321000,-0.007245790,-0.090319762,-0.027575223,-0.002531000,-0.001718159,-0.014230053,0.087999115,-0.003238000,-0.007072820,0.011876185,0.819353851,0.417353988,0.382411052,0.000938884,2.198647085,-0.404518992,-0.397261292,-0.017098525,-0.683310945,-0.000160000,-0.000011150,-0.003159546,-0.008334986,0.000000000,0.000019047,-0.000082455,-0.001596491,0.000000000,0.000647712,0.000499090,-0.194896438,0.000000000,0.003851106,0.001825486,-1.131919278,0.000000000,0.010454872,0.001799137,-0.671633230,0.000000000,0.006241933,0.000566081,-0.632309475,0.000000000,-0.000001953,-0.001945356,0.000062072
0.237978550,-0.012576000,-0.007427855,-0.091032067,-0.030218472,-0.002560000,-0.001746901,-0.014371300,0.090823480,-0.003233000,-0.007049742,0.011538817,0.821400931,0.417219996,0.382410055,-0.000498692,2.200496970,-0.404569000,-0.397295395,-0.017051247,-0.684888291,-0.000205000,-0.000018716,-0.003782791,-0.006060932,0.000000000,0.000018871,-0.000087911,-0.001563934,0.000000000,0.000648686,0.000486858,-0.195397818,0.000000000,0.003855016,0.001954936,-1.135948222,0.000000000,0.010458833,0.001980509,-0.673170280,0.000000000,0.006243083,0.000575212,-0.632450302,0.000000000,0.000002393,0.002173019,0.005728060
0.239978370,-0.012842000,-0.007611482,-0.091813782,-0.033964754,-0.002590000,-0.001775912,-0.014505182,0.093945166,-0.003228000,-0.007027357,0.011192555,0.823893377,0.417086989,0.382406271,-0.001892026,2.202314702,-0.404624999,-0.397329749,-0.017176987,-0.686630224,-0.000265000,-0.000028224,-0.004754250,-0.008072358,0.000000000,0.000018701,-0.000084766,-0.001514342,0.000000000,0.000649737,0.000525419,-0.195397903,0.000000000,0.003859179,0.002081634,-1.139987607,0.000000000,0.010463151,0.002159084,-0.674709667,0.000000000,0.006244251,0.000584190,-0.632592530,0.000000000,0.000002091,-0.000150850,-0.006419712
0.241978189,-0.013119000,-0.007796839,-0.092678517,-0.038324462,-0.002619000,-0.001805178,-0.014633103,0.096692163,-0.003223000,-0.007005677,0.010839995,0.826783868,0.416954011,0.382399777,-0.003246757,2.204056104,-0.404686987,-0.397364710,-0.017480682,-0.688460257,-0.000339000,-0.000040568,-0.006172079,-0.010413423,0.000000000,0.000018526,-0.000087489,-0.001514053,0.000000000,0.000650802,0.000532693,-0.196568808,0.000000000,0.003863589,0.002205242,-1.144036796,0.000000000,0.010467821,0.002334949,-0.676251736,0.000000000,0.006245436,0.000592326,-0.632736135,0.000000000,0.000001970,-0.000060483,0.000217537
0.243978009,-0.013403000,-0.007984114,-0.093637264,-0.043202746,-0.002647000,-0.001834690,-0.014756079,0.099661264,-0.003218000,-0.006984710,0.010483379,0.830017167,0.416823000,0.382390641,-0.004567983,2.205696141,-0.404754013,-0.397400639,-0.017964205,-0.690328381,-0.000428000,-0.000056599,-0.008015514,-0.012613781,0.000000000,0.000018348,-0.000089329,-0.001480003,0.000000000,0.000651886,0.000541858,-0.197036177,0.000000000,0.003868242,0.002326106,-1.148086333,0.000000000,0.010472837,0.002507759,-0.677796759,0.000000000,0.006246637,0.000600374,-0.632878992,0.000000000,0.000001931,-0.000019765,-0.000027150
0.245977829,-0.013692000,-0.008173495,-0.094690437,-0.048091224,-0.002675000,-0.001864438,-0.014874166,0.102872703,-0.003214000,-0.006964463,0.010123424,0.833544995,0.416691989,0.382378926,-0.005857638,2.207389178,-0.404826999,-0.397437876,-0.018618900,-0.692096545,-0.000529000,-0.000077149,-0.010274664,-0.014747505,0.000000000,0.000018166,-0.000090803,-0.001450558,0.000000000,0.000652988,0.000551347,-0.197551523,0.000000000,0.003873130,0.002444068,-1.152142532,0.000000000,0.010478192,0.002677706,-0.679341894,0.000000000,0.006247853,0.000608023,-0.633023227,0.000000000,-0.000001931,-0.001930703,-0.000138918
0.247977649,-0.013985000,-0.008365161,-0.095833312,-0.052754098,-0.002702000,-0.001894416,-0.014988938,0.106040594,-0.003210000,-0.006944943,0.009760292,0.837068738,0.416561991,0.382364693,-0.007116535,2.209020732,-0.404904991,-0.397476762,-0.019442733,-0.693848129,-0.000643000,-0.000102885,-0.012868287,-0.016455493,0.000000000,0.000017975,-0.000095701,-0.001422860,0.000000000,0.000654062,0.000536943,-0.198079583,0.000000000,0.003878248,0.002559113,-1.156200126,0.000000000,0.010483882,0.002844705,-0.680888157,0.000000000,0.006249083,0.000615243,-0.633167872,0.000000000,0.000002735,0.002333137,0.005684133
0.249977468,-0.014279000,-0.008559280,-0.097059195,-0.057092432,-0.002727000,-0.001924615,-0.015099390,0.109483074,-0.003206000,-0.006926152,0.009395263,0.840870793,0.416433007,0.382347996,-0.008348226,2.210656694,-0.404987007,-0.397517607,-0.020422354,-0.695458341,-0.000769000,-0.000134420,-0.015767604,-0.018002164,0.000000000,0.000017790,-0.000092134,-0.001374760,0.000000000,0.000655211,0.000574606,-0.198059025,0.000000000,0.003883591,0.002671425,-1.160257157,0.000000000,0.010489899,0.003008651,-0.682434555,0.000000000,0.006250328,0.000622322,-0.633312758,0.000000000,0.000002430,-0.000152600,-0.006909561
0.251977288,-0.014573000,-0.008755988,-0.098354311,-0.060806733,-0.002750000,-0.001955026,-0.015205638,0.113459129,-0.003203000,-0.006908095,0.009028882,0.844923254,0.416303992,0.382328885,-0.009555611,2.212318885,-0.405074000,-0.397560680,-0.021536758,-0.696834253,-0.000905000,-0.000172277,-0.018928367,-0.019306487,0.000000000,0.000017601,-0.000094746,-0.001375289,0.000000000,0.000656369,0.000578921,-0.199237585,0.000000000,0.003889152,0.002780649,-1.164316235,0.000000000,0.010496238,0.003169689,-0.683979967,0.000000000,0.006251585,0.000628569,-0.633458674,0.000000000,0.000002289,-0.000070666,0.000188234
0.253977108,-0.014864000,-0.008955395,-0.099703425,-0.063853324,-0.002772000,-0.001985640,-0.015306870,0.117968988,-0.003200000,-0.006890774,0.008660439,0.848930335,0.416175991,0.382307410,-0.010737809,2.213958948,-0.405166000,-0.397606235,-0.022777550,-0.698104725,-0.001051000,-0.000216841,-0.022281707,-0.020239295,0.000000000,0.000017408,-0.000096384,-0.001340321,0.000000000,0.000657540,0.000585247,-0.199664290,0.000000000,0.003894926,0.002887153,-1.168367534,0.000000000,0.010502893,0.003327484,-0.685525048,0.000000000,0.006252855,0.000634769,-0.633603486,0.000000000,0.000002227,-0.000031100,-0.000030420
0.255976928,-0.015150000,-0.009157569,-0.101087054,-0.065987095,-0.002791000,-0.002016444,-0.015401862,0.122707189,-0.003197000,-0.006874193,0.008290230,0.853193516,0.416049004,0.382283618,-0.011895846,2.215633338,-0.405261993,-0.397654505,-0.024135013,-0.699271083,-0.001206000,-0.000268416,-0.025787503,-0.020957431,0.000000000,0.000017213,-0.000097621,-0.001310510,0.000000000,0.000658724,0.000591995,-0.200140088,0.000000000,0.003900908,0.002990763,-1.172417868,0.000000000,0.010509858,0.003482264,-0.687067021,0.000000000,0.006254136,0.000640582,-0.633749420,0.000000000,0.000002210,-0.000008231,-0.000136621
0.257976747,-0.015429000,-0.009362534,-0.102482602,-0.067097928,-0.002807000,-0.002047421,-0.015488811,0.128210922,-0.003195000,-0.006858357,0.007918196,0.857707106,0.415921986,0.382257557,-0.013030662,2.217346289,-0.405360997,-0.397705689,-0.025591938,-0.700234967,-0.001370000,-0.000327225,-0.029404835,-0.021443103,0.000000000,0.000017015,-0.000098791,-0.001282704,0.000000000,0.000659921,0.000598436,-0.200629267,0.000000000,0.003907091,0.003091504,-1.176461645,0.000000000,0.010517126,0.003633938,-0.688607111,0.000000000,0.006255428,0.000646011,-0.633895425,0.000000000,0.000002226,0.000008122,-0.000199973
0.259976567,-0.015698999,-0.009570265,-0.103865343,-0.067097621,-0.002821000,-0.002078552,-0.015565501,0.134434974,-0.003193000,-0.006843269,0.007543794,0.862189157,0.415796012,0.382229270,-0.014143194,2.219035669,-0.405463994,-0.397759938,-0.027124564,-0.700925801,-0.001541000,-0.000393445,-0.033109731,-0.021790085,0.000000000,0.000016815,-0.000099951,-0.001255027,0.000000000,0.000661130,0.000604428,-0.201115173,0.000000000,0.003913470,0.003189397,-1.180497783,0.000000000,0.010524691,0.003782454,-0.690144286,0.000000000,0.006256730,0.000651076,-0.634041439,0.000000000,0.000002270,0.000021876,-0.000248107
0.261976387,-0.015958000,-0.009780684,-0.105209458,-0.065915505,-0.002832000,-0.002109813,-0.015630394,0.141038987,-0.003192000,-0.006828935,0.007166958,0.866937684,0.415668994,0.382198803,-0.015233663,2.220773079,-0.405571014,-0.397817382,-0.028722097,-0.701495232,-0.001719000,-0.000467140,-0.036847609,-0.021846713,0.000000000,0.000016613,-0.000101079,-0.001227158,0.000000000,0.000662350,0.000610021,-0.201594311,0.000000000,0.003920039,0.003284446,-1.184525175,0.000000000,0.010532546,0.003927797,-0.691677777,0.000000000,0.006258042,0.000655785,-0.634187441,0.000000000,0.000002339,0.000034168,-0.000291629
0.263976207,-0.016204000,-0.009993660,-0.106487813,-0.063492972,-0.002839000,-0.002141175,-0.015681147,0.148265870,-0.003191000,-0.006815361,0.006787029,0.871671233,0.415542990,0.382166199,-0.016301707,2.222425542,-0.405681014,-0.397878134,-0.030375915,-0.701963838,-0.001903000,-0.000548328,-0.040593978,-0.021761497,0.000000000,0.000016409,-0.000102146,-0.001199235,0.000000000,0.000663580,0.000615257,-0.202067619,0.000000000,0.003926792,0.003376662,-1.188542268,0.000000000,0.010540686,0.004069944,-0.693207070,0.000000000,0.006259362,0.000660146,-0.634333382,0.000000000,0.000002428,0.000044798,-0.000333483
0.265976026,-0.016434999,-0.010209004,-0.107671990,-0.059783960,-0.002842000,-0.002172605,-0.015715000,0.156338689,-0.003190000,-0.006802553,0.006404018,0.876690740,0.415417999,0.382131503,-0.017348292,2.224117533,-0.405793011,-0.397942273,-0.032069135,-0.702239339,-0.002092000,-0.000636966,-0.044318875,-0.021501270,0.000000000,0.000016203,-0.000103150,-0.001171421,0.000000000,0.000664820,0.000620137,-0.202535798,0.000000000,0.003933724,0.003466048,-1.192547688,0.000000000,0.010549104,0.004208881,-0.694731606,0.000000000,0.006260690,0.000664161,-0.634479216,0.000000000,0.000002534,0.000053144,-0.000372759
0.267975846,-0.016652999,-0.010426469,-0.108732906,-0.054756210,-0.002840000,-0.002204064,-0.015729347,0.165185493,-0.003192000,-0.006790517,0.006018032,0.881997679,0.415291995,0.382094753,-0.018375096,2.225853214,-0.405910999,-0.398009831,-0.033779462,-0.702262369,-0.002297000,-0.000732945,-0.047989461,-0.021054505,0.000000000,0.000015994,-0.000104095,-0.001143756,0.000000000,0.000666070,0.000624650,-0.202998726,0.000000000,0.003940829,0.003552618,-1.196539933,0.000000000,0.010557793,0.004344588,-0.696250880,0.000000000,0.006262026,0.000667836,-0.634624877,0.000000000,0.000002652,0.000058809,-0.000407229
0.269975666,-0.016868001,-0.010645766,-0.109648483,-0.048813700,-0.002827000,-0.002235500,-0.015717845,0.175020493,-0.003202000,-0.006779268,0.005624786,0.886738614,0.415167004,0.382056010,-0.019371271,2.227514010,-0.406042010,-0.398080891,-0.035529846,-0.702496464,-0.002548000,-0.000836554,-0.051804618,-0.021637238,0.000000000,0.000015784,-0.000104983,-0.001116222,0.000000000,0.000667327,0.000628763,-0.203455918,0.000000000,0.003948102,0.003636399,-1.200517686,0.000000000,0.010566747,0.004477032,-0.697764333,0.000000000,0.006263368,0.000671173,-0.634770314,0.000000000,0.000002776,0.000061894,-0.000435220
0.271975486,-0.017082000,-0.010866601,-0.110417420,-0.043178240,-0.002805000,-0.002266830,-0.015665384,0.187390905,-0.003218000,-0.006768842,0.005212647,0.889593412,0.415042996,0.382015402,-0.020304285,2.229146944,-0.406185001,-0.398155707,-0.037407666,-0.703579103,-0.002845000,-0.000949418,-0.056431885,-0.025686798,0.000000000,0.000015573,-0.000105811,-0.001088821,0.000000000,0.000668592,0.000632415,-0.203906391,0.000000000,0.003955537,0.003717420,-1.204479983,0.000000000,0.010575959,0.004606190,-0.699271332,0.000000000,0.006264717,0.000674162,-0.634915466,0.000000000,0.000002902,0.000062920,-0.000456504
0.273975305,-0.017294001,-0.011088694,-0.111046148,-0.038101286,-0.002774000,-0.002297960,-0.015564933,0.201363341,-0.003242000,-0.006759281,0.004780756,0.891404284,0.414918989,0.381973062,-0.021170014,2.230510915,-0.406340003,-0.398234606,-0.039449797,-0.705130688,-0.003185000,-0.001073697,-0.062139785,-0.031141201,0.000000000,0.000015360,-0.000106609,-0.001061576,0.000000000,0.000669863,0.000635637,-0.204348531,0.000000000,0.003963128,0.003795659,-1.208425912,0.000000000,0.010585424,0.004732089,-0.700771283,0.000000000,0.006266070,0.000676796,-0.635060231,0.000000000,0.000003027,0.000062512,-0.000472138
0.275975125,-0.017502001,-0.011311774,-0.111540006,-0.033470142,-0.002735000,-0.002328790,-0.015414908,0.216751345,-0.003272000,-0.006750629,0.004325929,0.891633543,0.414795995,0.381929139,-0.021961026,2.231505995,-0.406506002,-0.398317975,-0.041684477,-0.707016189,-0.003564000,-0.001211606,-0.068954544,-0.036715429,0.000000000,0.000015145,-0.000107372,-0.001034340,0.000000000,0.000671140,0.000638455,-0.204782745,0.000000000,0.003970871,0.003871134,-1.212353401,0.000000000,0.010595133,0.004854712,-0.702263982,0.000000000,0.006267428,0.000679108,-0.635204523,0.000000000,0.000003149,0.000061223,-0.000483612
0.277974945,-0.017707000,-0.011535578,-0.111902018,-0.029069940,-0.002688000,-0.002359222,-0.015216148,0.233206668,-0.003307000,-0.006742932,0.003848416,0.890934696,0.414671987,0.381883781,-0.022679126,2.232133916,-0.406682014,-0.398406210,-0.044117348,-0.709013994,-0.003979000,-0.001365144,-0.076769027,-0.041706911,0.000000000,0.000014929,-0.000108097,-0.001007133,0.000000000,0.000672422,0.000640880,-0.205209446,0.000000000,0.003978758,0.003943846,-1.216261264,0.000000000,0.010605081,0.004974058,-0.703748880,0.000000000,0.006268791,0.000681107,-0.635348363,0.000000000,0.000003268,0.000059497,-0.000492323
0.279974765,-0.017907999,-0.011759855,-0.112138590,-0.025018294,-0.002635000,-0.002389164,-0.014970933,0.250720694,-0.003348000,-0.006736231,0.003350692,0.889599181,0.414550006,0.381837115,-0.023333273,2.232270291,-0.406866014,-0.398499687,-0.046738490,-0.710968607,-0.004427000,-0.001536020,-0.085438111,-0.045914976,0.000000000,0.000014711,-0.000108781,-0.000979988,0.000000000,0.000673708,0.000642910,-0.205628642,0.000000000,0.003986786,0.004013810,-1.220147968,0.000000000,0.010615261,0.005090115,-0.705225565,0.000000000,0.006270156,0.000682801,-0.635491719,0.000000000,0.000003383,0.000057645,-0.000499444
0.281974584,-0.018103000,-0.011984362,-0.112253765,-0.021199310,-0.002577000,-0.002418529,-0.014682476,0.268749965,-0.003393000,-0.006730567,0.002831861,0.887298306,0.414427996,0.381789264,-0.023925123,2.232162736,-0.407059014,-0.398598735,-0.049524004,-0.712665361,-0.004903000,-0.001725625,-0.094802021,-0.049276302,0.000000000,0.000014492,-0.000109416,-0.000952934,0.000000000,0.000674997,0.000644546,-0.206040038,0.000000000,0.003994948,0.004081057,-1.224012298,0.000000000,0.010625667,0.005202862,-0.706693531,0.000000000,0.006271525,0.000684196,-0.635634549,0.000000000,0.000003495,0.000055839,-0.000505828
0.283974404,-0.018293001,-0.012208859,-0.112248445,-0.017402758,-0.002513000,-0.002447238,-0.014354380,0.287058404,-0.003443000,-0.006725978,0.002294519,0.884632868,0.414306015,0.381740337,-0.024463589,2.231685260,-0.407260001,-0.398703651,-0.052457909,-0.714241387,-0.005405000,-0.001934952,-0.104663975,-0.051599304,0.000000000,0.000014272,-0.000110002,-0.000926012,0.000000000,0.000676288,0.000645791,-0.206443463,0.000000000,0.004003239,0.004145586,-1.227853393,0.000000000,0.010636292,0.005312312,-0.708152214,0.000000000,0.006272895,0.000685289,-0.635776813,0.000000000,0.000003603,0.000054161,-0.000511983
0.285974224,-0.018476000,-0.012433110,-0.112125280,-0.013755858,-0.002446000,-0.002475217,-0.013989505,0.305989197,-0.003496000,-0.006722500,0.001738879,0.881270376,0.414184988,0.381690432,-0.024952785,2.230898239,-0.407467008,-0.398814691,-0.055520029,-0.715609717,-0.005928000,-0.002164707,-0.114877385,-0.053140681,0.000000000,0.000014051,-0.000110528,-0.000899253,0.000000000,0.000677582,0.000646640,-0.206838738,0.000000000,0.004011654,0.004207428,-1.231669711,0.000000000,0.010647129,0.005418446,-0.709601288,0.000000000,0.006274267,0.000686086,-0.635918435,0.000000000,0.000003709,0.000052638,-0.000518159
0.287974044,-0.018652000,-0.012656878,-0.111884325,-0.010055300,-0.002375000,-0.002502400,-0.013591390,0.324733412,-0.003553000,-0.006720164,0.001168336,0.877784825,0.414063990,0.381639622,-0.025404597,2.229883045,-0.407678992,-0.398932033,-0.058671342,-0.716603003,-0.006471000,-0.002415230,-0.125261128,-0.053740789,0.000000000,0.000013829,-0.000110998,-0.000872711,0.000000000,0.000678876,0.000647112,-0.207225557,0.000000000,0.004020187,0.004266594,-1.235460398,0.000000000,0.010658171,0.005521272,-0.711040203,0.000000000,0.006275640,0.000686590,-0.636059380,0.000000000,0.000003811,0.000051259,-0.000524468
0.289973863,-0.018820999,-0.012879929,-0.111525406,-0.006326090,-0.002302000,-0.002528724,-0.013162241,0.343636440,-0.003611000,-0.006718996,0.000583615,0.873823786,0.413944006,0.381587973,-0.025824944,2.228661081,-0.407896012,-0.399055785,-0.061876068,-0.717208735,-0.007028000,-0.002686647,-0.135708522,-0.053779091,0.000000000,0.000013606,-0.000111403,-0.000846390,0.000000000,0.000680170,0.000647206,-0.207604106,0.000000000,0.004028833,0.004323108,-1.239224173,0.000000000,0.010669413,0.005620781,-0.712468594,0.000000000,0.006277014,0.000686806,-0.636199593,0.000000000,0.000003911,0.000050005,-0.000530909
0.291973683,-0.018981000,-0.013102029,-0.111050037,-0.002594353,-0.002228000,-0.002554136,-0.012705853,0.362161963,-0.003672000,-0.006719019,-0.000011373,0.870231611,0.413823992,0.381535522,-0.026225361,2.227332575,-0.408116996,-0.399185993,-0.065103583,-0.717523868,-0.007597000,-0.002978746,-0.146049569,-0.052939574,0.000000000,0.000013383,-0.000111745,-0.000820351,0.000000000,0.000681464,0.000646938,-0.207974164,0.000000000,0.004037587,0.004376979,-1.242960112,0.000000000,0.010680847,0.005716987,-0.713885979,0.000000000,0.006278388,0.000686735,-0.636339032,0.000000000,0.000004009,0.000048854,-0.000537452
0.293973503,-0.019131999,-0.013322941,-0.110455631,0.001336677,-0.002153000,-0.002578586,-0.012225097,0.380096224,-0.003735000,-0.006720252,-0.000616556,0.866357170,0.413704008,0.381482304,-0.026609094,2.225911105,-0.408340991,-0.399322644,-0.068325583,-0.717522428,-0.008174000,-0.003291090,-0.156171913,-0.051524954,0.000000000,0.000013159,-0.000112014,-0.000794595,0.000000000,0.000682757,0.000646315,-0.208335878,0.000000000,0.004046444,0.004428245,-1.246666903,0.000000000,0.010692466,0.005809875,-0.715292036,0.000000000,0.006279760,0.000686389,-0.636477639,0.000000000,0.000004104,0.000047778,-0.000544053
0.295973323,-0.019273000,-0.013542421,-0.109740474,0.005427391,-0.002078000,-0.002602032,-0.011722792,0.397490189,-0.003798000,-0.006722713,-0.001230275,0.862488864,0.413585007,0.381428338,-0.026982668,2.224421407,-0.408565998,-0.399465666,-0.071510869,-0.717189610,-0.008756000,-0.003623001,-0.165955554,-0.049494654,0.000000000,0.000012934,-0.000112206,-0.000769197,0.000000000,0.000684048,0.000645339,-0.208689207,0.000000000,0.004055398,0.004476916,-1.250343884,0.000000000,0.010704265,0.005899460,-0.716686247,0.000000000,0.006281132,0.000685764,-0.636615396,0.000000000,0.000004198,0.000046768,-0.000550653
0.297973142,-0.019404000,-0.013760226,-0.108902204,0.009748577,-0.002004000,-0.002624434,-0.011201304,0.414111256,-0.003861000,-0.006726411,-0.001849052,0.859162528,0.413466007,0.381373625,-0.027356829,2.222968818,-0.408793002,-0.399614901,-0.074617505,-0.716419736,-0.009339000,-0.003973600,-0.175299675,-0.046954927,0.000000000,0.000012710,-0.000112319,-0.000744187,0.000000000,0.000685336,0.000644021,-0.209034016,0.000000000,0.004064444,0.004523009,-1.253989866,0.000000000,0.010716237,0.005985754,-0.718068297,0.000000000,0.006282502,0.000684863,-0.636752233,0.000000000,0.000004290,0.000045809,-0.000557235
0.299972962,-0.019523000,-0.013976104,-0.107939236,0.014260834,-0.001932000,-0.002645762,-0.010663904,0.429717707,-0.003925000,-0.006731353,-0.002471207,0.856302379,0.413347989,0.381318152,-0.027736483,2.221567661,-0.409020990,-0.399770154,-0.077626845,-0.715447322,-0.009921000,-0.004341794,-0.184096864,-0.043877214,0.000000000,0.000012485,-0.000112347,-0.000719605,0.000000000,0.000686620,0.000642372,-0.209370326,0.000000000,0.004073577,0.004566553,-1.257603729,0.000000000,0.010728374,0.006068754,-0.719437851,0.000000000,0.006283869,0.000683697,-0.636888104,0.000000000,0.000004379,0.000044887,-0.000563768
0.301972782,-0.019638000,-0.014189797,-0.106846275,0.019141650,-0.001858000,-0.002665988,-0.010112864,0.444090161,-0.003993000,-0.006737548,-0.003097336,0.853588133,0.413228005,0.381261910,-0.028121004,2.220315640,-0.409251988,-0.399931195,-0.080520339,-0.714242641,-0.010522000,-0.004726354,-0.192280028,-0.040475160,0.000000000,0.000012261,-0.000112280,-0.000695496,0.000000000,0.000687901,0.000640395,-0.209698189,0.000000000,0.004082792,0.004607578,-1.261184691,0.000000000,0.010740671,0.006148465,-0.720794481,0.000000000,0.006285234,0.000682269,-0.637022983,0.000000000,0.000004467,0.000043991,-0.000570218
0.303972602,-0.019755000,-0.014401066,-0.105634325,0.023480823,-0.001778000,-0.002685072,-0.009542005,0.458409408,-0.004068000,-0.006745009,-0.003730535,0.850182686,0.413105994,0.381204903,-0.028503335,2.219022539,-0.409491986,-0.400097808,-0.083306473,-0.713086655,-0.011167000,-0.005126815,-0.200230594,-0.039084850,0.000000000,0.000012036,-0.000112109,-0.000671938,0.000000000,0.000689177,0.000638063,-0.210017541,0.000000000,0.004092084,0.004646117,-1.264731985,0.000000000,0.010753121,0.006224887,-0.722137801,0.000000000,0.006286595,0.000680571,-0.637156830,0.000000000,0.000004554,0.000043143,-0.000576563
0.305972421,-0.019871000,-0.014609712,-0.104323440,0.026675509,-0.001691000,-0.002702950,-0.008939257,0.473661268,-0.004152000,-0.006753764,-0.004377736,0.845307453,0.412981004,0.381147176,-0.028863599,2.217634171,-0.409738988,-0.400269906,-0.086049315,-0.712582346,-0.011849000,-0.005544045,-0.208615226,-0.041195757,0.000000000,0.000011813,-0.000111822,-0.000649006,0.000000000,0.000690448,0.000635354,-0.210327533,0.000000000,0.004101449,0.004682199,-1.268244985,0.000000000,0.010765717,0.006298036,-0.723467399,0.000000000,0.006287952,0.000678594,-0.637289567,0.000000000,0.000004638,0.000042350,-0.000582872
0.307972241,-0.019987000,-0.014815562,-0.102924969,0.029137876,-0.001600000,-0.002719554,-0.008301602,0.489838913,-0.004243000,-0.006763851,-0.005043148,0.838558560,0.412854999,0.381088792,-0.029192146,2.215946209,-0.409994006,-0.400447452,-0.088772938,-0.712354519,-0.012566000,-0.005979221,-0.217587782,-0.044117192,0.000000000,0.000011590,-0.000111420,-0.000626788,0.000000000,0.000691713,0.000632306,-0.210627435,0.000000000,0.004110880,0.004715832,-1.271722890,0.000000000,0.010778453,0.006367945,-0.724782978,0.000000000,0.006289305,0.000676350,-0.637421112,0.000000000,0.000004722,0.000041563,-0.000589178
0.309972061,-0.020101000,-0.015018471,-0.101454165,0.030806810,-0.001504000,-0.002734813,-0.007629712,0.506001463,-0.004341000,-0.006775307,-0.005727927,0.830610199,0.412728995,0.381029821,-0.029485471,2.214010313,-0.410255998,-0.400630455,-0.091501286,-0.712441029,-0.013311000,-0.006433530,-0.227154519,-0.047090812,0.000000000,0.000011368,-0.000110902,-0.000605312,0.000000000,0.000692970,0.000628974,-0.210917955,0.000000000,0.004120374,0.004747031,-1.275164544,0.000000000,0.010791322,0.006434634,-0.726084352,0.000000000,0.006290652,0.000673860,-0.637551442,0.000000000,0.000004803,0.000040745,-0.000595341
0.311971881,-0.020212000,-0.015218313,-0.099921047,0.031966389,-0.001404000,-0.002748667,-0.006927053,0.522428910,-0.004445000,-0.006788175,-0.006434384,0.821499393,0.412602991,0.380970344,-0.029738551,2.211861108,-0.410524011,-0.400818948,-0.094246545,-0.712667422,-0.014081000,-0.006907860,-0.237165060,-0.049271199,0.000000000,0.000011148,-0.000110249,-0.000584598,0.000000000,0.000694221,0.000625374,-0.211200157,0.000000000,0.004129926,0.004775819,-1.278568888,0.000000000,0.010804319,0.006498118,-0.727371265,0.000000000,0.006291995,0.000671138,-0.637680570,0.000000000,0.000004883,0.000039890,-0.000601251
0.313971700,-0.020318000,-0.015414980,-0.098333566,0.032766397,-0.001301000,-0.002761061,-0.006196967,0.538897937,-0.004554000,-0.006802501,-0.007162822,0.811575186,0.412476987,0.380910439,-0.029952236,2.209457817,-0.410798013,-0.401012962,-0.097006972,-0.712899261,-0.014872000,-0.007402810,-0.247474884,-0.050693184,0.000000000,0.000010929,-0.000109442,-0.000564788,0.000000000,0.000695464,0.000621507,-0.211474246,0.000000000,0.004139530,0.004802220,-1.281935045,0.000000000,0.010817435,0.006558413,-0.728643417,0.000000000,0.006293331,0.000668190,-0.637808489,0.000000000,0.000004961,0.000039025,-0.000606885
0.315971520,-0.020419000,-0.015608370,-0.096695032,0.033453643,-0.001195000,-0.002771947,-0.005442990,0.555184257,-0.004668000,-0.006818326,-0.007912724,0.801140984,0.412351996,0.380850181,-0.030129209,2.206801495,-0.411078006,-0.401212523,-0.099780291,-0.713135415,-0.015678000,-0.007918666,-0.257928080,-0.051302598,0.000000000,0.000010712,-0.000108462,-0.000546019,0.000000000,0.000696699,0.000617376,-0.211740110,0.000000000,0.004149183,0.004826258,-1.285262216,0.000000000,0.010830666,0.006615534,-0.729900512,0.000000000,0.006294661,0.000665017,-0.637935167,0.000000000,0.000005037,0.000038166,-0.000612313
0.317971340,-0.020514000,-0.015798386,-0.095008121,0.034035771,-0.001087000,-0.002781286,-0.004669611,0.571354302,-0.004787000,-0.006835696,-0.008684700,0.790197404,0.412230015,0.380789642,-0.030269136,2.203970594,-0.411363006,-0.401417656,-0.102566723,-0.713379754,-0.016496001,-0.008455330,-0.268332208,-0.050907559,0.000000000,0.000010497,-0.000107288,-0.000528439,0.000000000,0.000697925,0.000612984,-0.211997637,0.000000000,0.004158879,0.004847967,-1.288549623,0.000000000,0.010844005,0.006669494,-0.731142271,0.000000000,0.006295984,0.000661626,-0.638060569,0.000000000,0.000005112,0.000037319,-0.000617585
0.319971160,-0.020601001,-0.015984933,-0.093273379,0.034624209,-0.000978000,-0.002789047,-0.003880169,0.587214336,-0.004910000,-0.006854656,-0.009479846,0.778770796,0.412111014,0.380728901,-0.030370583,2.201084165,-0.411653012,-0.401628373,-0.105358290,-0.713529601,-0.017321000,-0.009012415,-0.278542351,-0.049761919,0.000000000,0.000010285,-0.000105893,-0.000512206,0.000000000,0.000699142,0.000608338,-0.212246767,0.000000000,0.004168614,0.004867375,-1.291796668,0.000000000,0.010857446,0.006720311,-0.732368378,0.000000000,0.006297300,0.000658020,-0.638184662,0.000000000,0.000005185,0.000036482,-0.000622720
