sainanliu129-hub/model/applications/Body_GravityPara_Iden/data/excitation/single_run/PD-M1-v0_multi_joint_20260325-140736_0_real.csv
time,cmd_leg_l1_joint,pos_leg_l1_joint,vel_leg_l1_joint,torque_leg_l1_joint,cmd_leg_l2_joint,pos_leg_l2_joint,vel_leg_l2_joint,torque_leg_l2_joint,cmd_leg_l3_joint,pos_leg_l3_joint,vel_leg_l3_joint,torque_leg_l3_joint,cmd_leg_l4_joint,pos_leg_l4_joint,vel_leg_l4_joint,torque_leg_l4_joint,cmd_leg_l5_joint,pos_leg_l5_joint,vel_leg_l5_joint,torque_leg_l5_joint,cmd_leg_l6_joint,pos_leg_l6_joint,vel_leg_l6_joint,torque_leg_l6_joint,cmd_leg_r1_joint,pos_leg_r1_joint,vel_leg_r1_joint,torque_leg_r1_joint,cmd_leg_r2_joint,pos_leg_r2_joint,vel_leg_r2_joint,torque_leg_r2_joint,cmd_leg_r3_joint,pos_leg_r3_joint,vel_leg_r3_joint,torque_leg_r3_joint,cmd_leg_r4_joint,pos_leg_r4_joint,vel_leg_r4_joint,torque_leg_r4_joint,cmd_leg_r5_joint,pos_leg_r5_joint,vel_leg_r5_joint,torque_leg_r5_joint,cmd_leg_r6_joint,pos_leg_r6_joint,vel_leg_r6_joint,torque_leg_r6_joint
0.000000000,0.000000000,-0.004768372,-0.004396439,1.211463165,0.000000000,0.003623962,-0.004396439,-1.120880127,-0.006823000,-0.005912781,0.074726105,-1.120880127,0.424885005,0.318722725,0.232967377,3.736267090,-0.396259993,-0.369268105,-0.360264602,-1.686023757,0.000000000,-0.002193417,-0.091502242,-0.000985880,0.000000000,0.019645691,-0.004396439,-1.431740570,0.000000000,0.001716614,-0.039560318,-0.672528076,0.000000000,0.007820129,0.021978378,-1.868142700,0.000000000,0.055123329,0.004396439,-3.150177002,0.000000000,0.003865715,-0.004390880,-0.297561592,0.000000000,0.000778025,0.018111550,0.000049011
0.001999820,-0.000031000,-0.004768372,-0.004396439,0.550662231,0.000016000,0.003623962,-0.004396439,-0.971438599,-0.006821000,-0.005912781,-0.030769348,-0.373617554,0.424870014,0.319104195,0.241758347,3.589752197,-0.396315992,-0.370030800,-0.347100333,-1.686142390,0.000000000,-0.002193867,-0.061090676,0.170894454,0.000000000,0.019645691,0.004396439,-1.652017975,0.000000000,0.001716614,-0.013187408,-1.270321655,0.000000000,0.007820129,0.021978378,-1.868142700,0.000000000,0.055123329,-0.021978378,-3.150177002,0.000000000,0.003865715,-0.004390880,-0.396753011,0.000000000,0.000778025,0.018111550,-0.048064744
0.003999639,-0.000061000,-0.004768372,-0.004396439,0.550662231,0.000031000,0.003623962,0.057142258,-2.167025757,-0.006816000,-0.006294250,-0.030769348,-0.373617554,0.424854010,0.319867134,0.259340286,3.736267090,-0.396375000,-0.370793496,-0.364712891,-1.388583119,0.000000000,-0.002194317,-0.000251728,0.128066990,0.000000000,0.019645691,0.021978378,-2.092541504,0.000000000,0.001716614,0.013187408,-0.672528076,0.000000000,0.007820129,-0.013187408,-2.167025757,0.000000000,0.055123329,-0.004396439,-3.150177002,0.000000000,0.003865715,0.008792200,-0.396753011,0.000000000,0.000778025,0.027162636,-0.048064744
0.005999459,-0.000091000,-0.004768372,0.004396439,0.991217041,0.000045000,0.003623962,0.013187408,-1.270321655,-0.006810000,-0.005912781,0.039560318,-0.523086548,0.424836993,0.320248604,0.285715103,3.882781982,-0.396436006,-0.371556192,-0.364735691,-1.289495602,0.000000000,-0.002194768,0.040335826,0.256942458,0.000000000,0.019645691,-0.021978378,-2.092541504,0.000000000,0.001716614,0.030769348,-0.224176025,0.000000000,0.007820129,-0.092308044,-1.270321655,0.000000000,0.055123329,-0.021978378,-3.150177002,0.000000000,0.003865715,0.004394816,-0.396753011,0.000000000,0.000778025,-0.000001059,-0.048064744
0.007999279,-0.000120000,-0.004768372,-0.021978378,0.770939636,0.000057000,0.003623962,-0.004396439,-0.971438599,-0.006802000,-0.005912781,-0.004396439,-0.523086548,0.424820006,0.321011543,0.347251892,3.882781982,-0.396499991,-0.372318888,-0.404289586,-1.388783435,0.000000000,-0.002195218,0.050466923,0.385649452,0.000000000,0.019645691,0.030769348,-1.652017975,0.000000000,0.001716614,0.021978378,-0.821969604,0.000000000,0.007820129,-0.048351288,-2.167025757,0.000000000,0.055123329,-0.021978378,-3.150177002,0.000000000,0.003865715,0.008787187,-0.495921232,0.000000000,0.000778025,-0.009056381,0.000081682
0.009999099,-0.000148000,-0.004768372,0.030769348,0.991217041,0.000069000,0.003623962,-0.030769348,-2.017584229,-0.006792000,-0.006294250,-0.092308044,-0.074734497,0.424802989,0.321774483,0.408790588,3.150177002,-0.396566004,-0.373081584,-0.408701445,-1.388783572,0.000000000,-0.002195670,0.080929674,0.385556219,0.000000000,0.019645691,0.021978378,-1.431740570,0.000000000,0.001716614,-0.013187408,-0.672528076,0.000000000,0.007820129,0.004396439,-1.868142700,0.000000000,0.055123329,-0.021978378,-3.150177002,0.000000000,0.003865715,-0.004394816,-0.495921232,0.000000000,0.000778025,0.000001059,0.000081682
0.011998918,-0.000176000,-0.004768372,0.013187408,0.770939636,0.000079000,0.003623962,0.039560318,-0.672528076,-0.006781000,-0.005912781,0.039560318,-0.971438599,0.424784988,0.322537422,0.399999619,4.322357178,-0.396634012,-0.374225050,-0.421910648,-1.587161364,0.000000000,-0.003077561,0.090987895,0.299098468,0.000000000,0.019645691,0.030769348,-1.872295380,0.000000000,0.001716614,0.021978378,-0.523086548,0.000000000,0.007438660,-0.030769348,-1.419790649,0.000000000,0.055123329,-0.021978378,-3.150177002,0.000000000,0.003865715,0.000001492,-0.495921232,0.000000000,0.000778025,0.009056228,0.000081682
0.013998738,-0.000202000,-0.004768372,-0.048351288,0.550662231,0.000089000,0.003623962,-0.030769348,-0.373617554,-0.006769000,-0.005912781,0.039560318,-0.971438599,0.424766988,0.323681831,0.320878983,3.736267090,-0.396703988,-0.374988697,-0.413072992,-1.686188357,0.000000000,-0.001315382,0.070932117,0.342643598,0.000000000,0.019645691,0.021978378,-2.092541504,0.000000000,0.001716614,0.004396439,-0.672528076,0.000000000,0.007438660,-0.039560318,-1.270321655,0.000000000,0.055123329,-0.013187408,-3.003662109,0.000000000,0.003865715,0.004396846,-0.297561592,0.000000000,0.000778025,0.018109432,0.000049011
0.015998558,-0.000228000,-0.004768372,0.021978378,0.550662231,0.000097000,0.003623962,-0.057142258,-1.569232178,-0.006755000,-0.005912781,-0.004396439,0.224176025,0.424748003,0.324063301,0.268131256,3.736267090,-0.396777004,-0.375941909,-0.391124618,-1.587035981,0.000000000,-0.001756525,0.101391651,0.299497021,0.000000000,0.019645691,0.030769348,-1.872295380,0.000000000,0.001716614,0.065933228,-0.523086548,0.000000000,0.007438660,0.004396439,-1.868142700,0.000000000,0.055123329,-0.004396439,-3.150177002,0.000000000,0.003865715,0.004394816,-0.495921232,0.000000000,0.000778025,-0.000001059,0.000081682
0.017998378,-0.000252000,-0.004768372,0.013187408,0.550662231,0.000104000,0.003623962,0.021978378,-2.167025757,-0.006740000,-0.005912781,0.057142258,-0.523086548,0.424728990,0.324444771,0.250549316,3.736267090,-0.396851003,-0.376704606,-0.369129785,-1.983742484,0.000000000,-0.001756873,0.050611848,0.299238038,0.000000000,0.019645691,-0.004396439,-1.872295380,0.000000000,0.001716614,-0.013187408,-0.373617554,0.000000000,0.007438660,0.004396439,-1.569232178,0.000000000,0.055123329,-0.004396439,-3.003662109,0.000000000,0.003865715,0.004394816,-0.297584790,0.000000000,0.000778025,-0.000001059,-0.096211171
0.019998197,-0.000276000,-0.004768372,-0.004396439,0.110138702,0.000111000,0.003623962,-0.013187408,-1.120880127,-0.006724000,-0.005912781,-0.004396439,-0.523086548,0.424708992,0.325207710,0.215385437,4.029296875,-0.396926999,-0.377467303,-0.342736137,-1.686189053,0.000000000,-0.001757221,-0.010355237,0.256435459,0.000000000,0.019645691,0.021978378,-1.652017975,0.000000000,0.001335144,-0.004396439,-0.523086548,0.000000000,0.007438660,0.004396439,-1.569232178,0.000000000,0.055123329,0.004396439,-3.296691895,0.000000000,0.003865715,0.008790170,-0.297584790,0.000000000,0.000778025,0.009052145,-0.096211171
0.021998017,-0.000298000,-0.004768372,0.013187408,0.991217041,0.000116000,0.003623962,-0.013187408,-0.224176025,-0.006707000,-0.005912781,-0.039560318,-0.074734497,0.424688995,0.325589180,0.241758347,4.322357178,-0.397004992,-0.378039486,-0.342731165,-1.785312010,0.000000000,-0.001316351,-0.030645728,0.213690879,0.000000000,0.019645691,-0.021978378,-1.872295380,0.000000000,0.001716614,0.004396439,-1.419790649,0.000000000,0.007438660,-0.013187408,-1.569232178,0.000000000,0.055123329,0.004396439,-3.150177002,0.000000000,0.003865715,-0.004394816,-0.595112650,0.000000000,0.000778025,0.000001059,-0.048032073
0.023997837,-0.000319000,-0.004768372,-0.039560318,0.991217041,0.000121000,0.003623962,-0.004396439,-1.868142700,-0.006690000,-0.005912781,0.004396439,-0.224176025,0.424668998,0.325970650,0.268131256,3.589752197,-0.397085011,-0.378611350,-0.338319143,-1.586919164,0.000000000,-0.001757746,-0.061203552,0.127816341,0.000000000,0.019645691,0.039560318,-2.092541504,0.000000000,0.001716614,0.004396439,-1.270321655,0.000000000,0.007438660,0.004396439,-1.868142700,0.000000000,0.055123329,0.004396439,-3.150177002,0.000000000,0.003865715,-0.008787187,-0.396753011,0.000000000,0.000778025,0.009056381,-0.048064744
0.025997657,-0.000339000,-0.004768372,-0.030769348,0.330416107,0.000124000,0.003623962,0.030769348,-1.868142700,-0.006671000,-0.005912781,0.057142258,-0.224176025,0.424647987,0.326733589,0.276922226,3.443237305,-0.397166014,-0.379374048,-0.320713420,-1.289365640,0.000000000,-0.001758096,-0.122239179,0.085081110,0.000000000,0.019645691,0.004396439,-2.092541504,0.000000000,0.001716614,-0.092308044,-0.821969604,0.000000000,0.007438660,-0.030769348,-1.270321655,0.000000000,0.055123329,0.004396439,-3.150177002,0.000000000,0.003865715,-0.008783251,-0.495921232,0.000000000,0.000778025,0.027166872,0.000081682
0.027997476,-0.000357000,-0.004768372,0.013187408,1.211463165,0.000127000,0.003623962,-0.021978378,-1.270321655,-0.006653000,-0.006294250,-0.039560318,-0.523086548,0.424627006,0.327115059,0.329669952,3.736267090,-0.397249013,-0.379945860,-0.325086935,-1.487730990,0.000000000,-0.002199757,-0.132482767,0.084796445,0.000000000,0.019645691,0.013187408,-1.652017975,0.000000000,0.001716614,-0.021978378,-0.821969604,0.000000000,0.007057190,0.004396439,-0.971438599,0.000000000,0.055123329,0.004396439,-3.443237305,0.000000000,0.003865715,-0.008787187,-0.396753011,0.000000000,0.000778025,0.009056381,-0.048064744
0.029997296,-0.000374000,-0.004768372,0.004396439,0.330416107,0.000129000,0.003623962,-0.057142258,-1.569232178,-0.006634000,-0.005912781,-0.021978378,0.224176025,0.424605995,0.327877998,0.408790588,3.150177002,-0.397332996,-0.380708559,-0.311910850,-1.586818388,0.000000000,-0.002200215,-0.122329910,-0.043760152,0.000000000,0.019645691,0.039560318,-1.872295380,0.000000000,0.001335144,-0.048351288,-0.672528076,0.000000000,0.007057190,0.013187408,-1.419790649,0.000000000,0.055123329,-0.004396439,-3.003662109,0.000000000,0.003865715,0.008790170,-0.396753011,0.000000000,0.000778025,0.009052145,-0.048064744
0.031997116,-0.000390000,-0.004768372,-0.004396439,0.550662231,0.000130000,0.003623962,0.021978378,-2.167025757,-0.006614000,-0.006294250,-0.048351288,-0.523086548,0.424584001,0.328640938,0.399999619,3.003662109,-0.397419006,-0.381280320,-0.316326293,-1.388530840,0.000000000,-0.002642144,-0.071507351,0.041836121,0.000000000,0.019645691,-0.039560318,-1.652017975,0.000000000,0.001716614,-0.013187408,-0.672528076,0.000000000,0.007057190,-0.048351288,-1.120880127,0.000000000,0.055123329,-0.004396439,-2.857147217,0.000000000,0.003865715,0.017580878,-0.495944429,0.000000000,0.000778025,0.027158554,-0.096178499
0.033996936,-0.000404000,-0.004768372,0.021978378,0.770939636,0.000130000,0.003623962,-0.004396439,-1.868142700,-0.006594000,-0.005912781,-0.039560318,-1.120880127,0.424562007,0.329403877,0.329669952,3.003662109,-0.397507012,-0.382233378,-0.285651210,-1.190267271,0.000000000,-0.003084570,0.040446356,0.127431868,0.000000000,0.019645691,0.013187408,-1.431740570,0.000000000,0.001716614,0.048351288,-0.672528076,0.000000000,0.007057190,-0.057142258,-1.868142700,0.000000000,0.055123329,-0.004396439,-3.296691895,0.000000000,0.003865715,0.004394816,-0.297584790,0.000000000,0.000778025,-0.000001059,-0.096211171
0.035996755,-0.000416000,-0.004768372,-0.013187408,0.770939636,0.000128000,0.003623962,-0.057142258,-1.270321655,-0.006572000,-0.005912781,-0.039560318,-1.120880127,0.424539000,0.330166817,0.250549316,3.150177002,-0.397601008,-0.382615306,-0.290041775,-1.289437598,0.000000000,-0.002201363,0.050709615,0.170439403,0.000000000,0.019645691,0.004396439,-1.872295380,0.000000000,0.001335144,-0.092308044,-0.672528076,0.000000000,0.007057190,-0.021978378,-1.718673706,0.000000000,0.055123329,0.004396439,-2.710632324,0.000000000,0.003865715,-0.004394816,-0.297584790,0.000000000,0.000778025,0.000001059,-0.096211171
0.037996575,-0.000428000,-0.004768372,0.004396439,0.991217041,0.000125000,0.003623962,-0.057142258,-1.270321655,-0.006546000,-0.006294250,-0.048351288,-0.672528076,0.424515009,0.330929756,0.241758347,3.296691895,-0.397702008,-0.383378005,-0.272513832,-0.991937572,0.000000000,-0.002201824,0.132208579,0.213362755,0.000000000,0.019645691,0.021978378,-1.872295380,0.000000000,0.001716614,0.004396439,-1.270321655,0.000000000,0.007057190,0.004396439,-1.270321655,0.000000000,0.055123329,-0.004396439,-3.003662109,0.000000000,0.003865715,0.004394816,-0.297561592,0.000000000,0.000778025,-0.000001059,0.000049011
0.039996395,-0.000438000,-0.004768372,-0.021978378,0.550662231,0.000120000,0.003623962,-0.021978378,-1.569232178,-0.006518000,-0.005912781,0.013187408,-1.718673706,0.424488991,0.331311226,0.224176407,3.589752197,-0.397810012,-0.383759355,-0.250560921,-0.991997236,0.000000000,-0.002202054,0.162798676,0.298905544,0.000000000,0.019645691,-0.004396439,-1.872295380,0.000000000,0.001716614,0.004396439,-0.224176025,0.000000000,0.007057190,0.004396439,-1.718673706,0.000000000,0.055123329,0.004396439,-3.589752197,0.000000000,0.003865715,-0.004394816,-0.495921232,0.000000000,0.000778025,0.000001059,0.000081682
0.041996215,-0.000448000,-0.004768372,0.048351288,1.211463165,0.000114000,0.003623962,-0.013187408,-1.868142700,-0.006487000,-0.005912781,0.004396439,-0.523086548,0.424463004,0.331692696,0.197801590,3.736267090,-0.397922993,-0.384331591,-0.232956128,-0.892707197,0.000000000,-0.001760392,0.142497777,0.170685757,0.000000000,0.019645691,0.004396439,-1.872295380,0.000000000,0.001716614,0.048351288,-1.419790649,0.000000000,0.007057190,0.004396439,-0.971438599,0.000000000,0.055123329,0.004396439,-3.443237305,0.000000000,0.003865715,0.000004474,-0.396753011,0.000000000,0.000778025,0.027164754,-0.048064744
0.043996034,-0.000457000,-0.004768372,-0.030769348,0.330416107,0.000107000,0.003623962,-0.057142258,-1.270321655,-0.006453000,-0.005912781,0.021978378,-0.523086548,0.424436003,0.332074165,0.232967377,3.736267090,-0.398039013,-0.384712941,-0.228576574,-0.892754893,0.000000000,-0.001760570,0.173083203,0.256208182,0.000000000,0.019645691,0.004396439,-1.652017975,0.000000000,0.001716614,0.013187408,-0.971438599,0.000000000,0.006675720,-0.030769348,-1.270321655,0.000000000,0.055123329,0.004396439,-3.150177002,0.000000000,0.003865715,0.000001492,-0.595089453,0.000000000,0.000778025,0.009056228,0.048228108
0.045995854,-0.000466000,-0.004768372,0.030769348,0.991217041,0.000098000,0.003623962,0.048351288,-1.868142700,-0.006417000,-0.005912781,-0.004396439,-1.120880127,0.424407989,0.332455635,0.250549316,3.882781982,-0.398158014,-0.385285124,-0.219768156,-0.991877746,0.000000000,-0.001318698,0.173149722,0.213468783,0.000000000,0.019645691,-0.021978378,-2.092541504,0.000000000,0.001716614,0.057142258,0.224176025,0.000000000,0.006675720,-0.030769348,-1.270321655,0.000000000,0.055123329,-0.021978378,-3.443237305,0.000000000,0.003865715,0.000001492,-0.396706616,0.000000000,0.000778025,0.009056228,0.144455618
0.047995674,-0.000474000,-0.004768372,0.013187408,1.431740570,0.000088000,0.003623962,0.048351288,-1.569232178,-0.006380000,-0.005912781,-0.039560318,-0.523086548,0.424380004,0.333218575,0.285715103,3.443237305,-0.398279011,-0.385666474,-0.202190253,-1.289425554,0.000000000,-0.001318823,0.173177976,0.256096316,0.000000000,0.019645691,-0.030769348,-1.872295380,0.000000000,0.001716614,0.021978378,-0.074734497,0.000000000,0.006675720,0.021978378,-0.074734497,0.000000000,0.055123329,-0.013187408,-3.150177002,0.000000000,0.003865715,0.000001492,-0.396753011,0.000000000,0.000778025,0.009056228,-0.048064744
0.049995494,-0.000482000,-0.004768372,0.030769348,0.770939636,0.000077000,0.003623962,0.004396439,-1.868142700,-0.006340000,-0.005912781,-0.048351288,-0.971438599,0.424351990,0.333600044,0.347251892,3.443237305,-0.398400992,-0.386047984,-0.193356508,-1.091012023,0.000000000,-0.000434460,0.132484525,0.341902888,0.000000000,0.019264221,0.004396439,-2.312818909,0.000000000,0.001335144,-0.021978378,0.224176025,0.000000000,0.006675720,-0.030769348,-1.419790649,0.000000000,0.055123329,-0.004396439,-3.589752197,0.000000000,0.003865715,0.008787187,-0.297561592,0.000000000,0.000778025,-0.009056381,0.000049011
0.051995313,-0.000490000,-0.004768372,0.004396439,0.330416107,0.000065000,0.003623962,-0.048351288,-0.821969604,-0.006300000,-0.005912781,-0.021978378,-1.569232178,0.424324006,0.334362984,0.364835739,3.296691895,-0.398521990,-0.386429334,-0.188959862,-1.190182832,0.000000000,-0.000434480,0.101916791,0.299101127,0.000000000,0.019645691,0.013187408,-1.652017975,0.000000000,0.001716614,0.039560318,-0.971438599,0.000000000,0.006675720,0.004396439,-0.971438599,0.000000000,0.055123329,-0.013187408,-3.443237305,0.000000000,0.003865715,-0.008787187,-0.198394438,0.000000000,0.000778025,0.009056381,-0.144368342
0.053995133,-0.000498000,-0.004768372,-0.004396439,0.991217041,0.000053000,0.003623962,0.013187408,-0.971438599,-0.006258000,-0.005912781,-0.021978378,-0.074734497,0.424295992,0.335125923,0.391208649,3.882781982,-0.398642004,-0.386810685,-0.171375700,-1.190171142,0.000000000,-0.000434500,0.040757629,0.213577809,0.000000000,0.019645691,0.021978378,-1.872295380,0.000000000,0.001716614,0.004396439,-1.270321655,0.000000000,0.006675720,-0.021978378,-0.971438599,0.000000000,0.055123329,-0.013187408,-3.150177002,0.000000000,0.003865715,0.000001492,-0.396753011,0.000000000,0.000778025,0.009056228,-0.048064744
0.055994953,-0.000506000,-0.004768372,-0.021978378,0.991217041,0.000040000,0.003623962,0.030769348,-2.167025757,-0.006215000,-0.005912781,-0.013187408,-0.971438599,0.424268007,0.335888863,0.312088013,3.296691895,-0.398759007,-0.387192035,-0.153794887,-1.091000388,0.000000000,-0.000434520,-0.000021090,0.256301977,0.000000000,0.019264221,-0.021978378,-1.872295380,0.000000000,0.001335144,-0.039560318,-1.419790649,0.000000000,0.006675720,0.013187408,-1.120880127,0.000000000,0.055123329,-0.030769348,-3.443237305,0.000000000,0.003865715,0.004394816,-0.595089453,0.000000000,0.000778025,-0.000001059,0.048228108
0.057994773,-0.000515000,-0.004768372,-0.004396439,0.330416107,0.000026000,0.003623962,0.013187408,-1.270321655,-0.006172000,-0.005912781,0.021978378,-0.672528076,0.424239993,0.336270332,0.268131256,3.150177002,-0.398871988,-0.387573385,-0.180156504,-0.793476336,0.000000000,-0.000434540,-0.020420206,0.299039140,0.000000000,0.019264221,-0.013187408,-1.872295380,0.000000000,0.001716614,0.039560318,-0.523086548,0.000000000,0.006675720,0.030769348,-0.224176025,0.000000000,0.055123329,-0.004396439,-3.003662109,0.000000000,0.003865715,0.000001492,-0.396776208,0.000000000,0.000778025,0.009056228,-0.144324926
0.059994592,-0.000524000,-0.004768372,-0.004396439,0.550662231,0.000012000,0.003623962,-0.083517075,-0.672528076,-0.006128000,-0.005912781,0.030769348,-0.074734497,0.424214005,0.337033272,0.250549316,3.150177002,-0.398979992,-0.387954576,-0.158155352,-1.190231312,0.000000000,-0.001319583,-0.091859715,0.213216953,0.000000000,0.019264221,-0.013187408,-1.652017975,0.000000000,0.001335144,-0.048351288,-1.120880127,0.000000000,0.006675720,-0.030769348,-2.017584229,0.000000000,0.055123329,-0.004396439,-3.150177002,0.000000000,0.003865715,-0.004390880,-0.396753011,0.000000000,0.000778025,0.018111550,-0.048064744
0.061994412,-0.000533000,-0.004768372,0.004396439,0.110138702,-0.000002000,0.003623962,-0.048351288,-1.120880127,-0.006084000,-0.005912781,0.030769348,-0.074734497,0.424187988,0.337414742,0.197801590,3.589752197,-0.399082005,-0.388145357,-0.131786818,-1.190201280,0.000000000,-0.000877108,-0.153035458,0.213345616,0.000000000,0.019264221,0.013187408,-1.652017975,0.000000000,0.001335144,-0.030769348,-1.120880127,0.000000000,0.006675720,-0.039560318,-0.672528076,0.000000000,0.055123329,-0.013187408,-2.857147217,0.000000000,0.003865715,-0.008783251,-0.396729813,0.000000000,0.000778025,0.027166872,0.048195437
0.063994232,-0.000543000,-0.004768372,0.039560318,0.991217041,-0.000016000,0.003623962,0.013187408,-2.914288330,-0.006040000,-0.005912781,0.048351288,-0.672528076,0.424163014,0.338177681,0.224176407,3.443237305,-0.399177015,-0.388526443,-0.109766010,-1.388614784,0.000000000,-0.001762367,-0.183682430,0.212942474,0.000000000,0.019264221,0.021978378,-1.872295380,0.000000000,0.001335144,-0.065933228,-0.971438599,0.000000000,0.006294250,-0.057142258,-1.270321655,0.000000000,0.055123329,-0.021978378,-3.150177002,0.000000000,0.003865715,-0.004390880,-0.495921232,0.000000000,0.000778025,0.018111550,0.000081682
0.065994052,-0.000554000,-0.004768372,-0.013187408,0.770939636,-0.000031000,0.003623962,-0.065933228,-0.523086548,-0.005996000,-0.005912781,-0.030769348,-0.672528076,0.424138993,0.338559151,0.241758347,3.589752197,-0.399264008,-0.388716908,-0.114132168,-1.289498126,0.000000000,-0.002205079,-0.193914193,0.255540090,0.000000000,0.019264221,0.021978378,-1.872295380,0.000000000,0.001335144,0.004396439,-0.821969604,0.000000000,0.006294250,0.004396439,-0.971438599,0.000000000,0.055123329,-0.021978378,-3.150177002,0.000000000,0.003865715,0.004394816,-0.495921232,0.000000000,0.000778025,-0.000001059,0.000081682
0.067993871,-0.000566000,-0.004768372,-0.021978378,0.110138702,-0.000045000,0.003623962,-0.039560318,-0.971438599,-0.005953000,-0.005912781,-0.013187408,-0.523086548,0.424116999,0.338940620,0.241758347,3.589752197,-0.399342000,-0.388907320,-0.105335633,-1.289534295,0.000000000,-0.002647846,-0.173530771,0.255370817,0.000000000,0.019264221,0.004396439,-1.652017975,0.000000000,0.001335144,0.013187408,-0.672528076,0.000000000,0.006294250,0.004396439,-0.971438599,0.000000000,0.055123329,0.004396439,-3.150177002,0.000000000,0.003865715,0.004394816,-0.495921232,0.000000000,0.000778025,-0.000001059,0.000081682
0.069993691,-0.000578000,-0.004768372,0.030769348,0.330416107,-0.000063000,0.003623962,0.030769348,-2.316494751,-0.005907000,-0.005912781,0.030769348,-1.419790649,0.424095988,0.339322090,0.276922226,3.736267090,-0.399416000,-0.389097680,-0.100912557,-1.487923884,0.000000000,-0.003090668,-0.183755216,0.255037047,0.000000000,0.019264221,0.013187408,-2.092541504,0.000000000,0.001335144,-0.013187408,-1.569232178,0.000000000,0.006294250,0.021978378,0.523086548,0.000000000,0.055123329,-0.004396439,-3.150177002,0.000000000,0.003865715,0.008790170,-0.396753011,0.000000000,0.000778025,0.009052145,-0.048064744
0.071993511,-0.000589000,-0.004768372,-0.004396439,0.550662231,-0.000082000,0.003623962,-0.004396439,-1.270321655,-0.005858000,-0.005912781,-0.013187408,-0.523086548,0.424077004,0.340085030,0.329669952,3.296691895,-0.399484992,-0.389287988,-0.074525781,-1.587302670,0.000000000,-0.003533544,-0.183753796,0.382886593,0.000000000,0.019264221,0.004396439,-1.872295380,0.000000000,0.001335144,-0.057142258,-0.821969604,0.000000000,0.006294250,0.004396439,-1.718673706,0.000000000,0.055123329,-0.004396439,-3.443237305,0.000000000,0.003865715,-0.004387897,-0.396753011,0.000000000,0.000778025,0.036220076,-0.048064744
0.073993331,-0.000600000,-0.004768372,0.004396439,0.330416107,-0.000104000,0.003623962,-0.048351288,-0.971438599,-0.005808000,-0.005912781,-0.057142258,-1.419790649,0.424057990,0.340847969,0.312088013,3.589752197,-0.399549991,-0.389287988,-0.065776471,-1.488078067,0.000000000,-0.003533544,-0.142925427,0.340271593,0.000000000,0.019264221,0.004396439,-1.872295380,0.000000000,0.001335144,-0.048351288,-0.821969604,0.000000000,0.006294250,0.048351288,-1.120880127,0.000000000,0.055123329,-0.004396439,-2.857147217,0.000000000,0.003865715,0.000001492,-0.495921232,0.000000000,0.000778025,0.009056228,0.000081682
0.075993150,-0.000612000,-0.004768372,0.013187408,0.770939636,-0.000128000,0.003623962,0.004396439,-0.523086548,-0.005756000,-0.005912781,0.021978378,0.672528076,0.424039990,0.341229439,0.329669952,2.857147217,-0.399612010,-0.389478243,-0.039460800,-1.488234177,0.000000000,-0.003976476,-0.081685510,0.425485606,0.000000000,0.019264221,-0.021978378,-1.652017975,0.000000000,0.001335144,0.048351288,-0.971438599,0.000000000,0.006294250,0.004396439,-1.419790649,0.000000000,0.055123329,0.004396439,-3.150177002,0.000000000,0.003865715,-0.004394816,-0.297561592,0.000000000,0.000778025,0.000001059,0.000049011
0.077992970,-0.000623000,-0.004768372,-0.021978378,0.550662231,-0.000153000,0.003623962,0.074726105,-1.718673706,-0.005703000,-0.005912781,0.065933228,-0.971438599,0.424023002,0.341992378,0.294506073,2.271057129,-0.399672002,-0.389478243,0.000010884,-1.488234177,0.000000000,-0.003976476,-0.010206387,0.425485606,0.000000000,0.019264221,-0.013187408,-1.652017975,0.000000000,0.001335144,-0.021978378,-0.821969604,0.000000000,0.006294250,-0.039560318,-0.672528076,0.000000000,0.055123329,-0.004396439,-3.443237305,0.000000000,0.003865715,-0.008790170,-0.694280871,0.000000000,0.000778025,-0.009052145,0.000114353
0.079992790,-0.000636000,-0.004768372,0.004396439,0.550662231,-0.000180000,0.003623962,0.004396439,-1.718673706,-0.005649000,-0.005912781,0.030769348,-0.224176025,0.424005985,0.342373848,0.241758347,2.857147217,-0.399729997,-0.389478243,0.008755342,-1.289880726,0.000000000,-0.003976476,0.030625824,0.425697122,0.000000000,0.019264221,-0.013187408,-1.652017975,0.000000000,0.001335144,-0.004396439,-2.316494751,0.000000000,0.006294250,-0.013187408,-1.120880127,0.000000000,0.055123329,0.004396439,-3.443237305,0.000000000,0.003865715,0.008790170,-0.396753011,0.000000000,0.000778025,0.009052145,-0.048064744
0.081992610,-0.000648000,-0.004768372,-0.013187408,0.550662231,-0.000207000,0.003242493,-0.065933228,-0.971438599,-0.005595000,-0.005912781,-0.057142258,-0.523086548,0.423988998,0.342755318,0.224176407,2.857147217,-0.399785995,-0.389478243,0.043821194,-1.389111354,0.000000000,-0.003976476,0.112305787,0.468297613,0.000000000,0.019264221,0.004396439,-1.872295380,0.000000000,0.001335144,-0.057142258,-0.672528076,0.000000000,0.006294250,0.021978378,-2.167025757,0.000000000,0.055123329,0.004396439,-3.296691895,0.000000000,0.003865715,0.000001492,-0.297561592,0.000000000,0.000778025,0.009056228,0.000049011
0.083992429,-0.000662000,-0.004768372,0.048351288,0.550662231,-0.000235000,0.003242493,-0.021978378,-1.120880127,-0.005540000,-0.005531311,0.039560318,-0.523086548,0.423972011,0.343136787,0.206592560,2.857147217,-0.399841994,-0.389097680,0.065742704,-1.289760175,0.000000000,-0.003090668,0.204128699,0.426057873,0.000000000,0.019264221,0.004396439,-1.872295380,0.000000000,0.001335144,-0.021978378,-0.971438599,0.000000000,0.006294250,-0.039560318,-0.523086548,0.000000000,0.055123329,0.004396439,-3.443237305,0.000000000,0.003865715,0.000001492,-0.297584790,0.000000000,0.000778025,0.009056228,-0.096211171
0.085992249,-0.000677000,-0.004768372,-0.021978378,0.770939636,-0.000264000,0.003623962,0.039560318,-1.868142700,-0.005485000,-0.005531311,0.039560318,-0.523086548,0.423954993,0.343900681,0.171428680,3.150177002,-0.399897009,-0.389097680,0.078951026,-1.388978756,0.000000000,-0.003090668,0.173530800,0.468687376,0.000000000,0.019264221,-0.004396439,-2.092541504,0.000000000,0.001335144,-0.021978378,-1.120880127,0.000000000,0.005912781,-0.092308044,-0.672528076,0.000000000,0.055123329,0.004396439,-2.710632324,0.000000000,0.003865715,0.000001492,-0.198393371,0.000000000,0.000778025,0.009056228,-0.048097416
0.087992069,-0.000692000,-0.004768372,0.004396439,0.770939636,-0.000293000,0.003623962,-0.021978378,-1.120880127,-0.005430000,-0.005531311,0.021978378,-1.569232178,0.423936993,0.344282150,0.189010620,3.003662109,-0.399953008,-0.388907320,0.061380193,-1.388912511,0.000000000,-0.002647846,0.193900518,0.468882129,0.000000000,0.019264221,-0.013187408,-1.652017975,0.000000000,0.001335144,0.004396439,-1.718673706,0.000000000,0.005912781,0.004396439,-2.167025757,0.000000000,0.055123329,-0.004396439,-3.589752197,0.000000000,0.003865715,-0.000001492,-0.396753011,0.000000000,0.000778025,-0.009056228,-0.048064744
0.089991889,-0.000710000,-0.004768372,0.021978378,0.991217041,-0.000322000,0.003242493,0.004396439,-0.971438599,-0.005376000,-0.005531311,-0.021978378,0.074734497,0.423918009,0.344663620,0.189010620,3.443237305,-0.400009006,-0.388907320,0.065794982,-0.992111878,0.000000000,-0.002647846,0.163295331,0.383725518,0.000000000,0.019264221,0.030769348,-2.092541504,0.000000000,0.001335144,-0.048351288,-0.074734497,0.000000000,0.005912781,-0.048351288,-1.270321655,0.000000000,0.055123329,0.004396439,-3.150177002,0.000000000,0.003865715,-0.008783251,-0.396753011,0.000000000,0.000778025,0.027166872,-0.048064744
0.091991708,-0.000728000,-0.004768372,-0.004396439,0.110138702,-0.000351000,0.003242493,-0.057142258,-1.718673706,-0.005324000,-0.005531311,-0.030769348,-0.971438599,0.423898011,0.345045090,0.206592560,3.589752197,-0.400068015,-0.388716908,0.074591247,-0.991938233,0.000000000,-0.002205079,0.183687179,0.212998980,0.000000000,0.019264221,-0.013187408,-2.312818909,0.000000000,0.001335144,0.048351288,-0.821969604,0.000000000,0.005912781,0.048351288,-1.569232178,0.000000000,0.055123329,-0.004396439,-3.443237305,0.000000000,0.003865715,0.013182541,-0.396753011,0.000000000,0.000778025,-0.000003177,-0.048064744
0.093991528,-0.000748000,-0.004768372,-0.004396439,0.991217041,-0.000379000,0.003242493,0.013187408,-1.419790649,-0.005272000,-0.005531311,-0.021978378,-0.672528076,0.423877001,0.345426559,0.206592560,3.882781982,-0.400128007,-0.388526443,0.048267391,-1.190309190,0.000000000,-0.001762367,0.142844364,0.298476124,0.000000000,0.019264221,0.021978378,-2.092541504,0.000000000,0.001335144,-0.021978378,-1.120880127,0.000000000,0.005912781,0.048351288,-1.569232178,0.000000000,0.055123329,-0.013187408,-3.150177002,0.000000000,0.003865715,0.017577895,-0.396753011,0.000000000,0.000778025,0.009050027,-0.048064744
0.095991348,-0.000770000,-0.004768372,0.039560318,0.550662231,-0.000406000,0.003242493,0.013187408,-1.270321655,-0.005222000,-0.005531311,0.030769348,-1.120880127,0.423853993,0.345808029,0.215385437,3.443237305,-0.400191009,-0.388526443,0.035119177,-0.892755327,0.000000000,-0.001762367,0.071426107,0.255897013,0.000000000,0.019264221,0.004396439,-1.652017975,0.000000000,0.001335144,-0.004396439,-0.672528076,0.000000000,0.005912781,0.004396439,-1.718673706,0.000000000,0.055123329,-0.021978378,-3.150177002,0.000000000,0.003865715,-0.004390880,-0.694280871,0.000000000,0.000778025,0.018111550,0.000114353
0.097991168,-0.000794000,-0.004768372,-0.021978378,0.770939636,-0.000432000,0.003242493,0.030769348,-0.821969604,-0.005174000,-0.005531311,-0.048351288,-0.224176025,0.423828989,0.346189499,0.268131256,3.882781982,-0.400258005,-0.388526443,0.035128830,-0.892707591,0.000000000,-0.001762367,0.051024259,0.170457220,0.000000000,0.019264221,0.021978378,-1.872295380,0.000000000,0.001335144,-0.057142258,-0.224176025,0.000000000,0.005912781,-0.021978378,-0.523086548,0.000000000,0.055123329,-0.004396439,-3.443237305,0.000000000,0.003865715,0.000004474,-0.396753011,0.000000000,0.000778025,0.027164754,-0.048064744
0.099990987,-0.000820000,-0.004768372,-0.004396439,0.110138702,-0.000457000,0.003242493,-0.013187408,-2.167025757,-0.005128000,-0.005531311,-0.004396439,-1.868142700,0.423803002,0.346570969,0.276922226,3.150177002,-0.400328994,-0.388526443,-0.017581786,-0.991860387,0.000000000,-0.001762367,0.010191103,0.127690394,0.000000000,0.019264221,-0.013187408,-1.872295380,0.000000000,0.001335144,0.057142258,-1.419790649,0.000000000,0.005912781,-0.004396439,-0.821969604,0.000000000,0.055123329,-0.004396439,-3.296691895,0.000000000,0.003865715,0.000001492,-0.396776208,0.000000000,0.000778025,0.009056228,-0.144324926
0.101990807,-0.000854000,-0.004768372,-0.030769348,0.330416107,-0.000480000,0.003242493,-0.013187408,-0.971438599,-0.005084000,-0.005531311,0.039560318,0.074734497,0.423774004,0.347333908,0.259340286,3.589752197,-0.400402993,-0.388526443,-0.030739656,-0.892707591,0.000000000,-0.001762367,-0.040820880,0.170457220,0.000000000,0.019264221,0.013187408,-1.872295380,0.000000000,0.001335144,-0.048351288,-0.074734497,0.000000000,0.005912781,-0.021978378,-1.569232178,0.000000000,0.055123329,-0.013187408,-3.150177002,0.000000000,0.003865715,0.004394816,-0.495921232,0.000000000,0.000778025,-0.000001059,0.000081682
0.103990627,-0.000900000,-0.004768372,0.021978378,0.550662231,-0.000504000,0.003242493,-0.065933228,-1.569232178,-0.005040000,-0.005531311,0.039560318,0.074734497,0.423741013,0.348096848,0.259340286,2.857147217,-0.400480986,-0.388526443,-0.030739656,-0.991908124,0.000000000,-0.001762367,-0.040820880,0.213130188,0.000000000,0.019264221,-0.004396439,-1.211463165,0.000000000,0.001335144,-0.004396439,-0.821969604,0.000000000,0.005912781,-0.021978378,-1.419790649,0.000000000,0.055123329,-0.021978378,-3.150177002,0.000000000,0.003865715,0.004394816,-0.396753011,0.000000000,0.000778025,-0.000001059,-0.048064744
0.105990447,-0.000959000,-0.004768372,0.030769348,0.550662231,-0.000528000,0.003242493,0.004396439,-2.615377808,-0.004998000,-0.005531311,0.048351288,-1.419790649,0.423705995,0.348478317,0.241758347,3.296691895,-0.400563002,-0.388526443,-0.026330219,-0.991860387,0.000000000,-0.001762367,-0.071423409,0.127690394,0.000000000,0.019264221,0.004396439,-1.872295380,0.000000000,0.001335144,0.039560318,-0.523086548,0.000000000,0.005912781,-0.013187408,-1.868142700,0.000000000,0.055123329,-0.013187408,-2.857147217,0.000000000,0.003865715,-0.004390880,-0.297584790,0.000000000,0.000778025,0.018111550,-0.096211171
0.107990266,-0.001028000,-0.004768372,-0.004396439,0.770939636,-0.000551000,0.003242493,-0.004396439,-1.419790649,-0.004956000,-0.005531311,-0.004396439,-0.224176025,0.423667997,0.348859787,0.206592560,3.150177002,-0.400647014,-0.388716908,-0.043899652,-0.991878487,0.000000000,-0.002205079,-0.071443948,0.127564630,0.000000000,0.019264221,0.004396439,-1.872295380,0.000000000,0.001335144,0.039560318,-1.270321655,0.000000000,0.005912781,0.074726105,-0.074734497,0.000000000,0.055123329,-0.013187408,-3.150177002,0.000000000,0.003865715,-0.000001492,-0.396753011,0.000000000,0.000778025,-0.009056228,-0.048064744
0.109990086,-0.001107000,-0.004768372,-0.013187408,0.110138702,-0.000575000,0.003242493,-0.021978378,-2.017584229,-0.004914000,-0.005531311,-0.030769348,0.373617554,0.423628002,0.349241257,0.197801590,3.150177002,-0.400732994,-0.388716908,-0.035098623,-1.091085034,0.000000000,-0.002205079,-0.091843160,0.170223117,0.000000000,0.019264221,0.013187408,-1.652017975,0.000000000,0.001335144,-0.039560318,-0.821969604,0.000000000,0.005912781,0.074726105,-0.074734497,0.000000000,0.055123329,0.004396439,-3.589752197,0.000000000,0.003865715,0.004394816,-0.396753011,0.000000000,0.000778025,-0.000001059,-0.048064744
0.111989906,-0.001196000,-0.004768372,0.004396439,0.770939636,-0.000598000,0.003242493,-0.021978378,-0.971438599,-0.004873000,-0.005149841,0.013187408,-2.167025757,0.423586011,0.349622726,0.189010620,2.857147217,-0.400821000,-0.388907320,-0.043919203,-1.289534295,0.000000000,-0.002647846,-0.030643573,0.255370817,0.000000000,0.019264221,-0.013187408,-1.652017975,0.000000000,0.001335144,0.004396439,-1.120880127,0.000000000,0.005912781,0.057142258,-1.419790649,0.000000000,0.055123329,0.004396439,-3.589752197,0.000000000,0.003865715,-0.004390880,-0.396753011,0.000000000,0.000778025,0.018111550,-0.048064744
0.113989726,-0.001292000,-0.004768372,0.013187408,0.991217041,-0.000621000,0.003242493,0.021978378,-1.718673706,-0.004833000,-0.005149841,-0.013187408,-1.270321655,0.423541009,0.350004196,0.162637711,2.857147217,-0.400911003,-0.388907320,-0.017539759,-1.289534295,0.000000000,-0.002647846,-0.051028083,0.255370817,0.000000000,0.019264221,0.004396439,-2.092541504,0.000000000,0.001335144,0.004396439,-1.270321655,0.000000000,0.005531311,0.004396439,-0.373617554,0.000000000,0.055123329,-0.013187408,-3.150177002,0.000000000,0.003865715,0.008790170,-0.396729813,0.000000000,0.000778025,0.009052145,0.048195437
0.115989545,-0.001396000,-0.004768372,0.004396439,0.991217041,-0.000644000,0.003242493,0.021978378,-0.971438599,-0.004794000,-0.005149841,-0.030769348,0.074734497,0.423494011,0.350385666,0.180219650,3.003662109,-0.401001990,-0.388907320,-0.004394952,-1.388675100,0.000000000,-0.002647846,-0.000003692,0.212585917,0.000000000,0.019264221,0.013187408,-1.872295380,0.000000000,0.001335144,0.021978378,-0.672528076,0.000000000,0.005531311,-0.030769348,-1.868142700,0.000000000,0.055123329,0.004396439,-3.443237305,0.000000000,0.003865715,-0.004390880,-0.396753011,0.000000000,0.000778025,0.018111550,-0.048064744
0.117989365,-0.001506000,-0.004768372,-0.013187408,0.550662231,-0.000666000,0.003242493,-0.013187408,-2.316494751,-0.004755000,-0.005149841,0.039560318,-0.523086548,0.423446000,0.350767136,0.171428680,3.296691895,-0.401093990,-0.388907320,0.013168456,-1.289534295,0.000000000,-0.002647846,0.020415516,0.255370817,0.000000000,0.019264221,0.048351288,-1.652017975,0.000000000,0.001335144,-0.004396439,-0.224176025,0.000000000,0.005531311,-0.065933228,-1.718673706,0.000000000,0.055123329,0.004396439,-3.003662109,0.000000000,0.003865715,-0.004394816,-0.198393371,0.000000000,0.000778025,0.000001059,-0.048097416
0.119989185,-0.001622000,-0.004768372,-0.004396439,0.550662231,-0.000689000,0.003242493,-0.039560318,-1.120880127,-0.004716000,-0.005149841,0.048351288,0.373617554,0.423395991,0.351148605,0.189010620,2.857147217,-0.401185989,-0.388907320,-0.004422990,-1.289534295,0.000000000,-0.002647846,0.040807408,0.255370817,0.000000000,0.019264221,0.004396439,-1.652017975,0.000000000,0.001335144,0.030769348,-1.419790649,0.000000000,0.005531311,-0.004396439,-0.523086548,0.000000000,0.055123329,-0.004396439,-3.150177002,0.000000000,0.003865715,0.008787187,-0.297584790,0.000000000,0.000778025,-0.009056381,-0.096211171
0.121989005,-0.001742000,-0.004768372,0.013187408,0.770939636,-0.000711000,0.003242493,0.004396439,-1.419790649,-0.004678000,-0.005149841,-0.057142258,0.373617554,0.423345000,0.351530075,0.180219650,3.296691895,-0.401279002,-0.388716908,0.030722735,-1.289557872,0.000000000,-0.002205079,0.061230943,0.340974440,0.000000000,0.019264221,0.013187408,-1.652017975,0.000000000,0.001335144,0.013187408,-1.270321655,0.000000000,0.005531311,0.030769348,-1.270321655,0.000000000,0.055123329,0.004396439,-3.003662109,0.000000000,0.003865715,0.004399828,-0.297561592,0.000000000,0.000778025,0.036217958,0.000049011
0.123988824,-0.001865000,-0.004768372,0.013187408,0.330416107,-0.000733000,0.003242493,0.021978378,-1.419790649,-0.004641000,-0.005149841,-0.057142258,0.373617554,0.423292011,0.351911545,0.189010620,3.150177002,-0.401371002,-0.388716908,0.026321743,-1.289557872,0.000000000,-0.002205079,0.071431656,0.340974440,0.000000000,0.019264221,-0.004396439,-1.652017975,0.000000000,0.001335144,-0.074726105,-0.224176025,0.000000000,0.005531311,0.013187408,-1.270321655,0.000000000,0.055123329,0.013187408,-2.857147217,0.000000000,0.003865715,-0.008787187,-0.495921232,0.000000000,0.000778025,0.009056381,0.000081682
0.125988644,-0.001991000,-0.004768372,0.021978378,0.770939636,-0.000755000,0.003242493,-0.021978378,-1.868142700,-0.004603000,-0.005149841,0.030769348,-0.373617554,0.423238993,0.352293015,0.224176407,3.296691895,-0.401463002,-0.388716908,0.013157853,-1.190351325,0.000000000,-0.002205079,0.040817721,0.298315953,0.000000000,0.019264221,-0.004396439,-1.872295380,0.000000000,0.001335144,-0.030769348,-1.120880127,0.000000000,0.005531311,-0.030769348,-1.718673706,0.000000000,0.055123329,0.004396439,-3.296691895,0.000000000,0.003865715,0.013187554,-0.396753011,0.000000000,0.000778025,0.036215841,-0.048064744
0.127988464,-0.002119000,-0.004768372,0.004396439,0.770939636,-0.000776000,0.003242493,0.030769348,-1.120880127,-0.004567000,-0.005149841,0.004396439,-0.523086548,0.423184991,0.352674484,0.224176407,3.736267090,-0.401553005,-0.388716908,-0.000006038,-0.991997978,0.000000000,-0.002205079,0.010203786,0.298433329,0.000000000,0.019264221,0.013187408,-1.652017975,0.000000000,0.001335144,0.021978378,-1.270321655,0.000000000,0.005531311,-0.048351288,-0.523086548,0.000000000,0.055123329,0.004396439,-3.296691895,0.000000000,0.003865715,0.000001492,-0.396753011,0.000000000,0.000778025,0.009056228,-0.048064744
0.129988284,-0.002248000,-0.004768372,-0.013187408,0.110138702,-0.000797000,0.003242493,0.039560318,-1.569232178,-0.004530000,-0.005149841,0.004396439,-0.523086548,0.423130006,0.353055954,0.189010620,3.150177002,-0.401641995,-0.388716908,-0.004394954,-1.190351325,0.000000000,-0.002205079,-0.000003073,0.298315953,0.000000000,0.019264221,-0.004396439,-1.431740570,0.000000000,0.001335144,-0.118680954,-0.523086548,0.000000000,0.005531311,0.065933228,-0.672528076,0.000000000,0.055123329,-0.004396439,-3.443237305,0.000000000,0.003865715,0.000004474,-0.495921232,0.000000000,0.000778025,0.027164754,0.000081682
0.131988103,-0.002377000,-0.004768372,-0.004396439,0.110138702,-0.000818000,0.003242493,0.057142258,-1.419790649,-0.004494000,-0.005149841,0.065933228,0.224176025,0.423074991,0.353437424,0.206592560,3.150177002,-0.401730001,-0.388716908,-0.013182955,-1.289498126,0.000000000,-0.002205079,-0.000009219,0.255540090,0.000000000,0.019264221,-0.013187408,-1.431740570,0.000000000,0.001335144,0.039560318,-1.270321655,0.000000000,0.005531311,0.065933228,-0.672528076,0.000000000,0.055123329,0.004396439,-3.443237305,0.000000000,0.003865715,-0.004390880,-0.495921232,0.000000000,0.000778025,0.018111550,0.000081682
0.133987923,-0.002505000,-0.004768372,0.030769348,0.991217041,-0.000839000,0.003242493,-0.057142258,-1.569232178,-0.004458000,-0.005149841,0.021978378,0.373617554,0.423018992,0.353818893,0.197801590,3.003662109,-0.401814997,-0.388716908,-0.017582992,-1.190291580,0.000000000,-0.002205079,0.010189280,0.212881603,0.000000000,0.019264221,0.013187408,-2.312818909,0.000000000,0.001335144,-0.004396439,-0.821969604,0.000000000,0.005531311,-0.013187408,-1.868142700,0.000000000,0.055123329,0.013187408,-3.443237305,0.000000000,0.003865715,-0.004394816,-0.495944429,0.000000000,0.000778025,0.000001059,-0.096178499
0.135987743,-0.002641000,-0.004768372,0.030769348,0.770939636,-0.000858000,0.003242493,-0.057142258,-1.419790649,-0.004423000,-0.004768372,-0.004396439,-0.373617554,0.422962993,0.354200363,0.171428680,2.564117432,-0.401901007,-0.388716908,-0.013170881,-1.289498126,0.000000000,-0.002205079,-0.020412363,0.255540090,0.000000000,0.019264221,0.030769348,-2.312818909,0.000000000,0.001335144,-0.083517075,0.074734497,0.000000000,0.005531311,-0.021978378,-0.971438599,0.000000000,0.055123329,0.004396439,-3.003662109,0.000000000,0.003865715,-0.004394816,-0.396729813,0.000000000,0.000778025,0.000001059,0.048195437
0.137987563,-0.002788000,-0.004768372,-0.004396439,0.550662231,-0.000877000,0.003242493,-0.039560318,-1.868142700,-0.004387000,-0.004768372,0.021978378,-0.672528076,0.422904015,0.354581833,0.153846741,2.857147217,-0.401988000,-0.388716908,-0.008782917,-1.190291580,0.000000000,-0.002205079,-0.010207718,0.212881603,0.000000000,0.019264221,0.021978378,-2.092541504,0.000000000,0.001335144,0.013187408,-0.821969604,0.000000000,0.005531311,0.013187408,-1.270321655,0.000000000,0.055123329,-0.004396439,-3.443237305,0.000000000,0.003865715,0.008787187,-0.595112650,0.000000000,0.000778025,-0.009056381,-0.048032073
0.139987382,-0.002945000,-0.004768372,-0.004396439,0.550662231,-0.000895000,0.003242493,0.004396439,-2.465936279,-0.004352000,-0.004768372,-0.004396439,-0.373617554,0.422845006,0.354963303,0.145055771,3.296691895,-0.402076006,-0.388716908,-0.008806113,-1.289438381,0.000000000,-0.002205079,0.030600784,0.170105740,0.000000000,0.019264221,0.013187408,-1.652017975,0.000000000,0.001335144,0.039560318,-1.120880127,0.000000000,0.005531311,-0.065933228,-0.971438599,0.000000000,0.055123329,0.004396439,-3.443237305,0.000000000,0.003865715,0.004396846,-0.297584790,0.000000000,0.000778025,0.018109432,-0.096211171
0.141987202,-0.003109000,-0.004768372,0.004396439,0.330416107,-0.000912000,0.003242493,-0.021978378,-1.419790649,-0.004317000,-0.004768372,-0.039560318,-0.523086548,0.422782987,0.355344772,0.145055771,2.417572021,-0.402164996,-0.388716908,0.008757815,-1.190351325,0.000000000,-0.002205079,0.051016220,0.298315953,0.000000000,0.019264221,-0.004396439,-1.211463165,0.000000000,0.001335144,0.013187408,-1.718673706,0.000000000,0.005531311,0.004396439,-2.017584229,0.000000000,0.055123329,-0.004396439,-3.003662109,0.000000000,0.003865715,0.017577895,-0.396753011,0.000000000,0.000778025,0.009050027,-0.048064744
0.143987022,-0.003282000,-0.004768372,-0.004396439,0.550662231,-0.000929000,0.003242493,0.004396439,-1.868142700,-0.004282000,-0.004768372,-0.039560318,-0.523086548,0.422719985,0.355726242,0.136262894,2.857147217,-0.402253002,-0.388716908,0.008757815,-1.289557872,0.000000000,-0.002205079,0.051016220,0.340974440,0.000000000,0.019264221,-0.004396439,-1.872295380,0.000000000,0.001335144,0.004396439,0.821969604,0.000000000,0.005531311,0.004396439,-1.718673706,0.000000000,0.055123329,-0.013187408,-3.150177002,0.000000000,0.003865715,-0.008787187,-0.495921232,0.000000000,0.000778025,0.009056381,0.000081682
0.145986842,-0.003461000,-0.004768372,0.030769348,0.991217041,-0.000946000,0.003242493,-0.048351288,-2.316494751,-0.004247000,-0.004768372,0.074726105,0.074734497,0.422654986,0.355726242,0.145055771,2.564117432,-0.402341008,-0.388716908,-0.000006038,-1.289498126,0.000000000,-0.002205079,0.010203786,0.255540090,0.000000000,0.019264221,0.004396439,-1.872295380,0.000000000,0.001335144,0.013187408,-0.523086548,0.000000000,0.005531311,-0.039560318,-0.373617554,0.000000000,0.055123329,0.004396439,-3.736267090,0.000000000,0.003865715,-0.004387897,-0.495921232,0.000000000,0.000778025,0.036220076,0.000081682
0.147986661,-0.003645000,-0.004768372,-0.039560318,0.550662231,-0.000962000,0.003242493,-0.013187408,-1.120880127,-0.004213000,-0.004768372,0.048351288,-1.120880127,0.422589004,0.356107712,0.136262894,3.003662109,-0.402429014,-0.388716908,-0.008806113,-1.289438381,0.000000000,-0.002205079,0.030600784,0.170105740,0.000000000,0.019264221,0.030769348,-2.092541504,0.000000000,0.001335144,-0.013187408,-1.868142700,0.000000000,0.005531311,-0.021978378,-0.971438599,0.000000000,0.055123329,0.013187408,-3.150177002,0.000000000,0.003865715,0.008792200,-0.495921232,0.000000000,0.000778025,0.027162636,0.000081682
0.149986481,-0.003834000,-0.004768372,-0.030769348,0.770939636,-0.000979000,0.003242493,0.048351288,-1.569232178,-0.004180000,-0.004768372,0.057142258,-0.672528076,0.422520012,0.356107712,0.118680954,2.857147217,-0.402516007,-0.388716908,-0.008794991,-1.289498126,0.000000000,-0.002205079,0.010195426,0.255540090,0.000000000,0.019264221,0.030769348,-1.872295380,0.000000000,0.001335144,-0.004396439,-0.672528076,0.000000000,0.005531311,0.039560318,-2.316494751,0.000000000,0.055123329,0.004396439,-3.296691895,0.000000000,0.003865715,-0.004390880,-0.396776208,0.000000000,0.000778025,0.018111550,-0.144324926
0.151986301,-0.004026000,-0.004768372,-0.030769348,-0.110138702,-0.000996000,0.003242493,0.030769348,-0.672528076,-0.004147000,-0.004768372,0.048351288,-0.373617554,0.422450006,0.356489182,0.127471924,2.710632324,-0.402601004,-0.388716908,-0.004394954,-1.289438381,0.000000000,-0.002205079,-0.000003073,0.170105740,0.000000000,0.019264221,0.021978378,-2.092541504,0.000000000,0.001335144,-0.030769348,-1.270321655,0.000000000,0.005149841,-0.030769348,-1.270321655,0.000000000,0.055123329,-0.004396439,-3.150177002,0.000000000,0.003865715,-0.000001492,-0.396729813,0.000000000,0.000778025,-0.009056228,0.048195437
0.153986121,-0.004221000,-0.004768372,0.021978378,0.110138702,-0.001013000,0.003242493,0.004396439,-2.167025757,-0.004114000,-0.004768372,-0.083517075,0.224176025,0.422376990,0.356870651,0.136262894,2.857147217,-0.402684987,-0.388716908,-0.004406075,-1.487791728,0.000000000,-0.002205079,0.020402285,0.169988364,0.000000000,0.019264221,-0.013187408,-1.872295380,0.000000000,0.001335144,-0.048351288,-0.971438599,0.000000000,0.005149841,-0.030769348,-1.270321655,0.000000000,0.055123329,-0.004396439,-3.150177002,0.000000000,0.003865715,0.004394816,-0.495921232,0.000000000,0.000778025,-0.000001059,0.000081682
0.155985940,-0.004418000,-0.004768372,-0.048351288,0.330416107,-0.001031000,0.003242493,-0.004396439,-1.270321655,-0.004082000,-0.004768372,0.004396439,-0.821969604,0.422302991,0.356870651,0.136262894,3.296691895,-0.402767003,-0.388716908,-0.004394954,-1.289498126,0.000000000,-0.002205079,-0.000003073,0.255540090,0.000000000,0.019264221,-0.004396439,-2.092541504,0.000000000,0.001335144,0.030769348,-0.373617554,0.000000000,0.005149841,0.065933228,-1.569232178,0.000000000,0.055123329,-0.021978378,-3.150177002,0.000000000,0.003865715,0.004396846,-0.495944429,0.000000000,0.000778025,0.018109432,-0.096178499
0.157985760,-0.004616000,-0.004768372,-0.013187408,0.110138702,-0.001050000,0.003242493,-0.013187408,-1.718673706,-0.004051000,-0.004768372,-0.021978378,-0.821969604,0.422226995,0.357252121,0.136262894,2.857147217,-0.402846992,-0.388716908,-0.000006038,-1.289498126,0.000000000,-0.002205079,0.010203786,0.255540090,0.000000000,0.019264221,0.004396439,-1.652017975,0.000000000,0.001335144,0.048351288,-0.821969604,0.000000000,0.005149841,-0.083517075,-1.270321655,0.000000000,0.055123329,-0.013187408,-2.857147217,0.000000000,0.003865715,0.008790170,-0.495944429,0.000000000,0.000778025,0.009052145,-0.096178499
0.159985580,-0.004813000,-0.004768372,-0.013187408,0.330416107,-0.001069000,0.003242493,-0.030769348,-1.569232178,-0.004021000,-0.004768372,0.021978378,-0.373617554,0.422147989,0.357633591,0.136262894,3.003662109,-0.402925014,-0.388716908,0.004394954,-1.388644927,0.000000000,-0.002205079,0.000003073,0.212764227,0.000000000,0.019264221,0.021978378,-1.872295380,0.000000000,0.001335144,0.030769348,-0.821969604,0.000000000,0.005149841,0.004396439,-1.419790649,0.000000000,0.055123329,0.004396439,-2.857147217,0.000000000,0.003865715,-0.008787187,-0.297584790,0.000000000,0.000778025,0.009056381,-0.096211171
0.161985400,-0.005009000,-0.004768372,0.013187408,-0.330416107,-0.001090000,0.003242493,0.013187408,-1.718673706,-0.003991000,-0.004768372,-0.004396439,-0.373617554,0.422066987,0.357633591,0.109889984,3.150177002,-0.402999014,-0.388716908,-0.004406075,-1.289438381,0.000000000,-0.002205079,0.020402285,0.170105740,0.000000000,0.019264221,-0.013187408,-1.431740570,0.000000000,0.001335144,-0.039560318,-0.821969604,0.000000000,0.005149841,0.021978378,-1.270321655,0.000000000,0.055123329,0.004396439,-3.150177002,0.000000000,0.003865715,0.013185524,-0.297584790,0.000000000,0.000778025,0.018105350,-0.096211171
0.163985219,-0.005203000,-0.004768372,0.021978378,0.770939636,-0.001112000,0.003242493,-0.004396439,-1.419790649,-0.003963000,-0.004768372,0.004396439,-1.270321655,0.421983987,0.358015060,0.127471924,3.589752197,-0.403070003,-0.388716908,0.004369852,-1.388644927,0.000000000,-0.002205079,0.040811575,0.212764227,0.000000000,0.019264221,0.004396439,-2.092541504,0.000000000,0.001335144,-0.065933228,-1.569232178,0.000000000,0.005149841,0.004396439,-0.672528076,0.000000000,0.055123329,-0.013187408,-3.589752197,0.000000000,0.003865715,0.000001492,-0.396753011,0.000000000,0.000778025,0.009056228,-0.048064744
0.165985039,-0.005393000,-0.004768372,0.013187408,0.330416107,-0.001135000,0.003242493,-0.074726105,-1.569232178,-0.003935000,-0.004768372,0.004396439,-1.270321655,0.421898991,0.358396530,0.127471924,3.003662109,-0.403138012,-0.388716908,0.017570918,-1.487851474,0.000000000,-0.002205079,0.010213864,0.255422714,0.000000000,0.019264221,0.004396439,-1.652017975,0.000000000,0.001335144,0.074726105,-0.821969604,0.000000000,0.005149841,0.048351288,-1.120880127,0.000000000,0.055123329,0.004396439,-3.443237305,0.000000000,0.003865715,-0.004390880,-0.198394438,0.000000000,0.000778025,0.018111550,-0.144368342
0.167984859,-0.005581000,-0.004768372,-0.004396439,0.770939636,-0.001160000,0.003242493,-0.004396439,-2.615377808,-0.003908000,-0.004768372,0.030769348,-1.270321655,0.421810001,0.358396530,0.118680954,2.710632324,-0.403203011,-0.388716908,0.004381925,-1.487851474,0.000000000,-0.002205079,0.020408431,0.255422714,0.000000000,0.019264221,-0.013187408,-2.312818909,0.000000000,0.001335144,-0.004396439,-0.523086548,0.000000000,0.005149841,0.013187408,-1.419790649,0.000000000,0.055123329,0.004396439,-3.003662109,0.000000000,0.003865715,-0.008787187,-0.297561592,0.000000000,0.000778025,0.009056381,0.000049011
0.169984679,-0.005771000,-0.004768372,0.004396439,0.330416107,-0.001188000,0.003242493,-0.057142258,-1.569232178,-0.003882000,-0.004768372,-0.039560318,0.224176025,0.421716988,0.358778000,0.145055771,3.150177002,-0.403266996,-0.388716908,0.008794991,-1.289498126,0.000000000,-0.002205079,-0.010195426,0.255540090,0.000000000,0.019264221,-0.004396439,-1.872295380,0.000000000,0.001335144,-0.101099014,-0.373617554,0.000000000,0.005149841,0.013187408,-1.120880127,0.000000000,0.055123329,0.004396439,-3.443237305,0.000000000,0.003865715,0.000004474,-0.396753011,0.000000000,0.000778025,0.027164754,-0.048064744
0.171984498,-0.005962000,-0.004768372,0.030769348,-0.110138702,-0.001217000,0.003242493,0.065933228,-1.868142700,-0.003856000,-0.004768372,0.030769348,0.373617554,0.421618998,0.359159470,0.153846741,2.857147217,-0.403329998,-0.388716908,-0.013182955,-1.487851474,0.000000000,-0.002205079,-0.000009219,0.255422714,0.000000000,0.019264221,-0.004396439,-1.872295380,0.000000000,0.001335144,0.039560318,-0.821969604,0.000000000,0.005149841,-0.004396439,-0.971438599,0.000000000,0.055123329,-0.004396439,-2.857147217,0.000000000,0.003865715,-0.008787187,-0.495944429,0.000000000,0.000778025,0.009056381,-0.096178499
0.173984318,-0.006154000,-0.004768372,0.004396439,0.110138702,-0.001248000,0.003242493,0.004396439,-1.868142700,-0.003831000,-0.004386902,0.039560318,-0.971438599,0.421516001,0.359540939,0.145055771,3.150177002,-0.403391987,-0.388716908,-0.004381925,-1.487851474,0.000000000,-0.002205079,-0.020408431,0.255422714,0.000000000,0.019264221,0.013187408,-1.652017975,0.000000000,0.001335144,-0.039560318,-1.569232178,0.000000000,0.005149841,-0.030769348,-0.523086548,0.000000000,0.055123329,0.004396439,-2.710632324,0.000000000,0.003865715,0.008790170,-0.198394438,0.000000000,0.000778025,0.009052145,-0.144368342
0.175984138,-0.006348000,-0.004768372,-0.013187408,-0.110138702,-0.001281000,0.003242493,-0.004396439,-1.569232178,-0.003806000,-0.004386902,-0.013187408,0.074734497,0.421409994,0.359540939,0.145055771,3.150177002,-0.403452992,-0.388716908,-0.000018112,-1.487851474,0.000000000,-0.002205079,0.030606930,0.255422714,0.000000000,0.019264221,0.021978378,-1.872295380,0.000000000,0.001335144,0.039560318,-0.074734497,0.000000000,0.005149841,-0.030769348,-0.523086548,0.000000000,0.055123329,0.013187408,-3.150177002,0.000000000,0.003865715,0.004394816,-0.198394438,0.000000000,0.000778025,-0.000001059,-0.144368342
0.177983957,-0.006543000,-0.004768372,0.021978378,-0.110138702,-0.001316000,0.003242493,-0.039560318,-1.718673706,-0.003782000,-0.004386902,-0.013187408,-0.224176025,0.421299011,0.359922409,0.153846741,3.296691895,-0.403513014,-0.388716908,-0.004381925,-1.487851474,0.000000000,-0.002205079,-0.020408431,0.255422714,0.000000000,0.019264221,0.004396439,-1.872295380,0.000000000,0.001335144,-0.004396439,-0.672528076,0.000000000,0.005149841,0.065933228,-2.316494751,0.000000000,0.055123329,-0.013187408,-3.150177002,0.000000000,0.003865715,0.008790170,-0.297584790,0.000000000,0.000778025,0.009052145,-0.096211171
0.179983777,-0.006739000,-0.004768372,0.030769348,0.110138702,-0.001351000,0.003242493,0.004396439,-1.270321655,-0.003758000,-0.004386902,-0.030769348,-1.120880127,0.421186000,0.360303879,0.145055771,3.003662109,-0.403571993,-0.388716908,-0.004406075,-1.487851474,0.000000000,-0.002205079,0.020402285,0.255422714,0.000000000,0.019264221,0.021978378,-1.872295380,0.000000000,0.001335144,-0.048351288,-0.373617554,0.000000000,0.005149841,-0.083517075,-1.120880127,0.000000000,0.055123329,-0.013187408,-3.296691895,0.000000000,0.003865715,0.013185524,-0.396753011,0.000000000,0.000778025,0.018105350,-0.048064744
0.181983597,-0.006935000,-0.004768372,0.030769348,-0.110138702,-0.001388000,0.003242493,0.004396439,-0.821969604,-0.003735000,-0.004386902,-0.057142258,-0.074734497,0.421068996,0.360303879,0.136262894,2.857147217,-0.403629005,-0.388716908,-0.004406075,-1.587080159,0.000000000,-0.002205079,0.020402285,0.298090720,0.000000000,0.019264221,0.030769348,-1.872295380,0.000000000,0.001335144,-0.013187408,-0.971438599,0.000000000,0.005149841,-0.048351288,-2.167025757,0.000000000,0.055123329,0.004396439,-3.150177002,0.000000000,0.003865715,0.000004474,-0.595089453,0.000000000,0.000778025,0.027164754,0.048228108
0.183983417,-0.007133000,-0.004768372,-0.021978378,0.330416107,-0.001426000,0.003242493,-0.013187408,-2.167025757,-0.003712000,-0.004386902,0.039560318,-0.074734497,0.420949012,0.360685349,0.118680954,2.710632324,-0.403683990,-0.388716908,-0.004394954,-1.487851474,0.000000000,-0.002205079,-0.000003073,0.255422714,0.000000000,0.019264221,-0.004396439,-1.872295380,0.000000000,0.001335144,0.030769348,0.672528076,0.000000000,0.005149841,0.048351288,-1.270321655,0.000000000,0.055123329,0.004396439,-3.003662109,0.000000000,0.003865715,-0.004390880,-0.396729813,0.000000000,0.000778025,0.018111550,0.048195437
0.185983236,-0.007330000,-0.004768372,0.039560318,0.110138702,-0.001465000,0.003242493,0.030769348,-1.419790649,-0.003689000,-0.004386902,0.101099014,0.672528076,0.420828015,0.361066818,0.109889984,3.150177002,-0.403737992,-0.388716908,-0.000006038,-1.487851474,0.000000000,-0.002205079,0.010203786,0.255422714,0.000000000,0.019264221,-0.013187408,-1.872295380,0.000000000,0.001335144,-0.004396439,-0.672528076,0.000000000,0.005149841,-0.048351288,-1.569232178,0.000000000,0.055123329,-0.004396439,-3.589752197,0.000000000,0.003865715,0.000001492,-0.099203020,0.000000000,0.000778025,0.009056228,-0.096254587
0.187983056,-0.007529000,-0.004768372,0.004396439,0.110138702,-0.001505000,0.003242493,0.039560318,-1.718673706,-0.003667000,-0.004386902,-0.057142258,-0.373617554,0.420704007,0.361066818,0.101099014,3.736267090,-0.403789014,-0.388716908,0.004381925,-1.586998275,0.000000000,-0.002205079,0.020408431,0.212646851,0.000000000,0.019264221,0.004396439,-1.652017975,0.000000000,0.001335144,0.030769348,-0.821969604,0.000000000,0.005149841,0.039560318,-1.868142700,0.000000000,0.055123329,-0.004396439,-2.857147217,0.000000000,0.003865715,0.008790170,-0.396729813,0.000000000,0.000778025,0.009052145,0.048195437
0.189982876,-0.007727000,-0.004768372,-0.030769348,0.550662231,-0.001545000,0.003242493,0.004396439,-1.419790649,-0.003646000,-0.004386902,-0.057142258,-0.373617554,0.420578003,0.361448288,0.074726105,3.150177002,-0.403838009,-0.388716908,-0.004418149,-1.586998275,0.000000000,-0.002205079,0.040805429,0.212646851,0.000000000,0.019264221,0.004396439,-1.431740570,0.000000000,0.001335144,-0.004396439,-0.523086548,0.000000000,0.005149841,-0.004396439,-1.569232178,0.000000000,0.055123329,-0.021978378,-3.296691895,0.000000000,0.003865715,0.000001492,-0.396776208,0.000000000,0.000778025,0.009056228,-0.144324926
0.191982696,-0.007925000,-0.004768372,0.013187408,0.110138702,-0.001586000,0.002861023,-0.013187408,-0.821969604,-0.003624000,-0.004386902,0.013187408,-0.224176025,0.420450985,0.361448288,0.074726105,3.003662109,-0.403885007,-0.388716908,-0.008794991,-1.487851474,0.000000000,-0.002205079,0.010195426,0.255422714,0.000000000,0.019264221,-0.004396439,-2.092541504,0.000000000,0.001335144,-0.039560318,-0.672528076,0.000000000,0.005149841,-0.057142258,-2.764846802,0.000000000,0.055123329,-0.013187408,-3.443237305,0.000000000,0.003865715,0.004394816,-0.396753011,0.000000000,0.000778025,-0.000001059,-0.048064744
0.193982515,-0.008124000,-0.004768372,-0.013187408,-0.770939636,-0.001626000,0.003242493,-0.004396439,-2.167025757,-0.003603000,-0.004386902,0.004396439,-1.120880127,0.420323998,0.361829758,0.065933228,3.003662109,-0.403928995,-0.388716908,-0.004406075,-1.487851474,0.000000000,-0.002205079,0.020402285,0.255422714,0.000000000,0.019264221,-0.021978378,-2.092541504,0.000000000,0.001335144,-0.004396439,-0.821969604,0.000000000,0.005149841,-0.013187408,-1.569232178,0.000000000,0.055123329,-0.013187408,-3.443237305,0.000000000,0.003865715,-0.008787187,-0.396753011,0.000000000,0.000778025,0.009056381,-0.048064744
0.195982335,-0.008321000,-0.004768372,0.013187408,-0.770939636,-0.001667000,0.003242493,-0.004396439,-1.569232178,-0.003583000,-0.004386902,0.039560318,0.373617554,0.420195013,0.361829758,0.065933228,3.003662109,-0.403970987,-0.388716908,0.004394954,-1.487851474,0.000000000,-0.002205079,0.000003073,0.255422714,0.000000000,0.019264221,0.021978378,-2.092541504,0.000000000,0.001335144,0.004396439,-0.821969604,0.000000000,0.005149841,-0.039560318,-2.764846802,0.000000000,0.055123329,-0.013187408,-3.150177002,0.000000000,0.003865715,0.004394816,-0.297561592,0.000000000,0.000778025,-0.000001059,0.000049011
0.197982155,-0.008519000,-0.004768372,-0.021978378,-0.110138702,-0.001707000,0.002861023,-0.013187408,-1.120880127,-0.003562000,-0.004386902,-0.004396439,-1.120880127,0.420065999,0.361829758,0.083517075,3.150177002,-0.404009014,-0.388716908,0.008782917,-1.487851474,0.000000000,-0.002205079,0.010207718,0.255422714,0.000000000,0.019264221,-0.021978378,-1.872295380,0.000000000,0.001335144,0.030769348,-0.074734497,0.000000000,0.005149841,-0.039560318,-2.764846802,0.000000000,0.055123329,0.004396439,-3.150177002,0.000000000,0.003865715,-0.004396846,-0.297561592,0.000000000,0.000778025,-0.018109432,0.000049011
0.199981975,-0.008716000,-0.004768372,-0.039560318,-0.330416107,-0.001748000,0.003242493,0.004396439,-2.167025757,-0.003542000,-0.004386902,-0.065933228,-0.373617554,0.419937998,0.362211227,0.074726105,2.857147217,-0.404044986,-0.388716908,-0.000018112,-1.487851474,0.000000000,-0.002205079,0.030606930,0.255422714,0.000000000,0.019264221,0.004396439,-1.652017975,0.000000000,0.001335144,0.013187408,-0.821969604,0.000000000,0.005149841,-0.004396439,-0.672528076,0.000000000,0.055123329,-0.013187408,-3.150177002,0.000000000,0.003865715,-0.008787187,-0.495921232,0.000000000,0.000778025,0.009056381,0.000081682
0.201981794,-0.008910000,-0.004768372,0.004396439,-0.330416107,-0.001789000,0.002861023,-0.021978378,-1.419790649,-0.003521000,-0.004386902,0.004396439,-0.373617554,0.419806987,0.362211227,0.065933228,2.857147217,-0.404076993,-0.388716908,-0.013195028,-1.586998275,-0.000001000,-0.002205079,0.020393925,0.212646851,0.000000000,0.019264221,-0.021978378,-1.652017975,0.000000000,0.001335144,0.039560318,-0.373617554,0.000000000,0.005149841,-0.004396439,-1.270321655,0.000000000,0.055123329,-0.004396439,-3.296691895,0.000000000,0.003865715,0.008787187,-0.495921232,0.000000000,0.000778025,-0.009056381,0.000081682
0.203981614,-0.009102000,-0.004768372,0.030769348,-0.550662231,-0.001833000,0.002861023,0.030769348,-1.569232178,-0.003500000,-0.004386902,0.057142258,-0.224176025,0.419672012,0.362211227,0.074726105,3.296691895,-0.404105991,-0.388716908,-0.004406075,-1.487851474,-0.000002000,-0.002205079,0.020402285,0.255422714,0.000000000,0.019264221,0.004396439,-2.312818909,0.000000000,0.001335144,0.039560318,-1.419790649,0.000000000,0.005149841,-0.048351288,-1.868142700,0.000000000,0.055123329,-0.004396439,-3.150177002,0.000000000,0.003865715,-0.008787187,-0.495921232,0.000000000,0.000778025,0.009056381,0.000081682
0.205981434,-0.009292000,-0.004768372,0.004396439,-0.330416107,-0.001880000,0.002861023,-0.004396439,-1.569232178,-0.003479000,-0.004386902,-0.013187408,-0.373617554,0.419533014,0.362592697,0.065933228,2.857147217,-0.404132009,-0.388716908,-0.000006038,-1.487851474,-0.000004000,-0.002205079,0.010203786,0.255422714,0.000000000,0.019264221,0.004396439,-1.652017975,0.000000000,0.001335144,-0.039560318,-0.821969604,0.000000000,0.005149841,0.039560318,-2.017584229,0.000000000,0.055123329,-0.004396439,-3.150177002,0.000000000,0.003865715,0.000004474,-0.495921232,0.000000000,0.000778025,0.027164754,0.000081682
0.207981254,-0.009480000,-0.004768372,0.004396439,0.110138702,-0.001928000,0.002861023,-0.013187408,-1.120880127,-0.003457000,-0.004386902,-0.013187408,-0.373617554,0.419391990,0.362592697,0.074726105,2.857147217,-0.404155999,-0.388716908,-0.004406075,-1.487851474,-0.000008000,-0.002205079,0.020402285,0.255422714,0.000000000,0.019264221,-0.013187408,-2.092541504,0.000000000,0.001335144,0.013187408,-0.074734497,0.000000000,0.005149841,-0.004396439,-0.821969604,0.000000000,0.055123329,-0.013187408,-3.150177002,0.000000000,0.003865715,0.004394816,-0.495944429,0.000000000,0.000778025,-0.000001059,-0.096178499
0.209981073,-0.009667000,-0.004768372,0.004396439,0.110138702,-0.001977000,0.002861023,-0.057142258,-1.120880127,-0.003434000,-0.004386902,-0.021978378,-0.074734497,0.419247001,0.362974167,0.074726105,2.710632324,-0.404177994,-0.388716908,0.004381925,-1.487851474,-0.000012000,-0.002205079,0.020408431,0.255422714,0.000000000,0.019264221,0.004396439,-1.872295380,0.000000000,0.001335144,0.004396439,-1.120880127,0.000000000,0.005149841,-0.021978378,-1.419790649,0.000000000,0.055123329,0.004396439,-3.150177002,0.000000000,0.003865715,-0.008787187,-0.396776208,0.000000000,0.000778025,0.009056381,-0.144324926
0.211980893,-0.009854000,-0.004768372,0.030769348,-0.330416107,-0.002027000,0.002861023,-0.030769348,-2.764846802,-0.003413000,-0.004386902,0.013187408,-0.523086548,0.419101000,0.362974167,0.083517075,2.857147217,-0.404199004,-0.388716908,-0.000006038,-1.487791728,-0.000018000,-0.002205079,0.010203786,0.169988364,0.000000000,0.019264221,0.004396439,-1.872295380,0.000000000,0.001335144,-0.013187408,-0.821969604,0.000000000,0.005149841,0.039560318,-1.868142700,0.000000000,0.055123329,-0.004396439,-3.296691895,0.000000000,0.003865715,0.004396846,-0.297538395,0.000000000,0.000778025,0.018109432,0.096309192
0.213980713,-0.010042000,-0.004768372,0.021978378,-0.110138702,-0.002077000,0.002861023,-0.004396439,-1.569232178,-0.003391000,-0.004386902,-0.013187408,-0.373617554,0.418951988,0.362974167,0.074726105,2.710632324,-0.404217988,-0.388716908,0.004394954,-1.686145076,-0.000024000,-0.002205079,0.000003073,0.169870988,0.000000000,0.019264221,0.030769348,-1.652017975,0.000000000,0.001335144,-0.004396439,-0.971438599,0.000000000,0.005149841,-0.039560318,-1.718673706,0.000000000,0.055123329,0.004396439,-3.296691895,0.000000000,0.003865715,0.008790170,-0.495921232,0.000000000,0.000778025,0.009052145,0.000081682
0.215980533,-0.010230000,-0.004768372,0.030769348,0.330416107,-0.002127000,0.002861023,-0.057142258,-1.718673706,-0.003370000,-0.004386902,-0.013187408,0.523086548,0.418803006,0.363355637,0.092308044,2.710632324,-0.404237986,-0.388716908,-0.000006038,-1.487851474,-0.000031000,-0.002205079,0.010203786,0.255422714,0.000000000,0.019264221,0.004396439,-1.872295380,0.000000000,0.001335144,0.013187408,-0.821969604,0.000000000,0.005149841,-0.039560318,-1.718673706,0.000000000,0.055123329,0.004396439,-3.003662109,0.000000000,0.003865715,0.008790170,-0.396729813,0.000000000,0.000778025,0.009052145,0.048195437
0.217980352,-0.010420000,-0.004768372,-0.004396439,-0.550662231,-0.002177000,0.002861023,-0.030769348,-1.718673706,-0.003350000,-0.004386902,0.021978378,0.224176025,0.418653011,0.363355637,0.083517075,2.564117432,-0.404256999,-0.388716908,-0.017595065,-1.586998275,-0.000039000,-0.002205079,0.030592425,0.212646851,0.000000000,0.019264221,0.004396439,-1.872295380,0.000000000,0.001335144,-0.065933228,-0.821969604,0.000000000,0.005149841,0.004396439,-1.270321655,0.000000000,0.055123329,0.004396439,-3.150177002,0.000000000,0.003865715,-0.008787187,-0.297584790,0.000000000,0.000778025,0.009056381,-0.096211171
0.219980172,-0.010613000,-0.004768372,0.004396439,-0.110138702,-0.002226000,0.002861023,0.021978378,-1.419790649,-0.003331000,-0.004005432,0.039560318,-0.074734497,0.418502986,0.363737106,0.083517075,2.857147217,-0.404278010,-0.388716908,0.004381925,-1.487851474,-0.000047000,-0.002205079,0.020408431,0.255422714,0.000000000,0.019264221,-0.021978378,-1.872295380,0.000000000,0.001335144,-0.004396439,-1.419790649,0.000000000,0.005149841,0.021978378,-1.270321655,0.000000000,0.055123329,0.013187408,-2.857147217,0.000000000,0.003865715,0.004394816,-0.297561592,0.000000000,0.000778025,-0.000001059,0.000049011
0.221979992,-0.010808000,-0.004768372,-0.021978378,-0.330416107,-0.002273000,0.002861023,0.013187408,-0.821969604,-0.003313000,-0.004005432,0.048351288,-0.373617554,0.418352991,0.363737106,0.065933228,2.857147217,-0.404298991,-0.388716908,-0.008794991,-1.586998275,-0.000057000,-0.002205079,0.010195426,0.212646851,0.000000000,0.019264221,0.004396439,-1.872295380,0.000000000,0.001335144,-0.030769348,0.074734497,0.000000000,0.005149841,0.004396439,-0.821969604,0.000000000,0.055123329,0.004396439,-3.296691895,0.000000000,0.003865715,-0.008790170,-0.297561592,0.000000000,0.000778025,-0.009052145,0.000049011
0.223979812,-0.011007000,-0.004768372,-0.013187408,-0.330416107,-0.002319000,0.002861023,0.048351288,-2.167025757,-0.003296000,-0.004005432,-0.030769348,-0.224176025,0.418204010,0.363737106,0.065933228,2.857147217,-0.404321015,-0.388716908,0.004381925,-1.586998275,-0.000067000,-0.002205079,0.020408431,0.212646851,0.000000000,0.019264221,0.021978378,-2.092541504,0.000000000,0.001335144,-0.004396439,-0.971438599,0.000000000,0.005149841,0.013187408,-1.569232178,0.000000000,0.055123329,-0.013187408,-2.857147217,0.000000000,0.003865715,-0.008783251,-0.396753011,0.000000000,0.000778025,0.027166872,-0.048064744
0.225979631,-0.011210000,-0.004768372,-0.004396439,-0.330416107,-0.002362000,0.002861023,-0.109889984,-1.718673706,-0.003282000,-0.004005432,-0.030769348,-0.224176025,0.418056995,0.364118576,0.048351288,2.857147217,-0.404345989,-0.388716908,0.004381925,-1.586998275,-0.000079000,-0.002205079,0.020408431,0.212646851,0.000000000,0.019264221,0.030769348,-1.872295380,0.000000000,0.001335144,0.030769348,-1.120880127,0.000000000,0.005149841,-0.004396439,-1.270321655,0.000000000,0.055123329,0.004396439,-3.150177002,0.000000000,0.003865715,0.004394816,-0.297561592,0.000000000,0.000778025,-0.000001059,0.000049011
0.227979451,-0.011419000,-0.004768372,0.039560318,-0.110138702,-0.002402000,0.002861023,-0.039560318,-1.270321655,-0.003269000,-0.004386902,0.021978378,0.821969604,0.417910993,0.364118576,0.039560318,3.003662109,-0.404372990,-0.388716908,-0.013182955,-1.487791728,-0.000091000,-0.002205079,-0.000009219,0.169988364,0.000000000,0.019264221,-0.013187408,-2.092541504,0.000000000,0.001335144,-0.030769348,-1.120880127,0.000000000,0.005149841,0.021978378,-2.167025757,0.000000000,0.055123329,0.013187408,-3.443237305,0.000000000,0.003865715,-0.004394816,-0.396753011,0.000000000,0.000778025,0.000001059,-0.048064744
0.229979271,-0.011632000,-0.004768372,-0.021978378,-0.330416107,-0.002439000,0.002861023,0.021978378,-2.167025757,-0.003258000,-0.004386902,-0.004396439,0.373617554,0.417768002,0.364500046,0.065933228,2.710632324,-0.404404014,-0.388716908,-0.004394954,-1.587080159,-0.000103000,-0.002205079,-0.000003073,0.298090720,0.000000000,0.019264221,-0.021978378,-1.431740570,0.000000000,0.001335144,-0.030769348,-0.821969604,0.000000000,0.005149841,-0.013187408,-1.868142700,0.000000000,0.055123329,0.004396439,-2.857147217,0.000000000,0.003865715,-0.004394816,-0.396753011,0.000000000,0.000778025,0.000001059,-0.048064744
0.231979091,-0.011852000,-0.005149841,-0.030769348,-0.550662231,-0.002473000,0.002861023,-0.048351288,-1.868142700,-0.003249000,-0.004005432,0.057142258,-0.971438599,0.417627007,0.364500046,0.074726105,2.857147217,-0.404437006,-0.388716908,-0.000006038,-1.487851474,-0.000117000,-0.002205079,0.010203786,0.255422714,0.000000000,0.019264221,0.030769348,-1.431740570,0.000000000,0.001335144,-0.039560318,-1.419790649,0.000000000,0.005149841,-0.013187408,-2.465936279,0.000000000,0.055123329,0.013187408,-3.003662109,0.000000000,0.003865715,-0.004394816,-0.297561592,0.000000000,0.000778025,0.000001059,0.000049011
0.233978910,-0.012080000,-0.005149841,0.004396439,-0.110138702,-0.002502000,0.002861023,-0.048351288,-2.017584229,-0.003243000,-0.004005432,-0.013187408,0.971438599,0.417490005,0.364500046,0.065933228,3.150177002,-0.404475003,-0.388716908,0.013195028,-1.586998275,-0.000132000,-0.002205079,-0.020393925,0.212646851,0.000000000,0.019264221,0.004396439,-1.872295380,0.000000000,0.001335144,-0.030769348,-0.523086548,0.000000000,0.005149841,-0.013187408,-2.465936279,0.000000000,0.055123329,-0.004396439,-3.443237305,0.000000000,0.003865715,0.004396846,-0.297561592,0.000000000,0.000778025,0.018109432,0.000049011
0.235978730,-0.012321000,-0.005149841,-0.030769348,0.110138702,-0.002531000,0.002861023,-0.013187408,-2.316494751,-0.003238000,-0.004386902,-0.065933228,-0.224176025,0.417353988,0.364881516,0.065933228,2.857147217,-0.404518992,-0.388716908,-0.008782917,-1.586998275,-0.000160000,-0.002205079,-0.010207718,0.212646851,0.000000000,0.019264221,0.013187408,-1.872295380,0.000000000,0.001335144,0.021978378,-0.971438599,0.000000000,0.005149841,-0.013187408,-1.270321655,0.000000000,0.055123329,0.004396439,-3.150177002,0.000000000,0.003865715,0.004396846,-0.198393371,0.000000000,0.000778025,0.018109432,-0.048097416
0.237978550,-0.012576000,-0.005149841,-0.021978378,-0.550662231,-0.002560000,0.002479553,-0.092308044,-1.718673706,-0.003233000,-0.004005432,0.065933228,0.224176025,0.417219996,0.364881516,0.048351288,2.710632324,-0.404569000,-0.388716908,0.004394954,-1.487851474,-0.000205000,-0.002205079,0.000003073,0.255422714,0.000000000,0.019264221,-0.021978378,-1.872295380,0.000000000,0.001335144,-0.004396439,-0.971438599,0.000000000,0.005149841,-0.039560318,-2.017584229,0.000000000,0.055123329,-0.013187408,-3.296691895,0.000000000,0.003865715,0.000001492,-0.297561592,0.000000000,0.000778025,0.009056228,0.000049011
0.239978370,-0.012842000,-0.005149841,0.004396439,-0.770939636,-0.002590000,0.002479553,-0.074726105,-1.718673706,-0.003228000,-0.004005432,-0.004396439,-0.224176025,0.417086989,0.364881516,0.048351288,2.564117432,-0.404624999,-0.388716908,0.004381925,-1.487851474,-0.000265000,-0.002205079,0.020408431,0.255422714,0.000000000,0.019264221,-0.013187408,-1.872295380,0.000000000,0.001335144,-0.021978378,-0.373617554,0.000000000,0.005149841,-0.048351288,-1.569232178,0.000000000,0.055123329,0.004396439,-3.296691895,0.000000000,0.003865715,-0.004387897,-0.396753011,0.000000000,0.000778025,0.036220076,-0.048064744
0.241978189,-0.013119000,-0.005149841,0.004396439,-0.110138702,-0.002619000,0.002479553,-0.013187408,-2.017584229,-0.003223000,-0.004386902,-0.074726105,0.523086548,0.416954011,0.364881516,0.039560318,2.857147217,-0.404686987,-0.388716908,-0.008806113,-1.586998275,-0.000339000,-0.002205079,0.030600784,0.212646851,0.000000000,0.019264221,0.004396439,-2.092541504,0.000000000,0.001335144,0.013187408,-0.523086548,0.000000000,0.005149841,0.030769348,-1.718673706,0.000000000,0.055123329,-0.004396439,-3.150177002,0.000000000,0.003865715,-0.017577895,-0.495921232,0.000000000,0.000778025,-0.009050027,0.000081682
0.243978009,-0.013403000,-0.005149841,-0.030769348,-0.330416107,-0.002647000,0.002479553,0.013187408,-2.017584229,-0.003218000,-0.004386902,0.039560318,0.373617554,0.416823000,0.365262985,0.030769348,3.296691895,-0.404754013,-0.388716908,-0.008782917,-1.586998275,-0.000428000,-0.002205079,-0.010207718,0.212646851,0.000000000,0.019264221,0.013187408,-1.872295380,0.000000000,0.001335144,0.030769348,-0.672528076,0.000000000,0.005149841,-0.065933228,-0.971438599,0.000000000,0.055123329,0.004396439,-3.003662109,0.000000000,0.003865715,0.004396846,-0.495921232,0.000000000,0.000778025,0.018109432,0.000081682
0.245977829,-0.013692000,-0.005149841,0.030769348,-0.550662231,-0.002675000,0.002479553,-0.048351288,-1.569232178,-0.003214000,-0.004386902,0.039560318,-0.373617554,0.416691989,0.365262985,0.013187408,2.710632324,-0.404826999,-0.388716908,0.004381925,-1.487851474,-0.000529000,-0.002205079,0.020408431,0.255422714,0.000000000,0.019264221,0.013187408,-2.092541504,0.000000000,0.001335144,0.021978378,-1.270321655,0.000000000,0.005149841,0.004396439,-1.419790649,0.000000000,0.055123329,-0.021978378,-3.296691895,0.000000000,0.003865715,0.000001492,-0.396753011,0.000000000,0.000778025,0.009056228,-0.048064744
0.247977649,-0.013985000,-0.005149841,0.030769348,-0.550662231,-0.002702000,0.002479553,-0.013187408,-1.569232178,-0.003210000,-0.004386902,-0.004396439,1.120880127,0.416561991,0.365262985,-0.013187408,3.003662109,-0.404904991,-0.388716908,0.004394954,-1.686226960,-0.000643000,-0.002205079,0.000003073,0.255314857,0.000000000,0.019264221,-0.004396439,-1.652017975,0.000000000,0.001335144,0.004396439,-0.971438599,0.000000000,0.005149841,0.057142258,-1.569232178,0.000000000,0.055123329,0.004396439,-3.003662109,0.000000000,0.003865715,-0.008787187,-0.396753011,0.000000000,0.000778025,0.009056381,-0.048064744
0.249977468,-0.014279000,-0.005149841,0.030769348,-0.110138702,-0.002727000,0.002479553,-0.030769348,-1.868142700,-0.003206000,-0.004386902,-0.004396439,1.120880127,0.416433007,0.365262985,-0.004396439,3.003662109,-0.404987007,-0.388716908,-0.004406075,-1.586998275,-0.000769000,-0.002205079,0.020402285,0.212646851,0.000000000,0.019264221,-0.013187408,-2.092541504,0.000000000,0.001335144,-0.013187408,0.821969604,0.000000000,0.005149841,0.013187408,-1.569232178,0.000000000,0.055123329,0.004396439,-3.296691895,0.000000000,0.003865715,0.000001492,-0.495921232,0.000000000,0.000778025,0.009056228,0.000081682
0.251977288,-0.014573000,-0.005149841,-0.030769348,-0.330416107,-0.002750000,0.002479553,-0.057142258,-2.316494751,-0.003203000,-0.004005432,0.057142258,-1.270321655,0.416303992,0.365262985,-0.004396439,2.271057129,-0.405074000,-0.388716908,-0.004406075,-1.586998275,-0.000905000,-0.002205079,0.020402285,0.212646851,0.000000000,0.019264221,0.004396439,-1.872295380,0.000000000,0.001335144,0.057142258,-0.672528076,0.000000000,0.005149841,-0.021978378,-1.120880127,0.000000000,0.055123329,-0.021978378,-3.003662109,0.000000000,0.003865715,-0.004394816,-0.297561592,0.000000000,0.000778025,0.000001059,0.000049011
0.253977108,-0.014864000,-0.005149841,0.004396439,-0.550662231,-0.002772000,0.002479553,0.013187408,-1.419790649,-0.003200000,-0.004386902,-0.074726105,0.821969604,0.416175991,0.364881516,-0.013187408,3.150177002,-0.405166000,-0.388716908,0.004381925,-1.586998275,-0.001051000,-0.002205079,0.020408431,0.212646851,0.000000000,0.019264221,-0.030769348,-1.872295380,0.000000000,0.001335144,0.004396439,-0.971438599,0.000000000,0.005149841,0.004396439,-2.017584229,0.000000000,0.055123329,0.013187408,-3.150177002,0.000000000,0.003865715,0.013182541,-0.495921232,0.000000000,0.000778025,-0.000003177,0.000081682
0.255976928,-0.015150000,-0.005149841,-0.039560318,-0.550662231,-0.002791000,0.002479553,-0.013187408,-1.718673706,-0.003197000,-0.004005432,0.021978378,-1.120880127,0.416049004,0.364881516,-0.021978378,3.003662109,-0.405261993,-0.388716908,-0.008794991,-1.487851474,-0.001206000,-0.002205079,0.010195426,0.255422714,0.000000000,0.019264221,0.004396439,-1.872295380,0.000000000,0.001335144,0.004396439,-0.672528076,0.000000000,0.005149841,0.004396439,-2.017584229,0.000000000,0.055123329,-0.004396439,-3.150177002,0.000000000,0.003865715,0.008787187,-0.495921232,0.000000000,0.000778025,-0.009056381,0.000081682
0.257976747,-0.015429000,-0.005149841,-0.013187408,-1.211463165,-0.002807000,0.002098083,-0.074726105,-1.569232178,-0.003195000,-0.004386902,-0.021978378,0.523086548,0.415921986,0.364881516,-0.004396439,2.417572021,-0.405360997,-0.388716908,0.013182955,-1.586998275,-0.001370000,-0.002205079,0.000009219,0.212646851,0.000000000,0.019264221,-0.021978378,-1.872295380,0.000000000,0.001335144,-0.004396439,-0.672528076,0.000000000,0.005149841,-0.004396439,-1.419790649,0.000000000,0.055123329,0.004396439,-3.003662109,0.000000000,0.003865715,0.004396846,-0.396753011,0.000000000,0.000778025,0.018109432,-0.048064744
0.259976567,-0.015698999,-0.005149841,0.030769348,-0.991217041,-0.002821000,0.002479553,-0.013187408,-1.569232178,-0.003193000,-0.004386902,-0.021978378,-0.672528076,0.415796012,0.364881516,0.004396439,3.003662109,-0.405463994,-0.388716908,-0.000018112,-1.586998275,-0.001541000,-0.002205079,0.030606930,0.212646851,0.000000000,0.019264221,0.004396439,-1.652017975,0.000000000,0.001335144,-0.013187408,0.373617554,0.000000000,0.005149841,0.048351288,-2.017584229,0.000000000,0.055123329,0.004396439,-3.150177002,0.000000000,0.003865715,0.000001492,-0.495944429,0.000000000,0.000778025,0.009056228,-0.096178499
0.261976387,-0.015958000,-0.005149841,-0.004396439,-0.550662231,-0.002832000,0.002479553,0.030769348,-1.419790649,-0.003192000,-0.004386902,-0.004396439,-0.074734497,0.415668994,0.364881516,0.004396439,3.150177002,-0.405571014,-0.388716908,-0.017595065,-1.686145076,-0.001719000,-0.002205079,0.030592425,0.169870988,0.000000000,0.019264221,-0.004396439,-1.652017975,0.000000000,0.001335144,0.013187408,-0.821969604,0.000000000,0.005149841,-0.030769348,-1.569232178,0.000000000,0.055123329,-0.013187408,-3.150177002,0.000000000,0.003865715,0.004396846,-0.396753011,0.000000000,0.000778025,0.018109432,-0.048064744
0.263976207,-0.016204000,-0.005149841,-0.021978378,-0.770939636,-0.002839000,0.002479553,0.039560318,-1.718673706,-0.003191000,-0.004386902,-0.030769348,0.523086548,0.415542990,0.364881516,0.013187408,2.564117432,-0.405681014,-0.388716908,0.000006038,-1.686145076,-0.001903000,-0.002205079,-0.010203786,0.169870988,0.000000000,0.019264221,0.039560318,-1.652017975,0.000000000,0.001335144,0.004396439,0.523086548,0.000000000,0.005149841,-0.048351288,-1.120880127,0.000000000,0.055123329,0.004396439,-3.150177002,0.000000000,0.003865715,-0.008787187,-0.396776208,0.000000000,0.000778025,0.009056381,-0.144324926
0.265976026,-0.016434999,-0.005149841,-0.021978378,-0.991217041,-0.002842000,0.002479553,-0.021978378,-1.120880127,-0.003190000,-0.004386902,-0.013187408,-0.224176025,0.415417999,0.364881516,0.021978378,2.857147217,-0.405793011,-0.388907320,0.000021743,-1.686169274,-0.002092000,-0.002647846,-0.030608878,0.169660115,0.000000000,0.019264221,-0.004396439,-2.092541504,0.000000000,0.001335144,0.030769348,0.074734497,0.000000000,0.005149841,0.057142258,-1.569232178,0.000000000,0.055123329,-0.004396439,-3.443237305,0.000000000,0.003865715,0.000004474,-0.595112650,0.000000000,0.000778025,0.027164754,-0.048032073
0.267975846,-0.016652999,-0.005149841,-0.021978378,-0.991217041,-0.002840000,0.002479553,0.048351288,-1.868142700,-0.003192000,-0.004386902,-0.013187408,-0.224176025,0.415291995,0.364881516,0.013187408,2.857147217,-0.405910999,-0.388907320,-0.008781704,-1.686169274,-0.002297000,-0.002647846,-0.010209604,0.169660115,0.000000000,0.019264221,0.013187408,-1.872295380,0.000000000,0.001335144,0.057142258,-0.821969604,0.000000000,0.005149841,-0.021978378,-1.868142700,0.000000000,0.055123329,0.004396439,-2.857147217,0.000000000,0.003865715,0.000001492,-0.396753011,0.000000000,0.000778025,0.009056228,-0.048064744
0.269975666,-0.016868001,-0.005149841,-0.030769348,-0.991217041,-0.002827000,0.002098083,0.057142258,-2.167025757,-0.003202000,-0.004386902,-0.021978378,-0.224176025,0.415167004,0.364881516,0.013187408,2.564117432,-0.406042010,-0.388907320,-0.004379503,-1.586956712,-0.002548000,-0.002647846,-0.020410347,0.127016117,0.000000000,0.019264221,0.004396439,-1.211463165,0.000000000,0.001335144,-0.013187408,-0.971438599,0.000000000,0.005149841,-0.021978378,-1.270321655,0.000000000,0.055123329,-0.021978378,-3.150177002,0.000000000,0.003865715,-0.008790170,-0.495921232,0.000000000,0.000778025,-0.009052145,0.000081682
0.271975486,-0.017082000,-0.005149841,-0.013187408,-0.550662231,-0.002805000,0.002098083,0.004396439,-1.718673706,-0.003218000,-0.004005432,-0.021978378,-1.419790649,0.415042996,0.364881516,0.013187408,3.003662109,-0.406185001,-0.388907320,0.004394952,-1.686097517,-0.002845000,-0.002647846,0.000003692,0.084231217,0.000000000,0.019264221,0.004396439,-1.652017975,0.000000000,0.001335144,-0.021978378,-0.971438599,0.000000000,0.005149841,-0.004396439,-1.120880127,0.000000000,0.055123329,-0.004396439,-3.150177002,0.000000000,0.003865715,-0.008790170,-0.297584790,0.000000000,0.000778025,-0.009052145,-0.096211171
0.273975305,-0.017294001,-0.005149841,-0.004396439,-0.770939636,-0.002774000,0.002098083,-0.074726105,-2.017584229,-0.003242000,-0.004386902,-0.039560318,0.523086548,0.414918989,0.364881516,0.013187408,3.150177002,-0.406340003,-0.388907320,-0.013182951,-1.785310080,-0.003185000,-0.002647846,-0.000011073,0.126875215,0.000000000,0.019264221,-0.013187408,-1.872295380,0.000000000,0.001335144,-0.004396439,-0.224176025,0.000000000,0.005149841,-0.004396439,-2.017584229,0.000000000,0.055123329,0.004396439,-3.296691895,0.000000000,0.003865715,-0.017574913,-0.495944429,0.000000000,0.000778025,0.009058499,-0.096178499
0.275975125,-0.017502001,-0.005149841,-0.004396439,-1.431740570,-0.002735000,0.002098083,-0.013187408,-2.316494751,-0.003272000,-0.004386902,-0.021978378,0.224176025,0.414795995,0.364881516,0.004396439,2.710632324,-0.406506002,-0.388907320,-0.000021743,-1.686097517,-0.003564000,-0.002647846,0.030608878,0.084231217,0.000000000,0.019264221,0.004396439,-1.872295380,0.000000000,0.001335144,0.013187408,-0.672528076,0.000000000,0.005149841,-0.004396439,-2.017584229,0.000000000,0.055123329,-0.004396439,-3.296691895,0.000000000,0.003865715,-0.013179559,-0.396753011,0.000000000,0.000778025,0.018111703,-0.048064744
0.277974945,-0.017707000,-0.005149841,0.013187408,-0.550662231,-0.002688000,0.002098083,0.030769348,-1.270321655,-0.003307000,-0.004386902,0.004396439,-0.523086548,0.414671987,0.364881516,0.004396439,2.857147217,-0.406682014,-0.388907320,-0.017598692,-1.686097517,-0.003979000,-0.002647846,0.030591900,0.084231217,0.000000000,0.019264221,0.048351288,-1.872295380,0.000000000,0.001335144,-0.021978378,0.074734497,0.000000000,0.005149841,-0.021978378,-1.419790649,0.000000000,0.055123329,-0.004396439,-3.882781982,0.000000000,0.003865715,-0.008790170,-0.297584790,0.000000000,0.000778025,-0.009052145,-0.096211171
0.279974765,-0.017907999,-0.005531311,-0.013187408,-0.330416107,-0.002635000,0.002098083,0.065933228,-2.465936279,-0.003348000,-0.004386902,-0.074726105,-0.224176025,0.414550006,0.364881516,0.021978378,2.710632324,-0.406866014,-0.388907320,-0.004394952,-1.686025761,-0.004427000,-0.002647846,-0.000003692,-0.001197682,0.000000000,0.019264221,-0.013187408,-2.092541504,0.000000000,0.001335144,-0.030769348,-1.419790649,0.000000000,0.005149841,-0.021978378,-2.316494751,0.000000000,0.055123329,0.013187408,-3.736267090,0.000000000,0.003865715,0.000001492,-0.495898034,0.000000000,0.000778025,0.009056228,0.096341863
0.281974584,-0.018103000,-0.005531311,0.004396439,-1.652017975,-0.002577000,0.002098083,-0.039560318,-0.971438599,-0.003393000,-0.004386902,-0.021978378,1.270321655,0.414427996,0.364881516,0.013187408,2.564117432,-0.407059014,-0.388907320,0.008781704,-1.785310080,-0.004903000,-0.002647846,0.010209604,0.126875215,0.000000000,0.019264221,0.013187408,-2.312818909,0.000000000,0.001335144,-0.057142258,-1.419790649,0.000000000,0.005149841,-0.065933228,-0.821969604,0.000000000,0.055123329,-0.013187408,-3.003662109,0.000000000,0.003865715,0.000001492,-0.495921232,0.000000000,0.000778025,0.009056228,0.000081682
0.283974404,-0.018293001,-0.005531311,-0.039560318,-1.431740570,-0.002513000,0.002098083,-0.039560318,-1.868142700,-0.003443000,-0.004386902,-0.013187408,-1.120880127,0.414306015,0.364881516,-0.004396439,2.857147217,-0.407260001,-0.388907320,-0.004394952,-1.686025761,-0.005405000,-0.002647846,-0.000003692,-0.001197682,0.000000000,0.019264221,0.021978378,-1.431740570,0.000000000,0.001335144,-0.004396439,-1.270321655,0.000000000,0.005149841,0.021978378,-1.868142700,0.000000000,0.055123329,0.004396439,-3.003662109,0.000000000,0.003865715,0.008790170,-0.396753011,0.000000000,0.000778025,0.009052145,-0.048064744
0.285974224,-0.018476000,-0.005531311,0.021978378,-0.770939636,-0.002446000,0.002098083,-0.021978378,-2.316494751,-0.003496000,-0.004386902,-0.021978378,0.523086548,0.414184988,0.364881516,0.004396439,2.417572021,-0.407467008,-0.388907320,-0.008796199,-1.586813198,-0.005928000,-0.002647846,0.010194839,-0.043841680,0.000000000,0.019264221,-0.004396439,-2.312818909,0.000000000,0.001335144,-0.021978378,-0.224176025,0.000000000,0.005149841,0.004396439,-1.569232178,0.000000000,0.055123329,-0.004396439,-3.150177002,0.000000000,0.003865715,0.004396846,-0.396753011,0.000000000,0.000778025,0.018109432,-0.048064744
0.287974044,-0.018652000,-0.005531311,-0.021978378,-0.991217041,-0.002375000,0.002098083,-0.030769348,-1.120880127,-0.003553000,-0.004386902,-0.039560318,0.821969604,0.414063990,0.364881516,0.004396439,2.417572021,-0.407678992,-0.388907320,-0.008766255,-1.884307372,-0.006471000,-0.002647846,-0.030616259,-0.086767482,0.000000000,0.019264221,-0.021978378,-2.092541504,0.000000000,0.001335144,0.004396439,-0.821969604,0.000000000,0.005149841,0.030769348,-0.971438599,0.000000000,0.055123329,-0.004396439,-3.296691895,0.000000000,0.003865715,-0.008783251,-0.495921232,0.000000000,0.000778025,0.027166872,0.000081682
0.289973863,-0.018820999,-0.005531311,0.004396439,-1.211463165,-0.002302000,0.002098083,0.004396439,-1.419790649,-0.003611000,-0.004386902,-0.039560318,0.821969604,0.413944006,0.364881516,-0.004396439,2.271057129,-0.407896012,-0.388907320,-0.013168456,-1.884307372,-0.007028000,-0.002647846,-0.020415516,-0.086767482,0.000000000,0.019264221,0.004396439,-1.652017975,0.000000000,0.001335144,-0.039560318,-0.971438599,0.000000000,0.005149841,0.013187408,-2.316494751,0.000000000,0.055123329,-0.021978378,-3.150177002,0.000000000,0.003865715,-0.004394816,-0.396729813,0.000000000,0.000778025,0.000001059,0.048195437
0.291973683,-0.018981000,-0.005531311,-0.021978378,-0.991217041,-0.002228000,0.002098083,0.004396439,-2.017584229,-0.003672000,-0.004386902,-0.057142258,-0.672528076,0.413823992,0.364881516,-0.004396439,3.003662109,-0.408116996,-0.388907320,-0.017555208,-1.785094810,-0.007597000,-0.002647846,-0.030621428,-0.129411480,0.000000000,0.019264221,-0.004396439,-1.872295380,0.000000000,0.001716614,0.021978378,-2.017584229,0.000000000,0.005149841,-0.039560318,-0.672528076,0.000000000,0.055123329,0.013187408,-3.150177002,0.000000000,0.003865715,0.004396846,-0.495921232,0.000000000,0.000778025,0.018109432,0.000081682
0.293973503,-0.019131999,-0.005531311,-0.030769348,-1.211463165,-0.002153000,0.002098083,0.013187408,-1.569232178,-0.003735000,-0.004386902,-0.039560318,0.971438599,0.413704008,0.364881516,-0.013187408,2.710632324,-0.408340991,-0.388907320,-0.017539759,-1.685882247,-0.008174000,-0.002647846,-0.051028083,-0.172055478,0.000000000,0.019264221,0.004396439,-1.652017975,0.000000000,0.001335144,-0.039560318,0.523086548,0.000000000,0.005149841,0.004396439,-1.120880127,0.000000000,0.055123329,-0.004396439,-3.003662109,0.000000000,0.003865715,0.004390880,-0.297584790,0.000000000,0.000778025,-0.018111550,-0.096211171
0.295973323,-0.019273000,-0.005531311,0.021978378,-0.770939636,-0.002078000,0.002098083,-0.030769348,-1.419790649,-0.003798000,-0.004386902,0.013187408,0.821969604,0.413585007,0.364881516,-0.004396439,2.271057129,-0.408565998,-0.388907320,-0.021926511,-1.785166566,-0.008756000,-0.002647846,-0.061233995,-0.043982582,0.000000000,0.019264221,0.030769348,-1.431740570,0.000000000,0.001335144,0.048351288,-0.672528076,0.000000000,0.005149841,0.048351288,-1.419790649,0.000000000,0.055123329,-0.004396439,-3.296691895,0.000000000,0.003865715,-0.008783251,-0.297561592,0.000000000,0.000778025,0.027166872,0.000049011
0.297973142,-0.019404000,-0.005531311,-0.004396439,-1.652017975,-0.002004000,0.002098083,-0.057142258,-1.868142700,-0.003861000,-0.004386902,0.057142258,0.074734497,0.413466007,0.364881516,-0.004396439,2.710632324,-0.408793002,-0.389097680,-0.030674352,-1.586639843,-0.009339000,-0.003090668,-0.102063302,-0.214874086,0.000000000,0.019264221,0.030769348,-1.652017975,0.000000000,0.001335144,0.039560318,-1.718673706,0.000000000,0.005149841,-0.030769348,-1.868142700,0.000000000,0.055123329,-0.004396439,-3.150177002,0.000000000,0.003865715,0.004394816,-0.495921232,0.000000000,0.000778025,-0.000001059,0.000081682
0.299972962,-0.019523000,-0.005531311,-0.004396439,-1.211463165,-0.001932000,0.002098083,-0.083517075,-2.316494751,-0.003925000,-0.004386902,0.030769348,-0.373617554,0.413347989,0.364881516,-0.004396439,2.710632324,-0.409020990,-0.389097680,-0.035042975,-1.586723613,-0.009921000,-0.003090668,-0.132676224,-0.129450647,0.000000000,0.019264221,0.013187408,-1.652017975,0.000000000,0.001335144,-0.004396439,-0.523086548,0.000000000,0.005149841,0.004396439,-1.718673706,0.000000000,0.055123329,0.004396439,-3.150177002,0.000000000,0.003865715,0.008795182,-0.595089453,0.000000000,0.000778025,0.045271163,0.048228108
0.301972782,-0.019638000,-0.005531311,-0.004396439,-0.991217041,-0.001858000,0.002098083,-0.013187408,-1.120880127,-0.003993000,-0.004386902,-0.065933228,1.419790649,0.413228005,0.364881516,-0.004396439,2.710632324,-0.409251988,-0.389287988,-0.070199476,-1.685834625,-0.010522000,-0.003533544,-0.112319790,-0.172433726,0.000000000,0.019264221,0.004396439,-1.872295380,0.000000000,0.001335144,-0.021978378,-0.971438599,0.000000000,0.005149841,0.030769348,-0.971438599,0.000000000,0.055123329,-0.021978378,-3.150177002,0.000000000,0.003865715,-0.004396846,-0.495921232,0.000000000,0.000778025,-0.018109432,0.000081682
0.303972602,-0.019755000,-0.005531311,0.021978378,-0.991217041,-0.001778000,0.002098083,0.004396439,-1.120880127,-0.004068000,-0.004386902,-0.048351288,-0.672528076,0.413105994,0.364881516,0.004396439,3.003662109,-0.409491986,-0.389478243,-0.061376364,-1.784955794,-0.011167000,-0.003976476,-0.132734103,-0.215444469,0.000000000,0.019264221,0.021978378,-2.092541504,0.000000000,0.001335144,-0.021978378,-0.672528076,0.000000000,0.005149841,0.013187408,-1.419790649,0.000000000,0.055123329,0.013187408,-3.443237305,0.000000000,0.003865715,-0.008787187,-0.694257674,0.000000000,0.000778025,0.009056381,0.096374534
0.305972421,-0.019871000,-0.005531311,-0.004396439,-0.770939636,-0.001691000,0.002098083,-0.074726105,-1.419790649,-0.004152000,-0.004386902,-0.057142258,0.074734497,0.412981004,0.364881516,0.004396439,2.271057129,-0.409738988,-0.389478243,-0.052610138,-1.884078617,-0.011849000,-0.003976476,-0.112314666,-0.258256476,0.000000000,0.019264221,0.030769348,-1.872295380,0.000000000,0.001335144,-0.004396439,-0.971438599,0.000000000,0.005149841,0.013187408,-1.419790649,0.000000000,0.055123329,-0.004396439,-3.296691895,0.000000000,0.003865715,-0.004390880,-0.694257674,0.000000000,0.000778025,0.018111550,0.096374534
0.307972241,-0.019987000,-0.005531311,-0.004396439,-0.550662231,-0.001600000,0.002098083,-0.030769348,-2.316494751,-0.004243000,-0.004386902,-0.039560318,0.373617554,0.412854999,0.364881516,0.004396439,2.271057129,-0.409994006,-0.389668445,-0.056978675,-1.784926049,-0.012566000,-0.004419463,-0.122540250,-0.215642724,0.000000000,0.019264221,-0.030769348,-1.872295380,0.000000000,0.001335144,0.048351288,-0.821969604,0.000000000,0.005149841,0.004396439,-0.971438599,0.000000000,0.055123329,0.004396439,-3.003662109,0.000000000,0.003865715,0.000001492,-0.297584790,0.000000000,0.000778025,0.009056228,-0.096211171
0.309972061,-0.020101000,-0.005531311,0.021978378,-1.211463165,-0.001504000,0.002098083,0.021978378,-2.167025757,-0.004341000,-0.004768372,-0.048351288,0.523086548,0.412728995,0.364881516,-0.013187408,2.271057129,-0.410255998,-0.389858595,-0.078840887,-1.784896328,-0.013311000,-0.004862505,-0.194032809,-0.215841017,0.000000000,0.019264221,0.030769348,-1.872295380,0.000000000,0.001335144,-0.039560318,-1.120880127,0.000000000,0.005149841,-0.039560318,-1.419790649,0.000000000,0.055123329,-0.013187408,-3.150177002,0.000000000,0.003865715,0.004396846,-0.396753011,0.000000000,0.000778025,0.018109432,-0.048064744
0.311971881,-0.020212000,-0.005912781,0.013187408,-1.211463165,-0.001404000,0.001716614,-0.083517075,-0.672528076,-0.004445000,-0.004386902,0.004396439,-0.672528076,0.412602991,0.364881516,-0.004396439,2.271057129,-0.410524011,-0.389858595,-0.096444414,-1.685653643,-0.014081000,-0.004862505,-0.173646777,-0.258412469,0.000000000,0.019264221,0.021978378,-2.092541504,0.000000000,0.001335144,-0.030769348,-0.373617554,0.000000000,0.005149841,0.048351288,-0.821969604,0.000000000,0.055123329,-0.004396439,-3.150177002,0.000000000,0.003865715,0.000001492,-0.297584790,0.000000000,0.000778025,0.009056228,-0.096211171
0.313971700,-0.020318000,-0.005912781,-0.030769348,-1.431740570,-0.001301000,0.001716614,-0.039560318,-0.971438599,-0.004554000,-0.004768372,-0.004396439,0.373617554,0.412476987,0.364881516,-0.004396439,2.710632324,-0.410798013,-0.390428729,-0.113823618,-1.784639383,-0.014872000,-0.006191962,-0.255417280,-0.301821135,0.000000000,0.019264221,0.013187408,-1.652017975,0.000000000,0.001335144,-0.048351288,-1.270321655,0.000000000,0.005149841,0.004396439,-1.569232178,0.000000000,0.055123329,0.004396439,-3.150177002,0.000000000,0.003865715,0.008787187,-0.396753011,0.000000000,0.000778025,-0.009056381,-0.048064744
0.315971520,-0.020419000,-0.005912781,0.048351288,-0.991217041,-0.001195000,0.002098083,0.021978378,-2.316494751,-0.004668000,-0.004768372,-0.004396439,0.373617554,0.412351996,0.364881516,-0.004396439,2.271057129,-0.411078006,-0.390428729,-0.113823618,-1.883900175,-0.015678000,-0.006191962,-0.255417280,-0.259293294,0.000000000,0.019264221,0.013187408,-1.652017975,0.000000000,0.001335144,0.030769348,-0.523086548,0.000000000,0.005149841,-0.074726105,-1.419790649,0.000000000,0.055123329,0.013187408,-2.857147217,0.000000000,0.003865715,0.004394816,-0.396753011,0.000000000,0.000778025,-0.000001059,-0.048064744
0.317971340,-0.020514000,-0.005912781,-0.013187408,-1.652017975,-0.001087000,0.001716614,-0.039560318,-1.419790649,-0.004787000,-0.004768372,-0.004396439,-0.224176025,0.412230015,0.364881516,0.013187408,1.978027344,-0.411363006,-0.390618668,-0.118168981,-1.487315000,-0.016496001,-0.006635225,-0.265667122,-0.173405880,0.000000000,0.019264221,0.004396439,-1.872295380,0.000000000,0.001335144,0.021978378,-1.120880127,0.000000000,0.005149841,-0.013187408,-1.718673706,0.000000000,0.055123329,-0.021978378,-3.150177002,0.000000000,0.003865715,-0.004390880,-0.198394438,0.000000000,0.000778025,0.018111550,-0.144368342
0.319971160,-0.020601001,-0.005912781,-0.030769348,-1.652017975,-0.000978000,0.001716614,-0.004396439,-0.672528076,-0.004910000,-0.004768372,-0.048351288,0.074734497,0.412111014,0.364881516,-0.004396439,2.417572021,-0.411653012,-0.390998389,-0.140013657,-1.784718517,-0.017321000,-0.007521917,-0.296415437,-0.217031561,0.000000000,0.019264221,-0.013187408,-1.652017975,0.000000000,0.001335144,0.004396439,-0.971438599,0.000000000,0.005149841,-0.021978378,-0.971438599,0.000000000,0.055123329,0.013187408,-3.150177002,0.000000000,0.003865715,-0.004394816,-0.396753011,0.000000000,0.000778025,0.000001059,-0.048064744
0.321970979,-0.020679999,-0.005912781,-0.004396439,-1.211463165,-0.000867000,0.001716614,-0.057142258,-0.523086548,-0.005036000,-0.004768372,-0.013187408,0.523086548,0.411994010,0.364881516,-0.013187408,2.710632324,-0.411947995,-0.391188170,-0.144350419,-1.586529051,-0.018147999,-0.007965346,-0.306675522,-0.131433958,0.000000000,0.019264221,0.004396439,-1.872295380,0.000000000,0.001335144,-0.074726105,-0.074734497,0.000000000,0.005149841,-0.021978378,-0.971438599,0.000000000,0.055123329,-0.013187408,-3.150177002,0.000000000,0.003865715,0.000001492,-0.297561592,0.000000000,0.000778025,0.009056228,0.000049011
