sainanliu129-hub/model/applications/Body_GravityPara_Iden/build/traj_E1_update_all_joints_v06_reverse.csv
time,leg_l1_joint,leg_l2_joint,leg_l3_joint,leg_l4_joint,leg_l5_joint,leg_l6_joint,leg_r1_joint,leg_r2_joint,leg_r3_joint,leg_r4_joint,leg_r5_joint,leg_r6_joint
9.98400,0.000000,0.436000,0.000000,0.000000,0.000000,0.000000,0.000000,0.000000,0.000000,0.000000,0.000000,0.000000
9.98200,0.000000,0.436000,0.000000,0.000000,0.000000,0.000000,0.000000,0.000000,0.000000,0.000000,0.000000,-0.078400
9.98000,0.000000,0.436000,0.000000,0.000000,0.000000,0.000000,0.000000,0.000000,0.000000,0.000000,0.000000,-0.067600
9.97800,0.000000,0.436000,0.000000,0.000000,0.000000,0.000000,0.000000,0.000000,0.000000,0.000000,0.000000,-0.057600
9.97600,0.000000,0.436000,0.000000,0.000000,0.000000,0.000000,0.000000,0.000000,0.000000,0.000000,0.000000,-0.048400
9.97400,0.000000,0.436000,0.000000,0.000000,0.000000,0.000000,0.000000,0.000000,0.000000,0.000000,0.000000,-0.040000
9.97200,0.000000,0.436000,0.000000,0.000000,0.000000,0.000000,0.000000,0.000000,0.000000,0.000000,0.000000,-0.032400
9.97000,0.000000,0.436000,0.000000,0.000000,0.000000,0.000000,0.000000,0.000000,0.000000,0.000000,0.000000,-0.025600
9.96800,0.000000,0.436000,0.000000,0.000000,0.000000,0.000000,0.000000,0.000000,0.000000,0.000000,0.000000,-0.019600
9.96600,0.000000,0.436000,0.000000,0.000000,0.000000,0.000000,0.000000,0.000000,0.000000,0.000000,0.000000,-0.014400
9.96400,0.000000,0.436000,0.000000,0.000000,0.000000,0.000000,0.000000,0.000000,0.000000,0.000000,0.000000,-0.010000
9.96200,0.000000,0.436000,0.000000,0.000000,0.000000,0.000000,0.000000,0.000000,0.000000,0.000000,0.000000,-0.006400
9.96000,0.000000,0.436000,0.000000,0.000000,0.000000,0.000000,0.000000,0.000000,0.000000,0.000000,0.000000,-0.003600
9.95800,0.000000,0.436000,0.000000,0.000000,0.000000,0.000000,0.000000,0.000000,0.000000,0.000000,0.000000,-0.001600
9.95600,0.000000,0.436000,0.000000,0.000000,0.000000,0.000000,0.000000,0.000000,0.000000,0.000000,0.000000,-0.000400
9.95400,0.000000,0.436000,0.000000,0.000000,0.000000,0.000000,0.000000,0.000000,0.000000,0.000000,0.000000,0.000000
9.95200,0.000000,0.436000,0.000000,0.000000,0.000000,0.000000,0.000000,0.000000,0.000000,0.000000,0.000000,-0.109700
9.95000,0.000000,0.436000,0.000000,0.000000,0.000000,0.000000,0.000000,0.000000,0.000000,0.000000,0.000000,-0.122160
9.94800,0.000000,0.436000,0.000000,0.000000,0.000000,0.000000,0.000000,0.000000,0.000000,0.000000,0.000000,-0.134620
9.94600,0.000000,0.436000,0.000000,0.000000,0.000000,0.000000,0.000000,0.000000,0.000000,0.000000,0.000000,-0.147080
9.94400,0.000000,0.436000,0.000000,0.000000,0.000000,0.000000,0.000000,0.000000,0.000000,0.000000,0.000000,-0.159540
9.94200,0.000000,0.436000,0.000000,0.000000,0.000000,0.000000,0.000000,0.000000,0.000000,0.000000,0.000000,-0.172000
9.94000,0.000000,0.436000,0.000000,0.000000,0.000000,0.000000,0.000000,0.000000,0.000000,0.000000,0.000000,-0.172000
9.93800,0.000000,0.436000,0.000000,0.000000,0.000000,0.000000,0.000000,0.000000,0.000000,0.000000,0.000000,-0.183600
9.93600,0.000000,0.436000,0.000000,0.000000,0.000000,0.000000,0.000000,0.000000,0.000000,0.000000,0.000000,-0.194400
9.93400,0.000000,0.436000,0.000000,0.000000,0.000000,0.000000,0.000000,0.000000,0.000000,0.000000,0.000000,-0.204400
9.93200,0.000000,0.436000,0.000000,0.000000,0.000000,0.000000,0.000000,0.000000,0.000000,0.000000,0.000000,-0.213600
9.93000,0.000000,0.436000,0.000000,0.000000,0.000000,0.000000,0.000000,0.000000,0.000000,0.000000,0.000000,-0.222000
9.92800,0.000000,0.436000,0.000000,0.000000,0.000000,0.000000,0.000000,0.000000,0.000000,0.000000,0.000000,-0.229600
9.92600,0.000000,0.436000,0.000000,0.000000,0.000000,0.000000,0.000000,0.000000,0.000000,0.000000,0.000000,-0.236400
9.92400,0.000000,0.436000,0.000000,0.000000,0.000000,0.000000,0.000000,0.000000,0.000000,0.000000,0.000000,-0.242400
9.92200,0.000000,0.436000,0.000000,0.000000,0.000000,0.000000,0.000000,0.000000,0.000000,0.000000,0.000000,-0.247600
9.92000,0.000000,0.436000,0.000000,0.000000,0.000000,0.000000,0.000000,0.000000,0.000000,0.000000,0.000000,-0.252000
9.91800,0.000000,0.436000,0.000000,0.000000,0.000000,0.000000,0.000000,0.000000,0.000000,0.000000,0.000000,-0.255600
9.91600,0.000000,0.436000,0.000000,0.000000,0.000000,0.000000,0.000000,0.000000,0.000000,0.000000,0.000000,-0.258400
9.91400,0.000000,0.436000,0.000000,0.000000,0.000000,0.000000,0.000000,0.000000,0.000000,0.000000,0.000000,-0.260400
9.91200,0.000000,0.436000,0.000000,0.000000,0.000000,0.000000,0.000000,0.000000,0.000000,0.000000,0.000000,-0.261600
9.91000,0.000000,0.436000,0.000000,0.000000,0.000000,0.000000,0.000000,0.000000,0.000000,0.000000,0.000000,-0.262000
9.90800,0.000000,0.436000,0.000000,0.000000,0.000000,0.000000,0.000000,0.000000,0.000000,0.000000,0.000000,-0.183600
9.90600,0.000000,0.436000,0.000000,0.000000,0.000000,0.000000,0.000000,0.000000,0.000000,0.000000,0.000000,-0.194400
9.90400,0.000000,0.436000,0.000000,0.000000,0.000000,0.000000,0.000000,0.000000,0.000000,0.000000,0.000000,-0.204400
9.90200,0.000000,0.436000,0.000000,0.000000,0.000000,0.000000,0.000000,0.000000,0.000000,0.000000,0.000000,-0.213600
9.90000,0.000000,0.436000,0.000000,0.000000,0.000000,0.000000,0.000000,0.000000,0.000000,0.000000,0.000000,-0.222000
9.89800,0.000000,0.436000,0.000000,0.000000,0.000000,0.000000,0.000000,0.000000,0.000000,0.000000,0.000000,-0.229600
9.89600,0.000000,0.436000,0.000000,0.000000,0.000000,0.000000,0.000000,0.000000,0.000000,0.000000,0.000000,-0.236400
9.89400,0.000000,0.436000,0.000000,0.000000,0.000000,0.000000,0.000000,0.000000,0.000000,0.000000,0.000000,-0.242400
9.89200,0.000000,0.436000,0.000000,0.000000,0.000000,0.000000,0.000000,0.000000,0.000000,0.000000,0.000000,-0.247600
9.89000,0.000000,0.436000,0.000000,0.000000,0.000000,0.000000,0.000000,0.000000,0.000000,0.000000,0.000000,-0.252000
9.88800,0.000000,0.436000,0.000000,0.000000,0.000000,0.000000,0.000000,0.000000,0.000000,0.000000,0.000000,-0.255600
9.88600,0.000000,0.436000,0.000000,0.000000,0.000000,0.000000,0.000000,0.000000,0.000000,0.000000,0.000000,-0.258400
9.88400,0.000000,0.436000,0.000000,0.000000,0.000000,0.000000,0.000000,0.000000,0.000000,0.000000,0.000000,-0.260400
9.88200,0.000000,0.436000,0.000000,0.000000,0.000000,0.000000,0.000000,0.000000,0.000000,0.000000,0.000000,-0.261600
9.88000,0.000000,0.436000,0.000000,0.000000,0.000000,0.000000,0.000000,0.000000,0.000000,0.000000,0.000000,-0.262000
9.87800,0.000000,0.436000,0.000000,0.000000,0.000000,0.000000,0.000000,0.000000,0.000000,0.000000,0.000000,-0.151960
9.87600,0.000000,0.436000,0.000000,0.000000,0.000000,0.000000,0.000000,0.000000,0.000000,0.000000,0.000000,-0.139500
9.87400,0.000000,0.436000,0.000000,0.000000,0.000000,0.000000,0.000000,0.000000,0.000000,0.000000,0.000000,-0.127040
9.87200,0.000000,0.436000,0.000000,0.000000,0.000000,0.000000,0.000000,0.000000,0.000000,0.000000,0.000000,-0.114580
9.87000,0.000000,0.436000,0.000000,0.000000,0.000000,0.000000,0.000000,0.000000,0.000000,0.000000,0.000000,-0.102120
9.86800,0.000000,0.436000,0.000000,0.000000,0.000000,0.000000,0.000000,0.000000,0.000000,0.000000,0.000000,-0.089660
9.86600,0.000000,0.436000,0.000000,0.000000,0.000000,0.000000,0.000000,0.000000,0.000000,0.000000,0.000000,-0.077200
9.86400,0.000000,0.436000,0.000000,0.000000,0.000000,0.000000,0.000000,0.000000,0.000000,0.000000,0.000000,-0.064740
9.86200,0.000000,0.436000,0.000000,0.000000,0.000000,0.000000,0.000000,0.000000,0.000000,0.000000,0.000000,-0.052280
9.86000,0.000000,0.436000,0.000000,0.000000,0.000000,0.000000,0.000000,0.000000,0.000000,0.000000,0.000000,-0.039820
9.85800,0.000000,0.436000,0.000000,0.000000,0.000000,0.000000,0.000000,0.000000,0.000000,0.000000,0.000000,-0.027360
9.85600,0.000000,0.436000,0.000000,0.000000,0.000000,0.000000,0.000000,0.000000,0.000000,0.000000,0.000000,-0.014900
9.85400,0.000000,0.436000,0.000000,0.000000,0.000000,0.000000,0.000000,0.000000,0.000000,0.000000,0.000000,-0.002440
9.85200,0.000000,0.436000,0.000000,0.000000,0.000000,0.000000,0.000000,0.000000,0.000000,0.000000,0.000000,0.010020
9.85000,0.000000,0.436000,0.000000,0.000000,0.000000,0.000000,0.000000,0.000000,0.000000,0.000000,0.000000,0.022480
9.84800,0.000000,0.436000,0.000000,0.000000,0.000000,0.000000,0.000000,0.000000,0.000000,0.000000,0.000000,0.034940
9.84600,0.000000,0.436000,0.000000,0.000000,0.000000,0.000000,0.000000,0.000000,0.000000,0.000000,0.000000,0.047400
9.84400,0.000000,0.436000,0.000000,0.000000,0.000000,0.000000,0.000000,0.000000,0.000000,0.000000,0.000000,0.059860
9.84200,0.000000,0.436000,0.000000,0.000000,0.000000,0.000000,0.000000,0.000000,0.000000,0.000000,0.000000,0.072320
9.84000,0.000000,0.436000,0.000000,0.000000,0.000000,0.000000,0.000000,0.000000,0.000000,0.000000,0.000000,0.084780
9.83800,0.000000,0.436000,0.000000,0.000000,0.000000,0.000000,0.000000,0.000000,0.000000,0.000000,0.000000,0.097240
9.83600,0.000000,0.436000,0.000000,0.000000,0.000000,0.000000,0.000000,0.000000,0.000000,0.000000,0.000000,0.109700
9.83400,0.000000,0.436000,0.000000,0.000000,0.000000,0.000000,0.000000,0.000000,0.000000,0.000000,0.000000,0.122160
9.83200,0.000000,0.436000,0.000000,0.000000,0.000000,0.000000,0.000000,0.000000,0.000000,0.000000,0.000000,0.134620
9.83000,0.000000,0.436000,0.000000,0.000000,0.000000,0.000000,0.000000,0.000000,0.000000,0.000000,0.000000,0.147080
9.82800,0.000000,0.436000,0.000000,0.000000,0.000000,0.000000,0.000000,0.000000,0.000000,0.000000,0.000000,0.159540
9.82600,0.000000,0.436000,0.000000,0.000000,0.000000,0.000000,0.000000,0.000000,0.000000,0.000000,0.000000,0.172000
9.82400,0.000000,0.436000,0.000000,0.000000,0.000000,0.000000,0.000000,0.000000,0.000000,0.000000,0.000000,0.172000
9.82200,0.000000,0.436000,0.000000,0.000000,0.000000,0.000000,0.000000,0.000000,0.000000,0.000000,0.000000,0.183600
9.82000,0.000000,0.436000,0.000000,0.000000,0.000000,0.000000,0.000000,0.000000,0.000000,0.000000,0.000000,0.194400
9.81800,0.000000,0.436000,0.000000,0.000000,0.000000,0.000000,0.000000,0.000000,0.000000,0.000000,0.000000,0.204400
9.81600,0.000000,0.436000,0.000000,0.000000,0.000000,0.000000,0.000000,0.000000,0.000000,0.000000,0.000000,0.213600
9.81400,0.000000,0.436000,0.000000,0.000000,0.000000,0.000000,0.000000,0.000000,0.000000,0.000000,0.000000,0.222000
9.81200,0.000000,0.436000,0.000000,0.000000,0.000000,0.000000,0.000000,0.000000,0.000000,0.000000,0.000000,0.229600
9.81000,0.000000,0.436000,0.000000,0.000000,0.000000,0.000000,0.000000,0.000000,0.000000,0.000000,0.000000,0.236400
9.80800,0.000000,0.436000,0.000000,0.000000,0.000000,0.000000,0.000000,0.000000,0.000000,0.000000,0.000000,0.242400
9.80600,0.000000,0.436000,0.000000,0.000000,0.000000,0.000000,0.000000,0.000000,0.000000,0.000000,0.000000,0.247600
9.80400,0.000000,0.436000,0.000000,0.000000,0.000000,0.000000,0.000000,0.000000,0.000000,0.000000,0.000000,0.252000
9.80200,0.000000,0.436000,0.000000,0.000000,0.000000,0.000000,0.000000,0.000000,0.000000,0.000000,0.000000,0.255600
9.80000,0.000000,0.436000,0.000000,0.000000,0.000000,0.000000,0.000000,0.000000,0.000000,0.000000,0.000000,0.258400
9.79800,0.000000,0.436000,0.000000,0.000000,0.000000,0.000000,0.000000,0.000000,0.000000,0.000000,0.000000,0.260400
9.79600,0.000000,0.436000,0.000000,0.000000,0.000000,0.000000,0.000000,0.000000,0.000000,0.000000,0.000000,0.261600
9.79400,0.000000,0.436000,0.000000,0.000000,0.000000,0.000000,0.000000,0.000000,0.000000,0.000000,0.000000,0.262000
9.79200,0.000000,0.436000,0.000000,0.000000,0.000000,0.000000,0.000000,0.000000,0.000000,0.000000,0.000000,0.183600
9.79000,0.000000,0.436000,0.000000,0.000000,0.000000,0.000000,0.000000,0.000000,0.000000,0.000000,0.000000,0.194400
9.78800,0.000000,0.436000,0.000000,0.000000,0.000000,0.000000,0.000000,0.000000,0.000000,0.000000,0.000000,0.204400
9.78600,0.000000,0.436000,0.000000,0.000000,0.000000,0.000000,0.000000,0.000000,0.000000,0.000000,0.000000,0.213600
9.78400,0.000000,0.436000,0.000000,0.000000,0.000000,0.000000,0.000000,0.000000,0.000000,0.000000,0.000000,0.222000
9.78200,0.000000,0.436000,0.000000,0.000000,0.000000,0.000000,0.000000,0.000000,0.000000,0.000000,0.000000,0.229600
9.78000,0.000000,0.436000,0.000000,0.000000,0.000000,0.000000,0.000000,0.000000,0.000000,0.000000,0.000000,0.236400
9.77800,0.000000,0.436000,0.000000,0.000000,0.000000,0.000000,0.000000,0.000000,0.000000,0.000000,0.000000,0.242400
9.77600,0.000000,0.436000,0.000000,0.000000,0.000000,0.000000,0.000000,0.000000,0.000000,0.000000,0.000000,0.247600
9.77400,0.000000,0.436000,0.000000,0.000000,0.000000,0.000000,0.000000,0.000000,0.000000,0.000000,0.000000,0.252000
9.77200,0.000000,0.436000,0.000000,0.000000,0.000000,0.000000,0.000000,0.000000,0.000000,0.000000,0.000000,0.255600
9.77000,0.000000,0.436000,0.000000,0.000000,0.000000,0.000000,0.000000,0.000000,0.000000,0.000000,0.000000,0.258400
9.76800,0.000000,0.436000,0.000000,0.000000,0.000000,0.000000,0.000000,0.000000,0.000000,0.000000,0.000000,0.260400
9.76600,0.000000,0.436000,0.000000,0.000000,0.000000,0.000000,0.000000,0.000000,0.000000,0.000000,0.000000,0.261600
9.76400,0.000000,0.436000,0.000000,0.000000,0.000000,0.000000,0.000000,0.000000,0.000000,0.000000,0.000000,0.262000
9.76200,0.000000,0.436000,0.000000,0.000000,0.000000,0.000000,0.000000,0.000000,0.000000,0.000000,0.000000,0.151960
9.76000,0.000000,0.436000,0.000000,0.000000,0.000000,0.000000,0.000000,0.000000,0.000000,0.000000,0.000000,0.139500
9.75800,0.000000,0.436000,0.000000,0.000000,0.000000,0.000000,0.000000,0.000000,0.000000,0.000000,0.000000,0.127040
9.75600,0.000000,0.436000,0.000000,0.000000,0.000000,0.000000,0.000000,0.000000,0.000000,0.000000,0.000000,0.114580
9.75400,0.000000,0.436000,0.000000,0.000000,0.000000,0.000000,0.000000,0.000000,0.000000,0.000000,0.000000,0.102120
9.75200,0.000000,0.436000,0.000000,0.000000,0.000000,0.000000,0.000000,0.000000,0.000000,0.000000,0.000000,0.089660
9.75000,0.000000,0.436000,0.000000,0.000000,0.000000,0.000000,0.000000,0.000000,0.000000,0.000000,0.000000,0.077200
9.74800,0.000000,0.436000,0.000000,0.000000,0.000000,0.000000,0.000000,0.000000,0.000000,0.000000,0.000000,0.064740
9.74600,0.000000,0.436000,0.000000,0.000000,0.000000,0.000000,0.000000,0.000000,0.000000,0.000000,0.000000,0.052280
9.74400,0.000000,0.436000,0.000000,0.000000,0.000000,0.000000,0.000000,0.000000,0.000000,0.000000,0.000000,0.039820
9.74200,0.000000,0.436000,0.000000,0.000000,0.000000,0.000000,0.000000,0.000000,0.000000,0.000000,0.000000,0.027360
9.74000,0.000000,0.436000,0.000000,0.000000,0.000000,0.000000,0.000000,0.000000,0.000000,0.000000,0.000000,0.014900
9.73800,0.000000,0.436000,0.000000,0.000000,0.000000,0.000000,0.000000,0.000000,0.000000,0.000000,0.000000,0.002440
9.73600,0.000000,0.436000,0.000000,0.000000,0.000000,0.000000,0.000000,0.000000,0.000000,0.000000,0.000000,-0.010020
9.73400,0.000000,0.436000,0.000000,0.000000,0.000000,0.000000,0.000000,0.000000,0.000000,0.000000,0.000000,-0.022480
9.73200,0.000000,0.436000,0.000000,0.000000,0.000000,0.000000,0.000000,0.000000,0.000000,0.000000,0.000000,-0.034940
9.73000,0.000000,0.436000,0.000000,0.000000,0.000000,0.000000,0.000000,0.000000,0.000000,0.000000,0.000000,-0.047400
9.72800,0.000000,0.436000,0.000000,0.000000,0.000000,0.000000,0.000000,0.000000,0.000000,0.000000,0.000000,-0.059860
9.72600,0.000000,0.436000,0.000000,0.000000,0.000000,0.000000,0.000000,0.000000,0.000000,0.000000,0.000000,-0.072320
9.72400,0.000000,0.436000,0.000000,0.000000,0.000000,0.000000,0.000000,0.000000,0.000000,0.000000,0.000000,-0.084780
9.72200,0.000000,0.436000,0.000000,0.000000,0.000000,0.000000,0.000000,0.000000,0.000000,0.000000,0.000000,-0.097240
9.72000,0.000000,0.436000,0.000000,0.000000,0.000000,0.000000,0.000000,0.000000,0.000000,0.000000,0.000000,-0.109700
9.71800,0.000000,0.436000,0.000000,0.000000,0.000000,0.000000,0.000000,0.000000,0.000000,0.000000,0.000000,-0.122160
9.71600,0.000000,0.436000,0.000000,0.000000,0.000000,0.000000,0.000000,0.000000,0.000000,0.000000,0.000000,-0.134620
9.71400,0.000000,0.436000,0.000000,0.000000,0.000000,0.000000,0.000000,0.000000,0.000000,0.000000,0.000000,-0.147080
9.71200,0.000000,0.436000,0.000000,0.000000,0.000000,0.000000,0.000000,0.000000,0.000000,0.000000,0.000000,-0.159540
9.71000,0.000000,0.436000,0.000000,0.000000,0.000000,0.000000,0.000000,0.000000,0.000000,0.000000,0.000000,-0.172000
9.70800,0.000000,0.436000,0.000000,0.000000,0.000000,0.000000,0.000000,0.000000,0.000000,0.000000,0.000000,-0.172000
9.70600,0.000000,0.436000,0.000000,0.000000,0.000000,0.000000,0.000000,0.000000,0.000000,0.000000,0.000000,-0.183600
9.70400,0.000000,0.436000,0.000000,0.000000,0.000000,0.000000,0.000000,0.000000,0.000000,0.000000,0.000000,-0.194400
9.70200,0.000000,0.436000,0.000000,0.000000,0.000000,0.000000,0.000000,0.000000,0.000000,0.000000,0.000000,-0.204400
9.70000,0.000000,0.436000,0.000000,0.000000,0.000000,0.000000,0.000000,0.000000,0.000000,0.000000,0.000000,-0.213600
9.69800,0.000000,0.436000,0.000000,0.000000,0.000000,0.000000,0.000000,0.000000,0.000000,0.000000,0.000000,-0.222000
9.69600,0.000000,0.436000,0.000000,0.000000,0.000000,0.000000,0.000000,0.000000,0.000000,0.000000,0.000000,-0.229600
9.69400,0.000000,0.436000,0.000000,0.000000,0.000000,0.000000,0.000000,0.000000,0.000000,0.000000,0.000000,-0.236400
9.69200,0.000000,0.436000,0.000000,0.000000,0.000000,0.000000,0.000000,0.000000,0.000000,0.000000,0.000000,-0.242400
9.69000,0.000000,0.436000,0.000000,0.000000,0.000000,0.000000,0.000000,0.000000,0.000000,0.000000,0.000000,-0.247600
9.68800,0.000000,0.436000,0.000000,0.000000,0.000000,0.000000,0.000000,0.000000,0.000000,0.000000,0.000000,-0.252000
9.68600,0.000000,0.436000,0.000000,0.000000,0.000000,0.000000,0.000000,0.000000,0.000000,0.000000,0.000000,-0.255600
9.68400,0.000000,0.436000,0.000000,0.000000,0.000000,0.000000,0.000000,0.000000,0.000000,0.000000,0.000000,-0.258400
9.68200,0.000000,0.436000,0.000000,0.000000,0.000000,0.000000,0.000000,0.000000,0.000000,0.000000,0.000000,-0.260400
9.68000,0.000000,0.436000,0.000000,0.000000,0.000000,0.000000,0.000000,0.000000,0.000000,0.000000,0.000000,-0.261600
9.67800,0.000000,0.436000,0.000000,0.000000,0.000000,0.000000,0.000000,0.000000,0.000000,0.000000,0.000000,-0.262000
9.67600,0.000000,0.436000,0.000000,0.000000,0.000000,0.000000,0.000000,0.000000,0.000000,0.000000,0.000000,-0.183600
9.67400,0.000000,0.436000,0.000000,0.000000,0.000000,0.000000,0.000000,0.000000,0.000000,0.000000,0.000000,-0.194400
9.67200,0.000000,0.436000,0.000000,0.000000,0.000000,0.000000,0.000000,0.000000,0.000000,0.000000,0.000000,-0.204400
9.67000,0.000000,0.436000,0.000000,0.000000,0.000000,0.000000,0.000000,0.000000,0.000000,0.000000,0.000000,-0.213600
9.66800,0.000000,0.436000,0.000000,0.000000,0.000000,0.000000,0.000000,0.000000,0.000000,0.000000,0.000000,-0.222000
9.66600,0.000000,0.436000,0.000000,0.000000,0.000000,0.000000,0.000000,0.000000,0.000000,0.000000,0.000000,-0.229600
9.66400,0.000000,0.436000,0.000000,0.000000,0.000000,0.000000,0.000000,0.000000,0.000000,0.000000,0.000000,-0.236400
9.66200,0.000000,0.436000,0.000000,0.000000,0.000000,0.000000,0.000000,0.000000,0.000000,0.000000,0.000000,-0.242400
9.66000,0.000000,0.436000,0.000000,0.000000,0.000000,0.000000,0.000000,0.000000,0.000000,0.000000,0.000000,-0.247600
9.65800,0.000000,0.436000,0.000000,0.000000,0.000000,0.000000,0.000000,0.000000,0.000000,0.000000,0.000000,-0.252000
9.65600,0.000000,0.436000,0.000000,0.000000,0.000000,0.000000,0.000000,0.000000,0.000000,0.000000,0.000000,-0.255600
9.65400,0.000000,0.436000,0.000000,0.000000,0.000000,0.000000,0.000000,0.000000,0.000000,0.000000,0.000000,-0.258400
9.65200,0.000000,0.436000,0.000000,0.000000,0.000000,0.000000,0.000000,0.000000,0.000000,0.000000,0.000000,-0.260400
9.65000,0.000000,0.436000,0.000000,0.000000,0.000000,0.000000,0.000000,0.000000,0.000000,0.000000,0.000000,-0.261600
9.64800,0.000000,0.436000,0.000000,0.000000,0.000000,0.000000,0.000000,0.000000,0.000000,0.000000,0.000000,-0.262000
9.64600,0.000000,0.436000,0.000000,0.000000,0.000000,0.000000,0.000000,0.000000,0.000000,0.000000,0.000000,-0.152300
9.64400,0.000000,0.436000,0.000000,0.000000,0.000000,0.000000,0.000000,0.000000,0.000000,0.000000,0.000000,-0.139840
9.64200,0.000000,0.436000,0.000000,0.000000,0.000000,0.000000,0.000000,0.000000,0.000000,0.000000,0.000000,-0.127380
9.64000,0.000000,0.436000,0.000000,0.000000,0.000000,0.000000,0.000000,0.000000,0.000000,0.000000,0.000000,-0.114920
9.63800,0.000000,0.436000,0.000000,0.000000,0.000000,0.000000,0.000000,0.000000,0.000000,0.000000,0.000000,-0.102460
9.63600,0.000000,0.436000,0.000000,0.000000,0.000000,0.000000,0.000000,0.000000,0.000000,0.000000,0.000000,-0.090000
9.63400,0.000000,0.436000,0.000000,0.000000,0.000000,0.000000,0.000000,0.000000,0.000000,0.000000,0.000000,-0.090000
9.63200,0.000000,0.436000,0.000000,0.000000,0.000000,0.000000,0.000000,0.000000,0.000000,0.000000,0.000000,-0.078400
9.63000,0.000000,0.436000,0.000000,0.000000,0.000000,0.000000,0.000000,0.000000,0.000000,0.000000,0.000000,-0.067600
9.62800,0.000000,0.436000,0.000000,0.000000,0.000000,0.000000,0.000000,0.000000,0.000000,0.000000,0.000000,-0.057600
9.62600,0.000000,0.436000,0.000000,0.000000,0.000000,0.000000,0.000000,0.000000,0.000000,0.000000,0.000000,-0.048400
9.62400,0.000000,0.436000,0.000000,0.000000,0.000000,0.000000,0.000000,0.000000,0.000000,0.000000,0.000000,-0.040000
9.62200,0.000000,0.436000,0.000000,0.000000,0.000000,0.000000,0.000000,0.000000,0.000000,0.000000,0.000000,-0.032400
9.62000,0.000000,0.436000,0.000000,0.000000,0.000000,0.000000,0.000000,0.000000,0.000000,0.000000,0.000000,-0.025600
9.61800,0.000000,0.436000,0.000000,0.000000,0.000000,0.000000,0.000000,0.000000,0.000000,0.000000,0.000000,-0.019600
9.61600,0.000000,0.436000,0.000000,0.000000,0.000000,0.000000,0.000000,0.000000,0.000000,0.000000,0.000000,-0.014400
9.61400,0.000000,0.436000,0.000000,0.000000,0.000000,0.000000,0.000000,0.000000,0.000000,0.000000,0.000000,-0.010000
9.61200,0.000000,0.436000,0.000000,0.000000,0.000000,0.000000,0.000000,0.000000,0.000000,0.000000,0.000000,-0.006400
9.61000,0.000000,0.436000,0.000000,0.000000,0.000000,0.000000,0.000000,0.000000,0.000000,0.000000,0.000000,-0.003600
9.60800,0.000000,0.436000,0.000000,0.000000,0.000000,0.000000,0.000000,0.000000,0.000000,0.000000,0.000000,-0.001600
9.60600,0.000000,0.436000,0.000000,0.000000,0.000000,0.000000,0.000000,0.000000,0.000000,0.000000,0.000000,-0.000400
9.60400,0.000000,0.436000,0.000000,0.000000,0.000000,0.000000,0.000000,0.000000,0.000000,0.000000,0.000000,0.000000
9.60400,0.000000,0.436000,0.000000,0.000000,0.000000,0.000000,0.000000,0.000000,0.000000,0.000000,0.000000,0.000000
9.60200,0.000000,0.436000,0.000000,0.000000,0.000000,0.000000,0.000000,0.000000,0.000000,0.000000,-0.078400,0.000000
9.60000,0.000000,0.436000,0.000000,0.000000,0.000000,0.000000,0.000000,0.000000,0.000000,0.000000,-0.067600,0.000000
9.59800,0.000000,0.436000,0.000000,0.000000,0.000000,0.000000,0.000000,0.000000,0.000000,0.000000,-0.057600,0.000000
9.59600,0.000000,0.436000,0.000000,0.000000,0.000000,0.000000,0.000000,0.000000,0.000000,0.000000,-0.048400,0.000000
9.59400,0.000000,0.436000,0.000000,0.000000,0.000000,0.000000,0.000000,0.000000,0.000000,0.000000,-0.040000,0.000000
9.59200,0.000000,0.436000,0.000000,0.000000,0.000000,0.000000,0.000000,0.000000,0.000000,0.000000,-0.032400,0.000000
9.59000,0.000000,0.436000,0.000000,0.000000,0.000000,0.000000,0.000000,0.000000,0.000000,0.000000,-0.025600,0.000000
9.58800,0.000000,0.436000,0.000000,0.000000,0.000000,0.000000,0.000000,0.000000,0.000000,0.000000,-0.019600,0.000000
9.58600,0.000000,0.436000,0.000000,0.000000,0.000000,0.000000,0.000000,0.000000,0.000000,0.000000,-0.014400,0.000000
9.58400,0.000000,0.436000,0.000000,0.000000,0.000000,0.000000,0.000000,0.000000,0.000000,0.000000,-0.010000,0.000000
9.58200,0.000000,0.436000,0.000000,0.000000,0.000000,0.000000,0.000000,0.000000,0.000000,0.000000,-0.006400,0.000000
9.58000,0.000000,0.436000,0.000000,0.000000,0.000000,0.000000,0.000000,0.000000,0.000000,0.000000,-0.003600,0.000000
9.57800,0.000000,0.436000,0.000000,0.000000,0.000000,0.000000,0.000000,0.000000,0.000000,0.000000,-0.001600,0.000000
9.57600,0.000000,0.436000,0.000000,0.000000,0.000000,0.000000,0.000000,0.000000,0.000000,0.000000,-0.000400,0.000000
9.57400,0.000000,0.436000,0.000000,0.000000,0.000000,0.000000,0.000000,0.000000,0.000000,0.000000,0.000000,0.000000
9.57200,0.000000,0.436000,0.000000,0.000000,0.000000,0.000000,0.000000,0.000000,0.000000,0.000000,-0.109160,0.000000
9.57000,0.000000,0.436000,0.000000,0.000000,0.000000,0.000000,0.000000,0.000000,0.000000,0.000000,-0.121620,0.000000
9.56800,0.000000,0.436000,0.000000,0.000000,0.000000,0.000000,0.000000,0.000000,0.000000,0.000000,-0.134080,0.000000
9.56600,0.000000,0.436000,0.000000,0.000000,0.000000,0.000000,0.000000,0.000000,0.000000,0.000000,-0.146540,0.000000
9.56400,0.000000,0.436000,0.000000,0.000000,0.000000,0.000000,0.000000,0.000000,0.000000,0.000000,-0.159000,0.000000
9.56200,0.000000,0.436000,0.000000,0.000000,0.000000,0.000000,0.000000,0.000000,0.000000,0.000000,-0.171460,0.000000
9.56000,0.000000,0.436000,0.000000,0.000000,0.000000,0.000000,0.000000,0.000000,0.000000,0.000000,-0.183920,0.000000
9.55800,0.000000,0.436000,0.000000,0.000000,0.000000,0.000000,0.000000,0.000000,0.000000,0.000000,-0.196380,0.000000
9.55600,0.000000,0.436000,0.000000,0.000000,0.000000,0.000000,0.000000,0.000000,0.000000,0.000000,-0.208840,0.000000
9.55400,0.000000,0.436000,0.000000,0.000000,0.000000,0.000000,0.000000,0.000000,0.000000,0.000000,-0.221300,0.000000
9.55200,0.000000,0.436000,0.000000,0.000000,0.000000,0.000000,0.000000,0.000000,0.000000,0.000000,-0.233760,0.000000
9.55000,0.000000,0.436000,0.000000,0.000000,0.000000,0.000000,0.000000,0.000000,0.000000,0.000000,-0.246220,0.000000
9.54800,0.000000,0.436000,0.000000,0.000000,0.000000,0.000000,0.000000,0.000000,0.000000,0.000000,-0.258680,0.000000
9.54600,0.000000,0.436000,0.000000,0.000000,0.000000,0.000000,0.000000,0.000000,0.000000,0.000000,-0.271140,0.000000
9.54400,0.000000,0.436000,0.000000,0.000000,0.000000,0.000000,0.000000,0.000000,0.000000,0.000000,-0.283600,0.000000
9.54200,0.000000,0.436000,0.000000,0.000000,0.000000,0.000000,0.000000,0.000000,0.000000,0.000000,-0.296060,0.000000
9.54000,0.000000,0.436000,0.000000,0.000000,0.000000,0.000000,0.000000,0.000000,0.000000,0.000000,-0.308520,0.000000
9.53800,0.000000,0.436000,0.000000,0.000000,0.000000,0.000000,0.000000,0.000000,0.000000,0.000000,-0.320980,0.000000
9.53600,0.000000,0.436000,0.000000,0.000000,0.000000,0.000000,0.000000,0.000000,0.000000,0.000000,-0.333440,0.000000
9.53400,0.000000,0.436000,0.000000,0.000000,0.000000,0.000000,0.000000,0.000000,0.000000,0.000000,-0.345900,0.000000
9.53200,0.000000,0.436000,0.000000,0.000000,0.000000,0.000000,0.000000,0.000000,0.000000,0.000000,-0.358360,0.000000
9.53000,0.000000,0.436000,0.000000,0.000000,0.000000,0.000000,0.000000,0.000000,0.000000,0.000000,-0.370820,0.000000
9.52800,0.000000,0.436000,0.000000,0.000000,0.000000,0.000000,0.000000,0.000000,0.000000,0.000000,-0.383280,0.000000
9.52600,0.000000,0.436000,0.000000,0.000000,0.000000,0.000000,0.000000,0.000000,0.000000,0.000000,-0.395740,0.000000
9.52400,0.000000,0.436000,0.000000,0.000000,0.000000,0.000000,0.000000,0.000000,0.000000,0.000000,-0.408200,0.000000
9.52200,0.000000,0.436000,0.000000,0.000000,0.000000,0.000000,0.000000,0.000000,0.000000,0.000000,-0.420660,0.000000
9.52000,0.000000,0.436000,0.000000,0.000000,0.000000,0.000000,0.000000,0.000000,0.000000,0.000000,-0.433120,0.000000
9.51800,0.000000,0.436000,0.000000,0.000000,0.000000,0.000000,0.000000,0.000000,0.000000,0.000000,-0.445580,0.000000
9.51600,0.000000,0.436000,0.000000,0.000000,0.000000,0.000000,0.000000,0.000000,0.000000,0.000000,-0.458040,0.000000
9.51400,0.000000,0.436000,0.000000,0.000000,0.000000,0.000000,0.000000,0.000000,0.000000,0.000000,-0.470500,0.000000
9.51200,0.000000,0.436000,0.000000,0.000000,0.000000,0.000000,0.000000,0.000000,0.000000,0.000000,-0.482960,0.000000
9.51000,0.000000,0.436000,0.000000,0.000000,0.000000,0.000000,0.000000,0.000000,0.000000,0.000000,-0.495420,0.000000
9.50800,0.000000,0.436000,0.000000,0.000000,0.000000,0.000000,0.000000,0.000000,0.000000,0.000000,-0.507880,0.000000
9.50600,0.000000,0.436000,0.000000,0.000000,0.000000,0.000000,0.000000,0.000000,0.000000,0.000000,-0.520340,0.000000
9.50400,0.000000,0.436000,0.000000,0.000000,0.000000,0.000000,0.000000,0.000000,0.000000,0.000000,-0.532800,0.000000
9.50200,0.000000,0.436000,0.000000,0.000000,0.000000,0.000000,0.000000,0.000000,0.000000,0.000000,-0.545260,0.000000
9.50000,0.000000,0.436000,0.000000,0.000000,0.000000,0.000000,0.000000,0.000000,0.000000,0.000000,-0.557720,0.000000
9.49800,0.000000,0.436000,0.000000,0.000000,0.000000,0.000000,0.000000,0.000000,0.000000,0.000000,-0.570180,0.000000
9.49600,0.000000,0.436000,0.000000,0.000000,0.000000,0.000000,0.000000,0.000000,0.000000,0.000000,-0.582640,0.000000
9.49400,0.000000,0.436000,0.000000,0.000000,0.000000,0.000000,0.000000,0.000000,0.000000,0.000000,-0.595100,0.000000
9.49200,0.000000,0.436000,0.000000,0.000000,0.000000,0.000000,0.000000,0.000000,0.000000,0.000000,-0.607560,0.000000
9.49000,0.000000,0.436000,0.000000,0.000000,0.000000,0.000000,0.000000,0.000000,0.000000,0.000000,-0.620020,0.000000
9.48800,0.000000,0.436000,0.000000,0.000000,0.000000,0.000000,0.000000,0.000000,0.000000,0.000000,-0.632480,0.000000
9.48600,0.000000,0.436000,0.000000,0.000000,0.000000,0.000000,0.000000,0.000000,0.000000,0.000000,-0.644940,0.000000
9.48400,0.000000,0.436000,0.000000,0.000000,0.000000,0.000000,0.000000,0.000000,0.000000,0.000000,-0.657400,0.000000
9.48200,0.000000,0.436000,0.000000,0.000000,0.000000,0.000000,0.000000,0.000000,0.000000,0.000000,-0.669860,0.000000
9.48000,0.000000,0.436000,0.000000,0.000000,0.000000,0.000000,0.000000,0.000000,0.000000,0.000000,-0.682320,0.000000
9.47800,0.000000,0.436000,0.000000,0.000000,0.000000,0.000000,0.000000,0.000000,0.000000,0.000000,-0.694780,0.000000
9.47600,0.000000,0.436000,0.000000,0.000000,0.000000,0.000000,0.000000,0.000000,0.000000,0.000000,-0.707240,0.000000
9.47400,0.000000,0.436000,0.000000,0.000000,0.000000,0.000000,0.000000,0.000000,0.000000,0.000000,-0.719700,0.000000
9.47200,0.000000,0.436000,0.000000,0.000000,0.000000,0.000000,0.000000,0.000000,0.000000,0.000000,-0.732160,0.000000
9.47000,0.000000,0.436000,0.000000,0.000000,0.000000,0.000000,0.000000,0.000000,0.000000,0.000000,-0.744620,0.000000
9.46800,0.000000,0.436000,0.000000,0.000000,0.000000,0.000000,0.000000,0.000000,0.000000,0.000000,-0.757080,0.000000
9.46600,0.000000,0.436000,0.000000,0.000000,0.000000,0.000000,0.000000,0.000000,0.000000,0.000000,-0.769540,0.000000
9.46400,0.000000,0.436000,0.000000,0.000000,0.000000,0.000000,0.000000,0.000000,0.000000,0.000000,-0.782000,0.000000
9.46200,0.000000,0.436000,0.000000,0.000000,0.000000,0.000000,0.000000,0.000000,0.000000,0.000000,-0.782000,0.000000
9.46000,0.000000,0.436000,0.000000,0.000000,0.000000,0.000000,0.000000,0.000000,0.000000,0.000000,-0.793600,0.000000
9.45800,0.000000,0.436000,0.000000,0.000000,0.000000,0.000000,0.000000,0.000000,0.000000,0.000000,-0.804400,0.000000
9.45600,0.000000,0.436000,0.000000,0.000000,0.000000,0.000000,0.000000,0.000000,0.000000,0.000000,-0.814400,0.000000
9.45400,0.000000,0.436000,0.000000,0.000000,0.000000,0.000000,0.000000,0.000000,0.000000,0.000000,-0.823600,0.000000
9.45200,0.000000,0.436000,0.000000,0.000000,0.000000,0.000000,0.000000,0.000000,0.000000,0.000000,-0.832000,0.000000
9.45000,0.000000,0.436000,0.000000,0.000000,0.000000,0.000000,0.000000,0.000000,0.000000,0.000000,-0.839600,0.000000
9.44800,0.000000,0.436000,0.000000,0.000000,0.000000,0.000000,0.000000,0.000000,0.000000,0.000000,-0.846400,0.000000
9.44600,0.000000,0.436000,0.000000,0.000000,0.000000,0.000000,0.000000,0.000000,0.000000,0.000000,-0.852400,0.000000
9.44400,0.000000,0.436000,0.000000,0.000000,0.000000,0.000000,0.000000,0.000000,0.000000,0.000000,-0.857600,0.000000
9.44200,0.000000,0.436000,0.000000,0.000000,0.000000,0.000000,0.000000,0.000000,0.000000,0.000000,-0.862000,0.000000
9.44000,0.000000,0.436000,0.000000,0.000000,0.000000,0.000000,0.000000,0.000000,0.000000,0.000000,-0.865600,0.000000
9.43800,0.000000,0.436000,0.000000,0.000000,0.000000,0.000000,0.000000,0.000000,0.000000,0.000000,-0.868400,0.000000
9.43600,0.000000,0.436000,0.000000,0.000000,0.000000,0.000000,0.000000,0.000000,0.000000,0.000000,-0.870400,0.000000
9.43400,0.000000,0.436000,0.000000,0.000000,0.000000,0.000000,0.000000,0.000000,0.000000,0.000000,-0.871600,0.000000
9.43200,0.000000,0.436000,0.000000,0.000000,0.000000,0.000000,0.000000,0.000000,0.000000,0.000000,-0.872000,0.000000
9.43000,0.000000,0.436000,0.000000,0.000000,0.000000,0.000000,0.000000,0.000000,0.000000,0.000000,-0.793600,0.000000
9.42800,0.000000,0.436000,0.000000,0.000000,0.000000,0.000000,0.000000,0.000000,0.000000,0.000000,-0.804400,0.000000
9.42600,0.000000,0.436000,0.000000,0.000000,0.000000,0.000000,0.000000,0.000000,0.000000,0.000000,-0.814400,0.000000
9.42400,0.000000,0.436000,0.000000,0.000000,0.000000,0.000000,0.000000,0.000000,0.000000,0.000000,-0.823600,0.000000
9.42200,0.000000,0.436000,0.000000,0.000000,0.000000,0.000000,0.000000,0.000000,0.000000,0.000000,-0.832000,0.000000
9.42000,0.000000,0.436000,0.000000,0.000000,0.000000,0.000000,0.000000,0.000000,0.000000,0.000000,-0.839600,0.000000
9.41800,0.000000,0.436000,0.000000,0.000000,0.000000,0.000000,0.000000,0.000000,0.000000,0.000000,-0.846400,0.000000
9.41600,0.000000,0.436000,0.000000,0.000000,0.000000,0.000000,0.000000,0.000000,0.000000,0.000000,-0.852400,0.000000
9.41400,0.000000,0.436000,0.000000,0.000000,0.000000,0.000000,0.000000,0.000000,0.000000,0.000000,-0.857600,0.000000
9.41200,0.000000,0.436000,0.000000,0.000000,0.000000,0.000000,0.000000,0.000000,0.000000,0.000000,-0.862000,0.000000
9.41000,0.000000,0.436000,0.000000,0.000000,0.000000,0.000000,0.000000,0.000000,0.000000,0.000000,-0.865600,0.000000
9.40800,0.000000,0.436000,0.000000,0.000000,0.000000,0.000000,0.000000,0.000000,0.000000,0.000000,-0.868400,0.000000
9.40600,0.000000,0.436000,0.000000,0.000000,0.000000,0.000000,0.000000,0.000000,0.000000,0.000000,-0.870400,0.000000
9.40400,0.000000,0.436000,0.000000,0.000000,0.000000,0.000000,0.000000,0.000000,0.000000,0.000000,-0.871600,0.000000
9.40200,0.000000,0.436000,0.000000,0.000000,0.000000,0.000000,0.000000,0.000000,0.000000,0.000000,-0.872000,0.000000
9.40000,0.000000,0.436000,0.000000,0.000000,0.000000,0.000000,0.000000,0.000000,0.000000,0.000000,-0.763160,0.000000
9.39800,0.000000,0.436000,0.000000,0.000000,0.000000,0.000000,0.000000,0.000000,0.000000,0.000000,-0.750700,0.000000
9.39600,0.000000,0.436000,0.000000,0.000000,0.000000,0.000000,0.000000,0.000000,0.000000,0.000000,-0.738240,0.000000
9.39400,0.000000,0.436000,0.000000,0.000000,0.000000,0.000000,0.000000,0.000000,0.000000,0.000000,-0.725780,0.000000
9.39200,0.000000,0.436000,0.000000,0.000000,0.000000,0.000000,0.000000,0.000000,0.000000,0.000000,-0.713320,0.000000
9.39000,0.000000,0.436000,0.000000,0.000000,0.000000,0.000000,0.000000,0.000000,0.000000,0.000000,-0.700860,0.000000
9.38800,0.000000,0.436000,0.000000,0.000000,0.000000,0.000000,0.000000,0.000000,0.000000,0.000000,-0.688400,0.000000
9.38600,0.000000,0.436000,0.000000,0.000000,0.000000,0.000000,0.000000,0.000000,0.000000,0.000000,-0.675940,0.000000
9.38400,0.000000,0.436000,0.000000,0.000000,0.000000,0.000000,0.000000,0.000000,0.000000,0.000000,-0.663480,0.000000
9.38200,0.000000,0.436000,0.000000,0.000000,0.000000,0.000000,0.000000,0.000000,0.000000,0.000000,-0.651020,0.000000
9.38000,0.000000,0.436000,0.000000,0.000000,0.000000,0.000000,0.000000,0.000000,0.000000,0.000000,-0.638560,0.000000
9.37800,0.000000,0.436000,0.000000,0.000000,0.000000,0.000000,0.000000,0.000000,0.000000,0.000000,-0.626100,0.000000
9.37600,0.000000,0.436000,0.000000,0.000000,0.000000,0.000000,0.000000,0.000000,0.000000,0.000000,-0.613640,0.000000
9.37400,0.000000,0.436000,0.000000,0.000000,0.000000,0.000000,0.000000,0.000000,0.000000,0.000000,-0.601180,0.000000
9.37200,0.000000,0.436000,0.000000,0.000000,0.000000,0.000000,0.000000,0.000000,0.000000,0.000000,-0.588720,0.000000
9.37000,0.000000,0.436000,0.000000,0.000000,0.000000,0.000000,0.000000,0.000000,0.000000,0.000000,-0.576260,0.000000
9.36800,0.000000,0.436000,0.000000,0.000000,0.000000,0.000000,0.000000,0.000000,0.000000,0.000000,-0.563800,0.000000
9.36600,0.000000,0.436000,0.000000,0.000000,0.000000,0.000000,0.000000,0.000000,0.000000,0.000000,-0.551340,0.000000
9.36400,0.000000,0.436000,0.000000,0.000000,0.000000,0.000000,0.000000,0.000000,0.000000,0.000000,-0.538880,0.000000
9.36200,0.000000,0.436000,0.000000,0.000000,0.000000,0.000000,0.000000,0.000000,0.000000,0.000000,-0.526420,0.000000
9.36000,0.000000,0.436000,0.000000,0.000000,0.000000,0.000000,0.000000,0.000000,0.000000,0.000000,-0.513960,0.000000
9.35800,0.000000,0.436000,0.000000,0.000000,0.000000,0.000000,0.000000,0.000000,0.000000,0.000000,-0.501500,0.000000
9.35600,0.000000,0.436000,0.000000,0.000000,0.000000,0.000000,0.000000,0.000000,0.000000,0.000000,-0.489040,0.000000
9.35400,0.000000,0.436000,0.000000,0.000000,0.000000,0.000000,0.000000,0.000000,0.000000,0.000000,-0.476580,0.000000
9.35200,0.000000,0.436000,0.000000,0.000000,0.000000,0.000000,0.000000,0.000000,0.000000,0.000000,-0.464120,0.000000
9.35000,0.000000,0.436000,0.000000,0.000000,0.000000,0.000000,0.000000,0.000000,0.000000,0.000000,-0.451660,0.000000
9.34800,0.000000,0.436000,0.000000,0.000000,0.000000,0.000000,0.000000,0.000000,0.000000,0.000000,-0.439200,0.000000
9.34600,0.000000,0.436000,0.000000,0.000000,0.000000,0.000000,0.000000,0.000000,0.000000,0.000000,-0.426740,0.000000
9.34400,0.000000,0.436000,0.000000,0.000000,0.000000,0.000000,0.000000,0.000000,0.000000,0.000000,-0.414280,0.000000
9.34200,0.000000,0.436000,0.000000,0.000000,0.000000,0.000000,0.000000,0.000000,0.000000,0.000000,-0.401820,0.000000
9.34000,0.000000,0.436000,0.000000,0.000000,0.000000,0.000000,0.000000,0.000000,0.000000,0.000000,-0.389360,0.000000
9.33800,0.000000,0.436000,0.000000,0.000000,0.000000,0.000000,0.000000,0.000000,0.000000,0.000000,-0.376900,0.000000
9.33600,0.000000,0.436000,0.000000,0.000000,0.000000,0.000000,0.000000,0.000000,0.000000,0.000000,-0.364440,0.000000
9.33400,0.000000,0.436000,0.000000,0.000000,0.000000,0.000000,0.000000,0.000000,0.000000,0.000000,-0.351980,0.000000
9.33200,0.000000,0.436000,0.000000,0.000000,0.000000,0.000000,0.000000,0.000000,0.000000,0.000000,-0.339520,0.000000
9.33000,0.000000,0.436000,0.000000,0.000000,0.000000,0.000000,0.000000,0.000000,0.000000,0.000000,-0.327060,0.000000
9.32800,0.000000,0.436000,0.000000,0.000000,0.000000,0.000000,0.000000,0.000000,0.000000,0.000000,-0.314600,0.000000
9.32600,0.000000,0.436000,0.000000,0.000000,0.000000,0.000000,0.000000,0.000000,0.000000,0.000000,-0.302140,0.000000
9.32400,0.000000,0.436000,0.000000,0.000000,0.000000,0.000000,0.000000,0.000000,0.000000,0.000000,-0.289680,0.000000
9.32200,0.000000,0.436000,0.000000,0.000000,0.000000,0.000000,0.000000,0.000000,0.000000,0.000000,-0.277220,0.000000
9.32000,0.000000,0.436000,0.000000,0.000000,0.000000,0.000000,0.000000,0.000000,0.000000,0.000000,-0.264760,0.000000
9.31800,0.000000,0.436000,0.000000,0.000000,0.000000,0.000000,0.000000,0.000000,0.000000,0.000000,-0.252300,0.000000
9.31600,0.000000,0.436000,0.000000,0.000000,0.000000,0.000000,0.000000,0.000000,0.000000,0.000000,-0.239840,0.000000
9.31400,0.000000,0.436000,0.000000,0.000000,0.000000,0.000000,0.000000,0.000000,0.000000,0.000000,-0.227380,0.000000
9.31200,0.000000,0.436000,0.000000,0.000000,0.000000,0.000000,0.000000,0.000000,0.000000,0.000000,-0.214920,0.000000
9.31000,0.000000,0.436000,0.000000,0.000000,0.000000,0.000000,0.000000,0.000000,0.000000,0.000000,-0.202460,0.000000
9.30800,0.000000,0.436000,0.000000,0.000000,0.000000,0.000000,0.000000,0.000000,0.000000,0.000000,-0.190000,0.000000
9.30600,0.000000,0.436000,0.000000,0.000000,0.000000,0.000000,0.000000,0.000000,0.000000,0.000000,-0.177540,0.000000
9.30400,0.000000,0.436000,0.000000,0.000000,0.000000,0.000000,0.000000,0.000000,0.000000,0.000000,-0.165080,0.000000
9.30200,0.000000,0.436000,0.000000,0.000000,0.000000,0.000000,0.000000,0.000000,0.000000,0.000000,-0.152620,0.000000
9.30000,0.000000,0.436000,0.000000,0.000000,0.000000,0.000000,0.000000,0.000000,0.000000,0.000000,-0.140160,0.000000
9.29800,0.000000,0.436000,0.000000,0.000000,0.000000,0.000000,0.000000,0.000000,0.000000,0.000000,-0.127700,0.000000
9.29600,0.000000,0.436000,0.000000,0.000000,0.000000,0.000000,0.000000,0.000000,0.000000,0.000000,-0.115240,0.000000
9.29400,0.000000,0.436000,0.000000,0.000000,0.000000,0.000000,0.000000,0.000000,0.000000,0.000000,-0.102780,0.000000
9.29200,0.000000,0.436000,0.000000,0.000000,0.000000,0.000000,0.000000,0.000000,0.000000,0.000000,-0.090320,0.000000
9.29000,0.000000,0.436000,0.000000,0.000000,0.000000,0.000000,0.000000,0.000000,0.000000,0.000000,-0.077860,0.000000
9.28800,0.000000,0.436000,0.000000,0.000000,0.000000,0.000000,0.000000,0.000000,0.000000,0.000000,-0.065400,0.000000
9.28600,0.000000,0.436000,0.000000,0.000000,0.000000,0.000000,0.000000,0.000000,0.000000,0.000000,-0.052940,0.000000
9.28400,0.000000,0.436000,0.000000,0.000000,0.000000,0.000000,0.000000,0.000000,0.000000,0.000000,-0.040480,0.000000
9.28200,0.000000,0.436000,0.000000,0.000000,0.000000,0.000000,0.000000,0.000000,0.000000,0.000000,-0.028020,0.000000
9.28000,0.000000,0.436000,0.000000,0.000000,0.000000,0.000000,0.000000,0.000000,0.000000,0.000000,-0.015560,0.000000
9.27800,0.000000,0.436000,0.000000,0.000000,0.000000,0.000000,0.000000,0.000000,0.000000,0.000000,-0.003100,0.000000
9.27600,0.000000,0.436000,0.000000,0.000000,0.000000,0.000000,0.000000,0.000000,0.000000,0.000000,0.009360,0.000000
9.27400,0.000000,0.436000,0.000000,0.000000,0.000000,0.000000,0.000000,0.000000,0.000000,0.000000,0.021820,0.000000
9.27200,0.000000,0.436000,0.000000,0.000000,0.000000,0.000000,0.000000,0.000000,0.000000,0.000000,0.034280,0.000000
9.27000,0.000000,0.436000,0.000000,0.000000,0.000000,0.000000,0.000000,0.000000,0.000000,0.000000,0.046740,0.000000
9.26800,0.000000,0.436000,0.000000,0.000000,0.000000,0.000000,0.000000,0.000000,0.000000,0.000000,0.059200,0.000000
9.26600,0.000000,0.436000,0.000000,0.000000,0.000000,0.000000,0.000000,0.000000,0.000000,0.000000,0.071660,0.000000
9.26400,0.000000,0.436000,0.000000,0.000000,0.000000,0.000000,0.000000,0.000000,0.000000,0.000000,0.084120,0.000000
9.26200,0.000000,0.436000,0.000000,0.000000,0.000000,0.000000,0.000000,0.000000,0.000000,0.000000,0.096580,0.000000
9.26000,0.000000,0.436000,0.000000,0.000000,0.000000,0.000000,0.000000,0.000000,0.000000,0.000000,0.109040,0.000000
9.25800,0.000000,0.436000,0.000000,0.000000,0.000000,0.000000,0.000000,0.000000,0.000000,0.000000,0.121500,0.000000
9.25600,0.000000,0.436000,0.000000,0.000000,0.000000,0.000000,0.000000,0.000000,0.000000,0.000000,0.133960,0.000000
9.25400,0.000000,0.436000,0.000000,0.000000,0.000000,0.000000,0.000000,0.000000,0.000000,0.000000,0.146420,0.000000
9.25200,0.000000,0.436000,0.000000,0.000000,0.000000,0.000000,0.000000,0.000000,0.000000,0.000000,0.158880,0.000000
9.25000,0.000000,0.436000,0.000000,0.000000,0.000000,0.000000,0.000000,0.000000,0.000000,0.000000,0.171340,0.000000
9.24800,0.000000,0.436000,0.000000,0.000000,0.000000,0.000000,0.000000,0.000000,0.000000,0.000000,0.183800,0.000000
9.24600,0.000000,0.436000,0.000000,0.000000,0.000000,0.000000,0.000000,0.000000,0.000000,0.000000,0.196260,0.000000
9.24400,0.000000,0.436000,0.000000,0.000000,0.000000,0.000000,0.000000,0.000000,0.000000,0.000000,0.208720,0.000000
9.24200,0.000000,0.436000,0.000000,0.000000,0.000000,0.000000,0.000000,0.000000,0.000000,0.000000,0.221180,0.000000
9.24000,0.000000,0.436000,0.000000,0.000000,0.000000,0.000000,0.000000,0.000000,0.000000,0.000000,0.233640,0.000000
9.23800,0.000000,0.436000,0.000000,0.000000,0.000000,0.000000,0.000000,0.000000,0.000000,0.000000,0.246100,0.000000
9.23600,0.000000,0.436000,0.000000,0.000000,0.000000,0.000000,0.000000,0.000000,0.000000,0.000000,0.258560,0.000000
9.23400,0.000000,0.436000,0.000000,0.000000,0.000000,0.000000,0.000000,0.000000,0.000000,0.000000,0.271020,0.000000
9.23200,0.000000,0.436000,0.000000,0.000000,0.000000,0.000000,0.000000,0.000000,0.000000,0.000000,0.283480,0.000000
9.23000,0.000000,0.436000,0.000000,0.000000,0.000000,0.000000,0.000000,0.000000,0.000000,0.000000,0.295940,0.000000
9.22800,0.000000,0.436000,0.000000,0.000000,0.000000,0.000000,0.000000,0.000000,0.000000,0.000000,0.308400,0.000000
9.22600,0.000000,0.436000,0.000000,0.000000,0.000000,0.000000,0.000000,0.000000,0.000000,0.000000,0.320860,0.000000
9.22400,0.000000,0.436000,0.000000,0.000000,0.000000,0.000000,0.000000,0.000000,0.000000,0.000000,0.333320,0.000000
9.22200,0.000000,0.436000,0.000000,0.000000,0.000000,0.000000,0.000000,0.000000,0.000000,0.000000,0.345780,0.000000
9.22000,0.000000,0.436000,0.000000,0.000000,0.000000,0.000000,0.000000,0.000000,0.000000,0.000000,0.358240,0.000000
9.21800,0.000000,0.436000,0.000000,0.000000,0.000000,0.000000,0.000000,0.000000,0.000000,0.000000,0.370700,0.000000
9.21600,0.000000,0.436000,0.000000,0.000000,0.000000,0.000000,0.000000,0.000000,0.000000,0.000000,0.383160,0.000000
9.21400,0.000000,0.436000,0.000000,0.000000,0.000000,0.000000,0.000000,0.000000,0.000000,0.000000,0.395620,0.000000
9.21200,0.000000,0.436000,0.000000,0.000000,0.000000,0.000000,0.000000,0.000000,0.000000,0.000000,0.408080,0.000000
9.21000,0.000000,0.436000,0.000000,0.000000,0.000000,0.000000,0.000000,0.000000,0.000000,0.000000,0.420540,0.000000
9.20800,0.000000,0.436000,0.000000,0.000000,0.000000,0.000000,0.000000,0.000000,0.000000,0.000000,0.433000,0.000000
9.20600,0.000000,0.436000,0.000000,0.000000,0.000000,0.000000,0.000000,0.000000,0.000000,0.000000,0.433000,0.000000
9.20400,0.000000,0.436000,0.000000,0.000000,0.000000,0.000000,0.000000,0.000000,0.000000,0.000000,0.444600,0.000000
9.20200,0.000000,0.436000,0.000000,0.000000,0.000000,0.000000,0.000000,0.000000,0.000000,0.000000,0.455400,0.000000
9.20000,0.000000,0.436000,0.000000,0.000000,0.000000,0.000000,0.000000,0.000000,0.000000,0.000000,0.465400,0.000000
9.19800,0.000000,0.436000,0.000000,0.000000,0.000000,0.000000,0.000000,0.000000,0.000000,0.000000,0.474600,0.000000
9.19600,0.000000,0.436000,0.000000,0.000000,0.000000,0.000000,0.000000,0.000000,0.000000,0.000000,0.483000,0.000000
9.19400,0.000000,0.436000,0.000000,0.000000,0.000000,0.000000,0.000000,0.000000,0.000000,0.000000,0.490600,0.000000
9.19200,0.000000,0.436000,0.000000,0.000000,0.000000,0.000000,0.000000,0.000000,0.000000,0.000000,0.497400,0.000000
9.19000,0.000000,0.436000,0.000000,0.000000,0.000000,0.000000,0.000000,0.000000,0.000000,0.000000,0.503400,0.000000
9.18800,0.000000,0.436000,0.000000,0.000000,0.000000,0.000000,0.000000,0.000000,0.000000,0.000000,0.508600,0.000000
9.18600,0.000000,0.436000,0.000000,0.000000,0.000000,0.000000,0.000000,0.000000,0.000000,0.000000,0.513000,0.000000
9.18400,0.000000,0.436000,0.000000,0.000000,0.000000,0.000000,0.000000,0.000000,0.000000,0.000000,0.516600,0.000000
9.18200,0.000000,0.436000,0.000000,0.000000,0.000000,0.000000,0.000000,0.000000,0.000000,0.000000,0.519400,0.000000
9.18000,0.000000,0.436000,0.000000,0.000000,0.000000,0.000000,0.000000,0.000000,0.000000,0.000000,0.521400,0.000000
9.17800,0.000000,0.436000,0.000000,0.000000,0.000000,0.000000,0.000000,0.000000,0.000000,0.000000,0.522600,0.000000
9.17600,0.000000,0.436000,0.000000,0.000000,0.000000,0.000000,0.000000,0.000000,0.000000,0.000000,0.523000,0.000000
9.17400,0.000000,0.436000,0.000000,0.000000,0.000000,0.000000,0.000000,0.000000,0.000000,0.000000,0.444600,0.000000
9.17200,0.000000,0.436000,0.000000,0.000000,0.000000,0.000000,0.000000,0.000000,0.000000,0.000000,0.455400,0.000000
9.17000,0.000000,0.436000,0.000000,0.000000,0.000000,0.000000,0.000000,0.000000,0.000000,0.000000,0.465400,0.000000
9.16800,0.000000,0.436000,0.000000,0.000000,0.000000,0.000000,0.000000,0.000000,0.000000,0.000000,0.474600,0.000000
9.16600,0.000000,0.436000,0.000000,0.000000,0.000000,0.000000,0.000000,0.000000,0.000000,0.000000,0.483000,0.000000
9.16400,0.000000,0.436000,0.000000,0.000000,0.000000,0.000000,0.000000,0.000000,0.000000,0.000000,0.490600,0.000000
9.16200,0.000000,0.436000,0.000000,0.000000,0.000000,0.000000,0.000000,0.000000,0.000000,0.000000,0.497400,0.000000
9.16000,0.000000,0.436000,0.000000,0.000000,0.000000,0.000000,0.000000,0.000000,0.000000,0.000000,0.503400,0.000000
9.15800,0.000000,0.436000,0.000000,0.000000,0.000000,0.000000,0.000000,0.000000,0.000000,0.000000,0.508600,0.000000
9.15600,0.000000,0.436000,0.000000,0.000000,0.000000,0.000000,0.000000,0.000000,0.000000,0.000000,0.513000,0.000000
9.15400,0.000000,0.436000,0.000000,0.000000,0.000000,0.000000,0.000000,0.000000,0.000000,0.000000,0.516600,0.000000
9.15200,0.000000,0.436000,0.000000,0.000000,0.000000,0.000000,0.000000,0.000000,0.000000,0.000000,0.519400,0.000000
9.15000,0.000000,0.436000,0.000000,0.000000,0.000000,0.000000,0.000000,0.000000,0.000000,0.000000,0.521400,0.000000
9.14800,0.000000,0.436000,0.000000,0.000000,0.000000,0.000000,0.000000,0.000000,0.000000,0.000000,0.522600,0.000000
9.14600,0.000000,0.436000,0.000000,0.000000,0.000000,0.000000,0.000000,0.000000,0.000000,0.000000,0.523000,0.000000
9.14400,0.000000,0.436000,0.000000,0.000000,0.000000,0.000000,0.000000,0.000000,0.000000,0.000000,0.414160,0.000000
9.14200,0.000000,0.436000,0.000000,0.000000,0.000000,0.000000,0.000000,0.000000,0.000000,0.000000,0.401700,0.000000
9.14000,0.000000,0.436000,0.000000,0.000000,0.000000,0.000000,0.000000,0.000000,0.000000,0.000000,0.389240,0.000000
9.13800,0.000000,0.436000,0.000000,0.000000,0.000000,0.000000,0.000000,0.000000,0.000000,0.000000,0.376780,0.000000
9.13600,0.000000,0.436000,0.000000,0.000000,0.000000,0.000000,0.000000,0.000000,0.000000,0.000000,0.364320,0.000000
9.13400,0.000000,0.436000,0.000000,0.000000,0.000000,0.000000,0.000000,0.000000,0.000000,0.000000,0.351860,0.000000
9.13200,0.000000,0.436000,0.000000,0.000000,0.000000,0.000000,0.000000,0.000000,0.000000,0.000000,0.339400,0.000000
9.13000,0.000000,0.436000,0.000000,0.000000,0.000000,0.000000,0.000000,0.000000,0.000000,0.000000,0.326940,0.000000
9.12800,0.000000,0.436000,0.000000,0.000000,0.000000,0.000000,0.000000,0.000000,0.000000,0.000000,0.314480,0.000000
9.12600,0.000000,0.436000,0.000000,0.000000,0.000000,0.000000,0.000000,0.000000,0.000000,0.000000,0.302020,0.000000
9.12400,0.000000,0.436000,0.000000,0.000000,0.000000,0.000000,0.000000,0.000000,0.000000,0.000000,0.289560,0.000000
9.12200,0.000000,0.436000,0.000000,0.000000,0.000000,0.000000,0.000000,0.000000,0.000000,0.000000,0.277100,0.000000
9.12000,0.000000,0.436000,0.000000,0.000000,0.000000,0.000000,0.000000,0.000000,0.000000,0.000000,0.264640,0.000000
9.11800,0.000000,0.436000,0.000000,0.000000,0.000000,0.000000,0.000000,0.000000,0.000000,0.000000,0.252180,0.000000
9.11600,0.000000,0.436000,0.000000,0.000000,0.000000,0.000000,0.000000,0.000000,0.000000,0.000000,0.239720,0.000000
9.11400,0.000000,0.436000,0.000000,0.000000,0.000000,0.000000,0.000000,0.000000,0.000000,0.000000,0.227260,0.000000
9.11200,0.000000,0.436000,0.000000,0.000000,0.000000,0.000000,0.000000,0.000000,0.000000,0.000000,0.214800,0.000000
9.11000,0.000000,0.436000,0.000000,0.000000,0.000000,0.000000,0.000000,0.000000,0.000000,0.000000,0.202340,0.000000
9.10800,0.000000,0.436000,0.000000,0.000000,0.000000,0.000000,0.000000,0.000000,0.000000,0.000000,0.189880,0.000000
9.10600,0.000000,0.436000,0.000000,0.000000,0.000000,0.000000,0.000000,0.000000,0.000000,0.000000,0.177420,0.000000
9.10400,0.000000,0.436000,0.000000,0.000000,0.000000,0.000000,0.000000,0.000000,0.000000,0.000000,0.164960,0.000000
9.10200,0.000000,0.436000,0.000000,0.000000,0.000000,0.000000,0.000000,0.000000,0.000000,0.000000,0.152500,0.000000
9.10000,0.000000,0.436000,0.000000,0.000000,0.000000,0.000000,0.000000,0.000000,0.000000,0.000000,0.140040,0.000000
9.09800,0.000000,0.436000,0.000000,0.000000,0.000000,0.000000,0.000000,0.000000,0.000000,0.000000,0.127580,0.000000
9.09600,0.000000,0.436000,0.000000,0.000000,0.000000,0.000000,0.000000,0.000000,0.000000,0.000000,0.115120,0.000000
9.09400,0.000000,0.436000,0.000000,0.000000,0.000000,0.000000,0.000000,0.000000,0.000000,0.000000,0.102660,0.000000
9.09200,0.000000,0.436000,0.000000,0.000000,0.000000,0.000000,0.000000,0.000000,0.000000,0.000000,0.090200,0.000000
9.09000,0.000000,0.436000,0.000000,0.000000,0.000000,0.000000,0.000000,0.000000,0.000000,0.000000,0.077740,0.000000
9.08800,0.000000,0.436000,0.000000,0.000000,0.000000,0.000000,0.000000,0.000000,0.000000,0.000000,0.065280,0.000000
9.08600,0.000000,0.436000,0.000000,0.000000,0.000000,0.000000,0.000000,0.000000,0.000000,0.000000,0.052820,0.000000
9.08400,0.000000,0.436000,0.000000,0.000000,0.000000,0.000000,0.000000,0.000000,0.000000,0.000000,0.040360,0.000000
9.08200,0.000000,0.436000,0.000000,0.000000,0.000000,0.000000,0.000000,0.000000,0.000000,0.000000,0.027900,0.000000
9.08000,0.000000,0.436000,0.000000,0.000000,0.000000,0.000000,0.000000,0.000000,0.000000,0.000000,0.015440,0.000000
9.07800,0.000000,0.436000,0.000000,0.000000,0.000000,0.000000,0.000000,0.000000,0.000000,0.000000,0.002980,0.000000
9.07600,0.000000,0.436000,0.000000,0.000000,0.000000,0.000000,0.000000,0.000000,0.000000,0.000000,-0.009480,0.000000
9.07400,0.000000,0.436000,0.000000,0.000000,0.000000,0.000000,0.000000,0.000000,0.000000,0.000000,-0.021940,0.000000
9.07200,0.000000,0.436000,0.000000,0.000000,0.000000,0.000000,0.000000,0.000000,0.000000,0.000000,-0.034400,0.000000
9.07000,0.000000,0.436000,0.000000,0.000000,0.000000,0.000000,0.000000,0.000000,0.000000,0.000000,-0.046860,0.000000
9.06800,0.000000,0.436000,0.000000,0.000000,0.000000,0.000000,0.000000,0.000000,0.000000,0.000000,-0.059320,0.000000
9.06600,0.000000,0.436000,0.000000,0.000000,0.000000,0.000000,0.000000,0.000000,0.000000,0.000000,-0.071780,0.000000
9.06400,0.000000,0.436000,0.000000,0.000000,0.000000,0.000000,0.000000,0.000000,0.000000,0.000000,-0.084240,0.000000
9.06200,0.000000,0.436000,0.000000,0.000000,0.000000,0.000000,0.000000,0.000000,0.000000,0.000000,-0.096700,0.000000
9.06000,0.000000,0.436000,0.000000,0.000000,0.000000,0.000000,0.000000,0.000000,0.000000,0.000000,-0.109160,0.000000
9.05800,0.000000,0.436000,0.000000,0.000000,0.000000,0.000000,0.000000,0.000000,0.000000,0.000000,-0.121620,0.000000
9.05600,0.000000,0.436000,0.000000,0.000000,0.000000,0.000000,0.000000,0.000000,0.000000,0.000000,-0.134080,0.000000
9.05400,0.000000,0.436000,0.000000,0.000000,0.000000,0.000000,0.000000,0.000000,0.000000,0.000000,-0.146540,0.000000
9.05200,0.000000,0.436000,0.000000,0.000000,0.000000,0.000000,0.000000,0.000000,0.000000,0.000000,-0.159000,0.000000
9.05000,0.000000,0.436000,0.000000,0.000000,0.000000,0.000000,0.000000,0.000000,0.000000,0.000000,-0.171460,0.000000
9.04800,0.000000,0.436000,0.000000,0.000000,0.000000,0.000000,0.000000,0.000000,0.000000,0.000000,-0.183920,0.000000
9.04600,0.000000,0.436000,0.000000,0.000000,0.000000,0.000000,0.000000,0.000000,0.000000,0.000000,-0.196380,0.000000
9.04400,0.000000,0.436000,0.000000,0.000000,0.000000,0.000000,0.000000,0.000000,0.000000,0.000000,-0.208840,0.000000
9.04200,0.000000,0.436000,0.000000,0.000000,0.000000,0.000000,0.000000,0.000000,0.000000,0.000000,-0.221300,0.000000
9.04000,0.000000,0.436000,0.000000,0.000000,0.000000,0.000000,0.000000,0.000000,0.000000,0.000000,-0.233760,0.000000
9.03800,0.000000,0.436000,0.000000,0.000000,0.000000,0.000000,0.000000,0.000000,0.000000,0.000000,-0.246220,0.000000
9.03600,0.000000,0.436000,0.000000,0.000000,0.000000,0.000000,0.000000,0.000000,0.000000,0.000000,-0.258680,0.000000
9.03400,0.000000,0.436000,0.000000,0.000000,0.000000,0.000000,0.000000,0.000000,0.000000,0.000000,-0.271140,0.000000
9.03200,0.000000,0.436000,0.000000,0.000000,0.000000,0.000000,0.000000,0.000000,0.000000,0.000000,-0.283600,0.000000
9.03000,0.000000,0.436000,0.000000,0.000000,0.000000,0.000000,0.000000,0.000000,0.000000,0.000000,-0.296060,0.000000
9.02800,0.000000,0.436000,0.000000,0.000000,0.000000,0.000000,0.000000,0.000000,0.000000,0.000000,-0.308520,0.000000
9.02600,0.000000,0.436000,0.000000,0.000000,0.000000,0.000000,0.000000,0.000000,0.000000,0.000000,-0.320980,0.000000
9.02400,0.000000,0.436000,0.000000,0.000000,0.000000,0.000000,0.000000,0.000000,0.000000,0.000000,-0.333440,0.000000
9.02200,0.000000,0.436000,0.000000,0.000000,0.000000,0.000000,0.000000,0.000000,0.000000,0.000000,-0.345900,0.000000
9.02000,0.000000,0.436000,0.000000,0.000000,0.000000,0.000000,0.000000,0.000000,0.000000,0.000000,-0.358360,0.000000
9.01800,0.000000,0.436000,0.000000,0.000000,0.000000,0.000000,0.000000,0.000000,0.000000,0.000000,-0.370820,0.000000
9.01600,0.000000,0.436000,0.000000,0.000000,0.000000,0.000000,0.000000,0.000000,0.000000,0.000000,-0.383280,0.000000
9.01400,0.000000,0.436000,0.000000,0.000000,0.000000,0.000000,0.000000,0.000000,0.000000,0.000000,-0.395740,0.000000
9.01200,0.000000,0.436000,0.000000,0.000000,0.000000,0.000000,0.000000,0.000000,0.000000,0.000000,-0.408200,0.000000
9.01000,0.000000,0.436000,0.000000,0.000000,0.000000,0.000000,0.000000,0.000000,0.000000,0.000000,-0.420660,0.000000
9.00800,0.000000,0.436000,0.000000,0.000000,0.000000,0.000000,0.000000,0.000000,0.000000,0.000000,-0.433120,0.000000
9.00600,0.000000,0.436000,0.000000,0.000000,0.000000,0.000000,0.000000,0.000000,0.000000,0.000000,-0.445580,0.000000
9.00400,0.000000,0.436000,0.000000,0.000000,0.000000,0.000000,0.000000,0.000000,0.000000,0.000000,-0.458040,0.000000
9.00200,0.000000,0.436000,0.000000,0.000000,0.000000,0.000000,0.000000,0.000000,0.000000,0.000000,-0.470500,0.000000
9.00000,0.000000,0.436000,0.000000,0.000000,0.000000,0.000000,0.000000,0.000000,0.000000,0.000000,-0.482960,0.000000
8.99800,0.000000,0.436000,0.000000,0.000000,0.000000,0.000000,0.000000,0.000000,0.000000,0.000000,-0.495420,0.000000
8.99600,0.000000,0.436000,0.000000,0.000000,0.000000,0.000000,0.000000,0.000000,0.000000,0.000000,-0.507880,0.000000
8.99400,0.000000,0.436000,0.000000,0.000000,0.000000,0.000000,0.000000,0.000000,0.000000,0.000000,-0.520340,0.000000
8.99200,0.000000,0.436000,0.000000,0.000000,0.000000,0.000000,0.000000,0.000000,0.000000,0.000000,-0.532800,0.000000
8.99000,0.000000,0.436000,0.000000,0.000000,0.000000,0.000000,0.000000,0.000000,0.000000,0.000000,-0.545260,0.000000
8.98800,0.000000,0.436000,0.000000,0.000000,0.000000,0.000000,0.000000,0.000000,0.000000,0.000000,-0.557720,0.000000
8.98600,0.000000,0.436000,0.000000,0.000000,0.000000,0.000000,0.000000,0.000000,0.000000,0.000000,-0.570180,0.000000
8.98400,0.000000,0.436000,0.000000,0.000000,0.000000,0.000000,0.000000,0.000000,0.000000,0.000000,-0.582640,0.000000
8.98200,0.000000,0.436000,0.000000,0.000000,0.000000,0.000000,0.000000,0.000000,0.000000,0.000000,-0.595100,0.000000
8.98000,0.000000,0.436000,0.000000,0.000000,0.000000,0.000000,0.000000,0.000000,0.000000,0.000000,-0.607560,0.000000
8.97800,0.000000,0.436000,0.000000,0.000000,0.000000,0.000000,0.000000,0.000000,0.000000,0.000000,-0.620020,0.000000
8.97600,0.000000,0.436000,0.000000,0.000000,0.000000,0.000000,0.000000,0.000000,0.000000,0.000000,-0.632480,0.000000
8.97400,0.000000,0.436000,0.000000,0.000000,0.000000,0.000000,0.000000,0.000000,0.000000,0.000000,-0.644940,0.000000
8.97200,0.000000,0.436000,0.000000,0.000000,0.000000,0.000000,0.000000,0.000000,0.000000,0.000000,-0.657400,0.000000
8.97000,0.000000,0.436000,0.000000,0.000000,0.000000,0.000000,0.000000,0.000000,0.000000,0.000000,-0.669860,0.000000
8.96800,0.000000,0.436000,0.000000,0.000000,0.000000,0.000000,0.000000,0.000000,0.000000,0.000000,-0.682320,0.000000
8.96600,0.000000,0.436000,0.000000,0.000000,0.000000,0.000000,0.000000,0.000000,0.000000,0.000000,-0.694780,0.000000
8.96400,0.000000,0.436000,0.000000,0.000000,0.000000,0.000000,0.000000,0.000000,0.000000,0.000000,-0.707240,0.000000
8.96200,0.000000,0.436000,0.000000,0.000000,0.000000,0.000000,0.000000,0.000000,0.000000,0.000000,-0.719700,0.000000
8.96000,0.000000,0.436000,0.000000,0.000000,0.000000,0.000000,0.000000,0.000000,0.000000,0.000000,-0.732160,0.000000
8.95800,0.000000,0.436000,0.000000,0.000000,0.000000,0.000000,0.000000,0.000000,0.000000,0.000000,-0.744620,0.000000
8.95600,0.000000,0.436000,0.000000,0.000000,0.000000,0.000000,0.000000,0.000000,0.000000,0.000000,-0.757080,0.000000
8.95400,0.000000,0.436000,0.000000,0.000000,0.000000,0.000000,0.000000,0.000000,0.000000,0.000000,-0.769540,0.000000
8.95200,0.000000,0.436000,0.000000,0.000000,0.000000,0.000000,0.000000,0.000000,0.000000,0.000000,-0.782000,0.000000
8.95000,0.000000,0.436000,0.000000,0.000000,0.000000,0.000000,0.000000,0.000000,0.000000,0.000000,-0.782000,0.000000
8.94800,0.000000,0.436000,0.000000,0.000000,0.000000,0.000000,0.000000,0.000000,0.000000,0.000000,-0.793600,0.000000
8.94600,0.000000,0.436000,0.000000,0.000000,0.000000,0.000000,0.000000,0.000000,0.000000,0.000000,-0.804400,0.000000
8.94400,0.000000,0.436000,0.000000,0.000000,0.000000,0.000000,0.000000,0.000000,0.000000,0.000000,-0.814400,0.000000
8.94200,0.000000,0.436000,0.000000,0.000000,0.000000,0.000000,0.000000,0.000000,0.000000,0.000000,-0.823600,0.000000
8.94000,0.000000,0.436000,0.000000,0.000000,0.000000,0.000000,0.000000,0.000000,0.000000,0.000000,-0.832000,0.000000
8.93800,0.000000,0.436000,0.000000,0.000000,0.000000,0.000000,0.000000,0.000000,0.000000,0.000000,-0.839600,0.000000
8.93600,0.000000,0.436000,0.000000,0.000000,0.000000,0.000000,0.000000,0.000000,0.000000,0.000000,-0.846400,0.000000
8.93400,0.000000,0.436000,0.000000,0.000000,0.000000,0.000000,0.000000,0.000000,0.000000,0.000000,-0.852400,0.000000
8.93200,0.000000,0.436000,0.000000,0.000000,0.000000,0.000000,0.000000,0.000000,0.000000,0.000000,-0.857600,0.000000
8.93000,0.000000,0.436000,0.000000,0.000000,0.000000,0.000000,0.000000,0.000000,0.000000,0.000000,-0.862000,0.000000
8.92800,0.000000,0.436000,0.000000,0.000000,0.000000,0.000000,0.000000,0.000000,0.000000,0.000000,-0.865600,0.000000
8.92600,0.000000,0.436000,0.000000,0.000000,0.000000,0.000000,0.000000,0.000000,0.000000,0.000000,-0.868400,0.000000
8.92400,0.000000,0.436000,0.000000,0.000000,0.000000,0.000000,0.000000,0.000000,0.000000,0.000000,-0.870400,0.000000
8.92200,0.000000,0.436000,0.000000,0.000000,0.000000,0.000000,0.000000,0.000000,0.000000,0.000000,-0.871600,0.000000
8.92000,0.000000,0.436000,0.000000,0.000000,0.000000,0.000000,0.000000,0.000000,0.000000,0.000000,-0.872000,0.000000
8.91800,0.000000,0.436000,0.000000,0.000000,0.000000,0.000000,0.000000,0.000000,0.000000,0.000000,-0.793600,0.000000
8.91600,0.000000,0.436000,0.000000,0.000000,0.000000,0.000000,0.000000,0.000000,0.000000,0.000000,-0.804400,0.000000
8.91400,0.000000,0.436000,0.000000,0.000000,0.000000,0.000000,0.000000,0.000000,0.000000,0.000000,-0.814400,0.000000
8.91200,0.000000,0.436000,0.000000,0.000000,0.000000,0.000000,0.000000,0.000000,0.000000,0.000000,-0.823600,0.000000
8.91000,0.000000,0.436000,0.000000,0.000000,0.000000,0.000000,0.000000,0.000000,0.000000,0.000000,-0.832000,0.000000
8.90800,0.000000,0.436000,0.000000,0.000000,0.000000,0.000000,0.000000,0.000000,0.000000,0.000000,-0.839600,0.000000
8.90600,0.000000,0.436000,0.000000,0.000000,0.000000,0.000000,0.000000,0.000000,0.000000,0.000000,-0.846400,0.000000
8.90400,0.000000,0.436000,0.000000,0.000000,0.000000,0.000000,0.000000,0.000000,0.000000,0.000000,-0.852400,0.000000
8.90200,0.000000,0.436000,0.000000,0.000000,0.000000,0.000000,0.000000,0.000000,0.000000,0.000000,-0.857600,0.000000
8.90000,0.000000,0.436000,0.000000,0.000000,0.000000,0.000000,0.000000,0.000000,0.000000,0.000000,-0.862000,0.000000
8.89800,0.000000,0.436000,0.000000,0.000000,0.000000,0.000000,0.000000,0.000000,0.000000,0.000000,-0.865600,0.000000
8.89600,0.000000,0.436000,0.000000,0.000000,0.000000,0.000000,0.000000,0.000000,0.000000,0.000000,-0.868400,0.000000
8.89400,0.000000,0.436000,0.000000,0.000000,0.000000,0.000000,0.000000,0.000000,0.000000,0.000000,-0.870400,0.000000
8.89200,0.000000,0.436000,0.000000,0.000000,0.000000,0.000000,0.000000,0.000000,0.000000,0.000000,-0.871600,0.000000
8.89000,0.000000,0.436000,0.000000,0.000000,0.000000,0.000000,0.000000,0.000000,0.000000,0.000000,-0.872000,0.000000
8.88800,0.000000,0.436000,0.000000,0.000000,0.000000,0.000000,0.000000,0.000000,0.000000,0.000000,-0.762840,0.000000
8.88600,0.000000,0.436000,0.000000,0.000000,0.000000,0.000000,0.000000,0.000000,0.000000,0.000000,-0.750380,0.000000
8.88400,0.000000,0.436000,0.000000,0.000000,0.000000,0.000000,0.000000,0.000000,0.000000,0.000000,-0.737920,0.000000
8.88200,0.000000,0.436000,0.000000,0.000000,0.000000,0.000000,0.000000,0.000000,0.000000,0.000000,-0.725460,0.000000
8.88000,0.000000,0.436000,0.000000,0.000000,0.000000,0.000000,0.000000,0.000000,0.000000,0.000000,-0.713000,0.000000
8.87800,0.000000,0.436000,0.000000,0.000000,0.000000,0.000000,0.000000,0.000000,0.000000,0.000000,-0.700540,0.000000
8.87600,0.000000,0.436000,0.000000,0.000000,0.000000,0.000000,0.000000,0.000000,0.000000,0.000000,-0.688080,0.000000
8.87400,0.000000,0.436000,0.000000,0.000000,0.000000,0.000000,0.000000,0.000000,0.000000,0.000000,-0.675620,0.000000
8.87200,0.000000,0.436000,0.000000,0.000000,0.000000,0.000000,0.000000,0.000000,0.000000,0.000000,-0.663160,0.000000
8.87000,0.000000,0.436000,0.000000,0.000000,0.000000,0.000000,0.000000,0.000000,0.000000,0.000000,-0.650700,0.000000
8.86800,0.000000,0.436000,0.000000,0.000000,0.000000,0.000000,0.000000,0.000000,0.000000,0.000000,-0.638240,0.000000
8.86600,0.000000,0.436000,0.000000,0.000000,0.000000,0.000000,0.000000,0.000000,0.000000,0.000000,-0.625780,0.000000
8.86400,0.000000,0.436000,0.000000,0.000000,0.000000,0.000000,0.000000,0.000000,0.000000,0.000000,-0.613320,0.000000
8.86200,0.000000,0.436000,0.000000,0.000000,0.000000,0.000000,0.000000,0.000000,0.000000,0.000000,-0.600860,0.000000
8.86000,0.000000,0.436000,0.000000,0.000000,0.000000,0.000000,0.000000,0.000000,0.000000,0.000000,-0.588400,0.000000
8.85800,0.000000,0.436000,0.000000,0.000000,0.000000,0.000000,0.000000,0.000000,0.000000,0.000000,-0.575940,0.000000
8.85600,0.000000,0.436000,0.000000,0.000000,0.000000,0.000000,0.000000,0.000000,0.000000,0.000000,-0.563480,0.000000
8.85400,0.000000,0.436000,0.000000,0.000000,0.000000,0.000000,0.000000,0.000000,0.000000,0.000000,-0.551020,0.000000
8.85200,0.000000,0.436000,0.000000,0.000000,0.000000,0.000000,0.000000,0.000000,0.000000,0.000000,-0.538560,0.000000
8.85000,0.000000,0.436000,0.000000,0.000000,0.000000,0.000000,0.000000,0.000000,0.000000,0.000000,-0.526100,0.000000
8.84800,0.000000,0.436000,0.000000,0.000000,0.000000,0.000000,0.000000,0.000000,0.000000,0.000000,-0.513640,0.000000
8.84600,0.000000,0.436000,0.000000,0.000000,0.000000,0.000000,0.000000,0.000000,0.000000,0.000000,-0.501180,0.000000
8.84400,0.000000,0.436000,0.000000,0.000000,0.000000,0.000000,0.000000,0.000000,0.000000,0.000000,-0.488720,0.000000
8.84200,0.000000,0.436000,0.000000,0.000000,0.000000,0.000000,0.000000,0.000000,0.000000,0.000000,-0.476260,0.000000
8.84000,0.000000,0.436000,0.000000,0.000000,0.000000,0.000000,0.000000,0.000000,0.000000,0.000000,-0.463800,0.000000
8.83800,0.000000,0.436000,0.000000,0.000000,0.000000,0.000000,0.000000,0.000000,0.000000,0.000000,-0.451340,0.000000
8.83600,0.000000,0.436000,0.000000,0.000000,0.000000,0.000000,0.000000,0.000000,0.000000,0.000000,-0.438880,0.000000
8.83400,0.000000,0.436000,0.000000,0.000000,0.000000,0.000000,0.000000,0.000000,0.000000,0.000000,-0.426420,0.000000
8.83200,0.000000,0.436000,0.000000,0.000000,0.000000,0.000000,0.000000,0.000000,0.000000,0.000000,-0.413960,0.000000
8.83000,0.000000,0.436000,0.000000,0.000000,0.000000,0.000000,0.000000,0.000000,0.000000,0.000000,-0.401500,0.000000
8.82800,0.000000,0.436000,0.000000,0.000000,0.000000,0.000000,0.000000,0.000000,0.000000,0.000000,-0.389040,0.000000
8.82600,0.000000,0.436000,0.000000,0.000000,0.000000,0.000000,0.000000,0.000000,0.000000,0.000000,-0.376580,0.000000
8.82400,0.000000,0.436000,0.000000,0.000000,0.000000,0.000000,0.000000,0.000000,0.000000,0.000000,-0.364120,0.000000
8.82200,0.000000,0.436000,0.000000,0.000000,0.000000,0.000000,0.000000,0.000000,0.000000,0.000000,-0.351660,0.000000
8.82000,0.000000,0.436000,0.000000,0.000000,0.000000,0.000000,0.000000,0.000000,0.000000,0.000000,-0.339200,0.000000
8.81800,0.000000,0.436000,0.000000,0.000000,0.000000,0.000000,0.000000,0.000000,0.000000,0.000000,-0.326740,0.000000
8.81600,0.000000,0.436000,0.000000,0.000000,0.000000,0.000000,0.000000,0.000000,0.000000,0.000000,-0.314280,0.000000
8.81400,0.000000,0.436000,0.000000,0.000000,0.000000,0.000000,0.000000,0.000000,0.000000,0.000000,-0.301820,0.000000
8.81200,0.000000,0.436000,0.000000,0.000000,0.000000,0.000000,0.000000,0.000000,0.000000,0.000000,-0.289360,0.000000
8.81000,0.000000,0.436000,0.000000,0.000000,0.000000,0.000000,0.000000,0.000000,0.000000,0.000000,-0.276900,0.000000
8.80800,0.000000,0.436000,0.000000,0.000000,0.000000,0.000000,0.000000,0.000000,0.000000,0.000000,-0.264440,0.000000
8.80600,0.000000,0.436000,0.000000,0.000000,0.000000,0.000000,0.000000,0.000000,0.000000,0.000000,-0.251980,0.000000
8.80400,0.000000,0.436000,0.000000,0.000000,0.000000,0.000000,0.000000,0.000000,0.000000,0.000000,-0.239520,0.000000
8.80200,0.000000,0.436000,0.000000,0.000000,0.000000,0.000000,0.000000,0.000000,0.000000,0.000000,-0.227060,0.000000
8.80000,0.000000,0.436000,0.000000,0.000000,0.000000,0.000000,0.000000,0.000000,0.000000,0.000000,-0.214600,0.000000
8.79800,0.000000,0.436000,0.000000,0.000000,0.000000,0.000000,0.000000,0.000000,0.000000,0.000000,-0.202140,0.000000
8.79600,0.000000,0.436000,0.000000,0.000000,0.000000,0.000000,0.000000,0.000000,0.000000,0.000000,-0.189680,0.000000
8.79400,0.000000,0.436000,0.000000,0.000000,0.000000,0.000000,0.000000,0.000000,0.000000,0.000000,-0.177220,0.000000
8.79200,0.000000,0.436000,0.000000,0.000000,0.000000,0.000000,0.000000,0.000000,0.000000,0.000000,-0.164760,0.000000
8.79000,0.000000,0.436000,0.000000,0.000000,0.000000,0.000000,0.000000,0.000000,0.000000,0.000000,-0.152300,0.000000
8.78800,0.000000,0.436000,0.000000,0.000000,0.000000,0.000000,0.000000,0.000000,0.000000,0.000000,-0.139840,0.000000
8.78600,0.000000,0.436000,0.000000,0.000000,0.000000,0.000000,0.000000,0.000000,0.000000,0.000000,-0.127380,0.000000
8.78400,0.000000,0.436000,0.000000,0.000000,0.000000,0.000000,0.000000,0.000000,0.000000,0.000000,-0.114920,0.000000
8.78200,0.000000,0.436000,0.000000,0.000000,0.000000,0.000000,0.000000,0.000000,0.000000,0.000000,-0.102460,0.000000
8.78000,0.000000,0.436000,0.000000,0.000000,0.000000,0.000000,0.000000,0.000000,0.000000,0.000000,-0.090000,0.000000
8.77800,0.000000,0.436000,0.000000,0.000000,0.000000,0.000000,0.000000,0.000000,0.000000,0.000000,-0.090000,0.000000
8.77600,0.000000,0.436000,0.000000,0.000000,0.000000,0.000000,0.000000,0.000000,0.000000,0.000000,-0.078400,0.000000
8.77400,0.000000,0.436000,0.000000,0.000000,0.000000,0.000000,0.000000,0.000000,0.000000,0.000000,-0.067600,0.000000
8.77200,0.000000,0.436000,0.000000,0.000000,0.000000,0.000000,0.000000,0.000000,0.000000,0.000000,-0.057600,0.000000
8.77000,0.000000,0.436000,0.000000,0.000000,0.000000,0.000000,0.000000,0.000000,0.000000,0.000000,-0.048400,0.000000
8.76800,0.000000,0.436000,0.000000,0.000000,0.000000,0.000000,0.000000,0.000000,0.000000,0.000000,-0.040000,0.000000
8.76600,0.000000,0.436000,0.000000,0.000000,0.000000,0.000000,0.000000,0.000000,0.000000,0.000000,-0.032400,0.000000
8.76400,0.000000,0.436000,0.000000,0.000000,0.000000,0.000000,0.000000,0.000000,0.000000,0.000000,-0.025600,0.000000
8.76200,0.000000,0.436000,0.000000,0.000000,0.000000,0.000000,0.000000,0.000000,0.000000,0.000000,-0.019600,0.000000
8.76000,0.000000,0.436000,0.000000,0.000000,0.000000,0.000000,0.000000,0.000000,0.000000,0.000000,-0.014400,0.000000
8.75800,0.000000,0.436000,0.000000,0.000000,0.000000,0.000000,0.000000,0.000000,0.000000,0.000000,-0.010000,0.000000
8.75600,0.000000,0.436000,0.000000,0.000000,0.000000,0.000000,0.000000,0.000000,0.000000,0.000000,-0.006400,0.000000
8.75400,0.000000,0.436000,0.000000,0.000000,0.000000,0.000000,0.000000,0.000000,0.000000,0.000000,-0.003600,0.000000
8.75200,0.000000,0.436000,0.000000,0.000000,0.000000,0.000000,0.000000,0.000000,0.000000,0.000000,-0.001600,0.000000
8.75000,0.000000,0.436000,0.000000,0.000000,0.000000,0.000000,0.000000,0.000000,0.000000,0.000000,-0.000400,0.000000
8.74800,0.000000,0.436000,0.000000,0.000000,0.000000,0.000000,0.000000,0.000000,0.000000,0.000000,0.000000,0.000000
8.74800,0.000000,0.436000,0.000000,0.000000,0.000000,0.000000,0.000000,0.000000,0.000000,0.000000,0.000000,0.000000
8.74600,0.000000,0.436000,0.000000,0.000000,0.000000,0.000000,0.000000,0.000000,0.000000,0.000000,0.000000,0.000000
8.74400,0.000000,0.436000,0.000000,0.000000,0.000000,0.000000,0.000000,0.000000,0.000000,0.078400,0.000000,0.000000
8.74200,0.000000,0.436000,0.000000,0.000000,0.000000,0.000000,0.000000,0.000000,0.000000,0.067600,0.000000,0.000000
8.74000,0.000000,0.436000,0.000000,0.000000,0.000000,0.000000,0.000000,0.000000,0.000000,0.057600,0.000000,0.000000
8.73800,0.000000,0.436000,0.000000,0.000000,0.000000,0.000000,0.000000,0.000000,0.000000,0.048400,0.000000,0.000000
8.73600,0.000000,0.436000,0.000000,0.000000,0.000000,0.000000,0.000000,0.000000,0.000000,0.040000,0.000000,0.000000
8.73400,0.000000,0.436000,0.000000,0.000000,0.000000,0.000000,0.000000,0.000000,0.000000,0.032400,0.000000,0.000000
8.73200,0.000000,0.436000,0.000000,0.000000,0.000000,0.000000,0.000000,0.000000,0.000000,0.025600,0.000000,0.000000
8.73000,0.000000,0.436000,0.000000,0.000000,0.000000,0.000000,0.000000,0.000000,0.000000,0.019600,0.000000,0.000000
8.72800,0.000000,0.436000,0.000000,0.000000,0.000000,0.000000,0.000000,0.000000,0.000000,0.014400,0.000000,0.000000
8.72600,0.000000,0.436000,0.000000,0.000000,0.000000,0.000000,0.000000,0.000000,0.000000,0.010000,0.000000,0.000000
8.72400,0.000000,0.436000,0.000000,0.000000,0.000000,0.000000,0.000000,0.000000,0.000000,0.006400,0.000000,0.000000
8.72200,0.000000,0.436000,0.000000,0.000000,0.000000,0.000000,0.000000,0.000000,0.000000,0.003600,0.000000,0.000000
8.72000,0.000000,0.436000,0.000000,0.000000,0.000000,0.000000,0.000000,0.000000,0.000000,0.001600,0.000000,0.000000
8.71800,0.000000,0.436000,0.000000,0.000000,0.000000,0.000000,0.000000,0.000000,0.000000,0.000400,0.000000,0.000000
8.71600,0.000000,0.436000,0.000000,0.000000,0.000000,0.000000,0.000000,0.000000,0.000000,0.000000,0.000000,0.000000
8.71400,0.000000,0.436000,0.000000,0.000000,0.000000,0.000000,0.000000,0.000000,0.000000,0.107200,0.000000,0.000000
8.71200,0.000000,0.436000,0.000000,0.000000,0.000000,0.000000,0.000000,0.000000,0.000000,0.119660,0.000000,0.000000
8.71000,0.000000,0.436000,0.000000,0.000000,0.000000,0.000000,0.000000,0.000000,0.000000,0.132120,0.000000,0.000000
8.70800,0.000000,0.436000,0.000000,0.000000,0.000000,0.000000,0.000000,0.000000,0.000000,0.144580,0.000000,0.000000
8.70600,0.000000,0.436000,0.000000,0.000000,0.000000,0.000000,0.000000,0.000000,0.000000,0.157040,0.000000,0.000000
8.70400,0.000000,0.436000,0.000000,0.000000,0.000000,0.000000,0.000000,0.000000,0.000000,0.169500,0.000000,0.000000
8.70200,0.000000,0.436000,0.000000,0.000000,0.000000,0.000000,0.000000,0.000000,0.000000,0.181960,0.000000,0.000000
8.70000,0.000000,0.436000,0.000000,0.000000,0.000000,0.000000,0.000000,0.000000,0.000000,0.194420,0.000000,0.000000
8.69800,0.000000,0.436000,0.000000,0.000000,0.000000,0.000000,0.000000,0.000000,0.000000,0.206880,0.000000,0.000000
8.69600,0.000000,0.436000,0.000000,0.000000,0.000000,0.000000,0.000000,0.000000,0.000000,0.219340,0.000000,0.000000
8.69400,0.000000,0.436000,0.000000,0.000000,0.000000,0.000000,0.000000,0.000000,0.000000,0.231800,0.000000,0.000000
8.69200,0.000000,0.436000,0.000000,0.000000,0.000000,0.000000,0.000000,0.000000,0.000000,0.244260,0.000000,0.000000
8.69000,0.000000,0.436000,0.000000,0.000000,0.000000,0.000000,0.000000,0.000000,0.000000,0.256720,0.000000,0.000000
8.68800,0.000000,0.436000,0.000000,0.000000,0.000000,0.000000,0.000000,0.000000,0.000000,0.269180,0.000000,0.000000
8.68600,0.000000,0.436000,0.000000,0.000000,0.000000,0.000000,0.000000,0.000000,0.000000,0.281640,0.000000,0.000000
8.68400,0.000000,0.436000,0.000000,0.000000,0.000000,0.000000,0.000000,0.000000,0.000000,0.294100,0.000000,0.000000
8.68200,0.000000,0.436000,0.000000,0.000000,0.000000,0.000000,0.000000,0.000000,0.000000,0.306560,0.000000,0.000000
8.68000,0.000000,0.436000,0.000000,0.000000,0.000000,0.000000,0.000000,0.000000,0.000000,0.319020,0.000000,0.000000
8.67800,0.000000,0.436000,0.000000,0.000000,0.000000,0.000000,0.000000,0.000000,0.000000,0.331480,0.000000,0.000000
8.67600,0.000000,0.436000,0.000000,0.000000,0.000000,0.000000,0.000000,0.000000,0.000000,0.343940,0.000000,0.000000
8.67400,0.000000,0.436000,0.000000,0.000000,0.000000,0.000000,0.000000,0.000000,0.000000,0.356400,0.000000,0.000000
8.67200,0.000000,0.436000,0.000000,0.000000,0.000000,0.000000,0.000000,0.000000,0.000000,0.368860,0.000000,0.000000
8.67000,0.000000,0.436000,0.000000,0.000000,0.000000,0.000000,0.000000,0.000000,0.000000,0.381320,0.000000,0.000000
8.66800,0.000000,0.436000,0.000000,0.000000,0.000000,0.000000,0.000000,0.000000,0.000000,0.393780,0.000000,0.000000
8.66600,0.000000,0.436000,0.000000,0.000000,0.000000,0.000000,0.000000,0.000000,0.000000,0.406240,0.000000,0.000000
8.66400,0.000000,0.436000,0.000000,0.000000,0.000000,0.000000,0.000000,0.000000,0.000000,0.418700,0.000000,0.000000
8.66200,0.000000,0.436000,0.000000,0.000000,0.000000,0.000000,0.000000,0.000000,0.000000,0.431160,0.000000,0.000000
8.66000,0.000000,0.436000,0.000000,0.000000,0.000000,0.000000,0.000000,0.000000,0.000000,0.443620,0.000000,0.000000
8.65800,0.000000,0.436000,0.000000,0.000000,0.000000,0.000000,0.000000,0.000000,0.000000,0.456080,0.000000,0.000000
8.65600,0.000000,0.436000,0.000000,0.000000,0.000000,0.000000,0.000000,0.000000,0.000000,0.468540,0.000000,0.000000
8.65400,0.000000,0.436000,0.000000,0.000000,0.000000,0.000000,0.000000,0.000000,0.000000,0.481000,0.000000,0.000000
8.65200,0.000000,0.436000,0.000000,0.000000,0.000000,0.000000,0.000000,0.000000,0.000000,0.493460,0.000000,0.000000
8.65000,0.000000,0.436000,0.000000,0.000000,0.000000,0.000000,0.000000,0.000000,0.000000,0.505920,0.000000,0.000000
8.64800,0.000000,0.436000,0.000000,0.000000,0.000000,0.000000,0.000000,0.000000,0.000000,0.518380,0.000000,0.000000
8.64600,0.000000,0.436000,0.000000,0.000000,0.000000,0.000000,0.000000,0.000000,0.000000,0.530840,0.000000,0.000000
8.64400,0.000000,0.436000,0.000000,0.000000,0.000000,0.000000,0.000000,0.000000,0.000000,0.543300,0.000000,0.000000
8.64200,0.000000,0.436000,0.000000,0.000000,0.000000,0.000000,0.000000,0.000000,0.000000,0.555760,0.000000,0.000000
8.64000,0.000000,0.436000,0.000000,0.000000,0.000000,0.000000,0.000000,0.000000,0.000000,0.568220,0.000000,0.000000
8.63800,0.000000,0.436000,0.000000,0.000000,0.000000,0.000000,0.000000,0.000000,0.000000,0.580680,0.000000,0.000000
8.63600,0.000000,0.436000,0.000000,0.000000,0.000000,0.000000,0.000000,0.000000,0.000000,0.593140,0.000000,0.000000
8.63400,0.000000,0.436000,0.000000,0.000000,0.000000,0.000000,0.000000,0.000000,0.000000,0.605600,0.000000,0.000000
8.63200,0.000000,0.436000,0.000000,0.000000,0.000000,0.000000,0.000000,0.000000,0.000000,0.618060,0.000000,0.000000
8.63000,0.000000,0.436000,0.000000,0.000000,0.000000,0.000000,0.000000,0.000000,0.000000,0.630520,0.000000,0.000000
8.62800,0.000000,0.436000,0.000000,0.000000,0.000000,0.000000,0.000000,0.000000,0.000000,0.642980,0.000000,0.000000
8.62600,0.000000,0.436000,0.000000,0.000000,0.000000,0.000000,0.000000,0.000000,0.000000,0.655440,0.000000,0.000000
8.62400,0.000000,0.436000,0.000000,0.000000,0.000000,0.000000,0.000000,0.000000,0.000000,0.667900,0.000000,0.000000
8.62200,0.000000,0.436000,0.000000,0.000000,0.000000,0.000000,0.000000,0.000000,0.000000,0.680360,0.000000,0.000000
8.62000,0.000000,0.436000,0.000000,0.000000,0.000000,0.000000,0.000000,0.000000,0.000000,0.692820,0.000000,0.000000
8.61800,0.000000,0.436000,0.000000,0.000000,0.000000,0.000000,0.000000,0.000000,0.000000,0.705280,0.000000,0.000000
8.61600,0.000000,0.436000,0.000000,0.000000,0.000000,0.000000,0.000000,0.000000,0.000000,0.717740,0.000000,0.000000
8.61400,0.000000,0.436000,0.000000,0.000000,0.000000,0.000000,0.000000,0.000000,0.000000,0.730200,0.000000,0.000000
8.61200,0.000000,0.436000,0.000000,0.000000,0.000000,0.000000,0.000000,0.000000,0.000000,0.742660,0.000000,0.000000
8.61000,0.000000,0.436000,0.000000,0.000000,0.000000,0.000000,0.000000,0.000000,0.000000,0.755120,0.000000,0.000000
8.60800,0.000000,0.436000,0.000000,0.000000,0.000000,0.000000,0.000000,0.000000,0.000000,0.767580,0.000000,0.000000
8.60600,0.000000,0.436000,0.000000,0.000000,0.000000,0.000000,0.000000,0.000000,0.000000,0.780040,0.000000,0.000000
8.60400,0.000000,0.436000,0.000000,0.000000,0.000000,0.000000,0.000000,0.000000,0.000000,0.792500,0.000000,0.000000
8.60200,0.000000,0.436000,0.000000,0.000000,0.000000,0.000000,0.000000,0.000000,0.000000,0.804960,0.000000,0.000000
8.60000,0.000000,0.436000,0.000000,0.000000,0.000000,0.000000,0.000000,0.000000,0.000000,0.817420,0.000000,0.000000
8.59800,0.000000,0.436000,0.000000,0.000000,0.000000,0.000000,0.000000,0.000000,0.000000,0.829880,0.000000,0.000000
8.59600,0.000000,0.436000,0.000000,0.000000,0.000000,0.000000,0.000000,0.000000,0.000000,0.842340,0.000000,0.000000
8.59400,0.000000,0.436000,0.000000,0.000000,0.000000,0.000000,0.000000,0.000000,0.000000,0.854800,0.000000,0.000000
8.59200,0.000000,0.436000,0.000000,0.000000,0.000000,0.000000,0.000000,0.000000,0.000000,0.867260,0.000000,0.000000
8.59000,0.000000,0.436000,0.000000,0.000000,0.000000,0.000000,0.000000,0.000000,0.000000,0.879720,0.000000,0.000000
8.58800,0.000000,0.436000,0.000000,0.000000,0.000000,0.000000,0.000000,0.000000,0.000000,0.892180,0.000000,0.000000
8.58600,0.000000,0.436000,0.000000,0.000000,0.000000,0.000000,0.000000,0.000000,0.000000,0.904640,0.000000,0.000000
8.58400,0.000000,0.436000,0.000000,0.000000,0.000000,0.000000,0.000000,0.000000,0.000000,0.917100,0.000000,0.000000
8.58200,0.000000,0.436000,0.000000,0.000000,0.000000,0.000000,0.000000,0.000000,0.000000,0.929560,0.000000,0.000000
8.58000,0.000000,0.436000,0.000000,0.000000,0.000000,0.000000,0.000000,0.000000,0.000000,0.942020,0.000000,0.000000
8.57800,0.000000,0.436000,0.000000,0.000000,0.000000,0.000000,0.000000,0.000000,0.000000,0.954480,0.000000,0.000000
8.57600,0.000000,0.436000,0.000000,0.000000,0.000000,0.000000,0.000000,0.000000,0.000000,0.966940,0.000000,0.000000
8.57400,0.000000,0.436000,0.000000,0.000000,0.000000,0.000000,0.000000,0.000000,0.000000,0.979400,0.000000,0.000000
8.57200,0.000000,0.436000,0.000000,0.000000,0.000000,0.000000,0.000000,0.000000,0.000000,0.991860,0.000000,0.000000
8.57000,0.000000,0.436000,0.000000,0.000000,0.000000,0.000000,0.000000,0.000000,0.000000,1.004320,0.000000,0.000000
8.56800,0.000000,0.436000,0.000000,0.000000,0.000000,0.000000,0.000000,0.000000,0.000000,1.016780,0.000000,0.000000
8.56600,0.000000,0.436000,0.000000,0.000000,0.000000,0.000000,0.000000,0.000000,0.000000,1.029240,0.000000,0.000000
8.56400,0.000000,0.436000,0.000000,0.000000,0.000000,0.000000,0.000000,0.000000,0.000000,1.041700,0.000000,0.000000
8.56200,0.000000,0.436000,0.000000,0.000000,0.000000,0.000000,0.000000,0.000000,0.000000,1.054160,0.000000,0.000000
8.56000,0.000000,0.436000,0.000000,0.000000,0.000000,0.000000,0.000000,0.000000,0.000000,1.066620,0.000000,0.000000
8.55800,0.000000,0.436000,0.000000,0.000000,0.000000,0.000000,0.000000,0.000000,0.000000,1.079080,0.000000,0.000000
8.55600,0.000000,0.436000,0.000000,0.000000,0.000000,0.000000,0.000000,0.000000,0.000000,1.091540,0.000000,0.000000
8.55400,0.000000,0.436000,0.000000,0.000000,0.000000,0.000000,0.000000,0.000000,0.000000,1.104000,0.000000,0.000000
8.55200,0.000000,0.436000,0.000000,0.000000,0.000000,0.000000,0.000000,0.000000,0.000000,1.116460,0.000000,0.000000
8.55000,0.000000,0.436000,0.000000,0.000000,0.000000,0.000000,0.000000,0.000000,0.000000,1.128920,0.000000,0.000000
8.54800,0.000000,0.436000,0.000000,0.000000,0.000000,0.000000,0.000000,0.000000,0.000000,1.141380,0.000000,0.000000
8.54600,0.000000,0.436000,0.000000,0.000000,0.000000,0.000000,0.000000,0.000000,0.000000,1.153840,0.000000,0.000000
8.54400,0.000000,0.436000,0.000000,0.000000,0.000000,0.000000,0.000000,0.000000,0.000000,1.166300,0.000000,0.000000
8.54200,0.000000,0.436000,0.000000,0.000000,0.000000,0.000000,0.000000,0.000000,0.000000,1.178760,0.000000,0.000000
8.54000,0.000000,0.436000,0.000000,0.000000,0.000000,0.000000,0.000000,0.000000,0.000000,1.191220,0.000000,0.000000
8.53800,0.000000,0.436000,0.000000,0.000000,0.000000,0.000000,0.000000,0.000000,0.000000,1.203680,0.000000,0.000000
8.53600,0.000000,0.436000,0.000000,0.000000,0.000000,0.000000,0.000000,0.000000,0.000000,1.216140,0.000000,0.000000
8.53400,0.000000,0.436000,0.000000,0.000000,0.000000,0.000000,0.000000,0.000000,0.000000,1.228600,0.000000,0.000000
8.53200,0.000000,0.436000,0.000000,0.000000,0.000000,0.000000,0.000000,0.000000,0.000000,1.241060,0.000000,0.000000
8.53000,0.000000,0.436000,0.000000,0.000000,0.000000,0.000000,0.000000,0.000000,0.000000,1.253520,0.000000,0.000000
8.52800,0.000000,0.436000,0.000000,0.000000,0.000000,0.000000,0.000000,0.000000,0.000000,1.265980,0.000000,0.000000
8.52600,0.000000,0.436000,0.000000,0.000000,0.000000,0.000000,0.000000,0.000000,0.000000,1.278440,0.000000,0.000000
8.52400,0.000000,0.436000,0.000000,0.000000,0.000000,0.000000,0.000000,0.000000,0.000000,1.290900,0.000000,0.000000
8.52200,0.000000,0.436000,0.000000,0.000000,0.000000,0.000000,0.000000,0.000000,0.000000,1.303360,0.000000,0.000000
8.52000,0.000000,0.436000,0.000000,0.000000,0.000000,0.000000,0.000000,0.000000,0.000000,1.315820,0.000000,0.000000
8.51800,0.000000,0.436000,0.000000,0.000000,0.000000,0.000000,0.000000,0.000000,0.000000,1.328280,0.000000,0.000000
8.51600,0.000000,0.436000,0.000000,0.000000,0.000000,0.000000,0.000000,0.000000,0.000000,1.340740,0.000000,0.000000
8.51400,0.000000,0.436000,0.000000,0.000000,0.000000,0.000000,0.000000,0.000000,0.000000,1.353200,0.000000,0.000000
8.51200,0.000000,0.436000,0.000000,0.000000,0.000000,0.000000,0.000000,0.000000,0.000000,1.365660,0.000000,0.000000
8.51000,0.000000,0.436000,0.000000,0.000000,0.000000,0.000000,0.000000,0.000000,0.000000,1.378120,0.000000,0.000000
8.50800,0.000000,0.436000,0.000000,0.000000,0.000000,0.000000,0.000000,0.000000,0.000000,1.390580,0.000000,0.000000
8.50600,0.000000,0.436000,0.000000,0.000000,0.000000,0.000000,0.000000,0.000000,0.000000,1.403040,0.000000,0.000000
8.50400,0.000000,0.436000,0.000000,0.000000,0.000000,0.000000,0.000000,0.000000,0.000000,1.415500,0.000000,0.000000
8.50200,0.000000,0.436000,0.000000,0.000000,0.000000,0.000000,0.000000,0.000000,0.000000,1.427960,0.000000,0.000000
8.50000,0.000000,0.436000,0.000000,0.000000,0.000000,0.000000,0.000000,0.000000,0.000000,1.440420,0.000000,0.000000
8.49800,0.000000,0.436000,0.000000,0.000000,0.000000,0.000000,0.000000,0.000000,0.000000,1.452880,0.000000,0.000000
8.49600,0.000000,0.436000,0.000000,0.000000,0.000000,0.000000,0.000000,0.000000,0.000000,1.465340,0.000000,0.000000
8.49400,0.000000,0.436000,0.000000,0.000000,0.000000,0.000000,0.000000,0.000000,0.000000,1.477800,0.000000,0.000000
8.49200,0.000000,0.436000,0.000000,0.000000,0.000000,0.000000,0.000000,0.000000,0.000000,1.490260,0.000000,0.000000
8.49000,0.000000,0.436000,0.000000,0.000000,0.000000,0.000000,0.000000,0.000000,0.000000,1.502720,0.000000,0.000000
8.48800,0.000000,0.436000,0.000000,0.000000,0.000000,0.000000,0.000000,0.000000,0.000000,1.515180,0.000000,0.000000
8.48600,0.000000,0.436000,0.000000,0.000000,0.000000,0.000000,0.000000,0.000000,0.000000,1.527640,0.000000,0.000000
8.48400,0.000000,0.436000,0.000000,0.000000,0.000000,0.000000,0.000000,0.000000,0.000000,1.540100,0.000000,0.000000
8.48200,0.000000,0.436000,0.000000,0.000000,0.000000,0.000000,0.000000,0.000000,0.000000,1.552560,0.000000,0.000000
8.48000,0.000000,0.436000,0.000000,0.000000,0.000000,0.000000,0.000000,0.000000,0.000000,1.565020,0.000000,0.000000
8.47800,0.000000,0.436000,0.000000,0.000000,0.000000,0.000000,0.000000,0.000000,0.000000,1.577480,0.000000,0.000000
8.47600,0.000000,0.436000,0.000000,0.000000,0.000000,0.000000,0.000000,0.000000,0.000000,1.589940,0.000000,0.000000
8.47400,0.000000,0.436000,0.000000,0.000000,0.000000,0.000000,0.000000,0.000000,0.000000,1.602400,0.000000,0.000000
8.47200,0.000000,0.436000,0.000000,0.000000,0.000000,0.000000,0.000000,0.000000,0.000000,1.614860,0.000000,0.000000
8.47000,0.000000,0.436000,0.000000,0.000000,0.000000,0.000000,0.000000,0.000000,0.000000,1.627320,0.000000,0.000000
8.46800,0.000000,0.436000,0.000000,0.000000,0.000000,0.000000,0.000000,0.000000,0.000000,1.639780,0.000000,0.000000
8.46600,0.000000,0.436000,0.000000,0.000000,0.000000,0.000000,0.000000,0.000000,0.000000,1.652240,0.000000,0.000000
8.46400,0.000000,0.436000,0.000000,0.000000,0.000000,0.000000,0.000000,0.000000,0.000000,1.664700,0.000000,0.000000
8.46200,0.000000,0.436000,0.000000,0.000000,0.000000,0.000000,0.000000,0.000000,0.000000,1.677160,0.000000,0.000000
8.46000,0.000000,0.436000,0.000000,0.000000,0.000000,0.000000,0.000000,0.000000,0.000000,1.689620,0.000000,0.000000
8.45800,0.000000,0.436000,0.000000,0.000000,0.000000,0.000000,0.000000,0.000000,0.000000,1.702080,0.000000,0.000000
8.45600,0.000000,0.436000,0.000000,0.000000,0.000000,0.000000,0.000000,0.000000,0.000000,1.714540,0.000000,0.000000
8.45400,0.000000,0.436000,0.000000,0.000000,0.000000,0.000000,0.000000,0.000000,0.000000,1.727000,0.000000,0.000000
8.45200,0.000000,0.436000,0.000000,0.000000,0.000000,0.000000,0.000000,0.000000,0.000000,1.739460,0.000000,0.000000
8.45000,0.000000,0.436000,0.000000,0.000000,0.000000,0.000000,0.000000,0.000000,0.000000,1.751920,0.000000,0.000000
8.44800,0.000000,0.436000,0.000000,0.000000,0.000000,0.000000,0.000000,0.000000,0.000000,1.764380,0.000000,0.000000
8.44600,0.000000,0.436000,0.000000,0.000000,0.000000,0.000000,0.000000,0.000000,0.000000,1.776840,0.000000,0.000000
8.44400,0.000000,0.436000,0.000000,0.000000,0.000000,0.000000,0.000000,0.000000,0.000000,1.789300,0.000000,0.000000
8.44200,0.000000,0.436000,0.000000,0.000000,0.000000,0.000000,0.000000,0.000000,0.000000,1.801760,0.000000,0.000000
8.44000,0.000000,0.436000,0.000000,0.000000,0.000000,0.000000,0.000000,0.000000,0.000000,1.814220,0.000000,0.000000
8.43800,0.000000,0.436000,0.000000,0.000000,0.000000,0.000000,0.000000,0.000000,0.000000,1.826680,0.000000,0.000000
8.43600,0.000000,0.436000,0.000000,0.000000,0.000000,0.000000,0.000000,0.000000,0.000000,1.839140,0.000000,0.000000
8.43400,0.000000,0.436000,0.000000,0.000000,0.000000,0.000000,0.000000,0.000000,0.000000,1.851600,0.000000,0.000000
8.43200,0.000000,0.436000,0.000000,0.000000,0.000000,0.000000,0.000000,0.000000,0.000000,1.864060,0.000000,0.000000
8.43000,0.000000,0.436000,0.000000,0.000000,0.000000,0.000000,0.000000,0.000000,0.000000,1.876520,0.000000,0.000000
8.42800,0.000000,0.436000,0.000000,0.000000,0.000000,0.000000,0.000000,0.000000,0.000000,1.888980,0.000000,0.000000
8.42600,0.000000,0.436000,0.000000,0.000000,0.000000,0.000000,0.000000,0.000000,0.000000,1.901440,0.000000,0.000000
8.42400,0.000000,0.436000,0.000000,0.000000,0.000000,0.000000,0.000000,0.000000,0.000000,1.913900,0.000000,0.000000
8.42200,0.000000,0.436000,0.000000,0.000000,0.000000,0.000000,0.000000,0.000000,0.000000,1.926360,0.000000,0.000000
8.42000,0.000000,0.436000,0.000000,0.000000,0.000000,0.000000,0.000000,0.000000,0.000000,1.938820,0.000000,0.000000
8.41800,0.000000,0.436000,0.000000,0.000000,0.000000,0.000000,0.000000,0.000000,0.000000,1.951280,0.000000,0.000000
8.41600,0.000000,0.436000,0.000000,0.000000,0.000000,0.000000,0.000000,0.000000,0.000000,1.963740,0.000000,0.000000
8.41400,0.000000,0.436000,0.000000,0.000000,0.000000,0.000000,0.000000,0.000000,0.000000,1.976200,0.000000,0.000000
8.41200,0.000000,0.436000,0.000000,0.000000,0.000000,0.000000,0.000000,0.000000,0.000000,1.988660,0.000000,0.000000
8.41000,0.000000,0.436000,0.000000,0.000000,0.000000,0.000000,0.000000,0.000000,0.000000,2.001120,0.000000,0.000000
8.40800,0.000000,0.436000,0.000000,0.000000,0.000000,0.000000,0.000000,0.000000,0.000000,2.013580,0.000000,0.000000
8.40600,0.000000,0.436000,0.000000,0.000000,0.000000,0.000000,0.000000,0.000000,0.000000,2.026040,0.000000,0.000000
8.40400,0.000000,0.436000,0.000000,0.000000,0.000000,0.000000,0.000000,0.000000,0.000000,2.038500,0.000000,0.000000
8.40200,0.000000,0.436000,0.000000,0.000000,0.000000,0.000000,0.000000,0.000000,0.000000,2.050960,0.000000,0.000000
8.40000,0.000000,0.436000,0.000000,0.000000,0.000000,0.000000,0.000000,0.000000,0.000000,2.063420,0.000000,0.000000
8.39800,0.000000,0.436000,0.000000,0.000000,0.000000,0.000000,0.000000,0.000000,0.000000,2.075880,0.000000,0.000000
8.39600,0.000000,0.436000,0.000000,0.000000,0.000000,0.000000,0.000000,0.000000,0.000000,2.088340,0.000000,0.000000
8.39400,0.000000,0.436000,0.000000,0.000000,0.000000,0.000000,0.000000,0.000000,0.000000,2.100800,0.000000,0.000000
8.39200,0.000000,0.436000,0.000000,0.000000,0.000000,0.000000,0.000000,0.000000,0.000000,2.113260,0.000000,0.000000
8.39000,0.000000,0.436000,0.000000,0.000000,0.000000,0.000000,0.000000,0.000000,0.000000,2.125720,0.000000,0.000000
8.38800,0.000000,0.436000,0.000000,0.000000,0.000000,0.000000,0.000000,0.000000,0.000000,2.138180,0.000000,0.000000
8.38600,0.000000,0.436000,0.000000,0.000000,0.000000,0.000000,0.000000,0.000000,0.000000,2.150640,0.000000,0.000000
8.38400,0.000000,0.436000,0.000000,0.000000,0.000000,0.000000,0.000000,0.000000,0.000000,2.163100,0.000000,0.000000
8.38200,0.000000,0.436000,0.000000,0.000000,0.000000,0.000000,0.000000,0.000000,0.000000,2.175560,0.000000,0.000000
8.38000,0.000000,0.436000,0.000000,0.000000,0.000000,0.000000,0.000000,0.000000,0.000000,2.188020,0.000000,0.000000
8.37800,0.000000,0.436000,0.000000,0.000000,0.000000,0.000000,0.000000,0.000000,0.000000,2.200480,0.000000,0.000000
8.37600,0.000000,0.436000,0.000000,0.000000,0.000000,0.000000,0.000000,0.000000,0.000000,2.212940,0.000000,0.000000
8.37400,0.000000,0.436000,0.000000,0.000000,0.000000,0.000000,0.000000,0.000000,0.000000,2.225400,0.000000,0.000000
8.37200,0.000000,0.436000,0.000000,0.000000,0.000000,0.000000,0.000000,0.000000,0.000000,2.237860,0.000000,0.000000
8.37000,0.000000,0.436000,0.000000,0.000000,0.000000,0.000000,0.000000,0.000000,0.000000,2.250320,0.000000,0.000000
8.36800,0.000000,0.436000,0.000000,0.000000,0.000000,0.000000,0.000000,0.000000,0.000000,2.262780,0.000000,0.000000
8.36600,0.000000,0.436000,0.000000,0.000000,0.000000,0.000000,0.000000,0.000000,0.000000,2.275240,0.000000,0.000000
8.36400,0.000000,0.436000,0.000000,0.000000,0.000000,0.000000,0.000000,0.000000,0.000000,2.287700,0.000000,0.000000
8.36200,0.000000,0.436000,0.000000,0.000000,0.000000,0.000000,0.000000,0.000000,0.000000,2.300160,0.000000,0.000000
8.36000,0.000000,0.436000,0.000000,0.000000,0.000000,0.000000,0.000000,0.000000,0.000000,2.312620,0.000000,0.000000
8.35800,0.000000,0.436000,0.000000,0.000000,0.000000,0.000000,0.000000,0.000000,0.000000,2.325080,0.000000,0.000000
8.35600,0.000000,0.436000,0.000000,0.000000,0.000000,0.000000,0.000000,0.000000,0.000000,2.337540,0.000000,0.000000
8.35400,0.000000,0.436000,0.000000,0.000000,0.000000,0.000000,0.000000,0.000000,0.000000,2.350000,0.000000,0.000000
8.35200,0.000000,0.436000,0.000000,0.000000,0.000000,0.000000,0.000000,0.000000,0.000000,2.350000,0.000000,0.000000
8.35000,0.000000,0.436000,0.000000,0.000000,0.000000,0.000000,0.000000,0.000000,0.000000,2.361600,0.000000,0.000000
8.34800,0.000000,0.436000,0.000000,0.000000,0.000000,0.000000,0.000000,0.000000,0.000000,2.372400,0.000000,0.000000
8.34600,0.000000,0.436000,0.000000,0.000000,0.000000,0.000000,0.000000,0.000000,0.000000,2.382400,0.000000,0.000000
8.34400,0.000000,0.436000,0.000000,0.000000,0.000000,0.000000,0.000000,0.000000,0.000000,2.391600,0.000000,0.000000
8.34200,0.000000,0.436000,0.000000,0.000000,0.000000,0.000000,0.000000,0.000000,0.000000,2.400000,0.000000,0.000000
8.34000,0.000000,0.436000,0.000000,0.000000,0.000000,0.000000,0.000000,0.000000,0.000000,2.407600,0.000000,0.000000
8.33800,0.000000,0.436000,0.000000,0.000000,0.000000,0.000000,0.000000,0.000000,0.000000,2.414400,0.000000,0.000000
8.33600,0.000000,0.436000,0.000000,0.000000,0.000000,0.000000,0.000000,0.000000,0.000000,2.420400,0.000000,0.000000
8.33400,0.000000,0.436000,0.000000,0.000000,0.000000,0.000000,0.000000,0.000000,0.000000,2.425600,0.000000,0.000000
8.33200,0.000000,0.436000,0.000000,0.000000,0.000000,0.000000,0.000000,0.000000,0.000000,2.430000,0.000000,0.000000
8.33000,0.000000,0.436000,0.000000,0.000000,0.000000,0.000000,0.000000,0.000000,0.000000,2.433600,0.000000,0.000000
8.32800,0.000000,0.436000,0.000000,0.000000,0.000000,0.000000,0.000000,0.000000,0.000000,2.436400,0.000000,0.000000
8.32600,0.000000,0.436000,0.000000,0.000000,0.000000,0.000000,0.000000,0.000000,0.000000,2.438400,0.000000,0.000000
8.32400,0.000000,0.436000,0.000000,0.000000,0.000000,0.000000,0.000000,0.000000,0.000000,2.439600,0.000000,0.000000
8.32200,0.000000,0.436000,0.000000,0.000000,0.000000,0.000000,0.000000,0.000000,0.000000,2.440000,0.000000,0.000000
8.32000,0.000000,0.436000,0.000000,0.000000,0.000000,0.000000,0.000000,0.000000,0.000000,2.361600,0.000000,0.000000
8.31800,0.000000,0.436000,0.000000,0.000000,0.000000,0.000000,0.000000,0.000000,0.000000,2.372400,0.000000,0.000000
8.31600,0.000000,0.436000,0.000000,0.000000,0.000000,0.000000,0.000000,0.000000,0.000000,2.382400,0.000000,0.000000
8.31400,0.000000,0.436000,0.000000,0.000000,0.000000,0.000000,0.000000,0.000000,0.000000,2.391600,0.000000,0.000000
8.31200,0.000000,0.436000,0.000000,0.000000,0.000000,0.000000,0.000000,0.000000,0.000000,2.400000,0.000000,0.000000
8.31000,0.000000,0.436000,0.000000,0.000000,0.000000,0.000000,0.000000,0.000000,0.000000,2.407600,0.000000,0.000000
8.30800,0.000000,0.436000,0.000000,0.000000,0.000000,0.000000,0.000000,0.000000,0.000000,2.414400,0.000000,0.000000
8.30600,0.000000,0.436000,0.000000,0.000000,0.000000,0.000000,0.000000,0.000000,0.000000,2.420400,0.000000,0.000000
8.30400,0.000000,0.436000,0.000000,0.000000,0.000000,0.000000,0.000000,0.000000,0.000000,2.425600,0.000000,0.000000
8.30200,0.000000,0.436000,0.000000,0.000000,0.000000,0.000000,0.000000,0.000000,0.000000,2.430000,0.000000,0.000000
8.30000,0.000000,0.436000,0.000000,0.000000,0.000000,0.000000,0.000000,0.000000,0.000000,2.433600,0.000000,0.000000
8.29800,0.000000,0.436000,0.000000,0.000000,0.000000,0.000000,0.000000,0.000000,0.000000,2.436400,0.000000,0.000000
8.29600,0.000000,0.436000,0.000000,0.000000,0.000000,0.000000,0.000000,0.000000,0.000000,2.438400,0.000000,0.000000
8.29400,0.000000,0.436000,0.000000,0.000000,0.000000,0.000000,0.000000,0.000000,0.000000,2.439600,0.000000,0.000000
8.29200,0.000000,0.436000,0.000000,0.000000,0.000000,0.000000,0.000000,0.000000,0.000000,2.440000,0.000000,0.000000
8.29000,0.000000,0.436000,0.000000,0.000000,0.000000,0.000000,0.000000,0.000000,0.000000,2.332800,0.000000,0.000000
8.28800,0.000000,0.436000,0.000000,0.000000,0.000000,0.000000,0.000000,0.000000,0.000000,2.320340,0.000000,0.000000
8.28600,0.000000,0.436000,0.000000,0.000000,0.000000,0.000000,0.000000,0.000000,0.000000,2.307880,0.000000,0.000000
8.28400,0.000000,0.436000,0.000000,0.000000,0.000000,0.000000,0.000000,0.000000,0.000000,2.295420,0.000000,0.000000
8.28200,0.000000,0.436000,0.000000,0.000000,0.000000,0.000000,0.000000,0.000000,0.000000,2.282960,0.000000,0.000000
8.28000,0.000000,0.436000,0.000000,0.000000,0.000000,0.000000,0.000000,0.000000,0.000000,2.270500,0.000000,0.000000
8.27800,0.000000,0.436000,0.000000,0.000000,0.000000,0.000000,0.000000,0.000000,0.000000,2.258040,0.000000,0.000000
