sainanliu129-hub/model/applications/Body_GravityPara_Iden/build/traj_E1_update_all_joints_039.csv
time,leg_l1_joint,leg_l2_joint,leg_l3_joint,leg_l4_joint,leg_l5_joint,leg_l6_joint,leg_r1_joint,leg_r2_joint,leg_r3_joint,leg_r4_joint,leg_r5_joint,leg_r6_joint
0.00000,0.000000,0.000000,0.000000,0.000000,0.000000,0.000000,0.000000,-0.436000,0.000000,0.000000,0.000000,0.000000
0.00200,-0.000400,0.000000,0.000000,0.000000,0.000000,0.000000,0.000000,-0.436000,0.000000,0.000000,0.000000,0.000000
0.00400,-0.001600,0.000000,0.000000,0.000000,0.000000,0.000000,0.000000,-0.436000,0.000000,0.000000,0.000000,0.000000
0.00600,-0.003600,0.000000,0.000000,0.000000,0.000000,0.000000,0.000000,-0.436000,0.000000,0.000000,0.000000,0.000000
0.00800,-0.006400,0.000000,0.000000,0.000000,0.000000,0.000000,0.000000,-0.436000,0.000000,0.000000,0.000000,0.000000
0.01000,-0.010000,0.000000,0.000000,0.000000,0.000000,0.000000,0.000000,-0.436000,0.000000,0.000000,0.000000,0.000000
0.01200,-0.014400,0.000000,0.000000,0.000000,0.000000,0.000000,0.000000,-0.436000,0.000000,0.000000,0.000000,0.000000
0.01400,-0.019600,0.000000,0.000000,0.000000,0.000000,0.000000,0.000000,-0.436000,0.000000,0.000000,0.000000,0.000000
0.01600,-0.025600,0.000000,0.000000,0.000000,0.000000,0.000000,0.000000,-0.436000,0.000000,0.000000,0.000000,0.000000
0.01800,-0.032400,0.000000,0.000000,0.000000,0.000000,0.000000,0.000000,-0.436000,0.000000,0.000000,0.000000,0.000000
0.02000,-0.040000,0.000000,0.000000,0.000000,0.000000,0.000000,0.000000,-0.436000,0.000000,0.000000,0.000000,0.000000
0.02200,-0.048400,0.000000,0.000000,0.000000,0.000000,0.000000,0.000000,-0.436000,0.000000,0.000000,0.000000,0.000000
0.02400,-0.057600,0.000000,0.000000,0.000000,0.000000,0.000000,0.000000,-0.436000,0.000000,0.000000,0.000000,0.000000
0.02600,-0.067600,0.000000,0.000000,0.000000,0.000000,0.000000,0.000000,-0.436000,0.000000,0.000000,0.000000,0.000000
0.02800,-0.078400,0.000000,0.000000,0.000000,0.000000,0.000000,0.000000,-0.436000,0.000000,0.000000,0.000000,0.000000
0.03000,-0.090000,0.000000,0.000000,0.000000,0.000000,0.000000,0.000000,-0.436000,0.000000,0.000000,0.000000,0.000000
0.03200,-0.102400,0.000000,0.000000,0.000000,0.000000,0.000000,0.000000,-0.436000,0.000000,0.000000,0.000000,0.000000
0.03400,-0.115600,0.000000,0.000000,0.000000,0.000000,0.000000,0.000000,-0.436000,0.000000,0.000000,0.000000,0.000000
0.03600,-0.129600,0.000000,0.000000,0.000000,0.000000,0.000000,0.000000,-0.436000,0.000000,0.000000,0.000000,0.000000
0.03800,-0.129600,0.000000,0.000000,0.000000,0.000000,0.000000,0.000000,-0.436000,0.000000,0.000000,0.000000,0.000000
0.04000,-0.144552,0.000000,0.000000,0.000000,0.000000,0.000000,0.000000,-0.436000,0.000000,0.000000,0.000000,0.000000
0.04200,-0.159504,0.000000,0.000000,0.000000,0.000000,0.000000,0.000000,-0.436000,0.000000,0.000000,0.000000,0.000000
0.04400,-0.174456,0.000000,0.000000,0.000000,0.000000,0.000000,0.000000,-0.436000,0.000000,0.000000,0.000000,0.000000
0.04600,-0.189408,0.000000,0.000000,0.000000,0.000000,0.000000,0.000000,-0.436000,0.000000,0.000000,0.000000,0.000000
0.04800,-0.204360,0.000000,0.000000,0.000000,0.000000,0.000000,0.000000,-0.436000,0.000000,0.000000,0.000000,0.000000
0.05000,-0.219312,0.000000,0.000000,0.000000,0.000000,0.000000,0.000000,-0.436000,0.000000,0.000000,0.000000,0.000000
0.05200,-0.234264,0.000000,0.000000,0.000000,0.000000,0.000000,0.000000,-0.436000,0.000000,0.000000,0.000000,0.000000
0.05400,-0.249216,0.000000,0.000000,0.000000,0.000000,0.000000,0.000000,-0.436000,0.000000,0.000000,0.000000,0.000000
0.05600,-0.264168,0.000000,0.000000,0.000000,0.000000,0.000000,0.000000,-0.436000,0.000000,0.000000,0.000000,0.000000
0.05800,-0.279120,0.000000,0.000000,0.000000,0.000000,0.000000,0.000000,-0.436000,0.000000,0.000000,0.000000,0.000000
0.06000,-0.294072,0.000000,0.000000,0.000000,0.000000,0.000000,0.000000,-0.436000,0.000000,0.000000,0.000000,0.000000
0.06200,-0.309024,0.000000,0.000000,0.000000,0.000000,0.000000,0.000000,-0.436000,0.000000,0.000000,0.000000,0.000000
0.06400,-0.323976,0.000000,0.000000,0.000000,0.000000,0.000000,0.000000,-0.436000,0.000000,0.000000,0.000000,0.000000
0.06600,-0.338928,0.000000,0.000000,0.000000,0.000000,0.000000,0.000000,-0.436000,0.000000,0.000000,0.000000,0.000000
0.06800,-0.353880,0.000000,0.000000,0.000000,0.000000,0.000000,0.000000,-0.436000,0.000000,0.000000,0.000000,0.000000
0.07000,-0.368832,0.000000,0.000000,0.000000,0.000000,0.000000,0.000000,-0.436000,0.000000,0.000000,0.000000,0.000000
0.07200,-0.383784,0.000000,0.000000,0.000000,0.000000,0.000000,0.000000,-0.436000,0.000000,0.000000,0.000000,0.000000
0.07400,-0.398736,0.000000,0.000000,0.000000,0.000000,0.000000,0.000000,-0.436000,0.000000,0.000000,0.000000,0.000000
0.07600,-0.413688,0.000000,0.000000,0.000000,0.000000,0.000000,0.000000,-0.436000,0.000000,0.000000,0.000000,0.000000
0.07800,-0.428640,0.000000,0.000000,0.000000,0.000000,0.000000,0.000000,-0.436000,0.000000,0.000000,0.000000,0.000000
0.08000,-0.443592,0.000000,0.000000,0.000000,0.000000,0.000000,0.000000,-0.436000,0.000000,0.000000,0.000000,0.000000
0.08200,-0.458544,0.000000,0.000000,0.000000,0.000000,0.000000,0.000000,-0.436000,0.000000,0.000000,0.000000,0.000000
0.08400,-0.610000,0.000000,0.000000,0.000000,0.000000,0.000000,0.000000,-0.436000,0.000000,0.000000,0.000000,0.000000
0.08600,-0.609600,0.000000,0.000000,0.000000,0.000000,0.000000,0.000000,-0.436000,0.000000,0.000000,0.000000,0.000000
0.08800,-0.608400,0.000000,0.000000,0.000000,0.000000,0.000000,0.000000,-0.436000,0.000000,0.000000,0.000000,0.000000
0.09000,-0.606400,0.000000,0.000000,0.000000,0.000000,0.000000,0.000000,-0.436000,0.000000,0.000000,0.000000,0.000000
0.09200,-0.603600,0.000000,0.000000,0.000000,0.000000,0.000000,0.000000,-0.436000,0.000000,0.000000,0.000000,0.000000
0.09400,-0.600000,0.000000,0.000000,0.000000,0.000000,0.000000,0.000000,-0.436000,0.000000,0.000000,0.000000,0.000000
0.09600,-0.595600,0.000000,0.000000,0.000000,0.000000,0.000000,0.000000,-0.436000,0.000000,0.000000,0.000000,0.000000
0.09800,-0.590400,0.000000,0.000000,0.000000,0.000000,0.000000,0.000000,-0.436000,0.000000,0.000000,0.000000,0.000000
0.10000,-0.584400,0.000000,0.000000,0.000000,0.000000,0.000000,0.000000,-0.436000,0.000000,0.000000,0.000000,0.000000
0.10200,-0.577600,0.000000,0.000000,0.000000,0.000000,0.000000,0.000000,-0.436000,0.000000,0.000000,0.000000,0.000000
0.10400,-0.570000,0.000000,0.000000,0.000000,0.000000,0.000000,0.000000,-0.436000,0.000000,0.000000,0.000000,0.000000
0.10600,-0.561600,0.000000,0.000000,0.000000,0.000000,0.000000,0.000000,-0.436000,0.000000,0.000000,0.000000,0.000000
0.10800,-0.552400,0.000000,0.000000,0.000000,0.000000,0.000000,0.000000,-0.436000,0.000000,0.000000,0.000000,0.000000
0.11000,-0.542400,0.000000,0.000000,0.000000,0.000000,0.000000,0.000000,-0.436000,0.000000,0.000000,0.000000,0.000000
0.11200,-0.531600,0.000000,0.000000,0.000000,0.000000,0.000000,0.000000,-0.436000,0.000000,0.000000,0.000000,0.000000
0.11400,-0.520000,0.000000,0.000000,0.000000,0.000000,0.000000,0.000000,-0.436000,0.000000,0.000000,0.000000,0.000000
0.11600,-0.507600,0.000000,0.000000,0.000000,0.000000,0.000000,0.000000,-0.436000,0.000000,0.000000,0.000000,0.000000
0.11800,-0.494400,0.000000,0.000000,0.000000,0.000000,0.000000,0.000000,-0.436000,0.000000,0.000000,0.000000,0.000000
0.12000,-0.610000,0.000000,0.000000,0.000000,0.000000,0.000000,0.000000,-0.436000,0.000000,0.000000,0.000000,0.000000
0.12200,-0.609600,0.000000,0.000000,0.000000,0.000000,0.000000,0.000000,-0.436000,0.000000,0.000000,0.000000,0.000000
0.12400,-0.608400,0.000000,0.000000,0.000000,0.000000,0.000000,0.000000,-0.436000,0.000000,0.000000,0.000000,0.000000
0.12600,-0.606400,0.000000,0.000000,0.000000,0.000000,0.000000,0.000000,-0.436000,0.000000,0.000000,0.000000,0.000000
0.12800,-0.603600,0.000000,0.000000,0.000000,0.000000,0.000000,0.000000,-0.436000,0.000000,0.000000,0.000000,0.000000
0.13000,-0.600000,0.000000,0.000000,0.000000,0.000000,0.000000,0.000000,-0.436000,0.000000,0.000000,0.000000,0.000000
0.13200,-0.595600,0.000000,0.000000,0.000000,0.000000,0.000000,0.000000,-0.436000,0.000000,0.000000,0.000000,0.000000
0.13400,-0.590400,0.000000,0.000000,0.000000,0.000000,0.000000,0.000000,-0.436000,0.000000,0.000000,0.000000,0.000000
0.13600,-0.584400,0.000000,0.000000,0.000000,0.000000,0.000000,0.000000,-0.436000,0.000000,0.000000,0.000000,0.000000
0.13800,-0.577600,0.000000,0.000000,0.000000,0.000000,0.000000,0.000000,-0.436000,0.000000,0.000000,0.000000,0.000000
0.14000,-0.577600,0.000000,0.000000,0.000000,0.000000,0.000000,0.000000,-0.436000,0.000000,0.000000,0.000000,0.000000
0.14200,-0.570124,0.000000,0.000000,0.000000,0.000000,0.000000,0.000000,-0.436000,0.000000,0.000000,0.000000,0.000000
0.14400,-0.562648,0.000000,0.000000,0.000000,0.000000,0.000000,0.000000,-0.436000,0.000000,0.000000,0.000000,0.000000
0.14600,-0.555172,0.000000,0.000000,0.000000,0.000000,0.000000,0.000000,-0.436000,0.000000,0.000000,0.000000,0.000000
0.14800,-0.547696,0.000000,0.000000,0.000000,0.000000,0.000000,0.000000,-0.436000,0.000000,0.000000,0.000000,0.000000
0.15000,-0.540220,0.000000,0.000000,0.000000,0.000000,0.000000,0.000000,-0.436000,0.000000,0.000000,0.000000,0.000000
0.15200,-0.532744,0.000000,0.000000,0.000000,0.000000,0.000000,0.000000,-0.436000,0.000000,0.000000,0.000000,0.000000
0.15400,-0.525268,0.000000,0.000000,0.000000,0.000000,0.000000,0.000000,-0.436000,0.000000,0.000000,0.000000,0.000000
0.15600,-0.517792,0.000000,0.000000,0.000000,0.000000,0.000000,0.000000,-0.436000,0.000000,0.000000,0.000000,0.000000
0.15800,-0.510316,0.000000,0.000000,0.000000,0.000000,0.000000,0.000000,-0.436000,0.000000,0.000000,0.000000,0.000000
0.16000,-0.502840,0.000000,0.000000,0.000000,0.000000,0.000000,0.000000,-0.436000,0.000000,0.000000,0.000000,0.000000
0.16200,-0.495364,0.000000,0.000000,0.000000,0.000000,0.000000,0.000000,-0.436000,0.000000,0.000000,0.000000,0.000000
0.16400,-0.487888,0.000000,0.000000,0.000000,0.000000,0.000000,0.000000,-0.436000,0.000000,0.000000,0.000000,0.000000
0.16600,-0.480412,0.000000,0.000000,0.000000,0.000000,0.000000,0.000000,-0.436000,0.000000,0.000000,0.000000,0.000000
0.16800,-0.472936,0.000000,0.000000,0.000000,0.000000,0.000000,0.000000,-0.436000,0.000000,0.000000,0.000000,0.000000
0.17000,-0.465460,0.000000,0.000000,0.000000,0.000000,0.000000,0.000000,-0.436000,0.000000,0.000000,0.000000,0.000000
0.17200,-0.457984,0.000000,0.000000,0.000000,0.000000,0.000000,0.000000,-0.436000,0.000000,0.000000,0.000000,0.000000
0.17400,-0.450508,0.000000,0.000000,0.000000,0.000000,0.000000,0.000000,-0.436000,0.000000,0.000000,0.000000,0.000000
0.17600,-0.443032,0.000000,0.000000,0.000000,0.000000,0.000000,0.000000,-0.436000,0.000000,0.000000,0.000000,0.000000
0.17800,-0.435556,0.000000,0.000000,0.000000,0.000000,0.000000,0.000000,-0.436000,0.000000,0.000000,0.000000,0.000000
0.18000,-0.428080,0.000000,0.000000,0.000000,0.000000,0.000000,0.000000,-0.436000,0.000000,0.000000,0.000000,0.000000
0.18200,-0.420604,0.000000,0.000000,0.000000,0.000000,0.000000,0.000000,-0.436000,0.000000,0.000000,0.000000,0.000000
0.18400,-0.413128,0.000000,0.000000,0.000000,0.000000,0.000000,0.000000,-0.436000,0.000000,0.000000,0.000000,0.000000
0.18600,-0.405652,0.000000,0.000000,0.000000,0.000000,0.000000,0.000000,-0.436000,0.000000,0.000000,0.000000,0.000000
0.18800,-0.398176,0.000000,0.000000,0.000000,0.000000,0.000000,0.000000,-0.436000,0.000000,0.000000,0.000000,0.000000
0.19000,-0.390700,0.000000,0.000000,0.000000,0.000000,0.000000,0.000000,-0.436000,0.000000,0.000000,0.000000,0.000000
0.19200,-0.383224,0.000000,0.000000,0.000000,0.000000,0.000000,0.000000,-0.436000,0.000000,0.000000,0.000000,0.000000
0.19400,-0.375748,0.000000,0.000000,0.000000,0.000000,0.000000,0.000000,-0.436000,0.000000,0.000000,0.000000,0.000000
0.19600,-0.368272,0.000000,0.000000,0.000000,0.000000,0.000000,0.000000,-0.436000,0.000000,0.000000,0.000000,0.000000
0.19800,-0.360796,0.000000,0.000000,0.000000,0.000000,0.000000,0.000000,-0.436000,0.000000,0.000000,0.000000,0.000000
0.20000,-0.353320,0.000000,0.000000,0.000000,0.000000,0.000000,0.000000,-0.436000,0.000000,0.000000,0.000000,0.000000
0.20200,-0.345844,0.000000,0.000000,0.000000,0.000000,0.000000,0.000000,-0.436000,0.000000,0.000000,0.000000,0.000000
0.20400,-0.338368,0.000000,0.000000,0.000000,0.000000,0.000000,0.000000,-0.436000,0.000000,0.000000,0.000000,0.000000
0.20600,-0.330892,0.000000,0.000000,0.000000,0.000000,0.000000,0.000000,-0.436000,0.000000,0.000000,0.000000,0.000000
0.20800,-0.323416,0.000000,0.000000,0.000000,0.000000,0.000000,0.000000,-0.436000,0.000000,0.000000,0.000000,0.000000
0.21000,-0.315940,0.000000,0.000000,0.000000,0.000000,0.000000,0.000000,-0.436000,0.000000,0.000000,0.000000,0.000000
0.21200,-0.308464,0.000000,0.000000,0.000000,0.000000,0.000000,0.000000,-0.436000,0.000000,0.000000,0.000000,0.000000
0.21400,-0.300988,0.000000,0.000000,0.000000,0.000000,0.000000,0.000000,-0.436000,0.000000,0.000000,0.000000,0.000000
0.21600,-0.293512,0.000000,0.000000,0.000000,0.000000,0.000000,0.000000,-0.436000,0.000000,0.000000,0.000000,0.000000
0.21800,-0.286036,0.000000,0.000000,0.000000,0.000000,0.000000,0.000000,-0.436000,0.000000,0.000000,0.000000,0.000000
0.22000,-0.278560,0.000000,0.000000,0.000000,0.000000,0.000000,0.000000,-0.436000,0.000000,0.000000,0.000000,0.000000
0.22200,-0.271084,0.000000,0.000000,0.000000,0.000000,0.000000,0.000000,-0.436000,0.000000,0.000000,0.000000,0.000000
0.22400,-0.263608,0.000000,0.000000,0.000000,0.000000,0.000000,0.000000,-0.436000,0.000000,0.000000,0.000000,0.000000
0.22600,-0.256132,0.000000,0.000000,0.000000,0.000000,0.000000,0.000000,-0.436000,0.000000,0.000000,0.000000,0.000000
0.22800,-0.248656,0.000000,0.000000,0.000000,0.000000,0.000000,0.000000,-0.436000,0.000000,0.000000,0.000000,0.000000
0.23000,-0.241180,0.000000,0.000000,0.000000,0.000000,0.000000,0.000000,-0.436000,0.000000,0.000000,0.000000,0.000000
0.23200,-0.233704,0.000000,0.000000,0.000000,0.000000,0.000000,0.000000,-0.436000,0.000000,0.000000,0.000000,0.000000
0.23400,-0.226228,0.000000,0.000000,0.000000,0.000000,0.000000,0.000000,-0.436000,0.000000,0.000000,0.000000,0.000000
0.23600,-0.218752,0.000000,0.000000,0.000000,0.000000,0.000000,0.000000,-0.436000,0.000000,0.000000,0.000000,0.000000
0.23800,-0.211276,0.000000,0.000000,0.000000,0.000000,0.000000,0.000000,-0.436000,0.000000,0.000000,0.000000,0.000000
0.24000,-0.203800,0.000000,0.000000,0.000000,0.000000,0.000000,0.000000,-0.436000,0.000000,0.000000,0.000000,0.000000
0.24200,-0.196324,0.000000,0.000000,0.000000,0.000000,0.000000,0.000000,-0.436000,0.000000,0.000000,0.000000,0.000000
0.24400,-0.188848,0.000000,0.000000,0.000000,0.000000,0.000000,0.000000,-0.436000,0.000000,0.000000,0.000000,0.000000
0.24600,-0.181372,0.000000,0.000000,0.000000,0.000000,0.000000,0.000000,-0.436000,0.000000,0.000000,0.000000,0.000000
0.24800,-0.173896,0.000000,0.000000,0.000000,0.000000,0.000000,0.000000,-0.436000,0.000000,0.000000,0.000000,0.000000
0.25000,-0.166420,0.000000,0.000000,0.000000,0.000000,0.000000,0.000000,-0.436000,0.000000,0.000000,0.000000,0.000000
0.25200,-0.158944,0.000000,0.000000,0.000000,0.000000,0.000000,0.000000,-0.436000,0.000000,0.000000,0.000000,0.000000
0.25400,-0.151468,0.000000,0.000000,0.000000,0.000000,0.000000,0.000000,-0.436000,0.000000,0.000000,0.000000,0.000000
0.25600,-0.143992,0.000000,0.000000,0.000000,0.000000,0.000000,0.000000,-0.436000,0.000000,0.000000,0.000000,0.000000
0.25800,-0.136516,0.000000,0.000000,0.000000,0.000000,0.000000,0.000000,-0.436000,0.000000,0.000000,0.000000,0.000000
0.26000,-0.129040,0.000000,0.000000,0.000000,0.000000,0.000000,0.000000,-0.436000,0.000000,0.000000,0.000000,0.000000
0.26200,-0.121564,0.000000,0.000000,0.000000,0.000000,0.000000,0.000000,-0.436000,0.000000,0.000000,0.000000,0.000000
0.26400,-0.114088,0.000000,0.000000,0.000000,0.000000,0.000000,0.000000,-0.436000,0.000000,0.000000,0.000000,0.000000
0.26600,-0.106612,0.000000,0.000000,0.000000,0.000000,0.000000,0.000000,-0.436000,0.000000,0.000000,0.000000,0.000000
0.26800,-0.099136,0.000000,0.000000,0.000000,0.000000,0.000000,0.000000,-0.436000,0.000000,0.000000,0.000000,0.000000
0.27000,-0.091660,0.000000,0.000000,0.000000,0.000000,0.000000,0.000000,-0.436000,0.000000,0.000000,0.000000,0.000000
0.27200,-0.084184,0.000000,0.000000,0.000000,0.000000,0.000000,0.000000,-0.436000,0.000000,0.000000,0.000000,0.000000
0.27400,-0.076708,0.000000,0.000000,0.000000,0.000000,0.000000,0.000000,-0.436000,0.000000,0.000000,0.000000,0.000000
0.27600,-0.069232,0.000000,0.000000,0.000000,0.000000,0.000000,0.000000,-0.436000,0.000000,0.000000,0.000000,0.000000
0.27800,-0.061756,0.000000,0.000000,0.000000,0.000000,0.000000,0.000000,-0.436000,0.000000,0.000000,0.000000,0.000000
0.28000,-0.054280,0.000000,0.000000,0.000000,0.000000,0.000000,0.000000,-0.436000,0.000000,0.000000,0.000000,0.000000
0.28200,-0.046804,0.000000,0.000000,0.000000,0.000000,0.000000,0.000000,-0.436000,0.000000,0.000000,0.000000,0.000000
0.28400,-0.039328,0.000000,0.000000,0.000000,0.000000,0.000000,0.000000,-0.436000,0.000000,0.000000,0.000000,0.000000
0.28600,-0.031852,0.000000,0.000000,0.000000,0.000000,0.000000,0.000000,-0.436000,0.000000,0.000000,0.000000,0.000000
0.28800,-0.024376,0.000000,0.000000,0.000000,0.000000,0.000000,0.000000,-0.436000,0.000000,0.000000,0.000000,0.000000
0.29000,-0.016900,0.000000,0.000000,0.000000,0.000000,0.000000,0.000000,-0.436000,0.000000,0.000000,0.000000,0.000000
0.29200,-0.009424,0.000000,0.000000,0.000000,0.000000,0.000000,0.000000,-0.436000,0.000000,0.000000,0.000000,0.000000
0.29400,-0.001948,0.000000,0.000000,0.000000,0.000000,0.000000,0.000000,-0.436000,0.000000,0.000000,0.000000,0.000000
0.29600,0.005528,0.000000,0.000000,0.000000,0.000000,0.000000,0.000000,-0.436000,0.000000,0.000000,0.000000,0.000000
0.29800,0.013004,0.000000,0.000000,0.000000,0.000000,0.000000,0.000000,-0.436000,0.000000,0.000000,0.000000,0.000000
0.30000,0.020480,0.000000,0.000000,0.000000,0.000000,0.000000,0.000000,-0.436000,0.000000,0.000000,0.000000,0.000000
0.30200,0.027956,0.000000,0.000000,0.000000,0.000000,0.000000,0.000000,-0.436000,0.000000,0.000000,0.000000,0.000000
0.30400,0.035432,0.000000,0.000000,0.000000,0.000000,0.000000,0.000000,-0.436000,0.000000,0.000000,0.000000,0.000000
0.30600,0.042908,0.000000,0.000000,0.000000,0.000000,0.000000,0.000000,-0.436000,0.000000,0.000000,0.000000,0.000000
0.30800,0.050384,0.000000,0.000000,0.000000,0.000000,0.000000,0.000000,-0.436000,0.000000,0.000000,0.000000,0.000000
0.31000,0.057860,0.000000,0.000000,0.000000,0.000000,0.000000,0.000000,-0.436000,0.000000,0.000000,0.000000,0.000000
0.31200,0.065336,0.000000,0.000000,0.000000,0.000000,0.000000,0.000000,-0.436000,0.000000,0.000000,0.000000,0.000000
0.31400,0.072812,0.000000,0.000000,0.000000,0.000000,0.000000,0.000000,-0.436000,0.000000,0.000000,0.000000,0.000000
0.31600,0.080288,0.000000,0.000000,0.000000,0.000000,0.000000,0.000000,-0.436000,0.000000,0.000000,0.000000,0.000000
0.31800,0.087764,0.000000,0.000000,0.000000,0.000000,0.000000,0.000000,-0.436000,0.000000,0.000000,0.000000,0.000000
0.32000,0.095240,0.000000,0.000000,0.000000,0.000000,0.000000,0.000000,-0.436000,0.000000,0.000000,0.000000,0.000000
0.32200,0.102716,0.000000,0.000000,0.000000,0.000000,0.000000,0.000000,-0.436000,0.000000,0.000000,0.000000,0.000000
0.32400,0.110192,0.000000,0.000000,0.000000,0.000000,0.000000,0.000000,-0.436000,0.000000,0.000000,0.000000,0.000000
0.32600,0.117668,0.000000,0.000000,0.000000,0.000000,0.000000,0.000000,-0.436000,0.000000,0.000000,0.000000,0.000000
0.32800,0.125144,0.000000,0.000000,0.000000,0.000000,0.000000,0.000000,-0.436000,0.000000,0.000000,0.000000,0.000000
0.33000,0.132620,0.000000,0.000000,0.000000,0.000000,0.000000,0.000000,-0.436000,0.000000,0.000000,0.000000,0.000000
0.33200,0.140096,0.000000,0.000000,0.000000,0.000000,0.000000,0.000000,-0.436000,0.000000,0.000000,0.000000,0.000000
0.33400,0.147572,0.000000,0.000000,0.000000,0.000000,0.000000,0.000000,-0.436000,0.000000,0.000000,0.000000,0.000000
0.33600,0.155048,0.000000,0.000000,0.000000,0.000000,0.000000,0.000000,-0.436000,0.000000,0.000000,0.000000,0.000000
0.33800,0.162524,0.000000,0.000000,0.000000,0.000000,0.000000,0.000000,-0.436000,0.000000,0.000000,0.000000,0.000000
0.34000,0.170000,0.000000,0.000000,0.000000,0.000000,0.000000,0.000000,-0.436000,0.000000,0.000000,0.000000,0.000000
0.34200,0.177476,0.000000,0.000000,0.000000,0.000000,0.000000,0.000000,-0.436000,0.000000,0.000000,0.000000,0.000000
0.34400,0.184952,0.000000,0.000000,0.000000,0.000000,0.000000,0.000000,-0.436000,0.000000,0.000000,0.000000,0.000000
0.34600,0.192428,0.000000,0.000000,0.000000,0.000000,0.000000,0.000000,-0.436000,0.000000,0.000000,0.000000,0.000000
0.34800,0.199904,0.000000,0.000000,0.000000,0.000000,0.000000,0.000000,-0.436000,0.000000,0.000000,0.000000,0.000000
0.35000,0.207380,0.000000,0.000000,0.000000,0.000000,0.000000,0.000000,-0.436000,0.000000,0.000000,0.000000,0.000000
0.35200,0.214856,0.000000,0.000000,0.000000,0.000000,0.000000,0.000000,-0.436000,0.000000,0.000000,0.000000,0.000000
0.35400,0.222332,0.000000,0.000000,0.000000,0.000000,0.000000,0.000000,-0.436000,0.000000,0.000000,0.000000,0.000000
0.35600,0.229808,0.000000,0.000000,0.000000,0.000000,0.000000,0.000000,-0.436000,0.000000,0.000000,0.000000,0.000000
0.35800,0.237284,0.000000,0.000000,0.000000,0.000000,0.000000,0.000000,-0.436000,0.000000,0.000000,0.000000,0.000000
0.36000,0.244760,0.000000,0.000000,0.000000,0.000000,0.000000,0.000000,-0.436000,0.000000,0.000000,0.000000,0.000000
0.36200,0.252236,0.000000,0.000000,0.000000,0.000000,0.000000,0.000000,-0.436000,0.000000,0.000000,0.000000,0.000000
0.36400,0.259712,0.000000,0.000000,0.000000,0.000000,0.000000,0.000000,-0.436000,0.000000,0.000000,0.000000,0.000000
0.36600,0.267188,0.000000,0.000000,0.000000,0.000000,0.000000,0.000000,-0.436000,0.000000,0.000000,0.000000,0.000000
0.36800,0.274664,0.000000,0.000000,0.000000,0.000000,0.000000,0.000000,-0.436000,0.000000,0.000000,0.000000,0.000000
0.37000,0.282140,0.000000,0.000000,0.000000,0.000000,0.000000,0.000000,-0.436000,0.000000,0.000000,0.000000,0.000000
0.37200,0.289616,0.000000,0.000000,0.000000,0.000000,0.000000,0.000000,-0.436000,0.000000,0.000000,0.000000,0.000000
0.37400,0.297092,0.000000,0.000000,0.000000,0.000000,0.000000,0.000000,-0.436000,0.000000,0.000000,0.000000,0.000000
0.37600,0.304568,0.000000,0.000000,0.000000,0.000000,0.000000,0.000000,-0.436000,0.000000,0.000000,0.000000,0.000000
0.37800,0.312044,0.000000,0.000000,0.000000,0.000000,0.000000,0.000000,-0.436000,0.000000,0.000000,0.000000,0.000000
0.38000,0.319520,0.000000,0.000000,0.000000,0.000000,0.000000,0.000000,-0.436000,0.000000,0.000000,0.000000,0.000000
0.38200,0.326996,0.000000,0.000000,0.000000,0.000000,0.000000,0.000000,-0.436000,0.000000,0.000000,0.000000,0.000000
0.38400,0.334472,0.000000,0.000000,0.000000,0.000000,0.000000,0.000000,-0.436000,0.000000,0.000000,0.000000,0.000000
0.38600,0.341948,0.000000,0.000000,0.000000,0.000000,0.000000,0.000000,-0.436000,0.000000,0.000000,0.000000,0.000000
0.38800,0.349424,0.000000,0.000000,0.000000,0.000000,0.000000,0.000000,-0.436000,0.000000,0.000000,0.000000,0.000000
0.39000,0.356900,0.000000,0.000000,0.000000,0.000000,0.000000,0.000000,-0.436000,0.000000,0.000000,0.000000,0.000000
0.39200,0.364376,0.000000,0.000000,0.000000,0.000000,0.000000,0.000000,-0.436000,0.000000,0.000000,0.000000,0.000000
0.39400,0.371852,0.000000,0.000000,0.000000,0.000000,0.000000,0.000000,-0.436000,0.000000,0.000000,0.000000,0.000000
0.39600,0.379328,0.000000,0.000000,0.000000,0.000000,0.000000,0.000000,-0.436000,0.000000,0.000000,0.000000,0.000000
0.39800,0.386804,0.000000,0.000000,0.000000,0.000000,0.000000,0.000000,-0.436000,0.000000,0.000000,0.000000,0.000000
0.40000,0.394280,0.000000,0.000000,0.000000,0.000000,0.000000,0.000000,-0.436000,0.000000,0.000000,0.000000,0.000000
0.40200,0.401756,0.000000,0.000000,0.000000,0.000000,0.000000,0.000000,-0.436000,0.000000,0.000000,0.000000,0.000000
0.40400,0.409232,0.000000,0.000000,0.000000,0.000000,0.000000,0.000000,-0.436000,0.000000,0.000000,0.000000,0.000000
0.40600,0.416708,0.000000,0.000000,0.000000,0.000000,0.000000,0.000000,-0.436000,0.000000,0.000000,0.000000,0.000000
0.40800,0.424184,0.000000,0.000000,0.000000,0.000000,0.000000,0.000000,-0.436000,0.000000,0.000000,0.000000,0.000000
0.41000,0.431660,0.000000,0.000000,0.000000,0.000000,0.000000,0.000000,-0.436000,0.000000,0.000000,0.000000,0.000000
0.41200,0.439136,0.000000,0.000000,0.000000,0.000000,0.000000,0.000000,-0.436000,0.000000,0.000000,0.000000,0.000000
0.41400,0.446612,0.000000,0.000000,0.000000,0.000000,0.000000,0.000000,-0.436000,0.000000,0.000000,0.000000,0.000000
0.41600,0.454088,0.000000,0.000000,0.000000,0.000000,0.000000,0.000000,-0.436000,0.000000,0.000000,0.000000,0.000000
0.41800,0.461564,0.000000,0.000000,0.000000,0.000000,0.000000,0.000000,-0.436000,0.000000,0.000000,0.000000,0.000000
0.42000,0.469040,0.000000,0.000000,0.000000,0.000000,0.000000,0.000000,-0.436000,0.000000,0.000000,0.000000,0.000000
0.42200,0.476516,0.000000,0.000000,0.000000,0.000000,0.000000,0.000000,-0.436000,0.000000,0.000000,0.000000,0.000000
0.42400,0.483992,0.000000,0.000000,0.000000,0.000000,0.000000,0.000000,-0.436000,0.000000,0.000000,0.000000,0.000000
0.42600,0.491468,0.000000,0.000000,0.000000,0.000000,0.000000,0.000000,-0.436000,0.000000,0.000000,0.000000,0.000000
0.42800,0.498944,0.000000,0.000000,0.000000,0.000000,0.000000,0.000000,-0.436000,0.000000,0.000000,0.000000,0.000000
0.43000,0.506420,0.000000,0.000000,0.000000,0.000000,0.000000,0.000000,-0.436000,0.000000,0.000000,0.000000,0.000000
0.43200,0.513896,0.000000,0.000000,0.000000,0.000000,0.000000,0.000000,-0.436000,0.000000,0.000000,0.000000,0.000000
0.43400,0.521372,0.000000,0.000000,0.000000,0.000000,0.000000,0.000000,-0.436000,0.000000,0.000000,0.000000,0.000000
0.43600,0.528848,0.000000,0.000000,0.000000,0.000000,0.000000,0.000000,-0.436000,0.000000,0.000000,0.000000,0.000000
0.43800,0.536324,0.000000,0.000000,0.000000,0.000000,0.000000,0.000000,-0.436000,0.000000,0.000000,0.000000,0.000000
0.44000,0.543800,0.000000,0.000000,0.000000,0.000000,0.000000,0.000000,-0.436000,0.000000,0.000000,0.000000,0.000000
0.44200,0.551276,0.000000,0.000000,0.000000,0.000000,0.000000,0.000000,-0.436000,0.000000,0.000000,0.000000,0.000000
0.44400,0.558752,0.000000,0.000000,0.000000,0.000000,0.000000,0.000000,-0.436000,0.000000,0.000000,0.000000,0.000000
0.44600,0.566228,0.000000,0.000000,0.000000,0.000000,0.000000,0.000000,-0.436000,0.000000,0.000000,0.000000,0.000000
0.44800,0.610000,0.000000,0.000000,0.000000,0.000000,0.000000,0.000000,-0.436000,0.000000,0.000000,0.000000,0.000000
0.45000,0.609600,0.000000,0.000000,0.000000,0.000000,0.000000,0.000000,-0.436000,0.000000,0.000000,0.000000,0.000000
0.45200,0.608400,0.000000,0.000000,0.000000,0.000000,0.000000,0.000000,-0.436000,0.000000,0.000000,0.000000,0.000000
0.45400,0.606400,0.000000,0.000000,0.000000,0.000000,0.000000,0.000000,-0.436000,0.000000,0.000000,0.000000,0.000000
0.45600,0.603600,0.000000,0.000000,0.000000,0.000000,0.000000,0.000000,-0.436000,0.000000,0.000000,0.000000,0.000000
0.45800,0.600000,0.000000,0.000000,0.000000,0.000000,0.000000,0.000000,-0.436000,0.000000,0.000000,0.000000,0.000000
0.46000,0.595600,0.000000,0.000000,0.000000,0.000000,0.000000,0.000000,-0.436000,0.000000,0.000000,0.000000,0.000000
0.46200,0.590400,0.000000,0.000000,0.000000,0.000000,0.000000,0.000000,-0.436000,0.000000,0.000000,0.000000,0.000000
0.46400,0.584400,0.000000,0.000000,0.000000,0.000000,0.000000,0.000000,-0.436000,0.000000,0.000000,0.000000,0.000000
0.46600,0.610000,0.000000,0.000000,0.000000,0.000000,0.000000,0.000000,-0.436000,0.000000,0.000000,0.000000,0.000000
0.46800,0.609600,0.000000,0.000000,0.000000,0.000000,0.000000,0.000000,-0.436000,0.000000,0.000000,0.000000,0.000000
0.47000,0.608400,0.000000,0.000000,0.000000,0.000000,0.000000,0.000000,-0.436000,0.000000,0.000000,0.000000,0.000000
0.47200,0.606400,0.000000,0.000000,0.000000,0.000000,0.000000,0.000000,-0.436000,0.000000,0.000000,0.000000,0.000000
0.47400,0.603600,0.000000,0.000000,0.000000,0.000000,0.000000,0.000000,-0.436000,0.000000,0.000000,0.000000,0.000000
0.47600,0.600000,0.000000,0.000000,0.000000,0.000000,0.000000,0.000000,-0.436000,0.000000,0.000000,0.000000,0.000000
0.47800,0.595600,0.000000,0.000000,0.000000,0.000000,0.000000,0.000000,-0.436000,0.000000,0.000000,0.000000,0.000000
0.48000,0.590400,0.000000,0.000000,0.000000,0.000000,0.000000,0.000000,-0.436000,0.000000,0.000000,0.000000,0.000000
0.48200,0.584400,0.000000,0.000000,0.000000,0.000000,0.000000,0.000000,-0.436000,0.000000,0.000000,0.000000,0.000000
0.48400,0.577600,0.000000,0.000000,0.000000,0.000000,0.000000,0.000000,-0.436000,0.000000,0.000000,0.000000,0.000000
0.48600,0.577600,0.000000,0.000000,0.000000,0.000000,0.000000,0.000000,-0.436000,0.000000,0.000000,0.000000,0.000000
0.48800,0.570124,0.000000,0.000000,0.000000,0.000000,0.000000,0.000000,-0.436000,0.000000,0.000000,0.000000,0.000000
0.49000,0.562648,0.000000,0.000000,0.000000,0.000000,0.000000,0.000000,-0.436000,0.000000,0.000000,0.000000,0.000000
0.49200,0.555172,0.000000,0.000000,0.000000,0.000000,0.000000,0.000000,-0.436000,0.000000,0.000000,0.000000,0.000000
0.49400,0.547696,0.000000,0.000000,0.000000,0.000000,0.000000,0.000000,-0.436000,0.000000,0.000000,0.000000,0.000000
0.49600,0.540220,0.000000,0.000000,0.000000,0.000000,0.000000,0.000000,-0.436000,0.000000,0.000000,0.000000,0.000000
0.49800,0.532744,0.000000,0.000000,0.000000,0.000000,0.000000,0.000000,-0.436000,0.000000,0.000000,0.000000,0.000000
0.50000,0.525268,0.000000,0.000000,0.000000,0.000000,0.000000,0.000000,-0.436000,0.000000,0.000000,0.000000,0.000000
0.50200,0.517792,0.000000,0.000000,0.000000,0.000000,0.000000,0.000000,-0.436000,0.000000,0.000000,0.000000,0.000000
0.50400,0.510316,0.000000,0.000000,0.000000,0.000000,0.000000,0.000000,-0.436000,0.000000,0.000000,0.000000,0.000000
0.50600,0.502840,0.000000,0.000000,0.000000,0.000000,0.000000,0.000000,-0.436000,0.000000,0.000000,0.000000,0.000000
0.50800,0.495364,0.000000,0.000000,0.000000,0.000000,0.000000,0.000000,-0.436000,0.000000,0.000000,0.000000,0.000000
0.51000,0.487888,0.000000,0.000000,0.000000,0.000000,0.000000,0.000000,-0.436000,0.000000,0.000000,0.000000,0.000000
0.51200,0.480412,0.000000,0.000000,0.000000,0.000000,0.000000,0.000000,-0.436000,0.000000,0.000000,0.000000,0.000000
0.51400,0.472936,0.000000,0.000000,0.000000,0.000000,0.000000,0.000000,-0.436000,0.000000,0.000000,0.000000,0.000000
0.51600,0.465460,0.000000,0.000000,0.000000,0.000000,0.000000,0.000000,-0.436000,0.000000,0.000000,0.000000,0.000000
0.51800,0.457984,0.000000,0.000000,0.000000,0.000000,0.000000,0.000000,-0.436000,0.000000,0.000000,0.000000,0.000000
0.52000,0.450508,0.000000,0.000000,0.000000,0.000000,0.000000,0.000000,-0.436000,0.000000,0.000000,0.000000,0.000000
0.52200,0.443032,0.000000,0.000000,0.000000,0.000000,0.000000,0.000000,-0.436000,0.000000,0.000000,0.000000,0.000000
0.52400,0.435556,0.000000,0.000000,0.000000,0.000000,0.000000,0.000000,-0.436000,0.000000,0.000000,0.000000,0.000000
0.52600,0.428080,0.000000,0.000000,0.000000,0.000000,0.000000,0.000000,-0.436000,0.000000,0.000000,0.000000,0.000000
0.52800,0.420604,0.000000,0.000000,0.000000,0.000000,0.000000,0.000000,-0.436000,0.000000,0.000000,0.000000,0.000000
0.53000,0.413128,0.000000,0.000000,0.000000,0.000000,0.000000,0.000000,-0.436000,0.000000,0.000000,0.000000,0.000000
0.53200,0.405652,0.000000,0.000000,0.000000,0.000000,0.000000,0.000000,-0.436000,0.000000,0.000000,0.000000,0.000000
0.53400,0.398176,0.000000,0.000000,0.000000,0.000000,0.000000,0.000000,-0.436000,0.000000,0.000000,0.000000,0.000000
0.53600,0.390700,0.000000,0.000000,0.000000,0.000000,0.000000,0.000000,-0.436000,0.000000,0.000000,0.000000,0.000000
0.53800,0.383224,0.000000,0.000000,0.000000,0.000000,0.000000,0.000000,-0.436000,0.000000,0.000000,0.000000,0.000000
0.54000,0.375748,0.000000,0.000000,0.000000,0.000000,0.000000,0.000000,-0.436000,0.000000,0.000000,0.000000,0.000000
0.54200,0.368272,0.000000,0.000000,0.000000,0.000000,0.000000,0.000000,-0.436000,0.000000,0.000000,0.000000,0.000000
0.54400,0.360796,0.000000,0.000000,0.000000,0.000000,0.000000,0.000000,-0.436000,0.000000,0.000000,0.000000,0.000000
0.54600,0.353320,0.000000,0.000000,0.000000,0.000000,0.000000,0.000000,-0.436000,0.000000,0.000000,0.000000,0.000000
0.54800,0.345844,0.000000,0.000000,0.000000,0.000000,0.000000,0.000000,-0.436000,0.000000,0.000000,0.000000,0.000000
0.55000,0.338368,0.000000,0.000000,0.000000,0.000000,0.000000,0.000000,-0.436000,0.000000,0.000000,0.000000,0.000000
0.55200,0.330892,0.000000,0.000000,0.000000,0.000000,0.000000,0.000000,-0.436000,0.000000,0.000000,0.000000,0.000000
0.55400,0.323416,0.000000,0.000000,0.000000,0.000000,0.000000,0.000000,-0.436000,0.000000,0.000000,0.000000,0.000000
0.55600,0.315940,0.000000,0.000000,0.000000,0.000000,0.000000,0.000000,-0.436000,0.000000,0.000000,0.000000,0.000000
0.55800,0.308464,0.000000,0.000000,0.000000,0.000000,0.000000,0.000000,-0.436000,0.000000,0.000000,0.000000,0.000000
0.56000,0.300988,0.000000,0.000000,0.000000,0.000000,0.000000,0.000000,-0.436000,0.000000,0.000000,0.000000,0.000000
0.56200,0.293512,0.000000,0.000000,0.000000,0.000000,0.000000,0.000000,-0.436000,0.000000,0.000000,0.000000,0.000000
0.56400,0.286036,0.000000,0.000000,0.000000,0.000000,0.000000,0.000000,-0.436000,0.000000,0.000000,0.000000,0.000000
0.56600,0.278560,0.000000,0.000000,0.000000,0.000000,0.000000,0.000000,-0.436000,0.000000,0.000000,0.000000,0.000000
0.56800,0.271084,0.000000,0.000000,0.000000,0.000000,0.000000,0.000000,-0.436000,0.000000,0.000000,0.000000,0.000000
0.57000,0.263608,0.000000,0.000000,0.000000,0.000000,0.000000,0.000000,-0.436000,0.000000,0.000000,0.000000,0.000000
0.57200,0.256132,0.000000,0.000000,0.000000,0.000000,0.000000,0.000000,-0.436000,0.000000,0.000000,0.000000,0.000000
0.57400,0.248656,0.000000,0.000000,0.000000,0.000000,0.000000,0.000000,-0.436000,0.000000,0.000000,0.000000,0.000000
0.57600,0.241180,0.000000,0.000000,0.000000,0.000000,0.000000,0.000000,-0.436000,0.000000,0.000000,0.000000,0.000000
0.57800,0.233704,0.000000,0.000000,0.000000,0.000000,0.000000,0.000000,-0.436000,0.000000,0.000000,0.000000,0.000000
0.58000,0.226228,0.000000,0.000000,0.000000,0.000000,0.000000,0.000000,-0.436000,0.000000,0.000000,0.000000,0.000000
0.58200,0.218752,0.000000,0.000000,0.000000,0.000000,0.000000,0.000000,-0.436000,0.000000,0.000000,0.000000,0.000000
0.58400,0.211276,0.000000,0.000000,0.000000,0.000000,0.000000,0.000000,-0.436000,0.000000,0.000000,0.000000,0.000000
0.58600,0.203800,0.000000,0.000000,0.000000,0.000000,0.000000,0.000000,-0.436000,0.000000,0.000000,0.000000,0.000000
0.58800,0.196324,0.000000,0.000000,0.000000,0.000000,0.000000,0.000000,-0.436000,0.000000,0.000000,0.000000,0.000000
0.59000,0.188848,0.000000,0.000000,0.000000,0.000000,0.000000,0.000000,-0.436000,0.000000,0.000000,0.000000,0.000000
0.59200,0.181372,0.000000,0.000000,0.000000,0.000000,0.000000,0.000000,-0.436000,0.000000,0.000000,0.000000,0.000000
0.59400,0.173896,0.000000,0.000000,0.000000,0.000000,0.000000,0.000000,-0.436000,0.000000,0.000000,0.000000,0.000000
0.59600,0.166420,0.000000,0.000000,0.000000,0.000000,0.000000,0.000000,-0.436000,0.000000,0.000000,0.000000,0.000000
0.59800,0.158944,0.000000,0.000000,0.000000,0.000000,0.000000,0.000000,-0.436000,0.000000,0.000000,0.000000,0.000000
0.60000,0.151468,0.000000,0.000000,0.000000,0.000000,0.000000,0.000000,-0.436000,0.000000,0.000000,0.000000,0.000000
0.60200,0.143992,0.000000,0.000000,0.000000,0.000000,0.000000,0.000000,-0.436000,0.000000,0.000000,0.000000,0.000000
0.60400,0.136516,0.000000,0.000000,0.000000,0.000000,0.000000,0.000000,-0.436000,0.000000,0.000000,0.000000,0.000000
0.60600,0.129040,0.000000,0.000000,0.000000,0.000000,0.000000,0.000000,-0.436000,0.000000,0.000000,0.000000,0.000000
0.60800,0.121564,0.000000,0.000000,0.000000,0.000000,0.000000,0.000000,-0.436000,0.000000,0.000000,0.000000,0.000000
0.61000,0.114088,0.000000,0.000000,0.000000,0.000000,0.000000,0.000000,-0.436000,0.000000,0.000000,0.000000,0.000000
0.61200,0.106612,0.000000,0.000000,0.000000,0.000000,0.000000,0.000000,-0.436000,0.000000,0.000000,0.000000,0.000000
0.61400,0.099136,0.000000,0.000000,0.000000,0.000000,0.000000,0.000000,-0.436000,0.000000,0.000000,0.000000,0.000000
0.61600,0.091660,0.000000,0.000000,0.000000,0.000000,0.000000,0.000000,-0.436000,0.000000,0.000000,0.000000,0.000000
0.61800,0.084184,0.000000,0.000000,0.000000,0.000000,0.000000,0.000000,-0.436000,0.000000,0.000000,0.000000,0.000000
0.62000,0.076708,0.000000,0.000000,0.000000,0.000000,0.000000,0.000000,-0.436000,0.000000,0.000000,0.000000,0.000000
0.62200,0.069232,0.000000,0.000000,0.000000,0.000000,0.000000,0.000000,-0.436000,0.000000,0.000000,0.000000,0.000000
0.62400,0.061756,0.000000,0.000000,0.000000,0.000000,0.000000,0.000000,-0.436000,0.000000,0.000000,0.000000,0.000000
0.62600,0.054280,0.000000,0.000000,0.000000,0.000000,0.000000,0.000000,-0.436000,0.000000,0.000000,0.000000,0.000000
0.62800,0.046804,0.000000,0.000000,0.000000,0.000000,0.000000,0.000000,-0.436000,0.000000,0.000000,0.000000,0.000000
0.63000,0.039328,0.000000,0.000000,0.000000,0.000000,0.000000,0.000000,-0.436000,0.000000,0.000000,0.000000,0.000000
0.63200,0.031852,0.000000,0.000000,0.000000,0.000000,0.000000,0.000000,-0.436000,0.000000,0.000000,0.000000,0.000000
0.63400,0.024376,0.000000,0.000000,0.000000,0.000000,0.000000,0.000000,-0.436000,0.000000,0.000000,0.000000,0.000000
0.63600,0.016900,0.000000,0.000000,0.000000,0.000000,0.000000,0.000000,-0.436000,0.000000,0.000000,0.000000,0.000000
0.63800,0.009424,0.000000,0.000000,0.000000,0.000000,0.000000,0.000000,-0.436000,0.000000,0.000000,0.000000,0.000000
0.64000,0.001948,0.000000,0.000000,0.000000,0.000000,0.000000,0.000000,-0.436000,0.000000,0.000000,0.000000,0.000000
0.64200,-0.005528,0.000000,0.000000,0.000000,0.000000,0.000000,0.000000,-0.436000,0.000000,0.000000,0.000000,0.000000
0.64400,-0.013004,0.000000,0.000000,0.000000,0.000000,0.000000,0.000000,-0.436000,0.000000,0.000000,0.000000,0.000000
0.64600,-0.020480,0.000000,0.000000,0.000000,0.000000,0.000000,0.000000,-0.436000,0.000000,0.000000,0.000000,0.000000
0.64800,-0.027956,0.000000,0.000000,0.000000,0.000000,0.000000,0.000000,-0.436000,0.000000,0.000000,0.000000,0.000000
0.65000,-0.035432,0.000000,0.000000,0.000000,0.000000,0.000000,0.000000,-0.436000,0.000000,0.000000,0.000000,0.000000
0.65200,-0.042908,0.000000,0.000000,0.000000,0.000000,0.000000,0.000000,-0.436000,0.000000,0.000000,0.000000,0.000000
0.65400,-0.050384,0.000000,0.000000,0.000000,0.000000,0.000000,0.000000,-0.436000,0.000000,0.000000,0.000000,0.000000
0.65600,-0.057860,0.000000,0.000000,0.000000,0.000000,0.000000,0.000000,-0.436000,0.000000,0.000000,0.000000,0.000000
0.65800,-0.065336,0.000000,0.000000,0.000000,0.000000,0.000000,0.000000,-0.436000,0.000000,0.000000,0.000000,0.000000
0.66000,-0.072812,0.000000,0.000000,0.000000,0.000000,0.000000,0.000000,-0.436000,0.000000,0.000000,0.000000,0.000000
0.66200,-0.080288,0.000000,0.000000,0.000000,0.000000,0.000000,0.000000,-0.436000,0.000000,0.000000,0.000000,0.000000
0.66400,-0.087764,0.000000,0.000000,0.000000,0.000000,0.000000,0.000000,-0.436000,0.000000,0.000000,0.000000,0.000000
0.66600,-0.095240,0.000000,0.000000,0.000000,0.000000,0.000000,0.000000,-0.436000,0.000000,0.000000,0.000000,0.000000
0.66800,-0.102716,0.000000,0.000000,0.000000,0.000000,0.000000,0.000000,-0.436000,0.000000,0.000000,0.000000,0.000000
0.67000,-0.110192,0.000000,0.000000,0.000000,0.000000,0.000000,0.000000,-0.436000,0.000000,0.000000,0.000000,0.000000
0.67200,-0.117668,0.000000,0.000000,0.000000,0.000000,0.000000,0.000000,-0.436000,0.000000,0.000000,0.000000,0.000000
0.67400,-0.125144,0.000000,0.000000,0.000000,0.000000,0.000000,0.000000,-0.436000,0.000000,0.000000,0.000000,0.000000
0.67600,-0.132620,0.000000,0.000000,0.000000,0.000000,0.000000,0.000000,-0.436000,0.000000,0.000000,0.000000,0.000000
0.67800,-0.140096,0.000000,0.000000,0.000000,0.000000,0.000000,0.000000,-0.436000,0.000000,0.000000,0.000000,0.000000
0.68000,-0.147572,0.000000,0.000000,0.000000,0.000000,0.000000,0.000000,-0.436000,0.000000,0.000000,0.000000,0.000000
0.68200,-0.155048,0.000000,0.000000,0.000000,0.000000,0.000000,0.000000,-0.436000,0.000000,0.000000,0.000000,0.000000
0.68400,-0.162524,0.000000,0.000000,0.000000,0.000000,0.000000,0.000000,-0.436000,0.000000,0.000000,0.000000,0.000000
0.68600,-0.170000,0.000000,0.000000,0.000000,0.000000,0.000000,0.000000,-0.436000,0.000000,0.000000,0.000000,0.000000
0.68800,-0.177476,0.000000,0.000000,0.000000,0.000000,0.000000,0.000000,-0.436000,0.000000,0.000000,0.000000,0.000000
0.69000,-0.184952,0.000000,0.000000,0.000000,0.000000,0.000000,0.000000,-0.436000,0.000000,0.000000,0.000000,0.000000
0.69200,-0.192428,0.000000,0.000000,0.000000,0.000000,0.000000,0.000000,-0.436000,0.000000,0.000000,0.000000,0.000000
0.69400,-0.199904,0.000000,0.000000,0.000000,0.000000,0.000000,0.000000,-0.436000,0.000000,0.000000,0.000000,0.000000
0.69600,-0.207380,0.000000,0.000000,0.000000,0.000000,0.000000,0.000000,-0.436000,0.000000,0.000000,0.000000,0.000000
0.69800,-0.214856,0.000000,0.000000,0.000000,0.000000,0.000000,0.000000,-0.436000,0.000000,0.000000,0.000000,0.000000
0.70000,-0.222332,0.000000,0.000000,0.000000,0.000000,0.000000,0.000000,-0.436000,0.000000,0.000000,0.000000,0.000000
0.70200,-0.229808,0.000000,0.000000,0.000000,0.000000,0.000000,0.000000,-0.436000,0.000000,0.000000,0.000000,0.000000
0.70400,-0.237284,0.000000,0.000000,0.000000,0.000000,0.000000,0.000000,-0.436000,0.000000,0.000000,0.000000,0.000000
0.70600,-0.244760,0.000000,0.000000,0.000000,0.000000,0.000000,0.000000,-0.436000,0.000000,0.000000,0.000000,0.000000
0.70800,-0.252236,0.000000,0.000000,0.000000,0.000000,0.000000,0.000000,-0.436000,0.000000,0.000000,0.000000,0.000000
0.71000,-0.259712,0.000000,0.000000,0.000000,0.000000,0.000000,0.000000,-0.436000,0.000000,0.000000,0.000000,0.000000
0.71200,-0.267188,0.000000,0.000000,0.000000,0.000000,0.000000,0.000000,-0.436000,0.000000,0.000000,0.000000,0.000000
0.71400,-0.274664,0.000000,0.000000,0.000000,0.000000,0.000000,0.000000,-0.436000,0.000000,0.000000,0.000000,0.000000
0.71600,-0.282140,0.000000,0.000000,0.000000,0.000000,0.000000,0.000000,-0.436000,0.000000,0.000000,0.000000,0.000000
0.71800,-0.289616,0.000000,0.000000,0.000000,0.000000,0.000000,0.000000,-0.436000,0.000000,0.000000,0.000000,0.000000
0.72000,-0.297092,0.000000,0.000000,0.000000,0.000000,0.000000,0.000000,-0.436000,0.000000,0.000000,0.000000,0.000000
0.72200,-0.304568,0.000000,0.000000,0.000000,0.000000,0.000000,0.000000,-0.436000,0.000000,0.000000,0.000000,0.000000
0.72400,-0.312044,0.000000,0.000000,0.000000,0.000000,0.000000,0.000000,-0.436000,0.000000,0.000000,0.000000,0.000000
0.72600,-0.319520,0.000000,0.000000,0.000000,0.000000,0.000000,0.000000,-0.436000,0.000000,0.000000,0.000000,0.000000
0.72800,-0.326996,0.000000,0.000000,0.000000,0.000000,0.000000,0.000000,-0.436000,0.000000,0.000000,0.000000,0.000000
0.73000,-0.334472,0.000000,0.000000,0.000000,0.000000,0.000000,0.000000,-0.436000,0.000000,0.000000,0.000000,0.000000
0.73200,-0.341948,0.000000,0.000000,0.000000,0.000000,0.000000,0.000000,-0.436000,0.000000,0.000000,0.000000,0.000000
0.73400,-0.349424,0.000000,0.000000,0.000000,0.000000,0.000000,0.000000,-0.436000,0.000000,0.000000,0.000000,0.000000
0.73600,-0.356900,0.000000,0.000000,0.000000,0.000000,0.000000,0.000000,-0.436000,0.000000,0.000000,0.000000,0.000000
0.73800,-0.364376,0.000000,0.000000,0.000000,0.000000,0.000000,0.000000,-0.436000,0.000000,0.000000,0.000000,0.000000
0.74000,-0.371852,0.000000,0.000000,0.000000,0.000000,0.000000,0.000000,-0.436000,0.000000,0.000000,0.000000,0.000000
0.74200,-0.379328,0.000000,0.000000,0.000000,0.000000,0.000000,0.000000,-0.436000,0.000000,0.000000,0.000000,0.000000
0.74400,-0.386804,0.000000,0.000000,0.000000,0.000000,0.000000,0.000000,-0.436000,0.000000,0.000000,0.000000,0.000000
0.74600,-0.394280,0.000000,0.000000,0.000000,0.000000,0.000000,0.000000,-0.436000,0.000000,0.000000,0.000000,0.000000
0.74800,-0.401756,0.000000,0.000000,0.000000,0.000000,0.000000,0.000000,-0.436000,0.000000,0.000000,0.000000,0.000000
0.75000,-0.409232,0.000000,0.000000,0.000000,0.000000,0.000000,0.000000,-0.436000,0.000000,0.000000,0.000000,0.000000
0.75200,-0.416708,0.000000,0.000000,0.000000,0.000000,0.000000,0.000000,-0.436000,0.000000,0.000000,0.000000,0.000000
0.75400,-0.424184,0.000000,0.000000,0.000000,0.000000,0.000000,0.000000,-0.436000,0.000000,0.000000,0.000000,0.000000
0.75600,-0.431660,0.000000,0.000000,0.000000,0.000000,0.000000,0.000000,-0.436000,0.000000,0.000000,0.000000,0.000000
0.75800,-0.439136,0.000000,0.000000,0.000000,0.000000,0.000000,0.000000,-0.436000,0.000000,0.000000,0.000000,0.000000
0.76000,-0.446612,0.000000,0.000000,0.000000,0.000000,0.000000,0.000000,-0.436000,0.000000,0.000000,0.000000,0.000000
0.76200,-0.454088,0.000000,0.000000,0.000000,0.000000,0.000000,0.000000,-0.436000,0.000000,0.000000,0.000000,0.000000
0.76400,-0.461564,0.000000,0.000000,0.000000,0.000000,0.000000,0.000000,-0.436000,0.000000,0.000000,0.000000,0.000000
0.76600,-0.469040,0.000000,0.000000,0.000000,0.000000,0.000000,0.000000,-0.436000,0.000000,0.000000,0.000000,0.000000
0.76800,-0.476516,0.000000,0.000000,0.000000,0.000000,0.000000,0.000000,-0.436000,0.000000,0.000000,0.000000,0.000000
0.77000,-0.483992,0.000000,0.000000,0.000000,0.000000,0.000000,0.000000,-0.436000,0.000000,0.000000,0.000000,0.000000
0.77200,-0.491468,0.000000,0.000000,0.000000,0.000000,0.000000,0.000000,-0.436000,0.000000,0.000000,0.000000,0.000000
0.77400,-0.498944,0.000000,0.000000,0.000000,0.000000,0.000000,0.000000,-0.436000,0.000000,0.000000,0.000000,0.000000
0.77600,-0.506420,0.000000,0.000000,0.000000,0.000000,0.000000,0.000000,-0.436000,0.000000,0.000000,0.000000,0.000000
0.77800,-0.513896,0.000000,0.000000,0.000000,0.000000,0.000000,0.000000,-0.436000,0.000000,0.000000,0.000000,0.000000
0.78000,-0.521372,0.000000,0.000000,0.000000,0.000000,0.000000,0.000000,-0.436000,0.000000,0.000000,0.000000,0.000000
0.78200,-0.528848,0.000000,0.000000,0.000000,0.000000,0.000000,0.000000,-0.436000,0.000000,0.000000,0.000000,0.000000
0.78400,-0.536324,0.000000,0.000000,0.000000,0.000000,0.000000,0.000000,-0.436000,0.000000,0.000000,0.000000,0.000000
0.78600,-0.543800,0.000000,0.000000,0.000000,0.000000,0.000000,0.000000,-0.436000,0.000000,0.000000,0.000000,0.000000
0.78800,-0.551276,0.000000,0.000000,0.000000,0.000000,0.000000,0.000000,-0.436000,0.000000,0.000000,0.000000,0.000000
0.79000,-0.558752,0.000000,0.000000,0.000000,0.000000,0.000000,0.000000,-0.436000,0.000000,0.000000,0.000000,0.000000
0.79200,-0.566228,0.000000,0.000000,0.000000,0.000000,0.000000,0.000000,-0.436000,0.000000,0.000000,0.000000,0.000000
0.79400,-0.610000,0.000000,0.000000,0.000000,0.000000,0.000000,0.000000,-0.436000,0.000000,0.000000,0.000000,0.000000
0.79600,-0.609600,0.000000,0.000000,0.000000,0.000000,0.000000,0.000000,-0.436000,0.000000,0.000000,0.000000,0.000000
0.79800,-0.608400,0.000000,0.000000,0.000000,0.000000,0.000000,0.000000,-0.436000,0.000000,0.000000,0.000000,0.000000
0.80000,-0.606400,0.000000,0.000000,0.000000,0.000000,0.000000,0.000000,-0.436000,0.000000,0.000000,0.000000,0.000000
0.80200,-0.603600,0.000000,0.000000,0.000000,0.000000,0.000000,0.000000,-0.436000,0.000000,0.000000,0.000000,0.000000
0.80400,-0.600000,0.000000,0.000000,0.000000,0.000000,0.000000,0.000000,-0.436000,0.000000,0.000000,0.000000,0.000000
0.80600,-0.595600,0.000000,0.000000,0.000000,0.000000,0.000000,0.000000,-0.436000,0.000000,0.000000,0.000000,0.000000
0.80800,-0.590400,0.000000,0.000000,0.000000,0.000000,0.000000,0.000000,-0.436000,0.000000,0.000000,0.000000,0.000000
0.81000,-0.584400,0.000000,0.000000,0.000000,0.000000,0.000000,0.000000,-0.436000,0.000000,0.000000,0.000000,0.000000
0.81200,-0.610000,0.000000,0.000000,0.000000,0.000000,0.000000,0.000000,-0.436000,0.000000,0.000000,0.000000,0.000000
0.81400,-0.609600,0.000000,0.000000,0.000000,0.000000,0.000000,0.000000,-0.436000,0.000000,0.000000,0.000000,0.000000
0.81600,-0.608400,0.000000,0.000000,0.000000,0.000000,0.000000,0.000000,-0.436000,0.000000,0.000000,0.000000,0.000000
0.81800,-0.606400,0.000000,0.000000,0.000000,0.000000,0.000000,0.000000,-0.436000,0.000000,0.000000,0.000000,0.000000
0.82000,-0.603600,0.000000,0.000000,0.000000,0.000000,0.000000,0.000000,-0.436000,0.000000,0.000000,0.000000,0.000000
0.82200,-0.600000,0.000000,0.000000,0.000000,0.000000,0.000000,0.000000,-0.436000,0.000000,0.000000,0.000000,0.000000
0.82400,-0.595600,0.000000,0.000000,0.000000,0.000000,0.000000,0.000000,-0.436000,0.000000,0.000000,0.000000,0.000000
0.82600,-0.590400,0.000000,0.000000,0.000000,0.000000,0.000000,0.000000,-0.436000,0.000000,0.000000,0.000000,0.000000
0.82800,-0.584400,0.000000,0.000000,0.000000,0.000000,0.000000,0.000000,-0.436000,0.000000,0.000000,0.000000,0.000000
0.83000,-0.577600,0.000000,0.000000,0.000000,0.000000,0.000000,0.000000,-0.436000,0.000000,0.000000,0.000000,0.000000
0.83200,-0.570000,0.000000,0.000000,0.000000,0.000000,0.000000,0.000000,-0.436000,0.000000,0.000000,0.000000,0.000000
0.83400,-0.561600,0.000000,0.000000,0.000000,0.000000,0.000000,0.000000,-0.436000,0.000000,0.000000,0.000000,0.000000
0.83600,-0.552400,0.000000,0.000000,0.000000,0.000000,0.000000,0.000000,-0.436000,0.000000,0.000000,0.000000,0.000000
0.83800,-0.542400,0.000000,0.000000,0.000000,0.000000,0.000000,0.000000,-0.436000,0.000000,0.000000,0.000000,0.000000
0.84000,-0.531600,0.000000,0.000000,0.000000,0.000000,0.000000,0.000000,-0.436000,0.000000,0.000000,0.000000,0.000000
0.84200,-0.520000,0.000000,0.000000,0.000000,0.000000,0.000000,0.000000,-0.436000,0.000000,0.000000,0.000000,0.000000
0.84400,-0.507600,0.000000,0.000000,0.000000,0.000000,0.000000,0.000000,-0.436000,0.000000,0.000000,0.000000,0.000000
0.84600,-0.494400,0.000000,0.000000,0.000000,0.000000,0.000000,0.000000,-0.436000,0.000000,0.000000,0.000000,0.000000
0.84800,-0.480400,0.000000,0.000000,0.000000,0.000000,0.000000,0.000000,-0.436000,0.000000,0.000000,0.000000,0.000000
0.85000,-0.480400,0.000000,0.000000,0.000000,0.000000,0.000000,0.000000,-0.436000,0.000000,0.000000,0.000000,0.000000
0.85200,-0.465448,0.000000,0.000000,0.000000,0.000000,0.000000,0.000000,-0.436000,0.000000,0.000000,0.000000,0.000000
0.85400,-0.450496,0.000000,0.000000,0.000000,0.000000,0.000000,0.000000,-0.436000,0.000000,0.000000,0.000000,0.000000
0.85600,-0.435544,0.000000,0.000000,0.000000,0.000000,0.000000,0.000000,-0.436000,0.000000,0.000000,0.000000,0.000000
0.85800,-0.420592,0.000000,0.000000,0.000000,0.000000,0.000000,0.000000,-0.436000,0.000000,0.000000,0.000000,0.000000
0.86000,-0.405640,0.000000,0.000000,0.000000,0.000000,0.000000,0.000000,-0.436000,0.000000,0.000000,0.000000,0.000000
0.86200,-0.390688,0.000000,0.000000,0.000000,0.000000,0.000000,0.000000,-0.436000,0.000000,0.000000,0.000000,0.000000
0.86400,-0.375736,0.000000,0.000000,0.000000,0.000000,0.000000,0.000000,-0.436000,0.000000,0.000000,0.000000,0.000000
0.86600,-0.360784,0.000000,0.000000,0.000000,0.000000,0.000000,0.000000,-0.436000,0.000000,0.000000,0.000000,0.000000
0.86800,-0.345832,0.000000,0.000000,0.000000,0.000000,0.000000,0.000000,-0.436000,0.000000,0.000000,0.000000,0.000000
0.87000,-0.330880,0.000000,0.000000,0.000000,0.000000,0.000000,0.000000,-0.436000,0.000000,0.000000,0.000000,0.000000
0.87200,-0.315928,0.000000,0.000000,0.000000,0.000000,0.000000,0.000000,-0.436000,0.000000,0.000000,0.000000,0.000000
0.87400,-0.300976,0.000000,0.000000,0.000000,0.000000,0.000000,0.000000,-0.436000,0.000000,0.000000,0.000000,0.000000
0.87600,-0.286024,0.000000,0.000000,0.000000,0.000000,0.000000,0.000000,-0.436000,0.000000,0.000000,0.000000,0.000000
0.87800,-0.271072,0.000000,0.000000,0.000000,0.000000,0.000000,0.000000,-0.436000,0.000000,0.000000,0.000000,0.000000
0.88000,-0.256120,0.000000,0.000000,0.000000,0.000000,0.000000,0.000000,-0.436000,0.000000,0.000000,0.000000,0.000000
0.88200,-0.241168,0.000000,0.000000,0.000000,0.000000,0.000000,0.000000,-0.436000,0.000000,0.000000,0.000000,0.000000
0.88400,-0.226216,0.000000,0.000000,0.000000,0.000000,0.000000,0.000000,-0.436000,0.000000,0.000000,0.000000,0.000000
0.88600,-0.211264,0.000000,0.000000,0.000000,0.000000,0.000000,0.000000,-0.436000,0.000000,0.000000,0.000000,0.000000
0.88800,-0.196312,0.000000,0.000000,0.000000,0.000000,0.000000,0.000000,-0.436000,0.000000,0.000000,0.000000,0.000000
0.89000,-0.181360,0.000000,0.000000,0.000000,0.000000,0.000000,0.000000,-0.436000,0.000000,0.000000,0.000000,0.000000
0.89200,-0.166408,0.000000,0.000000,0.000000,0.000000,0.000000,0.000000,-0.436000,0.000000,0.000000,0.000000,0.000000
0.89400,-0.151456,0.000000,0.000000,0.000000,0.000000,0.000000,0.000000,-0.436000,0.000000,0.000000,0.000000,0.000000
0.89600,-0.136504,0.000000,0.000000,0.000000,0.000000,0.000000,0.000000,-0.436000,0.000000,0.000000,0.000000,0.000000
0.89800,-0.121552,0.000000,0.000000,0.000000,0.000000,0.000000,0.000000,-0.436000,0.000000,0.000000,0.000000,0.000000
0.90000,-0.106600,0.000000,0.000000,0.000000,0.000000,0.000000,0.000000,-0.436000,0.000000,0.000000,0.000000,0.000000
0.90200,-0.091648,0.000000,0.000000,0.000000,0.000000,0.000000,0.000000,-0.436000,0.000000,0.000000,0.000000,0.000000
0.90400,-0.076696,0.000000,0.000000,0.000000,0.000000,0.000000,0.000000,-0.436000,0.000000,0.000000,0.000000,0.000000
0.90600,-0.061744,0.000000,0.000000,0.000000,0.000000,0.000000,0.000000,-0.436000,0.000000,0.000000,0.000000,0.000000
0.90800,-0.046792,0.000000,0.000000,0.000000,0.000000,0.000000,0.000000,-0.436000,0.000000,0.000000,0.000000,0.000000
0.91000,-0.031840,0.000000,0.000000,0.000000,0.000000,0.000000,0.000000,-0.436000,0.000000,0.000000,0.000000,0.000000
0.91200,-0.016888,0.000000,0.000000,0.000000,0.000000,0.000000,0.000000,-0.436000,0.000000,0.000000,0.000000,0.000000
0.91400,-0.001936,0.000000,0.000000,0.000000,0.000000,0.000000,0.000000,-0.436000,0.000000,0.000000,0.000000,0.000000
0.91600,0.013016,0.000000,0.000000,0.000000,0.000000,0.000000,0.000000,-0.436000,0.000000,0.000000,0.000000,0.000000
0.91800,0.027968,0.000000,0.000000,0.000000,0.000000,0.000000,0.000000,-0.436000,0.000000,0.000000,0.000000,0.000000
0.92000,0.042920,0.000000,0.000000,0.000000,0.000000,0.000000,0.000000,-0.436000,0.000000,0.000000,0.000000,0.000000
0.92200,0.057872,0.000000,0.000000,0.000000,0.000000,0.000000,0.000000,-0.436000,0.000000,0.000000,0.000000,0.000000
0.92400,0.072824,0.000000,0.000000,0.000000,0.000000,0.000000,0.000000,-0.436000,0.000000,0.000000,0.000000,0.000000
0.92600,0.087776,0.000000,0.000000,0.000000,0.000000,0.000000,0.000000,-0.436000,0.000000,0.000000,0.000000,0.000000
0.92800,0.102728,0.000000,0.000000,0.000000,0.000000,0.000000,0.000000,-0.436000,0.000000,0.000000,0.000000,0.000000
0.93000,0.117680,0.000000,0.000000,0.000000,0.000000,0.000000,0.000000,-0.436000,0.000000,0.000000,0.000000,0.000000
0.93200,0.132632,0.000000,0.000000,0.000000,0.000000,0.000000,0.000000,-0.436000,0.000000,0.000000,0.000000,0.000000
0.93400,0.147584,0.000000,0.000000,0.000000,0.000000,0.000000,0.000000,-0.436000,0.000000,0.000000,0.000000,0.000000
0.93600,0.162536,0.000000,0.000000,0.000000,0.000000,0.000000,0.000000,-0.436000,0.000000,0.000000,0.000000,0.000000
0.93800,0.177488,0.000000,0.000000,0.000000,0.000000,0.000000,0.000000,-0.436000,0.000000,0.000000,0.000000,0.000000
0.94000,0.192440,0.000000,0.000000,0.000000,0.000000,0.000000,0.000000,-0.436000,0.000000,0.000000,0.000000,0.000000
0.94200,0.207392,0.000000,0.000000,0.000000,0.000000,0.000000,0.000000,-0.436000,0.000000,0.000000,0.000000,0.000000
0.94400,0.222344,0.000000,0.000000,0.000000,0.000000,0.000000,0.000000,-0.436000,0.000000,0.000000,0.000000,0.000000
0.94600,0.237296,0.000000,0.000000,0.000000,0.000000,0.000000,0.000000,-0.436000,0.000000,0.000000,0.000000,0.000000
0.94800,0.252248,0.000000,0.000000,0.000000,0.000000,0.000000,0.000000,-0.436000,0.000000,0.000000,0.000000,0.000000
0.95000,0.267200,0.000000,0.000000,0.000000,0.000000,0.000000,0.000000,-0.436000,0.000000,0.000000,0.000000,0.000000
0.95200,0.282152,0.000000,0.000000,0.000000,0.000000,0.000000,0.000000,-0.436000,0.000000,0.000000,0.000000,0.000000
0.95400,0.297104,0.000000,0.000000,0.000000,0.000000,0.000000,0.000000,-0.436000,0.000000,0.000000,0.000000,0.000000
0.95600,0.312056,0.000000,0.000000,0.000000,0.000000,0.000000,0.000000,-0.436000,0.000000,0.000000,0.000000,0.000000
0.95800,0.327008,0.000000,0.000000,0.000000,0.000000,0.000000,0.000000,-0.436000,0.000000,0.000000,0.000000,0.000000
0.96000,0.341960,0.000000,0.000000,0.000000,0.000000,0.000000,0.000000,-0.436000,0.000000,0.000000,0.000000,0.000000
0.96200,0.356912,0.000000,0.000000,0.000000,0.000000,0.000000,0.000000,-0.436000,0.000000,0.000000,0.000000,0.000000
0.96400,0.371864,0.000000,0.000000,0.000000,0.000000,0.000000,0.000000,-0.436000,0.000000,0.000000,0.000000,0.000000
0.96600,0.386816,0.000000,0.000000,0.000000,0.000000,0.000000,0.000000,-0.436000,0.000000,0.000000,0.000000,0.000000
0.96800,0.401768,0.000000,0.000000,0.000000,0.000000,0.000000,0.000000,-0.436000,0.000000,0.000000,0.000000,0.000000
0.97000,0.416720,0.000000,0.000000,0.000000,0.000000,0.000000,0.000000,-0.436000,0.000000,0.000000,0.000000,0.000000
0.97200,0.431672,0.000000,0.000000,0.000000,0.000000,0.000000,0.000000,-0.436000,0.000000,0.000000,0.000000,0.000000
0.97400,0.446624,0.000000,0.000000,0.000000,0.000000,0.000000,0.000000,-0.436000,0.000000,0.000000,0.000000,0.000000
0.97600,0.610000,0.000000,0.000000,0.000000,0.000000,0.000000,0.000000,-0.436000,0.000000,0.000000,0.000000,0.000000
0.97800,0.609600,0.000000,0.000000,0.000000,0.000000,0.000000,0.000000,-0.436000,0.000000,0.000000,0.000000,0.000000
0.98000,0.608400,0.000000,0.000000,0.000000,0.000000,0.000000,0.000000,-0.436000,0.000000,0.000000,0.000000,0.000000
0.98200,0.606400,0.000000,0.000000,0.000000,0.000000,0.000000,0.000000,-0.436000,0.000000,0.000000,0.000000,0.000000
0.98400,0.603600,0.000000,0.000000,0.000000,0.000000,0.000000,0.000000,-0.436000,0.000000,0.000000,0.000000,0.000000
0.98600,0.600000,0.000000,0.000000,0.000000,0.000000,0.000000,0.000000,-0.436000,0.000000,0.000000,0.000000,0.000000
0.98800,0.595600,0.000000,0.000000,0.000000,0.000000,0.000000,0.000000,-0.436000,0.000000,0.000000,0.000000,0.000000
0.99000,0.590400,0.000000,0.000000,0.000000,0.000000,0.000000,0.000000,-0.436000,0.000000,0.000000,0.000000,0.000000
0.99200,0.584400,0.000000,0.000000,0.000000,0.000000,0.000000,0.000000,-0.436000,0.000000,0.000000,0.000000,0.000000
0.99400,0.577600,0.000000,0.000000,0.000000,0.000000,0.000000,0.000000,-0.436000,0.000000,0.000000,0.000000,0.000000
0.99600,0.570000,0.000000,0.000000,0.000000,0.000000,0.000000,0.000000,-0.436000,0.000000,0.000000,0.000000,0.000000
0.99800,0.561600,0.000000,0.000000,0.000000,0.000000,0.000000,0.000000,-0.436000,0.000000,0.000000,0.000000,0.000000
1.00000,0.552400,0.000000,0.000000,0.000000,0.000000,0.000000,0.000000,-0.436000,0.000000,0.000000,0.000000,0.000000
1.00200,0.542400,0.000000,0.000000,0.000000,0.000000,0.000000,0.000000,-0.436000,0.000000,0.000000,0.000000,0.000000
1.00400,0.531600,0.000000,0.000000,0.000000,0.000000,0.000000,0.000000,-0.436000,0.000000,0.000000,0.000000,0.000000
1.00600,0.520000,0.000000,0.000000,0.000000,0.000000,0.000000,0.000000,-0.436000,0.000000,0.000000,0.000000,0.000000
1.00800,0.507600,0.000000,0.000000,0.000000,0.000000,0.000000,0.000000,-0.436000,0.000000,0.000000,0.000000,0.000000
1.01000,0.494400,0.000000,0.000000,0.000000,0.000000,0.000000,0.000000,-0.436000,0.000000,0.000000,0.000000,0.000000
1.01200,0.610000,0.000000,0.000000,0.000000,0.000000,0.000000,0.000000,-0.436000,0.000000,0.000000,0.000000,0.000000
1.01400,0.609600,0.000000,0.000000,0.000000,0.000000,0.000000,0.000000,-0.436000,0.000000,0.000000,0.000000,0.000000
1.01600,0.608400,0.000000,0.000000,0.000000,0.000000,0.000000,0.000000,-0.436000,0.000000,0.000000,0.000000,0.000000
1.01800,0.606400,0.000000,0.000000,0.000000,0.000000,0.000000,0.000000,-0.436000,0.000000,0.000000,0.000000,0.000000
1.02000,0.603600,0.000000,0.000000,0.000000,0.000000,0.000000,0.000000,-0.436000,0.000000,0.000000,0.000000,0.000000
1.02200,0.600000,0.000000,0.000000,0.000000,0.000000,0.000000,0.000000,-0.436000,0.000000,0.000000,0.000000,0.000000
1.02400,0.595600,0.000000,0.000000,0.000000,0.000000,0.000000,0.000000,-0.436000,0.000000,0.000000,0.000000,0.000000
1.02600,0.590400,0.000000,0.000000,0.000000,0.000000,0.000000,0.000000,-0.436000,0.000000,0.000000,0.000000,0.000000
1.02800,0.584400,0.000000,0.000000,0.000000,0.000000,0.000000,0.000000,-0.436000,0.000000,0.000000,0.000000,0.000000
1.03000,0.577600,0.000000,0.000000,0.000000,0.000000,0.000000,0.000000,-0.436000,0.000000,0.000000,0.000000,0.000000
1.03200,0.570000,0.000000,0.000000,0.000000,0.000000,0.000000,0.000000,-0.436000,0.000000,0.000000,0.000000,0.000000
1.03400,0.561600,0.000000,0.000000,0.000000,0.000000,0.000000,0.000000,-0.436000,0.000000,0.000000,0.000000,0.000000
1.03600,0.552400,0.000000,0.000000,0.000000,0.000000,0.000000,0.000000,-0.436000,0.000000,0.000000,0.000000,0.000000
1.03800,0.542400,0.000000,0.000000,0.000000,0.000000,0.000000,0.000000,-0.436000,0.000000,0.000000,0.000000,0.000000
1.04000,0.531600,0.000000,0.000000,0.000000,0.000000,0.000000,0.000000,-0.436000,0.000000,0.000000,0.000000,0.000000
1.04200,0.520000,0.000000,0.000000,0.000000,0.000000,0.000000,0.000000,-0.436000,0.000000,0.000000,0.000000,0.000000
1.04400,0.507600,0.000000,0.000000,0.000000,0.000000,0.000000,0.000000,-0.436000,0.000000,0.000000,0.000000,0.000000
1.04600,0.494400,0.000000,0.000000,0.000000,0.000000,0.000000,0.000000,-0.436000,0.000000,0.000000,0.000000,0.000000
1.04800,0.480400,0.000000,0.000000,0.000000,0.000000,0.000000,0.000000,-0.436000,0.000000,0.000000,0.000000,0.000000
1.05000,0.480400,0.000000,0.000000,0.000000,0.000000,0.000000,0.000000,-0.436000,0.000000,0.000000,0.000000,0.000000
1.05200,0.465448,0.000000,0.000000,0.000000,0.000000,0.000000,0.000000,-0.436000,0.000000,0.000000,0.000000,0.000000
1.05400,0.450496,0.000000,0.000000,0.000000,0.000000,0.000000,0.000000,-0.436000,0.000000,0.000000,0.000000,0.000000
1.05600,0.435544,0.000000,0.000000,0.000000,0.000000,0.000000,0.000000,-0.436000,0.000000,0.000000,0.000000,0.000000
1.05800,0.420592,0.000000,0.000000,0.000000,0.000000,0.000000,0.000000,-0.436000,0.000000,0.000000,0.000000,0.000000
1.06000,0.405640,0.000000,0.000000,0.000000,0.000000,0.000000,0.000000,-0.436000,0.000000,0.000000,0.000000,0.000000
1.06200,0.390688,0.000000,0.000000,0.000000,0.000000,0.000000,0.000000,-0.436000,0.000000,0.000000,0.000000,0.000000
1.06400,0.375736,0.000000,0.000000,0.000000,0.000000,0.000000,0.000000,-0.436000,0.000000,0.000000,0.000000,0.000000
1.06600,0.360784,0.000000,0.000000,0.000000,0.000000,0.000000,0.000000,-0.436000,0.000000,0.000000,0.000000,0.000000
1.06800,0.345832,0.000000,0.000000,0.000000,0.000000,0.000000,0.000000,-0.436000,0.000000,0.000000,0.000000,0.000000
1.07000,0.330880,0.000000,0.000000,0.000000,0.000000,0.000000,0.000000,-0.436000,0.000000,0.000000,0.000000,0.000000
1.07200,0.315928,0.000000,0.000000,0.000000,0.000000,0.000000,0.000000,-0.436000,0.000000,0.000000,0.000000,0.000000
1.07400,0.300976,0.000000,0.000000,0.000000,0.000000,0.000000,0.000000,-0.436000,0.000000,0.000000,0.000000,0.000000
1.07600,0.286024,0.000000,0.000000,0.000000,0.000000,0.000000,0.000000,-0.436000,0.000000,0.000000,0.000000,0.000000
1.07800,0.271072,0.000000,0.000000,0.000000,0.000000,0.000000,0.000000,-0.436000,0.000000,0.000000,0.000000,0.000000
1.08000,0.256120,0.000000,0.000000,0.000000,0.000000,0.000000,0.000000,-0.436000,0.000000,0.000000,0.000000,0.000000
1.08200,0.241168,0.000000,0.000000,0.000000,0.000000,0.000000,0.000000,-0.436000,0.000000,0.000000,0.000000,0.000000
1.08400,0.226216,0.000000,0.000000,0.000000,0.000000,0.000000,0.000000,-0.436000,0.000000,0.000000,0.000000,0.000000
1.08600,0.211264,0.000000,0.000000,0.000000,0.000000,0.000000,0.000000,-0.436000,0.000000,0.000000,0.000000,0.000000
1.08800,0.196312,0.000000,0.000000,0.000000,0.000000,0.000000,0.000000,-0.436000,0.000000,0.000000,0.000000,0.000000
1.09000,0.181360,0.000000,0.000000,0.000000,0.000000,0.000000,0.000000,-0.436000,0.000000,0.000000,0.000000,0.000000
1.09200,0.166408,0.000000,0.000000,0.000000,0.000000,0.000000,0.000000,-0.436000,0.000000,0.000000,0.000000,0.000000
1.09400,0.151456,0.000000,0.000000,0.000000,0.000000,0.000000,0.000000,-0.436000,0.000000,0.000000,0.000000,0.000000
1.09600,0.136504,0.000000,0.000000,0.000000,0.000000,0.000000,0.000000,-0.436000,0.000000,0.000000,0.000000,0.000000
1.09800,0.121552,0.000000,0.000000,0.000000,0.000000,0.000000,0.000000,-0.436000,0.000000,0.000000,0.000000,0.000000
1.10000,0.106600,0.000000,0.000000,0.000000,0.000000,0.000000,0.000000,-0.436000,0.000000,0.000000,0.000000,0.000000
1.10200,0.091648,0.000000,0.000000,0.000000,0.000000,0.000000,0.000000,-0.436000,0.000000,0.000000,0.000000,0.000000
1.10400,0.076696,0.000000,0.000000,0.000000,0.000000,0.000000,0.000000,-0.436000,0.000000,0.000000,0.000000,0.000000
1.10600,0.061744,0.000000,0.000000,0.000000,0.000000,0.000000,0.000000,-0.436000,0.000000,0.000000,0.000000,0.000000
1.10800,0.046792,0.000000,0.000000,0.000000,0.000000,0.000000,0.000000,-0.436000,0.000000,0.000000,0.000000,0.000000
1.11000,0.031840,0.000000,0.000000,0.000000,0.000000,0.000000,0.000000,-0.436000,0.000000,0.000000,0.000000,0.000000
1.11200,0.016888,0.000000,0.000000,0.000000,0.000000,0.000000,0.000000,-0.436000,0.000000,0.000000,0.000000,0.000000
1.11400,0.001936,0.000000,0.000000,0.000000,0.000000,0.000000,0.000000,-0.436000,0.000000,0.000000,0.000000,0.000000
1.11600,-0.013016,0.000000,0.000000,0.000000,0.000000,0.000000,0.000000,-0.436000,0.000000,0.000000,0.000000,0.000000
1.11800,-0.027968,0.000000,0.000000,0.000000,0.000000,0.000000,0.000000,-0.436000,0.000000,0.000000,0.000000,0.000000
1.12000,-0.042920,0.000000,0.000000,0.000000,0.000000,0.000000,0.000000,-0.436000,0.000000,0.000000,0.000000,0.000000
1.12200,-0.057872,0.000000,0.000000,0.000000,0.000000,0.000000,0.000000,-0.436000,0.000000,0.000000,0.000000,0.000000
1.12400,-0.072824,0.000000,0.000000,0.000000,0.000000,0.000000,0.000000,-0.436000,0.000000,0.000000,0.000000,0.000000
1.12600,-0.087776,0.000000,0.000000,0.000000,0.000000,0.000000,0.000000,-0.436000,0.000000,0.000000,0.000000,0.000000
1.12800,-0.102728,0.000000,0.000000,0.000000,0.000000,0.000000,0.000000,-0.436000,0.000000,0.000000,0.000000,0.000000
1.13000,-0.117680,0.000000,0.000000,0.000000,0.000000,0.000000,0.000000,-0.436000,0.000000,0.000000,0.000000,0.000000
1.13200,-0.132632,0.000000,0.000000,0.000000,0.000000,0.000000,0.000000,-0.436000,0.000000,0.000000,0.000000,0.000000
1.13400,-0.147584,0.000000,0.000000,0.000000,0.000000,0.000000,0.000000,-0.436000,0.000000,0.000000,0.000000,0.000000
1.13600,-0.162536,0.000000,0.000000,0.000000,0.000000,0.000000,0.000000,-0.436000,0.000000,0.000000,0.000000,0.000000
1.13800,-0.177488,0.000000,0.000000,0.000000,0.000000,0.000000,0.000000,-0.436000,0.000000,0.000000,0.000000,0.000000
1.14000,-0.192440,0.000000,0.000000,0.000000,0.000000,0.000000,0.000000,-0.436000,0.000000,0.000000,0.000000,0.000000
1.14200,-0.207392,0.000000,0.000000,0.000000,0.000000,0.000000,0.000000,-0.436000,0.000000,0.000000,0.000000,0.000000
1.14400,-0.222344,0.000000,0.000000,0.000000,0.000000,0.000000,0.000000,-0.436000,0.000000,0.000000,0.000000,0.000000
1.14600,-0.237296,0.000000,0.000000,0.000000,0.000000,0.000000,0.000000,-0.436000,0.000000,0.000000,0.000000,0.000000
1.14800,-0.252248,0.000000,0.000000,0.000000,0.000000,0.000000,0.000000,-0.436000,0.000000,0.000000,0.000000,0.000000
1.15000,-0.267200,0.000000,0.000000,0.000000,0.000000,0.000000,0.000000,-0.436000,0.000000,0.000000,0.000000,0.000000
1.15200,-0.282152,0.000000,0.000000,0.000000,0.000000,0.000000,0.000000,-0.436000,0.000000,0.000000,0.000000,0.000000
1.15400,-0.297104,0.000000,0.000000,0.000000,0.000000,0.000000,0.000000,-0.436000,0.000000,0.000000,0.000000,0.000000
1.15600,-0.312056,0.000000,0.000000,0.000000,0.000000,0.000000,0.000000,-0.436000,0.000000,0.000000,0.000000,0.000000
1.15800,-0.327008,0.000000,0.000000,0.000000,0.000000,0.000000,0.000000,-0.436000,0.000000,0.000000,0.000000,0.000000
1.16000,-0.341960,0.000000,0.000000,0.000000,0.000000,0.000000,0.000000,-0.436000,0.000000,0.000000,0.000000,0.000000
1.16200,-0.356912,0.000000,0.000000,0.000000,0.000000,0.000000,0.000000,-0.436000,0.000000,0.000000,0.000000,0.000000
1.16400,-0.371864,0.000000,0.000000,0.000000,0.000000,0.000000,0.000000,-0.436000,0.000000,0.000000,0.000000,0.000000
1.16600,-0.386816,0.000000,0.000000,0.000000,0.000000,0.000000,0.000000,-0.436000,0.000000,0.000000,0.000000,0.000000
1.16800,-0.401768,0.000000,0.000000,0.000000,0.000000,0.000000,0.000000,-0.436000,0.000000,0.000000,0.000000,0.000000
1.17000,-0.416720,0.000000,0.000000,0.000000,0.000000,0.000000,0.000000,-0.436000,0.000000,0.000000,0.000000,0.000000
1.17200,-0.431672,0.000000,0.000000,0.000000,0.000000,0.000000,0.000000,-0.436000,0.000000,0.000000,0.000000,0.000000
1.17400,-0.446624,0.000000,0.000000,0.000000,0.000000,0.000000,0.000000,-0.436000,0.000000,0.000000,0.000000,0.000000
1.17600,-0.610000,0.000000,0.000000,0.000000,0.000000,0.000000,0.000000,-0.436000,0.000000,0.000000,0.000000,0.000000
1.17800,-0.609600,0.000000,0.000000,0.000000,0.000000,0.000000,0.000000,-0.436000,0.000000,0.000000,0.000000,0.000000
1.18000,-0.608400,0.000000,0.000000,0.000000,0.000000,0.000000,0.000000,-0.436000,0.000000,0.000000,0.000000,0.000000
1.18200,-0.606400,0.000000,0.000000,0.000000,0.000000,0.000000,0.000000,-0.436000,0.000000,0.000000,0.000000,0.000000
1.18400,-0.603600,0.000000,0.000000,0.000000,0.000000,0.000000,0.000000,-0.436000,0.000000,0.000000,0.000000,0.000000
1.18600,-0.600000,0.000000,0.000000,0.000000,0.000000,0.000000,0.000000,-0.436000,0.000000,0.000000,0.000000,0.000000
1.18800,-0.595600,0.000000,0.000000,0.000000,0.000000,0.000000,0.000000,-0.436000,0.000000,0.000000,0.000000,0.000000
1.19000,-0.590400,0.000000,0.000000,0.000000,0.000000,0.000000,0.000000,-0.436000,0.000000,0.000000,0.000000,0.000000
1.19200,-0.584400,0.000000,0.000000,0.000000,0.000000,0.000000,0.000000,-0.436000,0.000000,0.000000,0.000000,0.000000
1.19400,-0.577600,0.000000,0.000000,0.000000,0.000000,0.000000,0.000000,-0.436000,0.000000,0.000000,0.000000,0.000000
1.19600,-0.570000,0.000000,0.000000,0.000000,0.000000,0.000000,0.000000,-0.436000,0.000000,0.000000,0.000000,0.000000
1.19800,-0.561600,0.000000,0.000000,0.000000,0.000000,0.000000,0.000000,-0.436000,0.000000,0.000000,0.000000,0.000000
1.20000,-0.552400,0.000000,0.000000,0.000000,0.000000,0.000000,0.000000,-0.436000,0.000000,0.000000,0.000000,0.000000
1.20200,-0.542400,0.000000,0.000000,0.000000,0.000000,0.000000,0.000000,-0.436000,0.000000,0.000000,0.000000,0.000000
1.20400,-0.531600,0.000000,0.000000,0.000000,0.000000,0.000000,0.000000,-0.436000,0.000000,0.000000,0.000000,0.000000
1.20600,-0.520000,0.000000,0.000000,0.000000,0.000000,0.000000,0.000000,-0.436000,0.000000,0.000000,0.000000,0.000000
1.20800,-0.507600,0.000000,0.000000,0.000000,0.000000,0.000000,0.000000,-0.436000,0.000000,0.000000,0.000000,0.000000
1.21000,-0.494400,0.000000,0.000000,0.000000,0.000000,0.000000,0.000000,-0.436000,0.000000,0.000000,0.000000,0.000000
1.21200,-0.610000,0.000000,0.000000,0.000000,0.000000,0.000000,0.000000,-0.436000,0.000000,0.000000,0.000000,0.000000
1.21400,-0.609600,0.000000,0.000000,0.000000,0.000000,0.000000,0.000000,-0.436000,0.000000,0.000000,0.000000,0.000000
1.21600,-0.608400,0.000000,0.000000,0.000000,0.000000,0.000000,0.000000,-0.436000,0.000000,0.000000,0.000000,0.000000
1.21800,-0.606400,0.000000,0.000000,0.000000,0.000000,0.000000,0.000000,-0.436000,0.000000,0.000000,0.000000,0.000000
1.22000,-0.603600,0.000000,0.000000,0.000000,0.000000,0.000000,0.000000,-0.436000,0.000000,0.000000,0.000000,0.000000
1.22200,-0.600000,0.000000,0.000000,0.000000,0.000000,0.000000,0.000000,-0.436000,0.000000,0.000000,0.000000,0.000000
1.22400,-0.595600,0.000000,0.000000,0.000000,0.000000,0.000000,0.000000,-0.436000,0.000000,0.000000,0.000000,0.000000
1.22600,-0.590400,0.000000,0.000000,0.000000,0.000000,0.000000,0.000000,-0.436000,0.000000,0.000000,0.000000,0.000000
1.22800,-0.584400,0.000000,0.000000,0.000000,0.000000,0.000000,0.000000,-0.436000,0.000000,0.000000,0.000000,0.000000
1.23000,-0.577600,0.000000,0.000000,0.000000,0.000000,0.000000,0.000000,-0.436000,0.000000,0.000000,0.000000,0.000000
1.23200,-0.570000,0.000000,0.000000,0.000000,0.000000,0.000000,0.000000,-0.436000,0.000000,0.000000,0.000000,0.000000
1.23400,-0.561600,0.000000,0.000000,0.000000,0.000000,0.000000,0.000000,-0.436000,0.000000,0.000000,0.000000,0.000000
1.23600,-0.552400,0.000000,0.000000,0.000000,0.000000,0.000000,0.000000,-0.436000,0.000000,0.000000,0.000000,0.000000
1.23800,-0.542400,0.000000,0.000000,0.000000,0.000000,0.000000,0.000000,-0.436000,0.000000,0.000000,0.000000,0.000000
1.24000,-0.531600,0.000000,0.000000,0.000000,0.000000,0.000000,0.000000,-0.436000,0.000000,0.000000,0.000000,0.000000
1.24200,-0.520000,0.000000,0.000000,0.000000,0.000000,0.000000,0.000000,-0.436000,0.000000,0.000000,0.000000,0.000000
1.24400,-0.507600,0.000000,0.000000,0.000000,0.000000,0.000000,0.000000,-0.436000,0.000000,0.000000,0.000000,0.000000
1.24600,-0.494400,0.000000,0.000000,0.000000,0.000000,0.000000,0.000000,-0.436000,0.000000,0.000000,0.000000,0.000000
1.24800,-0.480400,0.000000,0.000000,0.000000,0.000000,0.000000,0.000000,-0.436000,0.000000,0.000000,0.000000,0.000000
1.25000,-0.465600,0.000000,0.000000,0.000000,0.000000,0.000000,0.000000,-0.436000,0.000000,0.000000,0.000000,0.000000
1.25200,-0.450000,0.000000,0.000000,0.000000,0.000000,0.000000,0.000000,-0.436000,0.000000,0.000000,0.000000,0.000000
1.25400,-0.433600,0.000000,0.000000,0.000000,0.000000,0.000000,0.000000,-0.436000,0.000000,0.000000,0.000000,0.000000
1.25600,-0.416400,0.000000,0.000000,0.000000,0.000000,0.000000,0.000000,-0.436000,0.000000,0.000000,0.000000,0.000000
1.25800,-0.398400,0.000000,0.000000,0.000000,0.000000,0.000000,0.000000,-0.436000,0.000000,0.000000,0.000000,0.000000
1.26000,-0.379600,0.000000,0.000000,0.000000,0.000000,0.000000,0.000000,-0.436000,0.000000,0.000000,0.000000,0.000000
1.26200,-0.360000,0.000000,0.000000,0.000000,0.000000,0.000000,0.000000,-0.436000,0.000000,0.000000,0.000000,0.000000
1.26400,-0.339600,0.000000,0.000000,0.000000,0.000000,0.000000,0.000000,-0.436000,0.000000,0.000000,0.000000,0.000000
1.26600,-0.318400,0.000000,0.000000,0.000000,0.000000,0.000000,0.000000,-0.436000,0.000000,0.000000,0.000000,0.000000
1.26800,-0.296400,0.000000,0.000000,0.000000,0.000000,0.000000,0.000000,-0.436000,0.000000,0.000000,0.000000,0.000000
1.27000,-0.296400,0.000000,0.000000,0.000000,0.000000,0.000000,0.000000,-0.436000,0.000000,0.000000,0.000000,0.000000
1.27200,-0.273972,0.000000,0.000000,0.000000,0.000000,0.000000,0.000000,-0.436000,0.000000,0.000000,0.000000,0.000000
1.27400,-0.251544,0.000000,0.000000,0.000000,0.000000,0.000000,0.000000,-0.436000,0.000000,0.000000,0.000000,0.000000
1.27600,-0.229116,0.000000,0.000000,0.000000,0.000000,0.000000,0.000000,-0.436000,0.000000,0.000000,0.000000,0.000000
1.27800,-0.206688,0.000000,0.000000,0.000000,0.000000,0.000000,0.000000,-0.436000,0.000000,0.000000,0.000000,0.000000
1.28000,-0.184260,0.000000,0.000000,0.000000,0.000000,0.000000,0.000000,-0.436000,0.000000,0.000000,0.000000,0.000000
1.28200,-0.161832,0.000000,0.000000,0.000000,0.000000,0.000000,0.000000,-0.436000,0.000000,0.000000,0.000000,0.000000
1.28400,-0.139404,0.000000,0.000000,0.000000,0.000000,0.000000,0.000000,-0.436000,0.000000,0.000000,0.000000,0.000000
1.28600,-0.116976,0.000000,0.000000,0.000000,0.000000,0.000000,0.000000,-0.436000,0.000000,0.000000,0.000000,0.000000
1.28800,-0.094548,0.000000,0.000000,0.000000,0.000000,0.000000,0.000000,-0.436000,0.000000,0.000000,0.000000,0.000000
1.29000,-0.072120,0.000000,0.000000,0.000000,0.000000,0.000000,0.000000,-0.436000,0.000000,0.000000,0.000000,0.000000
1.29200,-0.049692,0.000000,0.000000,0.000000,0.000000,0.000000,0.000000,-0.436000,0.000000,0.000000,0.000000,0.000000
1.29400,-0.027264,0.000000,0.000000,0.000000,0.000000,0.000000,0.000000,-0.436000,0.000000,0.000000,0.000000,0.000000
1.29600,-0.004836,0.000000,0.000000,0.000000,0.000000,0.000000,0.000000,-0.436000,0.000000,0.000000,0.000000,0.000000
1.29800,0.017592,0.000000,0.000000,0.000000,0.000000,0.000000,0.000000,-0.436000,0.000000,0.000000,0.000000,0.000000
1.30000,0.040020,0.000000,0.000000,0.000000,0.000000,0.000000,0.000000,-0.436000,0.000000,0.000000,0.000000,0.000000
1.30200,0.062448,0.000000,0.000000,0.000000,0.000000,0.000000,0.000000,-0.436000,0.000000,0.000000,0.000000,0.000000
1.30400,0.084876,0.000000,0.000000,0.000000,0.000000,0.000000,0.000000,-0.436000,0.000000,0.000000,0.000000,0.000000
1.30600,0.107304,0.000000,0.000000,0.000000,0.000000,0.000000,0.000000,-0.436000,0.000000,0.000000,0.000000,0.000000
1.30800,0.129732,0.000000,0.000000,0.000000,0.000000,0.000000,0.000000,-0.436000,0.000000,0.000000,0.000000,0.000000
1.31000,0.152160,0.000000,0.000000,0.000000,0.000000,0.000000,0.000000,-0.436000,0.000000,0.000000,0.000000,0.000000
1.31200,0.174588,0.000000,0.000000,0.000000,0.000000,0.000000,0.000000,-0.436000,0.000000,0.000000,0.000000,0.000000
1.31400,0.197016,0.000000,0.000000,0.000000,0.000000,0.000000,0.000000,-0.436000,0.000000,0.000000,0.000000,0.000000
1.31600,0.219444,0.000000,0.000000,0.000000,0.000000,0.000000,0.000000,-0.436000,0.000000,0.000000,0.000000,0.000000
1.31800,0.241872,0.000000,0.000000,0.000000,0.000000,0.000000,0.000000,-0.436000,0.000000,0.000000,0.000000,0.000000
1.32000,0.264300,0.000000,0.000000,0.000000,0.000000,0.000000,0.000000,-0.436000,0.000000,0.000000,0.000000,0.000000
1.32200,0.286728,0.000000,0.000000,0.000000,0.000000,0.000000,0.000000,-0.436000,0.000000,0.000000,0.000000,0.000000
1.32400,0.610000,0.000000,0.000000,0.000000,0.000000,0.000000,0.000000,-0.436000,0.000000,0.000000,0.000000,0.000000
1.32600,0.609600,0.000000,0.000000,0.000000,0.000000,0.000000,0.000000,-0.436000,0.000000,0.000000,0.000000,0.000000
1.32800,0.608400,0.000000,0.000000,0.000000,0.000000,0.000000,0.000000,-0.436000,0.000000,0.000000,0.000000,0.000000
1.33000,0.606400,0.000000,0.000000,0.000000,0.000000,0.000000,0.000000,-0.436000,0.000000,0.000000,0.000000,0.000000
1.33200,0.603600,0.000000,0.000000,0.000000,0.000000,0.000000,0.000000,-0.436000,0.000000,0.000000,0.000000,0.000000
1.33400,0.600000,0.000000,0.000000,0.000000,0.000000,0.000000,0.000000,-0.436000,0.000000,0.000000,0.000000,0.000000
1.33600,0.595600,0.000000,0.000000,0.000000,0.000000,0.000000,0.000000,-0.436000,0.000000,0.000000,0.000000,0.000000
1.33800,0.590400,0.000000,0.000000,0.000000,0.000000,0.000000,0.000000,-0.436000,0.000000,0.000000,0.000000,0.000000
1.34000,0.584400,0.000000,0.000000,0.000000,0.000000,0.000000,0.000000,-0.436000,0.000000,0.000000,0.000000,0.000000
1.34200,0.577600,0.000000,0.000000,0.000000,0.000000,0.000000,0.000000,-0.436000,0.000000,0.000000,0.000000,0.000000
1.34400,0.570000,0.000000,0.000000,0.000000,0.000000,0.000000,0.000000,-0.436000,0.000000,0.000000,0.000000,0.000000
1.34600,0.561600,0.000000,0.000000,0.000000,0.000000,0.000000,0.000000,-0.436000,0.000000,0.000000,0.000000,0.000000
1.34800,0.552400,0.000000,0.000000,0.000000,0.000000,0.000000,0.000000,-0.436000,0.000000,0.000000,0.000000,0.000000
1.35000,0.542400,0.000000,0.000000,0.000000,0.000000,0.000000,0.000000,-0.436000,0.000000,0.000000,0.000000,0.000000
1.35200,0.531600,0.000000,0.000000,0.000000,0.000000,0.000000,0.000000,-0.436000,0.000000,0.000000,0.000000,0.000000
1.35400,0.520000,0.000000,0.000000,0.000000,0.000000,0.000000,0.000000,-0.436000,0.000000,0.000000,0.000000,0.000000
1.35600,0.507600,0.000000,0.000000,0.000000,0.000000,0.000000,0.000000,-0.436000,0.000000,0.000000,0.000000,0.000000
1.35800,0.494400,0.000000,0.000000,0.000000,0.000000,0.000000,0.000000,-0.436000,0.000000,0.000000,0.000000,0.000000
1.36000,0.480400,0.000000,0.000000,0.000000,0.000000,0.000000,0.000000,-0.436000,0.000000,0.000000,0.000000,0.000000
1.36200,0.465600,0.000000,0.000000,0.000000,0.000000,0.000000,0.000000,-0.436000,0.000000,0.000000,0.000000,0.000000
1.36400,0.450000,0.000000,0.000000,0.000000,0.000000,0.000000,0.000000,-0.436000,0.000000,0.000000,0.000000,0.000000
1.36600,0.433600,0.000000,0.000000,0.000000,0.000000,0.000000,0.000000,-0.436000,0.000000,0.000000,0.000000,0.000000
1.36800,0.416400,0.000000,0.000000,0.000000,0.000000,0.000000,0.000000,-0.436000,0.000000,0.000000,0.000000,0.000000
1.37000,0.398400,0.000000,0.000000,0.000000,0.000000,0.000000,0.000000,-0.436000,0.000000,0.000000,0.000000,0.000000
1.37200,0.379600,0.000000,0.000000,0.000000,0.000000,0.000000,0.000000,-0.436000,0.000000,0.000000,0.000000,0.000000
1.37400,0.360000,0.000000,0.000000,0.000000,0.000000,0.000000,0.000000,-0.436000,0.000000,0.000000,0.000000,0.000000
1.37600,0.339600,0.000000,0.000000,0.000000,0.000000,0.000000,0.000000,-0.436000,0.000000,0.000000,0.000000,0.000000
1.37800,0.318400,0.000000,0.000000,0.000000,0.000000,0.000000,0.000000,-0.436000,0.000000,0.000000,0.000000,0.000000
1.38000,0.610000,0.000000,0.000000,0.000000,0.000000,0.000000,0.000000,-0.436000,0.000000,0.000000,0.000000,0.000000
1.38200,0.609600,0.000000,0.000000,0.000000,0.000000,0.000000,0.000000,-0.436000,0.000000,0.000000,0.000000,0.000000
1.38400,0.608400,0.000000,0.000000,0.000000,0.000000,0.000000,0.000000,-0.436000,0.000000,0.000000,0.000000,0.000000
1.38600,0.606400,0.000000,0.000000,0.000000,0.000000,0.000000,0.000000,-0.436000,0.000000,0.000000,0.000000,0.000000
1.38800,0.603600,0.000000,0.000000,0.000000,0.000000,0.000000,0.000000,-0.436000,0.000000,0.000000,0.000000,0.000000
1.39000,0.600000,0.000000,0.000000,0.000000,0.000000,0.000000,0.000000,-0.436000,0.000000,0.000000,0.000000,0.000000
1.39200,0.595600,0.000000,0.000000,0.000000,0.000000,0.000000,0.000000,-0.436000,0.000000,0.000000,0.000000,0.000000
1.39400,0.590400,0.000000,0.000000,0.000000,0.000000,0.000000,0.000000,-0.436000,0.000000,0.000000,0.000000,0.000000
1.39600,0.584400,0.000000,0.000000,0.000000,0.000000,0.000000,0.000000,-0.436000,0.000000,0.000000,0.000000,0.000000
1.39800,0.577600,0.000000,0.000000,0.000000,0.000000,0.000000,0.000000,-0.436000,0.000000,0.000000,0.000000,0.000000
1.40000,0.570000,0.000000,0.000000,0.000000,0.000000,0.000000,0.000000,-0.436000,0.000000,0.000000,0.000000,0.000000
1.40200,0.561600,0.000000,0.000000,0.000000,0.000000,0.000000,0.000000,-0.436000,0.000000,0.000000,0.000000,0.000000
1.40400,0.552400,0.000000,0.000000,0.000000,0.000000,0.000000,0.000000,-0.436000,0.000000,0.000000,0.000000,0.000000
1.40600,0.542400,0.000000,0.000000,0.000000,0.000000,0.000000,0.000000,-0.436000,0.000000,0.000000,0.000000,0.000000
1.40800,0.531600,0.000000,0.000000,0.000000,0.000000,0.000000,0.000000,-0.436000,0.000000,0.000000,0.000000,0.000000
1.41000,0.520000,0.000000,0.000000,0.000000,0.000000,0.000000,0.000000,-0.436000,0.000000,0.000000,0.000000,0.000000
1.41200,0.507600,0.000000,0.000000,0.000000,0.000000,0.000000,0.000000,-0.436000,0.000000,0.000000,0.000000,0.000000
1.41400,0.494400,0.000000,0.000000,0.000000,0.000000,0.000000,0.000000,-0.436000,0.000000,0.000000,0.000000,0.000000
1.41600,0.480400,0.000000,0.000000,0.000000,0.000000,0.000000,0.000000,-0.436000,0.000000,0.000000,0.000000,0.000000
1.41800,0.465600,0.000000,0.000000,0.000000,0.000000,0.000000,0.000000,-0.436000,0.000000,0.000000,0.000000,0.000000
1.42000,0.450000,0.000000,0.000000,0.000000,0.000000,0.000000,0.000000,-0.436000,0.000000,0.000000,0.000000,0.000000
1.42200,0.433600,0.000000,0.000000,0.000000,0.000000,0.000000,0.000000,-0.436000,0.000000,0.000000,0.000000,0.000000
1.42400,0.416400,0.000000,0.000000,0.000000,0.000000,0.000000,0.000000,-0.436000,0.000000,0.000000,0.000000,0.000000
1.42600,0.398400,0.000000,0.000000,0.000000,0.000000,0.000000,0.000000,-0.436000,0.000000,0.000000,0.000000,0.000000
1.42800,0.379600,0.000000,0.000000,0.000000,0.000000,0.000000,0.000000,-0.436000,0.000000,0.000000,0.000000,0.000000
1.43000,0.360000,0.000000,0.000000,0.000000,0.000000,0.000000,0.000000,-0.436000,0.000000,0.000000,0.000000,0.000000
1.43200,0.339600,0.000000,0.000000,0.000000,0.000000,0.000000,0.000000,-0.436000,0.000000,0.000000,0.000000,0.000000
1.43400,0.318400,0.000000,0.000000,0.000000,0.000000,0.000000,0.000000,-0.436000,0.000000,0.000000,0.000000,0.000000
1.43600,0.296400,0.000000,0.000000,0.000000,0.000000,0.000000,0.000000,-0.436000,0.000000,0.000000,0.000000,0.000000
1.43800,0.296400,0.000000,0.000000,0.000000,0.000000,0.000000,0.000000,-0.436000,0.000000,0.000000,0.000000,0.000000
1.44000,0.273972,0.000000,0.000000,0.000000,0.000000,0.000000,0.000000,-0.436000,0.000000,0.000000,0.000000,0.000000
1.44200,0.251544,0.000000,0.000000,0.000000,0.000000,0.000000,0.000000,-0.436000,0.000000,0.000000,0.000000,0.000000
1.44400,0.229116,0.000000,0.000000,0.000000,0.000000,0.000000,0.000000,-0.436000,0.000000,0.000000,0.000000,0.000000
1.44600,0.206688,0.000000,0.000000,0.000000,0.000000,0.000000,0.000000,-0.436000,0.000000,0.000000,0.000000,0.000000
1.44800,0.184260,0.000000,0.000000,0.000000,0.000000,0.000000,0.000000,-0.436000,0.000000,0.000000,0.000000,0.000000
1.45000,0.161832,0.000000,0.000000,0.000000,0.000000,0.000000,0.000000,-0.436000,0.000000,0.000000,0.000000,0.000000
1.45200,0.139404,0.000000,0.000000,0.000000,0.000000,0.000000,0.000000,-0.436000,0.000000,0.000000,0.000000,0.000000
1.45400,0.116976,0.000000,0.000000,0.000000,0.000000,0.000000,0.000000,-0.436000,0.000000,0.000000,0.000000,0.000000
1.45600,0.094548,0.000000,0.000000,0.000000,0.000000,0.000000,0.000000,-0.436000,0.000000,0.000000,0.000000,0.000000
1.45800,0.072120,0.000000,0.000000,0.000000,0.000000,0.000000,0.000000,-0.436000,0.000000,0.000000,0.000000,0.000000
1.46000,0.049692,0.000000,0.000000,0.000000,0.000000,0.000000,0.000000,-0.436000,0.000000,0.000000,0.000000,0.000000
1.46200,0.027264,0.000000,0.000000,0.000000,0.000000,0.000000,0.000000,-0.436000,0.000000,0.000000,0.000000,0.000000
1.46400,0.004836,0.000000,0.000000,0.000000,0.000000,0.000000,0.000000,-0.436000,0.000000,0.000000,0.000000,0.000000
1.46600,-0.017592,0.000000,0.000000,0.000000,0.000000,0.000000,0.000000,-0.436000,0.000000,0.000000,0.000000,0.000000
1.46800,-0.040020,0.000000,0.000000,0.000000,0.000000,0.000000,0.000000,-0.436000,0.000000,0.000000,0.000000,0.000000
1.47000,-0.062448,0.000000,0.000000,0.000000,0.000000,0.000000,0.000000,-0.436000,0.000000,0.000000,0.000000,0.000000
1.47200,-0.084876,0.000000,0.000000,0.000000,0.000000,0.000000,0.000000,-0.436000,0.000000,0.000000,0.000000,0.000000
1.47400,-0.107304,0.000000,0.000000,0.000000,0.000000,0.000000,0.000000,-0.436000,0.000000,0.000000,0.000000,0.000000
1.47600,-0.129732,0.000000,0.000000,0.000000,0.000000,0.000000,0.000000,-0.436000,0.000000,0.000000,0.000000,0.000000
1.47800,-0.152160,0.000000,0.000000,0.000000,0.000000,0.000000,0.000000,-0.436000,0.000000,0.000000,0.000000,0.000000
1.48000,-0.174588,0.000000,0.000000,0.000000,0.000000,0.000000,0.000000,-0.436000,0.000000,0.000000,0.000000,0.000000
1.48200,-0.197016,0.000000,0.000000,0.000000,0.000000,0.000000,0.000000,-0.436000,0.000000,0.000000,0.000000,0.000000
1.48400,-0.219444,0.000000,0.000000,0.000000,0.000000,0.000000,0.000000,-0.436000,0.000000,0.000000,0.000000,0.000000
1.48600,-0.241872,0.000000,0.000000,0.000000,0.000000,0.000000,0.000000,-0.436000,0.000000,0.000000,0.000000,0.000000
1.48800,-0.264300,0.000000,0.000000,0.000000,0.000000,0.000000,0.000000,-0.436000,0.000000,0.000000,0.000000,0.000000
1.49000,-0.286728,0.000000,0.000000,0.000000,0.000000,0.000000,0.000000,-0.436000,0.000000,0.000000,0.000000,0.000000
1.49200,-0.610000,0.000000,0.000000,0.000000,0.000000,0.000000,0.000000,-0.436000,0.000000,0.000000,0.000000,0.000000
1.49400,-0.609600,0.000000,0.000000,0.000000,0.000000,0.000000,0.000000,-0.436000,0.000000,0.000000,0.000000,0.000000
1.49600,-0.608400,0.000000,0.000000,0.000000,0.000000,0.000000,0.000000,-0.436000,0.000000,0.000000,0.000000,0.000000
1.49800,-0.606400,0.000000,0.000000,0.000000,0.000000,0.000000,0.000000,-0.436000,0.000000,0.000000,0.000000,0.000000
1.50000,-0.603600,0.000000,0.000000,0.000000,0.000000,0.000000,0.000000,-0.436000,0.000000,0.000000,0.000000,0.000000
1.50200,-0.600000,0.000000,0.000000,0.000000,0.000000,0.000000,0.000000,-0.436000,0.000000,0.000000,0.000000,0.000000
1.50400,-0.595600,0.000000,0.000000,0.000000,0.000000,0.000000,0.000000,-0.436000,0.000000,0.000000,0.000000,0.000000
1.50600,-0.590400,0.000000,0.000000,0.000000,0.000000,0.000000,0.000000,-0.436000,0.000000,0.000000,0.000000,0.000000
1.50800,-0.584400,0.000000,0.000000,0.000000,0.000000,0.000000,0.000000,-0.436000,0.000000,0.000000,0.000000,0.000000
1.51000,-0.577600,0.000000,0.000000,0.000000,0.000000,0.000000,0.000000,-0.436000,0.000000,0.000000,0.000000,0.000000
1.51200,-0.570000,0.000000,0.000000,0.000000,0.000000,0.000000,0.000000,-0.436000,0.000000,0.000000,0.000000,0.000000
1.51400,-0.561600,0.000000,0.000000,0.000000,0.000000,0.000000,0.000000,-0.436000,0.000000,0.000000,0.000000,0.000000
1.51600,-0.552400,0.000000,0.000000,0.000000,0.000000,0.000000,0.000000,-0.436000,0.000000,0.000000,0.000000,0.000000
1.51800,-0.542400,0.000000,0.000000,0.000000,0.000000,0.000000,0.000000,-0.436000,0.000000,0.000000,0.000000,0.000000
1.52000,-0.531600,0.000000,0.000000,0.000000,0.000000,0.000000,0.000000,-0.436000,0.000000,0.000000,0.000000,0.000000
1.52200,-0.520000,0.000000,0.000000,0.000000,0.000000,0.000000,0.000000,-0.436000,0.000000,0.000000,0.000000,0.000000
1.52400,-0.507600,0.000000,0.000000,0.000000,0.000000,0.000000,0.000000,-0.436000,0.000000,0.000000,0.000000,0.000000
1.52600,-0.494400,0.000000,0.000000,0.000000,0.000000,0.000000,0.000000,-0.436000,0.000000,0.000000,0.000000,0.000000
1.52800,-0.480400,0.000000,0.000000,0.000000,0.000000,0.000000,0.000000,-0.436000,0.000000,0.000000,0.000000,0.000000
1.53000,-0.465600,0.000000,0.000000,0.000000,0.000000,0.000000,0.000000,-0.436000,0.000000,0.000000,0.000000,0.000000
1.53200,-0.450000,0.000000,0.000000,0.000000,0.000000,0.000000,0.000000,-0.436000,0.000000,0.000000,0.000000,0.000000
1.53400,-0.433600,0.000000,0.000000,0.000000,0.000000,0.000000,0.000000,-0.436000,0.000000,0.000000,0.000000,0.000000
1.53600,-0.416400,0.000000,0.000000,0.000000,0.000000,0.000000,0.000000,-0.436000,0.000000,0.000000,0.000000,0.000000
1.53800,-0.398400,0.000000,0.000000,0.000000,0.000000,0.000000,0.000000,-0.436000,0.000000,0.000000,0.000000,0.000000
1.54000,-0.379600,0.000000,0.000000,0.000000,0.000000,0.000000,0.000000,-0.436000,0.000000,0.000000,0.000000,0.000000
1.54200,-0.360000,0.000000,0.000000,0.000000,0.000000,0.000000,0.000000,-0.436000,0.000000,0.000000,0.000000,0.000000
1.54400,-0.339600,0.000000,0.000000,0.000000,0.000000,0.000000,0.000000,-0.436000,0.000000,0.000000,0.000000,0.000000
1.54600,-0.318400,0.000000,0.000000,0.000000,0.000000,0.000000,0.000000,-0.436000,0.000000,0.000000,0.000000,0.000000
1.54800,-0.610000,0.000000,0.000000,0.000000,0.000000,0.000000,0.000000,-0.436000,0.000000,0.000000,0.000000,0.000000
1.55000,-0.609600,0.000000,0.000000,0.000000,0.000000,0.000000,0.000000,-0.436000,0.000000,0.000000,0.000000,0.000000
1.55200,-0.608400,0.000000,0.000000,0.000000,0.000000,0.000000,0.000000,-0.436000,0.000000,0.000000,0.000000,0.000000
1.55400,-0.606400,0.000000,0.000000,0.000000,0.000000,0.000000,0.000000,-0.436000,0.000000,0.000000,0.000000,0.000000
1.55600,-0.603600,0.000000,0.000000,0.000000,0.000000,0.000000,0.000000,-0.436000,0.000000,0.000000,0.000000,0.000000
1.55800,-0.600000,0.000000,0.000000,0.000000,0.000000,0.000000,0.000000,-0.436000,0.000000,0.000000,0.000000,0.000000
1.56000,-0.595600,0.000000,0.000000,0.000000,0.000000,0.000000,0.000000,-0.436000,0.000000,0.000000,0.000000,0.000000
1.56200,-0.590400,0.000000,0.000000,0.000000,0.000000,0.000000,0.000000,-0.436000,0.000000,0.000000,0.000000,0.000000
1.56400,-0.584400,0.000000,0.000000,0.000000,0.000000,0.000000,0.000000,-0.436000,0.000000,0.000000,0.000000,0.000000
1.56600,-0.577600,0.000000,0.000000,0.000000,0.000000,0.000000,0.000000,-0.436000,0.000000,0.000000,0.000000,0.000000
1.56800,-0.570000,0.000000,0.000000,0.000000,0.000000,0.000000,0.000000,-0.436000,0.000000,0.000000,0.000000,0.000000
1.57000,-0.561600,0.000000,0.000000,0.000000,0.000000,0.000000,0.000000,-0.436000,0.000000,0.000000,0.000000,0.000000
1.57200,-0.552400,0.000000,0.000000,0.000000,0.000000,0.000000,0.000000,-0.436000,0.000000,0.000000,0.000000,0.000000
1.57400,-0.542400,0.000000,0.000000,0.000000,0.000000,0.000000,0.000000,-0.436000,0.000000,0.000000,0.000000,0.000000
1.57600,-0.531600,0.000000,0.000000,0.000000,0.000000,0.000000,0.000000,-0.436000,0.000000,0.000000,0.000000,0.000000
1.57800,-0.520000,0.000000,0.000000,0.000000,0.000000,0.000000,0.000000,-0.436000,0.000000,0.000000,0.000000,0.000000
1.58000,-0.507600,0.000000,0.000000,0.000000,0.000000,0.000000,0.000000,-0.436000,0.000000,0.000000,0.000000,0.000000
1.58200,-0.494400,0.000000,0.000000,0.000000,0.000000,0.000000,0.000000,-0.436000,0.000000,0.000000,0.000000,0.000000
1.58400,-0.480400,0.000000,0.000000,0.000000,0.000000,0.000000,0.000000,-0.436000,0.000000,0.000000,0.000000,0.000000
1.58600,-0.480400,0.000000,0.000000,0.000000,0.000000,0.000000,0.000000,-0.436000,0.000000,0.000000,0.000000,0.000000
1.58800,-0.465448,0.000000,0.000000,0.000000,0.000000,0.000000,0.000000,-0.436000,0.000000,0.000000,0.000000,0.000000
1.59000,-0.450496,0.000000,0.000000,0.000000,0.000000,0.000000,0.000000,-0.436000,0.000000,0.000000,0.000000,0.000000
1.59200,-0.435544,0.000000,0.000000,0.000000,0.000000,0.000000,0.000000,-0.436000,0.000000,0.000000,0.000000,0.000000
1.59400,-0.420592,0.000000,0.000000,0.000000,0.000000,0.000000,0.000000,-0.436000,0.000000,0.000000,0.000000,0.000000
1.59600,-0.405640,0.000000,0.000000,0.000000,0.000000,0.000000,0.000000,-0.436000,0.000000,0.000000,0.000000,0.000000
1.59800,-0.390688,0.000000,0.000000,0.000000,0.000000,0.000000,0.000000,-0.436000,0.000000,0.000000,0.000000,0.000000
1.60000,-0.375736,0.000000,0.000000,0.000000,0.000000,0.000000,0.000000,-0.436000,0.000000,0.000000,0.000000,0.000000
1.60200,-0.360784,0.000000,0.000000,0.000000,0.000000,0.000000,0.000000,-0.436000,0.000000,0.000000,0.000000,0.000000
1.60400,-0.345832,0.000000,0.000000,0.000000,0.000000,0.000000,0.000000,-0.436000,0.000000,0.000000,0.000000,0.000000
1.60600,-0.330880,0.000000,0.000000,0.000000,0.000000,0.000000,0.000000,-0.436000,0.000000,0.000000,0.000000,0.000000
1.60800,-0.315928,0.000000,0.000000,0.000000,0.000000,0.000000,0.000000,-0.436000,0.000000,0.000000,0.000000,0.000000
1.61000,-0.300976,0.000000,0.000000,0.000000,0.000000,0.000000,0.000000,-0.436000,0.000000,0.000000,0.000000,0.000000
1.61200,-0.286024,0.000000,0.000000,0.000000,0.000000,0.000000,0.000000,-0.436000,0.000000,0.000000,0.000000,0.000000
1.61400,-0.271072,0.000000,0.000000,0.000000,0.000000,0.000000,0.000000,-0.436000,0.000000,0.000000,0.000000,0.000000
1.61600,-0.256120,0.000000,0.000000,0.000000,0.000000,0.000000,0.000000,-0.436000,0.000000,0.000000,0.000000,0.000000
1.61800,-0.241168,0.000000,0.000000,0.000000,0.000000,0.000000,0.000000,-0.436000,0.000000,0.000000,0.000000,0.000000
1.62000,-0.226216,0.000000,0.000000,0.000000,0.000000,0.000000,0.000000,-0.436000,0.000000,0.000000,0.000000,0.000000
1.62200,-0.211264,0.000000,0.000000,0.000000,0.000000,0.000000,0.000000,-0.436000,0.000000,0.000000,0.000000,0.000000
1.62400,-0.196312,0.000000,0.000000,0.000000,0.000000,0.000000,0.000000,-0.436000,0.000000,0.000000,0.000000,0.000000
1.62600,-0.181360,0.000000,0.000000,0.000000,0.000000,0.000000,0.000000,-0.436000,0.000000,0.000000,0.000000,0.000000
1.62800,-0.166408,0.000000,0.000000,0.000000,0.000000,0.000000,0.000000,-0.436000,0.000000,0.000000,0.000000,0.000000
1.63000,-0.151456,0.000000,0.000000,0.000000,0.000000,0.000000,0.000000,-0.436000,0.000000,0.000000,0.000000,0.000000
1.63200,0.000000,0.000000,0.000000,0.000000,0.000000,0.000000,0.000000,-0.436000,0.000000,0.000000,0.000000,0.000000
1.63400,-0.000400,0.000000,0.000000,0.000000,0.000000,0.000000,0.000000,-0.436000,0.000000,0.000000,0.000000,0.000000
1.63600,-0.001600,0.000000,0.000000,0.000000,0.000000,0.000000,0.000000,-0.436000,0.000000,0.000000,0.000000,0.000000
1.63800,-0.003600,0.000000,0.000000,0.000000,0.000000,0.000000,0.000000,-0.436000,0.000000,0.000000,0.000000,0.000000
1.64000,-0.006400,0.000000,0.000000,0.000000,0.000000,0.000000,0.000000,-0.436000,0.000000,0.000000,0.000000,0.000000
1.64200,-0.010000,0.000000,0.000000,0.000000,0.000000,0.000000,0.000000,-0.436000,0.000000,0.000000,0.000000,0.000000
1.64400,-0.014400,0.000000,0.000000,0.000000,0.000000,0.000000,0.000000,-0.436000,0.000000,0.000000,0.000000,0.000000
1.64600,-0.019600,0.000000,0.000000,0.000000,0.000000,0.000000,0.000000,-0.436000,0.000000,0.000000,0.000000,0.000000
1.64800,-0.025600,0.000000,0.000000,0.000000,0.000000,0.000000,0.000000,-0.436000,0.000000,0.000000,0.000000,0.000000
1.65000,-0.032400,0.000000,0.000000,0.000000,0.000000,0.000000,0.000000,-0.436000,0.000000,0.000000,0.000000,0.000000
1.65200,-0.040000,0.000000,0.000000,0.000000,0.000000,0.000000,0.000000,-0.436000,0.000000,0.000000,0.000000,0.000000
1.65400,-0.048400,0.000000,0.000000,0.000000,0.000000,0.000000,0.000000,-0.436000,0.000000,0.000000,0.000000,0.000000
1.65600,-0.057600,0.000000,0.000000,0.000000,0.000000,0.000000,0.000000,-0.436000,0.000000,0.000000,0.000000,0.000000
1.65800,-0.067600,0.000000,0.000000,0.000000,0.000000,0.000000,0.000000,-0.436000,0.000000,0.000000,0.000000,0.000000
1.66000,-0.078400,0.000000,0.000000,0.000000,0.000000,0.000000,0.000000,-0.436000,0.000000,0.000000,0.000000,0.000000
1.66200,-0.090000,0.000000,0.000000,0.000000,0.000000,0.000000,0.000000,-0.436000,0.000000,0.000000,0.000000,0.000000
1.66400,-0.102400,0.000000,0.000000,0.000000,0.000000,0.000000,0.000000,-0.436000,0.000000,0.000000,0.000000,0.000000
1.66600,-0.115600,0.000000,0.000000,0.000000,0.000000,0.000000,0.000000,-0.436000,0.000000,0.000000,0.000000,0.000000
1.66800,0.000000,0.000000,0.000000,0.000000,0.000000,0.000000,0.000000,-0.436000,0.000000,0.000000,0.000000,0.000000
1.66800,0.000000,0.000000,0.000000,0.000000,0.000000,0.000000,0.000000,-0.436000,0.000000,0.000000,0.000000,0.000000
1.67000,0.000000,-0.000400,0.000000,0.000000,0.000000,0.000000,0.000000,-0.436000,0.000000,0.000000,0.000000,0.000000
1.67200,0.000000,-0.001600,0.000000,0.000000,0.000000,0.000000,0.000000,-0.436000,0.000000,0.000000,0.000000,0.000000
1.67400,0.000000,-0.003600,0.000000,0.000000,0.000000,0.000000,0.000000,-0.436000,0.000000,0.000000,0.000000,0.000000
1.67600,0.000000,-0.006400,0.000000,0.000000,0.000000,0.000000,0.000000,-0.436000,0.000000,0.000000,0.000000,0.000000
1.67800,0.000000,-0.010000,0.000000,0.000000,0.000000,0.000000,0.000000,-0.436000,0.000000,0.000000,0.000000,0.000000
1.68000,0.000000,-0.014400,0.000000,0.000000,0.000000,0.000000,0.000000,-0.436000,0.000000,0.000000,0.000000,0.000000
1.68200,0.000000,-0.019600,0.000000,0.000000,0.000000,0.000000,0.000000,-0.436000,0.000000,0.000000,0.000000,0.000000
1.68400,0.000000,-0.025600,0.000000,0.000000,0.000000,0.000000,0.000000,-0.436000,0.000000,0.000000,0.000000,0.000000
1.68600,0.000000,-0.032400,0.000000,0.000000,0.000000,0.000000,0.000000,-0.436000,0.000000,0.000000,0.000000,0.000000
1.68800,0.000000,-0.040000,0.000000,0.000000,0.000000,0.000000,0.000000,-0.436000,0.000000,0.000000,0.000000,0.000000
1.69000,0.000000,-0.048400,0.000000,0.000000,0.000000,0.000000,0.000000,-0.436000,0.000000,0.000000,0.000000,0.000000
1.69200,0.000000,-0.057600,0.000000,0.000000,0.000000,0.000000,0.000000,-0.436000,0.000000,0.000000,0.000000,0.000000
1.69400,0.000000,-0.067600,0.000000,0.000000,0.000000,0.000000,0.000000,-0.436000,0.000000,0.000000,0.000000,0.000000
