sainanliu129-hub/model/applications/Body_GravityPara_Iden/build/traj_E1_update_all_joints_v03.csv
time,leg_l1_joint,leg_l2_joint,leg_l3_joint,leg_l4_joint,leg_l5_joint,leg_l6_joint,leg_r1_joint,leg_r2_joint,leg_r3_joint,leg_r4_joint,leg_r5_joint,leg_r6_joint
0.00000,0.000000,0.000000,0.000000,0.000000,0.000000,0.000000,0.000000,-0.436000,0.000000,0.000000,0.000000,0.000000
0.00200,-0.000400,0.000000,0.000000,0.000000,0.000000,0.000000,0.000000,-0.436000,0.000000,0.000000,0.000000,0.000000
0.00400,-0.001600,0.000000,0.000000,0.000000,0.000000,0.000000,0.000000,-0.436000,0.000000,0.000000,0.000000,0.000000
0.00600,-0.003600,0.000000,0.000000,0.000000,0.000000,0.000000,0.000000,-0.436000,0.000000,0.000000,0.000000,0.000000
0.00800,-0.006400,0.000000,0.000000,0.000000,0.000000,0.000000,0.000000,-0.436000,0.000000,0.000000,0.000000,0.000000
0.01000,-0.006400,0.000000,0.000000,0.000000,0.000000,0.000000,0.000000,-0.436000,0.000000,0.000000,0.000000,0.000000
0.01200,-0.010138,0.000000,0.000000,0.000000,0.000000,0.000000,0.000000,-0.436000,0.000000,0.000000,0.000000,0.000000
0.01400,-0.013876,0.000000,0.000000,0.000000,0.000000,0.000000,0.000000,-0.436000,0.000000,0.000000,0.000000,0.000000
0.01600,-0.017614,0.000000,0.000000,0.000000,0.000000,0.000000,0.000000,-0.436000,0.000000,0.000000,0.000000,0.000000
0.01800,-0.021352,0.000000,0.000000,0.000000,0.000000,0.000000,0.000000,-0.436000,0.000000,0.000000,0.000000,0.000000
0.02000,-0.025090,0.000000,0.000000,0.000000,0.000000,0.000000,0.000000,-0.436000,0.000000,0.000000,0.000000,0.000000
0.02200,-0.028828,0.000000,0.000000,0.000000,0.000000,0.000000,0.000000,-0.436000,0.000000,0.000000,0.000000,0.000000
0.02400,-0.032566,0.000000,0.000000,0.000000,0.000000,0.000000,0.000000,-0.436000,0.000000,0.000000,0.000000,0.000000
0.02600,-0.036304,0.000000,0.000000,0.000000,0.000000,0.000000,0.000000,-0.436000,0.000000,0.000000,0.000000,0.000000
0.02800,-0.040042,0.000000,0.000000,0.000000,0.000000,0.000000,0.000000,-0.436000,0.000000,0.000000,0.000000,0.000000
0.03000,-0.043780,0.000000,0.000000,0.000000,0.000000,0.000000,0.000000,-0.436000,0.000000,0.000000,0.000000,0.000000
0.03200,-0.047518,0.000000,0.000000,0.000000,0.000000,0.000000,0.000000,-0.436000,0.000000,0.000000,0.000000,0.000000
0.03400,-0.051256,0.000000,0.000000,0.000000,0.000000,0.000000,0.000000,-0.436000,0.000000,0.000000,0.000000,0.000000
0.03600,-0.054994,0.000000,0.000000,0.000000,0.000000,0.000000,0.000000,-0.436000,0.000000,0.000000,0.000000,0.000000
0.03800,-0.058732,0.000000,0.000000,0.000000,0.000000,0.000000,0.000000,-0.436000,0.000000,0.000000,0.000000,0.000000
0.04000,-0.062470,0.000000,0.000000,0.000000,0.000000,0.000000,0.000000,-0.436000,0.000000,0.000000,0.000000,0.000000
0.04200,-0.066208,0.000000,0.000000,0.000000,0.000000,0.000000,0.000000,-0.436000,0.000000,0.000000,0.000000,0.000000
0.04400,-0.069946,0.000000,0.000000,0.000000,0.000000,0.000000,0.000000,-0.436000,0.000000,0.000000,0.000000,0.000000
0.04600,-0.073684,0.000000,0.000000,0.000000,0.000000,0.000000,0.000000,-0.436000,0.000000,0.000000,0.000000,0.000000
0.04800,-0.077422,0.000000,0.000000,0.000000,0.000000,0.000000,0.000000,-0.436000,0.000000,0.000000,0.000000,0.000000
0.05000,-0.081160,0.000000,0.000000,0.000000,0.000000,0.000000,0.000000,-0.436000,0.000000,0.000000,0.000000,0.000000
0.05200,-0.084898,0.000000,0.000000,0.000000,0.000000,0.000000,0.000000,-0.436000,0.000000,0.000000,0.000000,0.000000
0.05400,-0.088636,0.000000,0.000000,0.000000,0.000000,0.000000,0.000000,-0.436000,0.000000,0.000000,0.000000,0.000000
0.05600,-0.092374,0.000000,0.000000,0.000000,0.000000,0.000000,0.000000,-0.436000,0.000000,0.000000,0.000000,0.000000
0.05800,-0.096112,0.000000,0.000000,0.000000,0.000000,0.000000,0.000000,-0.436000,0.000000,0.000000,0.000000,0.000000
0.06000,-0.099850,0.000000,0.000000,0.000000,0.000000,0.000000,0.000000,-0.436000,0.000000,0.000000,0.000000,0.000000
0.06200,-0.103588,0.000000,0.000000,0.000000,0.000000,0.000000,0.000000,-0.436000,0.000000,0.000000,0.000000,0.000000
0.06400,-0.107326,0.000000,0.000000,0.000000,0.000000,0.000000,0.000000,-0.436000,0.000000,0.000000,0.000000,0.000000
0.06600,-0.111064,0.000000,0.000000,0.000000,0.000000,0.000000,0.000000,-0.436000,0.000000,0.000000,0.000000,0.000000
0.06800,-0.114802,0.000000,0.000000,0.000000,0.000000,0.000000,0.000000,-0.436000,0.000000,0.000000,0.000000,0.000000
0.07000,-0.118540,0.000000,0.000000,0.000000,0.000000,0.000000,0.000000,-0.436000,0.000000,0.000000,0.000000,0.000000
0.07200,-0.122278,0.000000,0.000000,0.000000,0.000000,0.000000,0.000000,-0.436000,0.000000,0.000000,0.000000,0.000000
0.07400,-0.126016,0.000000,0.000000,0.000000,0.000000,0.000000,0.000000,-0.436000,0.000000,0.000000,0.000000,0.000000
0.07600,-0.129754,0.000000,0.000000,0.000000,0.000000,0.000000,0.000000,-0.436000,0.000000,0.000000,0.000000,0.000000
0.07800,-0.133492,0.000000,0.000000,0.000000,0.000000,0.000000,0.000000,-0.436000,0.000000,0.000000,0.000000,0.000000
0.08000,-0.137230,0.000000,0.000000,0.000000,0.000000,0.000000,0.000000,-0.436000,0.000000,0.000000,0.000000,0.000000
0.08200,-0.140968,0.000000,0.000000,0.000000,0.000000,0.000000,0.000000,-0.436000,0.000000,0.000000,0.000000,0.000000
0.08400,-0.144706,0.000000,0.000000,0.000000,0.000000,0.000000,0.000000,-0.436000,0.000000,0.000000,0.000000,0.000000
0.08600,-0.148444,0.000000,0.000000,0.000000,0.000000,0.000000,0.000000,-0.436000,0.000000,0.000000,0.000000,0.000000
0.08800,-0.152182,0.000000,0.000000,0.000000,0.000000,0.000000,0.000000,-0.436000,0.000000,0.000000,0.000000,0.000000
0.09000,-0.155920,0.000000,0.000000,0.000000,0.000000,0.000000,0.000000,-0.436000,0.000000,0.000000,0.000000,0.000000
0.09200,-0.159658,0.000000,0.000000,0.000000,0.000000,0.000000,0.000000,-0.436000,0.000000,0.000000,0.000000,0.000000
0.09400,-0.163396,0.000000,0.000000,0.000000,0.000000,0.000000,0.000000,-0.436000,0.000000,0.000000,0.000000,0.000000
0.09600,-0.167134,0.000000,0.000000,0.000000,0.000000,0.000000,0.000000,-0.436000,0.000000,0.000000,0.000000,0.000000
0.09800,-0.170872,0.000000,0.000000,0.000000,0.000000,0.000000,0.000000,-0.436000,0.000000,0.000000,0.000000,0.000000
0.10000,-0.174610,0.000000,0.000000,0.000000,0.000000,0.000000,0.000000,-0.436000,0.000000,0.000000,0.000000,0.000000
0.10200,-0.178348,0.000000,0.000000,0.000000,0.000000,0.000000,0.000000,-0.436000,0.000000,0.000000,0.000000,0.000000
0.10400,-0.182086,0.000000,0.000000,0.000000,0.000000,0.000000,0.000000,-0.436000,0.000000,0.000000,0.000000,0.000000
0.10600,-0.185824,0.000000,0.000000,0.000000,0.000000,0.000000,0.000000,-0.436000,0.000000,0.000000,0.000000,0.000000
0.10800,-0.189562,0.000000,0.000000,0.000000,0.000000,0.000000,0.000000,-0.436000,0.000000,0.000000,0.000000,0.000000
0.11000,-0.193300,0.000000,0.000000,0.000000,0.000000,0.000000,0.000000,-0.436000,0.000000,0.000000,0.000000,0.000000
0.11200,-0.197038,0.000000,0.000000,0.000000,0.000000,0.000000,0.000000,-0.436000,0.000000,0.000000,0.000000,0.000000
0.11400,-0.200776,0.000000,0.000000,0.000000,0.000000,0.000000,0.000000,-0.436000,0.000000,0.000000,0.000000,0.000000
0.11600,-0.204514,0.000000,0.000000,0.000000,0.000000,0.000000,0.000000,-0.436000,0.000000,0.000000,0.000000,0.000000
0.11800,-0.208252,0.000000,0.000000,0.000000,0.000000,0.000000,0.000000,-0.436000,0.000000,0.000000,0.000000,0.000000
0.12000,-0.211990,0.000000,0.000000,0.000000,0.000000,0.000000,0.000000,-0.436000,0.000000,0.000000,0.000000,0.000000
0.12200,-0.215728,0.000000,0.000000,0.000000,0.000000,0.000000,0.000000,-0.436000,0.000000,0.000000,0.000000,0.000000
0.12400,-0.219466,0.000000,0.000000,0.000000,0.000000,0.000000,0.000000,-0.436000,0.000000,0.000000,0.000000,0.000000
0.12600,-0.223204,0.000000,0.000000,0.000000,0.000000,0.000000,0.000000,-0.436000,0.000000,0.000000,0.000000,0.000000
0.12800,-0.226942,0.000000,0.000000,0.000000,0.000000,0.000000,0.000000,-0.436000,0.000000,0.000000,0.000000,0.000000
0.13000,-0.230680,0.000000,0.000000,0.000000,0.000000,0.000000,0.000000,-0.436000,0.000000,0.000000,0.000000,0.000000
0.13200,-0.234418,0.000000,0.000000,0.000000,0.000000,0.000000,0.000000,-0.436000,0.000000,0.000000,0.000000,0.000000
0.13400,-0.238156,0.000000,0.000000,0.000000,0.000000,0.000000,0.000000,-0.436000,0.000000,0.000000,0.000000,0.000000
0.13600,-0.241894,0.000000,0.000000,0.000000,0.000000,0.000000,0.000000,-0.436000,0.000000,0.000000,0.000000,0.000000
0.13800,-0.245632,0.000000,0.000000,0.000000,0.000000,0.000000,0.000000,-0.436000,0.000000,0.000000,0.000000,0.000000
0.14000,-0.249370,0.000000,0.000000,0.000000,0.000000,0.000000,0.000000,-0.436000,0.000000,0.000000,0.000000,0.000000
0.14200,-0.253108,0.000000,0.000000,0.000000,0.000000,0.000000,0.000000,-0.436000,0.000000,0.000000,0.000000,0.000000
0.14400,-0.256846,0.000000,0.000000,0.000000,0.000000,0.000000,0.000000,-0.436000,0.000000,0.000000,0.000000,0.000000
0.14600,-0.260584,0.000000,0.000000,0.000000,0.000000,0.000000,0.000000,-0.436000,0.000000,0.000000,0.000000,0.000000
0.14800,-0.264322,0.000000,0.000000,0.000000,0.000000,0.000000,0.000000,-0.436000,0.000000,0.000000,0.000000,0.000000
0.15000,-0.268060,0.000000,0.000000,0.000000,0.000000,0.000000,0.000000,-0.436000,0.000000,0.000000,0.000000,0.000000
0.15200,-0.271798,0.000000,0.000000,0.000000,0.000000,0.000000,0.000000,-0.436000,0.000000,0.000000,0.000000,0.000000
0.15400,-0.275536,0.000000,0.000000,0.000000,0.000000,0.000000,0.000000,-0.436000,0.000000,0.000000,0.000000,0.000000
0.15600,-0.279274,0.000000,0.000000,0.000000,0.000000,0.000000,0.000000,-0.436000,0.000000,0.000000,0.000000,0.000000
0.15800,-0.283012,0.000000,0.000000,0.000000,0.000000,0.000000,0.000000,-0.436000,0.000000,0.000000,0.000000,0.000000
0.16000,-0.286750,0.000000,0.000000,0.000000,0.000000,0.000000,0.000000,-0.436000,0.000000,0.000000,0.000000,0.000000
0.16200,-0.290488,0.000000,0.000000,0.000000,0.000000,0.000000,0.000000,-0.436000,0.000000,0.000000,0.000000,0.000000
0.16400,-0.294226,0.000000,0.000000,0.000000,0.000000,0.000000,0.000000,-0.436000,0.000000,0.000000,0.000000,0.000000
0.16600,-0.297964,0.000000,0.000000,0.000000,0.000000,0.000000,0.000000,-0.436000,0.000000,0.000000,0.000000,0.000000
0.16800,-0.301702,0.000000,0.000000,0.000000,0.000000,0.000000,0.000000,-0.436000,0.000000,0.000000,0.000000,0.000000
0.17000,-0.305440,0.000000,0.000000,0.000000,0.000000,0.000000,0.000000,-0.436000,0.000000,0.000000,0.000000,0.000000
0.17200,-0.309178,0.000000,0.000000,0.000000,0.000000,0.000000,0.000000,-0.436000,0.000000,0.000000,0.000000,0.000000
0.17400,-0.312916,0.000000,0.000000,0.000000,0.000000,0.000000,0.000000,-0.436000,0.000000,0.000000,0.000000,0.000000
0.17600,-0.316654,0.000000,0.000000,0.000000,0.000000,0.000000,0.000000,-0.436000,0.000000,0.000000,0.000000,0.000000
0.17800,-0.320392,0.000000,0.000000,0.000000,0.000000,0.000000,0.000000,-0.436000,0.000000,0.000000,0.000000,0.000000
0.18000,-0.324130,0.000000,0.000000,0.000000,0.000000,0.000000,0.000000,-0.436000,0.000000,0.000000,0.000000,0.000000
0.18200,-0.327868,0.000000,0.000000,0.000000,0.000000,0.000000,0.000000,-0.436000,0.000000,0.000000,0.000000,0.000000
0.18400,-0.331606,0.000000,0.000000,0.000000,0.000000,0.000000,0.000000,-0.436000,0.000000,0.000000,0.000000,0.000000
0.18600,-0.335344,0.000000,0.000000,0.000000,0.000000,0.000000,0.000000,-0.436000,0.000000,0.000000,0.000000,0.000000
0.18800,-0.339082,0.000000,0.000000,0.000000,0.000000,0.000000,0.000000,-0.436000,0.000000,0.000000,0.000000,0.000000
0.19000,-0.342820,0.000000,0.000000,0.000000,0.000000,0.000000,0.000000,-0.436000,0.000000,0.000000,0.000000,0.000000
0.19200,-0.346558,0.000000,0.000000,0.000000,0.000000,0.000000,0.000000,-0.436000,0.000000,0.000000,0.000000,0.000000
0.19400,-0.350296,0.000000,0.000000,0.000000,0.000000,0.000000,0.000000,-0.436000,0.000000,0.000000,0.000000,0.000000
0.19600,-0.354034,0.000000,0.000000,0.000000,0.000000,0.000000,0.000000,-0.436000,0.000000,0.000000,0.000000,0.000000
0.19800,-0.357772,0.000000,0.000000,0.000000,0.000000,0.000000,0.000000,-0.436000,0.000000,0.000000,0.000000,0.000000
0.20000,-0.361510,0.000000,0.000000,0.000000,0.000000,0.000000,0.000000,-0.436000,0.000000,0.000000,0.000000,0.000000
0.20200,-0.365248,0.000000,0.000000,0.000000,0.000000,0.000000,0.000000,-0.436000,0.000000,0.000000,0.000000,0.000000
0.20400,-0.368986,0.000000,0.000000,0.000000,0.000000,0.000000,0.000000,-0.436000,0.000000,0.000000,0.000000,0.000000
0.20600,-0.372724,0.000000,0.000000,0.000000,0.000000,0.000000,0.000000,-0.436000,0.000000,0.000000,0.000000,0.000000
0.20800,-0.376462,0.000000,0.000000,0.000000,0.000000,0.000000,0.000000,-0.436000,0.000000,0.000000,0.000000,0.000000
0.21000,-0.380200,0.000000,0.000000,0.000000,0.000000,0.000000,0.000000,-0.436000,0.000000,0.000000,0.000000,0.000000
0.21200,-0.383938,0.000000,0.000000,0.000000,0.000000,0.000000,0.000000,-0.436000,0.000000,0.000000,0.000000,0.000000
0.21400,-0.387676,0.000000,0.000000,0.000000,0.000000,0.000000,0.000000,-0.436000,0.000000,0.000000,0.000000,0.000000
0.21600,-0.391414,0.000000,0.000000,0.000000,0.000000,0.000000,0.000000,-0.436000,0.000000,0.000000,0.000000,0.000000
0.21800,-0.395152,0.000000,0.000000,0.000000,0.000000,0.000000,0.000000,-0.436000,0.000000,0.000000,0.000000,0.000000
0.22000,-0.398890,0.000000,0.000000,0.000000,0.000000,0.000000,0.000000,-0.436000,0.000000,0.000000,0.000000,0.000000
0.22200,-0.402628,0.000000,0.000000,0.000000,0.000000,0.000000,0.000000,-0.436000,0.000000,0.000000,0.000000,0.000000
0.22400,-0.406366,0.000000,0.000000,0.000000,0.000000,0.000000,0.000000,-0.436000,0.000000,0.000000,0.000000,0.000000
0.22600,-0.410104,0.000000,0.000000,0.000000,0.000000,0.000000,0.000000,-0.436000,0.000000,0.000000,0.000000,0.000000
0.22800,-0.413842,0.000000,0.000000,0.000000,0.000000,0.000000,0.000000,-0.436000,0.000000,0.000000,0.000000,0.000000
0.23000,-0.417580,0.000000,0.000000,0.000000,0.000000,0.000000,0.000000,-0.436000,0.000000,0.000000,0.000000,0.000000
0.23200,-0.421318,0.000000,0.000000,0.000000,0.000000,0.000000,0.000000,-0.436000,0.000000,0.000000,0.000000,0.000000
0.23400,-0.425056,0.000000,0.000000,0.000000,0.000000,0.000000,0.000000,-0.436000,0.000000,0.000000,0.000000,0.000000
0.23600,-0.428794,0.000000,0.000000,0.000000,0.000000,0.000000,0.000000,-0.436000,0.000000,0.000000,0.000000,0.000000
0.23800,-0.432532,0.000000,0.000000,0.000000,0.000000,0.000000,0.000000,-0.436000,0.000000,0.000000,0.000000,0.000000
0.24000,-0.436270,0.000000,0.000000,0.000000,0.000000,0.000000,0.000000,-0.436000,0.000000,0.000000,0.000000,0.000000
0.24200,-0.440008,0.000000,0.000000,0.000000,0.000000,0.000000,0.000000,-0.436000,0.000000,0.000000,0.000000,0.000000
0.24400,-0.443746,0.000000,0.000000,0.000000,0.000000,0.000000,0.000000,-0.436000,0.000000,0.000000,0.000000,0.000000
0.24600,-0.447484,0.000000,0.000000,0.000000,0.000000,0.000000,0.000000,-0.436000,0.000000,0.000000,0.000000,0.000000
0.24800,-0.451222,0.000000,0.000000,0.000000,0.000000,0.000000,0.000000,-0.436000,0.000000,0.000000,0.000000,0.000000
0.25000,-0.454960,0.000000,0.000000,0.000000,0.000000,0.000000,0.000000,-0.436000,0.000000,0.000000,0.000000,0.000000
0.25200,-0.458698,0.000000,0.000000,0.000000,0.000000,0.000000,0.000000,-0.436000,0.000000,0.000000,0.000000,0.000000
0.25400,-0.462436,0.000000,0.000000,0.000000,0.000000,0.000000,0.000000,-0.436000,0.000000,0.000000,0.000000,0.000000
0.25600,-0.466174,0.000000,0.000000,0.000000,0.000000,0.000000,0.000000,-0.436000,0.000000,0.000000,0.000000,0.000000
0.25800,-0.469912,0.000000,0.000000,0.000000,0.000000,0.000000,0.000000,-0.436000,0.000000,0.000000,0.000000,0.000000
0.26000,-0.473650,0.000000,0.000000,0.000000,0.000000,0.000000,0.000000,-0.436000,0.000000,0.000000,0.000000,0.000000
0.26200,-0.477388,0.000000,0.000000,0.000000,0.000000,0.000000,0.000000,-0.436000,0.000000,0.000000,0.000000,0.000000
0.26400,-0.481126,0.000000,0.000000,0.000000,0.000000,0.000000,0.000000,-0.436000,0.000000,0.000000,0.000000,0.000000
0.26600,-0.484864,0.000000,0.000000,0.000000,0.000000,0.000000,0.000000,-0.436000,0.000000,0.000000,0.000000,0.000000
0.26800,-0.488602,0.000000,0.000000,0.000000,0.000000,0.000000,0.000000,-0.436000,0.000000,0.000000,0.000000,0.000000
0.27000,-0.492340,0.000000,0.000000,0.000000,0.000000,0.000000,0.000000,-0.436000,0.000000,0.000000,0.000000,0.000000
0.27200,-0.496078,0.000000,0.000000,0.000000,0.000000,0.000000,0.000000,-0.436000,0.000000,0.000000,0.000000,0.000000
0.27400,-0.499816,0.000000,0.000000,0.000000,0.000000,0.000000,0.000000,-0.436000,0.000000,0.000000,0.000000,0.000000
0.27600,-0.503554,0.000000,0.000000,0.000000,0.000000,0.000000,0.000000,-0.436000,0.000000,0.000000,0.000000,0.000000
0.27800,-0.507292,0.000000,0.000000,0.000000,0.000000,0.000000,0.000000,-0.436000,0.000000,0.000000,0.000000,0.000000
0.28000,-0.511030,0.000000,0.000000,0.000000,0.000000,0.000000,0.000000,-0.436000,0.000000,0.000000,0.000000,0.000000
0.28200,-0.514768,0.000000,0.000000,0.000000,0.000000,0.000000,0.000000,-0.436000,0.000000,0.000000,0.000000,0.000000
0.28400,-0.518506,0.000000,0.000000,0.000000,0.000000,0.000000,0.000000,-0.436000,0.000000,0.000000,0.000000,0.000000
0.28600,-0.522244,0.000000,0.000000,0.000000,0.000000,0.000000,0.000000,-0.436000,0.000000,0.000000,0.000000,0.000000
0.28800,-0.525982,0.000000,0.000000,0.000000,0.000000,0.000000,0.000000,-0.436000,0.000000,0.000000,0.000000,0.000000
0.29000,-0.529720,0.000000,0.000000,0.000000,0.000000,0.000000,0.000000,-0.436000,0.000000,0.000000,0.000000,0.000000
0.29200,-0.533458,0.000000,0.000000,0.000000,0.000000,0.000000,0.000000,-0.436000,0.000000,0.000000,0.000000,0.000000
0.29400,-0.537196,0.000000,0.000000,0.000000,0.000000,0.000000,0.000000,-0.436000,0.000000,0.000000,0.000000,0.000000
0.29600,-0.540934,0.000000,0.000000,0.000000,0.000000,0.000000,0.000000,-0.436000,0.000000,0.000000,0.000000,0.000000
0.29800,-0.544672,0.000000,0.000000,0.000000,0.000000,0.000000,0.000000,-0.436000,0.000000,0.000000,0.000000,0.000000
0.30000,-0.548410,0.000000,0.000000,0.000000,0.000000,0.000000,0.000000,-0.436000,0.000000,0.000000,0.000000,0.000000
0.30200,-0.552148,0.000000,0.000000,0.000000,0.000000,0.000000,0.000000,-0.436000,0.000000,0.000000,0.000000,0.000000
0.30400,-0.555886,0.000000,0.000000,0.000000,0.000000,0.000000,0.000000,-0.436000,0.000000,0.000000,0.000000,0.000000
0.30600,-0.559624,0.000000,0.000000,0.000000,0.000000,0.000000,0.000000,-0.436000,0.000000,0.000000,0.000000,0.000000
0.30800,-0.563362,0.000000,0.000000,0.000000,0.000000,0.000000,0.000000,-0.436000,0.000000,0.000000,0.000000,0.000000
0.31000,-0.567100,0.000000,0.000000,0.000000,0.000000,0.000000,0.000000,-0.436000,0.000000,0.000000,0.000000,0.000000
0.31200,-0.570838,0.000000,0.000000,0.000000,0.000000,0.000000,0.000000,-0.436000,0.000000,0.000000,0.000000,0.000000
0.31400,-0.574576,0.000000,0.000000,0.000000,0.000000,0.000000,0.000000,-0.436000,0.000000,0.000000,0.000000,0.000000
0.31600,-0.578314,0.000000,0.000000,0.000000,0.000000,0.000000,0.000000,-0.436000,0.000000,0.000000,0.000000,0.000000
0.31800,-0.582052,0.000000,0.000000,0.000000,0.000000,0.000000,0.000000,-0.436000,0.000000,0.000000,0.000000,0.000000
0.32000,-0.585790,0.000000,0.000000,0.000000,0.000000,0.000000,0.000000,-0.436000,0.000000,0.000000,0.000000,0.000000
0.32200,-0.589528,0.000000,0.000000,0.000000,0.000000,0.000000,0.000000,-0.436000,0.000000,0.000000,0.000000,0.000000
0.32400,-0.593266,0.000000,0.000000,0.000000,0.000000,0.000000,0.000000,-0.436000,0.000000,0.000000,0.000000,0.000000
0.32600,-0.597004,0.000000,0.000000,0.000000,0.000000,0.000000,0.000000,-0.436000,0.000000,0.000000,0.000000,0.000000
0.32800,-0.610000,0.000000,0.000000,0.000000,0.000000,0.000000,0.000000,-0.436000,0.000000,0.000000,0.000000,0.000000
0.33000,-0.609600,0.000000,0.000000,0.000000,0.000000,0.000000,0.000000,-0.436000,0.000000,0.000000,0.000000,0.000000
0.33200,-0.608400,0.000000,0.000000,0.000000,0.000000,0.000000,0.000000,-0.436000,0.000000,0.000000,0.000000,0.000000
0.33400,-0.606400,0.000000,0.000000,0.000000,0.000000,0.000000,0.000000,-0.436000,0.000000,0.000000,0.000000,0.000000
0.33600,-0.610000,0.000000,0.000000,0.000000,0.000000,0.000000,0.000000,-0.436000,0.000000,0.000000,0.000000,0.000000
0.33800,-0.609600,0.000000,0.000000,0.000000,0.000000,0.000000,0.000000,-0.436000,0.000000,0.000000,0.000000,0.000000
0.34000,-0.608400,0.000000,0.000000,0.000000,0.000000,0.000000,0.000000,-0.436000,0.000000,0.000000,0.000000,0.000000
0.34200,-0.606400,0.000000,0.000000,0.000000,0.000000,0.000000,0.000000,-0.436000,0.000000,0.000000,0.000000,0.000000
0.34400,-0.603600,0.000000,0.000000,0.000000,0.000000,0.000000,0.000000,-0.436000,0.000000,0.000000,0.000000,0.000000
0.34600,-0.603600,0.000000,0.000000,0.000000,0.000000,0.000000,0.000000,-0.436000,0.000000,0.000000,0.000000,0.000000
0.34800,-0.599862,0.000000,0.000000,0.000000,0.000000,0.000000,0.000000,-0.436000,0.000000,0.000000,0.000000,0.000000
0.35000,-0.596124,0.000000,0.000000,0.000000,0.000000,0.000000,0.000000,-0.436000,0.000000,0.000000,0.000000,0.000000
0.35200,-0.592386,0.000000,0.000000,0.000000,0.000000,0.000000,0.000000,-0.436000,0.000000,0.000000,0.000000,0.000000
0.35400,-0.588648,0.000000,0.000000,0.000000,0.000000,0.000000,0.000000,-0.436000,0.000000,0.000000,0.000000,0.000000
0.35600,-0.584910,0.000000,0.000000,0.000000,0.000000,0.000000,0.000000,-0.436000,0.000000,0.000000,0.000000,0.000000
0.35800,-0.581172,0.000000,0.000000,0.000000,0.000000,0.000000,0.000000,-0.436000,0.000000,0.000000,0.000000,0.000000
0.36000,-0.577434,0.000000,0.000000,0.000000,0.000000,0.000000,0.000000,-0.436000,0.000000,0.000000,0.000000,0.000000
0.36200,-0.573696,0.000000,0.000000,0.000000,0.000000,0.000000,0.000000,-0.436000,0.000000,0.000000,0.000000,0.000000
0.36400,-0.569958,0.000000,0.000000,0.000000,0.000000,0.000000,0.000000,-0.436000,0.000000,0.000000,0.000000,0.000000
0.36600,-0.566220,0.000000,0.000000,0.000000,0.000000,0.000000,0.000000,-0.436000,0.000000,0.000000,0.000000,0.000000
0.36800,-0.562482,0.000000,0.000000,0.000000,0.000000,0.000000,0.000000,-0.436000,0.000000,0.000000,0.000000,0.000000
0.37000,-0.558744,0.000000,0.000000,0.000000,0.000000,0.000000,0.000000,-0.436000,0.000000,0.000000,0.000000,0.000000
0.37200,-0.555006,0.000000,0.000000,0.000000,0.000000,0.000000,0.000000,-0.436000,0.000000,0.000000,0.000000,0.000000
0.37400,-0.551268,0.000000,0.000000,0.000000,0.000000,0.000000,0.000000,-0.436000,0.000000,0.000000,0.000000,0.000000
0.37600,-0.547530,0.000000,0.000000,0.000000,0.000000,0.000000,0.000000,-0.436000,0.000000,0.000000,0.000000,0.000000
0.37800,-0.543792,0.000000,0.000000,0.000000,0.000000,0.000000,0.000000,-0.436000,0.000000,0.000000,0.000000,0.000000
0.38000,-0.540054,0.000000,0.000000,0.000000,0.000000,0.000000,0.000000,-0.436000,0.000000,0.000000,0.000000,0.000000
0.38200,-0.536316,0.000000,0.000000,0.000000,0.000000,0.000000,0.000000,-0.436000,0.000000,0.000000,0.000000,0.000000
0.38400,-0.532578,0.000000,0.000000,0.000000,0.000000,0.000000,0.000000,-0.436000,0.000000,0.000000,0.000000,0.000000
0.38600,-0.528840,0.000000,0.000000,0.000000,0.000000,0.000000,0.000000,-0.436000,0.000000,0.000000,0.000000,0.000000
0.38800,-0.525102,0.000000,0.000000,0.000000,0.000000,0.000000,0.000000,-0.436000,0.000000,0.000000,0.000000,0.000000
0.39000,-0.521364,0.000000,0.000000,0.000000,0.000000,0.000000,0.000000,-0.436000,0.000000,0.000000,0.000000,0.000000
0.39200,-0.517626,0.000000,0.000000,0.000000,0.000000,0.000000,0.000000,-0.436000,0.000000,0.000000,0.000000,0.000000
0.39400,-0.513888,0.000000,0.000000,0.000000,0.000000,0.000000,0.000000,-0.436000,0.000000,0.000000,0.000000,0.000000
0.39600,-0.510150,0.000000,0.000000,0.000000,0.000000,0.000000,0.000000,-0.436000,0.000000,0.000000,0.000000,0.000000
0.39800,-0.506412,0.000000,0.000000,0.000000,0.000000,0.000000,0.000000,-0.436000,0.000000,0.000000,0.000000,0.000000
0.40000,-0.502674,0.000000,0.000000,0.000000,0.000000,0.000000,0.000000,-0.436000,0.000000,0.000000,0.000000,0.000000
0.40200,-0.498936,0.000000,0.000000,0.000000,0.000000,0.000000,0.000000,-0.436000,0.000000,0.000000,0.000000,0.000000
0.40400,-0.495198,0.000000,0.000000,0.000000,0.000000,0.000000,0.000000,-0.436000,0.000000,0.000000,0.000000,0.000000
0.40600,-0.491460,0.000000,0.000000,0.000000,0.000000,0.000000,0.000000,-0.436000,0.000000,0.000000,0.000000,0.000000
0.40800,-0.487722,0.000000,0.000000,0.000000,0.000000,0.000000,0.000000,-0.436000,0.000000,0.000000,0.000000,0.000000
0.41000,-0.483984,0.000000,0.000000,0.000000,0.000000,0.000000,0.000000,-0.436000,0.000000,0.000000,0.000000,0.000000
0.41200,-0.480246,0.000000,0.000000,0.000000,0.000000,0.000000,0.000000,-0.436000,0.000000,0.000000,0.000000,0.000000
0.41400,-0.476508,0.000000,0.000000,0.000000,0.000000,0.000000,0.000000,-0.436000,0.000000,0.000000,0.000000,0.000000
0.41600,-0.472770,0.000000,0.000000,0.000000,0.000000,0.000000,0.000000,-0.436000,0.000000,0.000000,0.000000,0.000000
0.41800,-0.469032,0.000000,0.000000,0.000000,0.000000,0.000000,0.000000,-0.436000,0.000000,0.000000,0.000000,0.000000
0.42000,-0.465294,0.000000,0.000000,0.000000,0.000000,0.000000,0.000000,-0.436000,0.000000,0.000000,0.000000,0.000000
0.42200,-0.461556,0.000000,0.000000,0.000000,0.000000,0.000000,0.000000,-0.436000,0.000000,0.000000,0.000000,0.000000
0.42400,-0.457818,0.000000,0.000000,0.000000,0.000000,0.000000,0.000000,-0.436000,0.000000,0.000000,0.000000,0.000000
0.42600,-0.454080,0.000000,0.000000,0.000000,0.000000,0.000000,0.000000,-0.436000,0.000000,0.000000,0.000000,0.000000
0.42800,-0.450342,0.000000,0.000000,0.000000,0.000000,0.000000,0.000000,-0.436000,0.000000,0.000000,0.000000,0.000000
0.43000,-0.446604,0.000000,0.000000,0.000000,0.000000,0.000000,0.000000,-0.436000,0.000000,0.000000,0.000000,0.000000
0.43200,-0.442866,0.000000,0.000000,0.000000,0.000000,0.000000,0.000000,-0.436000,0.000000,0.000000,0.000000,0.000000
0.43400,-0.439128,0.000000,0.000000,0.000000,0.000000,0.000000,0.000000,-0.436000,0.000000,0.000000,0.000000,0.000000
0.43600,-0.435390,0.000000,0.000000,0.000000,0.000000,0.000000,0.000000,-0.436000,0.000000,0.000000,0.000000,0.000000
0.43800,-0.431652,0.000000,0.000000,0.000000,0.000000,0.000000,0.000000,-0.436000,0.000000,0.000000,0.000000,0.000000
0.44000,-0.427914,0.000000,0.000000,0.000000,0.000000,0.000000,0.000000,-0.436000,0.000000,0.000000,0.000000,0.000000
0.44200,-0.424176,0.000000,0.000000,0.000000,0.000000,0.000000,0.000000,-0.436000,0.000000,0.000000,0.000000,0.000000
0.44400,-0.420438,0.000000,0.000000,0.000000,0.000000,0.000000,0.000000,-0.436000,0.000000,0.000000,0.000000,0.000000
0.44600,-0.416700,0.000000,0.000000,0.000000,0.000000,0.000000,0.000000,-0.436000,0.000000,0.000000,0.000000,0.000000
0.44800,-0.412962,0.000000,0.000000,0.000000,0.000000,0.000000,0.000000,-0.436000,0.000000,0.000000,0.000000,0.000000
0.45000,-0.409224,0.000000,0.000000,0.000000,0.000000,0.000000,0.000000,-0.436000,0.000000,0.000000,0.000000,0.000000
0.45200,-0.405486,0.000000,0.000000,0.000000,0.000000,0.000000,0.000000,-0.436000,0.000000,0.000000,0.000000,0.000000
0.45400,-0.401748,0.000000,0.000000,0.000000,0.000000,0.000000,0.000000,-0.436000,0.000000,0.000000,0.000000,0.000000
0.45600,-0.398010,0.000000,0.000000,0.000000,0.000000,0.000000,0.000000,-0.436000,0.000000,0.000000,0.000000,0.000000
0.45800,-0.394272,0.000000,0.000000,0.000000,0.000000,0.000000,0.000000,-0.436000,0.000000,0.000000,0.000000,0.000000
0.46000,-0.390534,0.000000,0.000000,0.000000,0.000000,0.000000,0.000000,-0.436000,0.000000,0.000000,0.000000,0.000000
0.46200,-0.386796,0.000000,0.000000,0.000000,0.000000,0.000000,0.000000,-0.436000,0.000000,0.000000,0.000000,0.000000
0.46400,-0.383058,0.000000,0.000000,0.000000,0.000000,0.000000,0.000000,-0.436000,0.000000,0.000000,0.000000,0.000000
0.46600,-0.379320,0.000000,0.000000,0.000000,0.000000,0.000000,0.000000,-0.436000,0.000000,0.000000,0.000000,0.000000
0.46800,-0.375582,0.000000,0.000000,0.000000,0.000000,0.000000,0.000000,-0.436000,0.000000,0.000000,0.000000,0.000000
0.47000,-0.371844,0.000000,0.000000,0.000000,0.000000,0.000000,0.000000,-0.436000,0.000000,0.000000,0.000000,0.000000
0.47200,-0.368106,0.000000,0.000000,0.000000,0.000000,0.000000,0.000000,-0.436000,0.000000,0.000000,0.000000,0.000000
0.47400,-0.364368,0.000000,0.000000,0.000000,0.000000,0.000000,0.000000,-0.436000,0.000000,0.000000,0.000000,0.000000
0.47600,-0.360630,0.000000,0.000000,0.000000,0.000000,0.000000,0.000000,-0.436000,0.000000,0.000000,0.000000,0.000000
0.47800,-0.356892,0.000000,0.000000,0.000000,0.000000,0.000000,0.000000,-0.436000,0.000000,0.000000,0.000000,0.000000
0.48000,-0.353154,0.000000,0.000000,0.000000,0.000000,0.000000,0.000000,-0.436000,0.000000,0.000000,0.000000,0.000000
0.48200,-0.349416,0.000000,0.000000,0.000000,0.000000,0.000000,0.000000,-0.436000,0.000000,0.000000,0.000000,0.000000
0.48400,-0.345678,0.000000,0.000000,0.000000,0.000000,0.000000,0.000000,-0.436000,0.000000,0.000000,0.000000,0.000000
0.48600,-0.341940,0.000000,0.000000,0.000000,0.000000,0.000000,0.000000,-0.436000,0.000000,0.000000,0.000000,0.000000
0.48800,-0.338202,0.000000,0.000000,0.000000,0.000000,0.000000,0.000000,-0.436000,0.000000,0.000000,0.000000,0.000000
0.49000,-0.334464,0.000000,0.000000,0.000000,0.000000,0.000000,0.000000,-0.436000,0.000000,0.000000,0.000000,0.000000
0.49200,-0.330726,0.000000,0.000000,0.000000,0.000000,0.000000,0.000000,-0.436000,0.000000,0.000000,0.000000,0.000000
0.49400,-0.326988,0.000000,0.000000,0.000000,0.000000,0.000000,0.000000,-0.436000,0.000000,0.000000,0.000000,0.000000
0.49600,-0.323250,0.000000,0.000000,0.000000,0.000000,0.000000,0.000000,-0.436000,0.000000,0.000000,0.000000,0.000000
0.49800,-0.319512,0.000000,0.000000,0.000000,0.000000,0.000000,0.000000,-0.436000,0.000000,0.000000,0.000000,0.000000
0.50000,-0.315774,0.000000,0.000000,0.000000,0.000000,0.000000,0.000000,-0.436000,0.000000,0.000000,0.000000,0.000000
0.50200,-0.312036,0.000000,0.000000,0.000000,0.000000,0.000000,0.000000,-0.436000,0.000000,0.000000,0.000000,0.000000
0.50400,-0.308298,0.000000,0.000000,0.000000,0.000000,0.000000,0.000000,-0.436000,0.000000,0.000000,0.000000,0.000000
0.50600,-0.304560,0.000000,0.000000,0.000000,0.000000,0.000000,0.000000,-0.436000,0.000000,0.000000,0.000000,0.000000
0.50800,-0.300822,0.000000,0.000000,0.000000,0.000000,0.000000,0.000000,-0.436000,0.000000,0.000000,0.000000,0.000000
0.51000,-0.297084,0.000000,0.000000,0.000000,0.000000,0.000000,0.000000,-0.436000,0.000000,0.000000,0.000000,0.000000
0.51200,-0.293346,0.000000,0.000000,0.000000,0.000000,0.000000,0.000000,-0.436000,0.000000,0.000000,0.000000,0.000000
0.51400,-0.289608,0.000000,0.000000,0.000000,0.000000,0.000000,0.000000,-0.436000,0.000000,0.000000,0.000000,0.000000
0.51600,-0.285870,0.000000,0.000000,0.000000,0.000000,0.000000,0.000000,-0.436000,0.000000,0.000000,0.000000,0.000000
0.51800,-0.282132,0.000000,0.000000,0.000000,0.000000,0.000000,0.000000,-0.436000,0.000000,0.000000,0.000000,0.000000
0.52000,-0.278394,0.000000,0.000000,0.000000,0.000000,0.000000,0.000000,-0.436000,0.000000,0.000000,0.000000,0.000000
0.52200,-0.274656,0.000000,0.000000,0.000000,0.000000,0.000000,0.000000,-0.436000,0.000000,0.000000,0.000000,0.000000
0.52400,-0.270918,0.000000,0.000000,0.000000,0.000000,0.000000,0.000000,-0.436000,0.000000,0.000000,0.000000,0.000000
0.52600,-0.267180,0.000000,0.000000,0.000000,0.000000,0.000000,0.000000,-0.436000,0.000000,0.000000,0.000000,0.000000
0.52800,-0.263442,0.000000,0.000000,0.000000,0.000000,0.000000,0.000000,-0.436000,0.000000,0.000000,0.000000,0.000000
0.53000,-0.259704,0.000000,0.000000,0.000000,0.000000,0.000000,0.000000,-0.436000,0.000000,0.000000,0.000000,0.000000
0.53200,-0.255966,0.000000,0.000000,0.000000,0.000000,0.000000,0.000000,-0.436000,0.000000,0.000000,0.000000,0.000000
0.53400,-0.252228,0.000000,0.000000,0.000000,0.000000,0.000000,0.000000,-0.436000,0.000000,0.000000,0.000000,0.000000
0.53600,-0.248490,0.000000,0.000000,0.000000,0.000000,0.000000,0.000000,-0.436000,0.000000,0.000000,0.000000,0.000000
0.53800,-0.244752,0.000000,0.000000,0.000000,0.000000,0.000000,0.000000,-0.436000,0.000000,0.000000,0.000000,0.000000
0.54000,-0.241014,0.000000,0.000000,0.000000,0.000000,0.000000,0.000000,-0.436000,0.000000,0.000000,0.000000,0.000000
0.54200,-0.237276,0.000000,0.000000,0.000000,0.000000,0.000000,0.000000,-0.436000,0.000000,0.000000,0.000000,0.000000
0.54400,-0.233538,0.000000,0.000000,0.000000,0.000000,0.000000,0.000000,-0.436000,0.000000,0.000000,0.000000,0.000000
0.54600,-0.229800,0.000000,0.000000,0.000000,0.000000,0.000000,0.000000,-0.436000,0.000000,0.000000,0.000000,0.000000
0.54800,-0.226062,0.000000,0.000000,0.000000,0.000000,0.000000,0.000000,-0.436000,0.000000,0.000000,0.000000,0.000000
0.55000,-0.222324,0.000000,0.000000,0.000000,0.000000,0.000000,0.000000,-0.436000,0.000000,0.000000,0.000000,0.000000
0.55200,-0.218586,0.000000,0.000000,0.000000,0.000000,0.000000,0.000000,-0.436000,0.000000,0.000000,0.000000,0.000000
0.55400,-0.214848,0.000000,0.000000,0.000000,0.000000,0.000000,0.000000,-0.436000,0.000000,0.000000,0.000000,0.000000
0.55600,-0.211110,0.000000,0.000000,0.000000,0.000000,0.000000,0.000000,-0.436000,0.000000,0.000000,0.000000,0.000000
0.55800,-0.207372,0.000000,0.000000,0.000000,0.000000,0.000000,0.000000,-0.436000,0.000000,0.000000,0.000000,0.000000
0.56000,-0.203634,0.000000,0.000000,0.000000,0.000000,0.000000,0.000000,-0.436000,0.000000,0.000000,0.000000,0.000000
0.56200,-0.199896,0.000000,0.000000,0.000000,0.000000,0.000000,0.000000,-0.436000,0.000000,0.000000,0.000000,0.000000
0.56400,-0.196158,0.000000,0.000000,0.000000,0.000000,0.000000,0.000000,-0.436000,0.000000,0.000000,0.000000,0.000000
0.56600,-0.192420,0.000000,0.000000,0.000000,0.000000,0.000000,0.000000,-0.436000,0.000000,0.000000,0.000000,0.000000
0.56800,-0.188682,0.000000,0.000000,0.000000,0.000000,0.000000,0.000000,-0.436000,0.000000,0.000000,0.000000,0.000000
0.57000,-0.184944,0.000000,0.000000,0.000000,0.000000,0.000000,0.000000,-0.436000,0.000000,0.000000,0.000000,0.000000
0.57200,-0.181206,0.000000,0.000000,0.000000,0.000000,0.000000,0.000000,-0.436000,0.000000,0.000000,0.000000,0.000000
0.57400,-0.177468,0.000000,0.000000,0.000000,0.000000,0.000000,0.000000,-0.436000,0.000000,0.000000,0.000000,0.000000
0.57600,-0.173730,0.000000,0.000000,0.000000,0.000000,0.000000,0.000000,-0.436000,0.000000,0.000000,0.000000,0.000000
0.57800,-0.169992,0.000000,0.000000,0.000000,0.000000,0.000000,0.000000,-0.436000,0.000000,0.000000,0.000000,0.000000
0.58000,-0.166254,0.000000,0.000000,0.000000,0.000000,0.000000,0.000000,-0.436000,0.000000,0.000000,0.000000,0.000000
0.58200,-0.162516,0.000000,0.000000,0.000000,0.000000,0.000000,0.000000,-0.436000,0.000000,0.000000,0.000000,0.000000
0.58400,-0.158778,0.000000,0.000000,0.000000,0.000000,0.000000,0.000000,-0.436000,0.000000,0.000000,0.000000,0.000000
0.58600,-0.155040,0.000000,0.000000,0.000000,0.000000,0.000000,0.000000,-0.436000,0.000000,0.000000,0.000000,0.000000
0.58800,-0.151302,0.000000,0.000000,0.000000,0.000000,0.000000,0.000000,-0.436000,0.000000,0.000000,0.000000,0.000000
0.59000,-0.147564,0.000000,0.000000,0.000000,0.000000,0.000000,0.000000,-0.436000,0.000000,0.000000,0.000000,0.000000
0.59200,-0.143826,0.000000,0.000000,0.000000,0.000000,0.000000,0.000000,-0.436000,0.000000,0.000000,0.000000,0.000000
0.59400,-0.140088,0.000000,0.000000,0.000000,0.000000,0.000000,0.000000,-0.436000,0.000000,0.000000,0.000000,0.000000
0.59600,-0.136350,0.000000,0.000000,0.000000,0.000000,0.000000,0.000000,-0.436000,0.000000,0.000000,0.000000,0.000000
0.59800,-0.132612,0.000000,0.000000,0.000000,0.000000,0.000000,0.000000,-0.436000,0.000000,0.000000,0.000000,0.000000
0.60000,-0.128874,0.000000,0.000000,0.000000,0.000000,0.000000,0.000000,-0.436000,0.000000,0.000000,0.000000,0.000000
0.60200,-0.125136,0.000000,0.000000,0.000000,0.000000,0.000000,0.000000,-0.436000,0.000000,0.000000,0.000000,0.000000
0.60400,-0.121398,0.000000,0.000000,0.000000,0.000000,0.000000,0.000000,-0.436000,0.000000,0.000000,0.000000,0.000000
0.60600,-0.117660,0.000000,0.000000,0.000000,0.000000,0.000000,0.000000,-0.436000,0.000000,0.000000,0.000000,0.000000
0.60800,-0.113922,0.000000,0.000000,0.000000,0.000000,0.000000,0.000000,-0.436000,0.000000,0.000000,0.000000,0.000000
0.61000,-0.110184,0.000000,0.000000,0.000000,0.000000,0.000000,0.000000,-0.436000,0.000000,0.000000,0.000000,0.000000
0.61200,-0.106446,0.000000,0.000000,0.000000,0.000000,0.000000,0.000000,-0.436000,0.000000,0.000000,0.000000,0.000000
0.61400,-0.102708,0.000000,0.000000,0.000000,0.000000,0.000000,0.000000,-0.436000,0.000000,0.000000,0.000000,0.000000
0.61600,-0.098970,0.000000,0.000000,0.000000,0.000000,0.000000,0.000000,-0.436000,0.000000,0.000000,0.000000,0.000000
0.61800,-0.095232,0.000000,0.000000,0.000000,0.000000,0.000000,0.000000,-0.436000,0.000000,0.000000,0.000000,0.000000
0.62000,-0.091494,0.000000,0.000000,0.000000,0.000000,0.000000,0.000000,-0.436000,0.000000,0.000000,0.000000,0.000000
0.62200,-0.087756,0.000000,0.000000,0.000000,0.000000,0.000000,0.000000,-0.436000,0.000000,0.000000,0.000000,0.000000
0.62400,-0.084018,0.000000,0.000000,0.000000,0.000000,0.000000,0.000000,-0.436000,0.000000,0.000000,0.000000,0.000000
0.62600,-0.080280,0.000000,0.000000,0.000000,0.000000,0.000000,0.000000,-0.436000,0.000000,0.000000,0.000000,0.000000
0.62800,-0.076542,0.000000,0.000000,0.000000,0.000000,0.000000,0.000000,-0.436000,0.000000,0.000000,0.000000,0.000000
0.63000,-0.072804,0.000000,0.000000,0.000000,0.000000,0.000000,0.000000,-0.436000,0.000000,0.000000,0.000000,0.000000
0.63200,-0.069066,0.000000,0.000000,0.000000,0.000000,0.000000,0.000000,-0.436000,0.000000,0.000000,0.000000,0.000000
0.63400,-0.065328,0.000000,0.000000,0.000000,0.000000,0.000000,0.000000,-0.436000,0.000000,0.000000,0.000000,0.000000
0.63600,-0.061590,0.000000,0.000000,0.000000,0.000000,0.000000,0.000000,-0.436000,0.000000,0.000000,0.000000,0.000000
0.63800,-0.057852,0.000000,0.000000,0.000000,0.000000,0.000000,0.000000,-0.436000,0.000000,0.000000,0.000000,0.000000
0.64000,-0.054114,0.000000,0.000000,0.000000,0.000000,0.000000,0.000000,-0.436000,0.000000,0.000000,0.000000,0.000000
0.64200,-0.050376,0.000000,0.000000,0.000000,0.000000,0.000000,0.000000,-0.436000,0.000000,0.000000,0.000000,0.000000
0.64400,-0.046638,0.000000,0.000000,0.000000,0.000000,0.000000,0.000000,-0.436000,0.000000,0.000000,0.000000,0.000000
0.64600,-0.042900,0.000000,0.000000,0.000000,0.000000,0.000000,0.000000,-0.436000,0.000000,0.000000,0.000000,0.000000
0.64800,-0.039162,0.000000,0.000000,0.000000,0.000000,0.000000,0.000000,-0.436000,0.000000,0.000000,0.000000,0.000000
0.65000,-0.035424,0.000000,0.000000,0.000000,0.000000,0.000000,0.000000,-0.436000,0.000000,0.000000,0.000000,0.000000
0.65200,-0.031686,0.000000,0.000000,0.000000,0.000000,0.000000,0.000000,-0.436000,0.000000,0.000000,0.000000,0.000000
0.65400,-0.027948,0.000000,0.000000,0.000000,0.000000,0.000000,0.000000,-0.436000,0.000000,0.000000,0.000000,0.000000
0.65600,-0.024210,0.000000,0.000000,0.000000,0.000000,0.000000,0.000000,-0.436000,0.000000,0.000000,0.000000,0.000000
0.65800,-0.020472,0.000000,0.000000,0.000000,0.000000,0.000000,0.000000,-0.436000,0.000000,0.000000,0.000000,0.000000
0.66000,-0.016734,0.000000,0.000000,0.000000,0.000000,0.000000,0.000000,-0.436000,0.000000,0.000000,0.000000,0.000000
0.66200,-0.012996,0.000000,0.000000,0.000000,0.000000,0.000000,0.000000,-0.436000,0.000000,0.000000,0.000000,0.000000
0.66400,-0.009258,0.000000,0.000000,0.000000,0.000000,0.000000,0.000000,-0.436000,0.000000,0.000000,0.000000,0.000000
0.66600,-0.005520,0.000000,0.000000,0.000000,0.000000,0.000000,0.000000,-0.436000,0.000000,0.000000,0.000000,0.000000
0.66800,-0.001782,0.000000,0.000000,0.000000,0.000000,0.000000,0.000000,-0.436000,0.000000,0.000000,0.000000,0.000000
0.67000,0.001956,0.000000,0.000000,0.000000,0.000000,0.000000,0.000000,-0.436000,0.000000,0.000000,0.000000,0.000000
0.67200,0.005694,0.000000,0.000000,0.000000,0.000000,0.000000,0.000000,-0.436000,0.000000,0.000000,0.000000,0.000000
0.67400,0.009432,0.000000,0.000000,0.000000,0.000000,0.000000,0.000000,-0.436000,0.000000,0.000000,0.000000,0.000000
0.67600,0.013170,0.000000,0.000000,0.000000,0.000000,0.000000,0.000000,-0.436000,0.000000,0.000000,0.000000,0.000000
0.67800,0.016908,0.000000,0.000000,0.000000,0.000000,0.000000,0.000000,-0.436000,0.000000,0.000000,0.000000,0.000000
0.68000,0.020646,0.000000,0.000000,0.000000,0.000000,0.000000,0.000000,-0.436000,0.000000,0.000000,0.000000,0.000000
0.68200,0.024384,0.000000,0.000000,0.000000,0.000000,0.000000,0.000000,-0.436000,0.000000,0.000000,0.000000,0.000000
0.68400,0.028122,0.000000,0.000000,0.000000,0.000000,0.000000,0.000000,-0.436000,0.000000,0.000000,0.000000,0.000000
0.68600,0.031860,0.000000,0.000000,0.000000,0.000000,0.000000,0.000000,-0.436000,0.000000,0.000000,0.000000,0.000000
0.68800,0.035598,0.000000,0.000000,0.000000,0.000000,0.000000,0.000000,-0.436000,0.000000,0.000000,0.000000,0.000000
0.69000,0.039336,0.000000,0.000000,0.000000,0.000000,0.000000,0.000000,-0.436000,0.000000,0.000000,0.000000,0.000000
0.69200,0.043074,0.000000,0.000000,0.000000,0.000000,0.000000,0.000000,-0.436000,0.000000,0.000000,0.000000,0.000000
0.69400,0.046812,0.000000,0.000000,0.000000,0.000000,0.000000,0.000000,-0.436000,0.000000,0.000000,0.000000,0.000000
0.69600,0.050550,0.000000,0.000000,0.000000,0.000000,0.000000,0.000000,-0.436000,0.000000,0.000000,0.000000,0.000000
0.69800,0.054288,0.000000,0.000000,0.000000,0.000000,0.000000,0.000000,-0.436000,0.000000,0.000000,0.000000,0.000000
0.70000,0.058026,0.000000,0.000000,0.000000,0.000000,0.000000,0.000000,-0.436000,0.000000,0.000000,0.000000,0.000000
0.70200,0.061764,0.000000,0.000000,0.000000,0.000000,0.000000,0.000000,-0.436000,0.000000,0.000000,0.000000,0.000000
0.70400,0.065502,0.000000,0.000000,0.000000,0.000000,0.000000,0.000000,-0.436000,0.000000,0.000000,0.000000,0.000000
0.70600,0.069240,0.000000,0.000000,0.000000,0.000000,0.000000,0.000000,-0.436000,0.000000,0.000000,0.000000,0.000000
0.70800,0.072978,0.000000,0.000000,0.000000,0.000000,0.000000,0.000000,-0.436000,0.000000,0.000000,0.000000,0.000000
0.71000,0.076716,0.000000,0.000000,0.000000,0.000000,0.000000,0.000000,-0.436000,0.000000,0.000000,0.000000,0.000000
0.71200,0.080454,0.000000,0.000000,0.000000,0.000000,0.000000,0.000000,-0.436000,0.000000,0.000000,0.000000,0.000000
0.71400,0.084192,0.000000,0.000000,0.000000,0.000000,0.000000,0.000000,-0.436000,0.000000,0.000000,0.000000,0.000000
0.71600,0.087930,0.000000,0.000000,0.000000,0.000000,0.000000,0.000000,-0.436000,0.000000,0.000000,0.000000,0.000000
0.71800,0.091668,0.000000,0.000000,0.000000,0.000000,0.000000,0.000000,-0.436000,0.000000,0.000000,0.000000,0.000000
0.72000,0.095406,0.000000,0.000000,0.000000,0.000000,0.000000,0.000000,-0.436000,0.000000,0.000000,0.000000,0.000000
0.72200,0.099144,0.000000,0.000000,0.000000,0.000000,0.000000,0.000000,-0.436000,0.000000,0.000000,0.000000,0.000000
0.72400,0.102882,0.000000,0.000000,0.000000,0.000000,0.000000,0.000000,-0.436000,0.000000,0.000000,0.000000,0.000000
0.72600,0.106620,0.000000,0.000000,0.000000,0.000000,0.000000,0.000000,-0.436000,0.000000,0.000000,0.000000,0.000000
0.72800,0.110358,0.000000,0.000000,0.000000,0.000000,0.000000,0.000000,-0.436000,0.000000,0.000000,0.000000,0.000000
0.73000,0.114096,0.000000,0.000000,0.000000,0.000000,0.000000,0.000000,-0.436000,0.000000,0.000000,0.000000,0.000000
0.73200,0.117834,0.000000,0.000000,0.000000,0.000000,0.000000,0.000000,-0.436000,0.000000,0.000000,0.000000,0.000000
0.73400,0.121572,0.000000,0.000000,0.000000,0.000000,0.000000,0.000000,-0.436000,0.000000,0.000000,0.000000,0.000000
0.73600,0.125310,0.000000,0.000000,0.000000,0.000000,0.000000,0.000000,-0.436000,0.000000,0.000000,0.000000,0.000000
0.73800,0.129048,0.000000,0.000000,0.000000,0.000000,0.000000,0.000000,-0.436000,0.000000,0.000000,0.000000,0.000000
0.74000,0.132786,0.000000,0.000000,0.000000,0.000000,0.000000,0.000000,-0.436000,0.000000,0.000000,0.000000,0.000000
0.74200,0.136524,0.000000,0.000000,0.000000,0.000000,0.000000,0.000000,-0.436000,0.000000,0.000000,0.000000,0.000000
0.74400,0.140262,0.000000,0.000000,0.000000,0.000000,0.000000,0.000000,-0.436000,0.000000,0.000000,0.000000,0.000000
0.74600,0.144000,0.000000,0.000000,0.000000,0.000000,0.000000,0.000000,-0.436000,0.000000,0.000000,0.000000,0.000000
0.74800,0.147738,0.000000,0.000000,0.000000,0.000000,0.000000,0.000000,-0.436000,0.000000,0.000000,0.000000,0.000000
0.75000,0.151476,0.000000,0.000000,0.000000,0.000000,0.000000,0.000000,-0.436000,0.000000,0.000000,0.000000,0.000000
0.75200,0.155214,0.000000,0.000000,0.000000,0.000000,0.000000,0.000000,-0.436000,0.000000,0.000000,0.000000,0.000000
0.75400,0.158952,0.000000,0.000000,0.000000,0.000000,0.000000,0.000000,-0.436000,0.000000,0.000000,0.000000,0.000000
0.75600,0.162690,0.000000,0.000000,0.000000,0.000000,0.000000,0.000000,-0.436000,0.000000,0.000000,0.000000,0.000000
0.75800,0.166428,0.000000,0.000000,0.000000,0.000000,0.000000,0.000000,-0.436000,0.000000,0.000000,0.000000,0.000000
0.76000,0.170166,0.000000,0.000000,0.000000,0.000000,0.000000,0.000000,-0.436000,0.000000,0.000000,0.000000,0.000000
0.76200,0.173904,0.000000,0.000000,0.000000,0.000000,0.000000,0.000000,-0.436000,0.000000,0.000000,0.000000,0.000000
0.76400,0.177642,0.000000,0.000000,0.000000,0.000000,0.000000,0.000000,-0.436000,0.000000,0.000000,0.000000,0.000000
0.76600,0.181380,0.000000,0.000000,0.000000,0.000000,0.000000,0.000000,-0.436000,0.000000,0.000000,0.000000,0.000000
0.76800,0.185118,0.000000,0.000000,0.000000,0.000000,0.000000,0.000000,-0.436000,0.000000,0.000000,0.000000,0.000000
0.77000,0.188856,0.000000,0.000000,0.000000,0.000000,0.000000,0.000000,-0.436000,0.000000,0.000000,0.000000,0.000000
0.77200,0.192594,0.000000,0.000000,0.000000,0.000000,0.000000,0.000000,-0.436000,0.000000,0.000000,0.000000,0.000000
0.77400,0.196332,0.000000,0.000000,0.000000,0.000000,0.000000,0.000000,-0.436000,0.000000,0.000000,0.000000,0.000000
0.77600,0.200070,0.000000,0.000000,0.000000,0.000000,0.000000,0.000000,-0.436000,0.000000,0.000000,0.000000,0.000000
0.77800,0.203808,0.000000,0.000000,0.000000,0.000000,0.000000,0.000000,-0.436000,0.000000,0.000000,0.000000,0.000000
0.78000,0.207546,0.000000,0.000000,0.000000,0.000000,0.000000,0.000000,-0.436000,0.000000,0.000000,0.000000,0.000000
0.78200,0.211284,0.000000,0.000000,0.000000,0.000000,0.000000,0.000000,-0.436000,0.000000,0.000000,0.000000,0.000000
0.78400,0.215022,0.000000,0.000000,0.000000,0.000000,0.000000,0.000000,-0.436000,0.000000,0.000000,0.000000,0.000000
0.78600,0.218760,0.000000,0.000000,0.000000,0.000000,0.000000,0.000000,-0.436000,0.000000,0.000000,0.000000,0.000000
0.78800,0.222498,0.000000,0.000000,0.000000,0.000000,0.000000,0.000000,-0.436000,0.000000,0.000000,0.000000,0.000000
0.79000,0.226236,0.000000,0.000000,0.000000,0.000000,0.000000,0.000000,-0.436000,0.000000,0.000000,0.000000,0.000000
0.79200,0.229974,0.000000,0.000000,0.000000,0.000000,0.000000,0.000000,-0.436000,0.000000,0.000000,0.000000,0.000000
0.79400,0.233712,0.000000,0.000000,0.000000,0.000000,0.000000,0.000000,-0.436000,0.000000,0.000000,0.000000,0.000000
0.79600,0.237450,0.000000,0.000000,0.000000,0.000000,0.000000,0.000000,-0.436000,0.000000,0.000000,0.000000,0.000000
0.79800,0.241188,0.000000,0.000000,0.000000,0.000000,0.000000,0.000000,-0.436000,0.000000,0.000000,0.000000,0.000000
0.80000,0.244926,0.000000,0.000000,0.000000,0.000000,0.000000,0.000000,-0.436000,0.000000,0.000000,0.000000,0.000000
0.80200,0.248664,0.000000,0.000000,0.000000,0.000000,0.000000,0.000000,-0.436000,0.000000,0.000000,0.000000,0.000000
0.80400,0.252402,0.000000,0.000000,0.000000,0.000000,0.000000,0.000000,-0.436000,0.000000,0.000000,0.000000,0.000000
0.80600,0.256140,0.000000,0.000000,0.000000,0.000000,0.000000,0.000000,-0.436000,0.000000,0.000000,0.000000,0.000000
0.80800,0.259878,0.000000,0.000000,0.000000,0.000000,0.000000,0.000000,-0.436000,0.000000,0.000000,0.000000,0.000000
0.81000,0.263616,0.000000,0.000000,0.000000,0.000000,0.000000,0.000000,-0.436000,0.000000,0.000000,0.000000,0.000000
0.81200,0.267354,0.000000,0.000000,0.000000,0.000000,0.000000,0.000000,-0.436000,0.000000,0.000000,0.000000,0.000000
0.81400,0.271092,0.000000,0.000000,0.000000,0.000000,0.000000,0.000000,-0.436000,0.000000,0.000000,0.000000,0.000000
0.81600,0.274830,0.000000,0.000000,0.000000,0.000000,0.000000,0.000000,-0.436000,0.000000,0.000000,0.000000,0.000000
0.81800,0.278568,0.000000,0.000000,0.000000,0.000000,0.000000,0.000000,-0.436000,0.000000,0.000000,0.000000,0.000000
0.82000,0.282306,0.000000,0.000000,0.000000,0.000000,0.000000,0.000000,-0.436000,0.000000,0.000000,0.000000,0.000000
0.82200,0.286044,0.000000,0.000000,0.000000,0.000000,0.000000,0.000000,-0.436000,0.000000,0.000000,0.000000,0.000000
0.82400,0.289782,0.000000,0.000000,0.000000,0.000000,0.000000,0.000000,-0.436000,0.000000,0.000000,0.000000,0.000000
0.82600,0.293520,0.000000,0.000000,0.000000,0.000000,0.000000,0.000000,-0.436000,0.000000,0.000000,0.000000,0.000000
0.82800,0.297258,0.000000,0.000000,0.000000,0.000000,0.000000,0.000000,-0.436000,0.000000,0.000000,0.000000,0.000000
0.83000,0.300996,0.000000,0.000000,0.000000,0.000000,0.000000,0.000000,-0.436000,0.000000,0.000000,0.000000,0.000000
0.83200,0.304734,0.000000,0.000000,0.000000,0.000000,0.000000,0.000000,-0.436000,0.000000,0.000000,0.000000,0.000000
0.83400,0.308472,0.000000,0.000000,0.000000,0.000000,0.000000,0.000000,-0.436000,0.000000,0.000000,0.000000,0.000000
0.83600,0.312210,0.000000,0.000000,0.000000,0.000000,0.000000,0.000000,-0.436000,0.000000,0.000000,0.000000,0.000000
0.83800,0.315948,0.000000,0.000000,0.000000,0.000000,0.000000,0.000000,-0.436000,0.000000,0.000000,0.000000,0.000000
0.84000,0.319686,0.000000,0.000000,0.000000,0.000000,0.000000,0.000000,-0.436000,0.000000,0.000000,0.000000,0.000000
0.84200,0.323424,0.000000,0.000000,0.000000,0.000000,0.000000,0.000000,-0.436000,0.000000,0.000000,0.000000,0.000000
0.84400,0.327162,0.000000,0.000000,0.000000,0.000000,0.000000,0.000000,-0.436000,0.000000,0.000000,0.000000,0.000000
0.84600,0.330900,0.000000,0.000000,0.000000,0.000000,0.000000,0.000000,-0.436000,0.000000,0.000000,0.000000,0.000000
0.84800,0.334638,0.000000,0.000000,0.000000,0.000000,0.000000,0.000000,-0.436000,0.000000,0.000000,0.000000,0.000000
0.85000,0.338376,0.000000,0.000000,0.000000,0.000000,0.000000,0.000000,-0.436000,0.000000,0.000000,0.000000,0.000000
0.85200,0.342114,0.000000,0.000000,0.000000,0.000000,0.000000,0.000000,-0.436000,0.000000,0.000000,0.000000,0.000000
0.85400,0.345852,0.000000,0.000000,0.000000,0.000000,0.000000,0.000000,-0.436000,0.000000,0.000000,0.000000,0.000000
0.85600,0.349590,0.000000,0.000000,0.000000,0.000000,0.000000,0.000000,-0.436000,0.000000,0.000000,0.000000,0.000000
0.85800,0.353328,0.000000,0.000000,0.000000,0.000000,0.000000,0.000000,-0.436000,0.000000,0.000000,0.000000,0.000000
0.86000,0.357066,0.000000,0.000000,0.000000,0.000000,0.000000,0.000000,-0.436000,0.000000,0.000000,0.000000,0.000000
0.86200,0.360804,0.000000,0.000000,0.000000,0.000000,0.000000,0.000000,-0.436000,0.000000,0.000000,0.000000,0.000000
0.86400,0.364542,0.000000,0.000000,0.000000,0.000000,0.000000,0.000000,-0.436000,0.000000,0.000000,0.000000,0.000000
0.86600,0.368280,0.000000,0.000000,0.000000,0.000000,0.000000,0.000000,-0.436000,0.000000,0.000000,0.000000,0.000000
0.86800,0.372018,0.000000,0.000000,0.000000,0.000000,0.000000,0.000000,-0.436000,0.000000,0.000000,0.000000,0.000000
0.87000,0.375756,0.000000,0.000000,0.000000,0.000000,0.000000,0.000000,-0.436000,0.000000,0.000000,0.000000,0.000000
0.87200,0.379494,0.000000,0.000000,0.000000,0.000000,0.000000,0.000000,-0.436000,0.000000,0.000000,0.000000,0.000000
0.87400,0.383232,0.000000,0.000000,0.000000,0.000000,0.000000,0.000000,-0.436000,0.000000,0.000000,0.000000,0.000000
0.87600,0.386970,0.000000,0.000000,0.000000,0.000000,0.000000,0.000000,-0.436000,0.000000,0.000000,0.000000,0.000000
0.87800,0.390708,0.000000,0.000000,0.000000,0.000000,0.000000,0.000000,-0.436000,0.000000,0.000000,0.000000,0.000000
0.88000,0.394446,0.000000,0.000000,0.000000,0.000000,0.000000,0.000000,-0.436000,0.000000,0.000000,0.000000,0.000000
0.88200,0.398184,0.000000,0.000000,0.000000,0.000000,0.000000,0.000000,-0.436000,0.000000,0.000000,0.000000,0.000000
0.88400,0.401922,0.000000,0.000000,0.000000,0.000000,0.000000,0.000000,-0.436000,0.000000,0.000000,0.000000,0.000000
0.88600,0.405660,0.000000,0.000000,0.000000,0.000000,0.000000,0.000000,-0.436000,0.000000,0.000000,0.000000,0.000000
0.88800,0.409398,0.000000,0.000000,0.000000,0.000000,0.000000,0.000000,-0.436000,0.000000,0.000000,0.000000,0.000000
0.89000,0.413136,0.000000,0.000000,0.000000,0.000000,0.000000,0.000000,-0.436000,0.000000,0.000000,0.000000,0.000000
0.89200,0.416874,0.000000,0.000000,0.000000,0.000000,0.000000,0.000000,-0.436000,0.000000,0.000000,0.000000,0.000000
0.89400,0.420612,0.000000,0.000000,0.000000,0.000000,0.000000,0.000000,-0.436000,0.000000,0.000000,0.000000,0.000000
0.89600,0.424350,0.000000,0.000000,0.000000,0.000000,0.000000,0.000000,-0.436000,0.000000,0.000000,0.000000,0.000000
0.89800,0.428088,0.000000,0.000000,0.000000,0.000000,0.000000,0.000000,-0.436000,0.000000,0.000000,0.000000,0.000000
0.90000,0.431826,0.000000,0.000000,0.000000,0.000000,0.000000,0.000000,-0.436000,0.000000,0.000000,0.000000,0.000000
0.90200,0.435564,0.000000,0.000000,0.000000,0.000000,0.000000,0.000000,-0.436000,0.000000,0.000000,0.000000,0.000000
0.90400,0.439302,0.000000,0.000000,0.000000,0.000000,0.000000,0.000000,-0.436000,0.000000,0.000000,0.000000,0.000000
0.90600,0.443040,0.000000,0.000000,0.000000,0.000000,0.000000,0.000000,-0.436000,0.000000,0.000000,0.000000,0.000000
0.90800,0.446778,0.000000,0.000000,0.000000,0.000000,0.000000,0.000000,-0.436000,0.000000,0.000000,0.000000,0.000000
0.91000,0.450516,0.000000,0.000000,0.000000,0.000000,0.000000,0.000000,-0.436000,0.000000,0.000000,0.000000,0.000000
0.91200,0.454254,0.000000,0.000000,0.000000,0.000000,0.000000,0.000000,-0.436000,0.000000,0.000000,0.000000,0.000000
0.91400,0.457992,0.000000,0.000000,0.000000,0.000000,0.000000,0.000000,-0.436000,0.000000,0.000000,0.000000,0.000000
0.91600,0.461730,0.000000,0.000000,0.000000,0.000000,0.000000,0.000000,-0.436000,0.000000,0.000000,0.000000,0.000000
0.91800,0.465468,0.000000,0.000000,0.000000,0.000000,0.000000,0.000000,-0.436000,0.000000,0.000000,0.000000,0.000000
0.92000,0.469206,0.000000,0.000000,0.000000,0.000000,0.000000,0.000000,-0.436000,0.000000,0.000000,0.000000,0.000000
0.92200,0.472944,0.000000,0.000000,0.000000,0.000000,0.000000,0.000000,-0.436000,0.000000,0.000000,0.000000,0.000000
0.92400,0.476682,0.000000,0.000000,0.000000,0.000000,0.000000,0.000000,-0.436000,0.000000,0.000000,0.000000,0.000000
0.92600,0.480420,0.000000,0.000000,0.000000,0.000000,0.000000,0.000000,-0.436000,0.000000,0.000000,0.000000,0.000000
0.92800,0.484158,0.000000,0.000000,0.000000,0.000000,0.000000,0.000000,-0.436000,0.000000,0.000000,0.000000,0.000000
0.93000,0.487896,0.000000,0.000000,0.000000,0.000000,0.000000,0.000000,-0.436000,0.000000,0.000000,0.000000,0.000000
0.93200,0.491634,0.000000,0.000000,0.000000,0.000000,0.000000,0.000000,-0.436000,0.000000,0.000000,0.000000,0.000000
0.93400,0.495372,0.000000,0.000000,0.000000,0.000000,0.000000,0.000000,-0.436000,0.000000,0.000000,0.000000,0.000000
0.93600,0.499110,0.000000,0.000000,0.000000,0.000000,0.000000,0.000000,-0.436000,0.000000,0.000000,0.000000,0.000000
0.93800,0.502848,0.000000,0.000000,0.000000,0.000000,0.000000,0.000000,-0.436000,0.000000,0.000000,0.000000,0.000000
0.94000,0.506586,0.000000,0.000000,0.000000,0.000000,0.000000,0.000000,-0.436000,0.000000,0.000000,0.000000,0.000000
0.94200,0.510324,0.000000,0.000000,0.000000,0.000000,0.000000,0.000000,-0.436000,0.000000,0.000000,0.000000,0.000000
0.94400,0.514062,0.000000,0.000000,0.000000,0.000000,0.000000,0.000000,-0.436000,0.000000,0.000000,0.000000,0.000000
0.94600,0.517800,0.000000,0.000000,0.000000,0.000000,0.000000,0.000000,-0.436000,0.000000,0.000000,0.000000,0.000000
0.94800,0.521538,0.000000,0.000000,0.000000,0.000000,0.000000,0.000000,-0.436000,0.000000,0.000000,0.000000,0.000000
0.95000,0.525276,0.000000,0.000000,0.000000,0.000000,0.000000,0.000000,-0.436000,0.000000,0.000000,0.000000,0.000000
0.95200,0.529014,0.000000,0.000000,0.000000,0.000000,0.000000,0.000000,-0.436000,0.000000,0.000000,0.000000,0.000000
0.95400,0.532752,0.000000,0.000000,0.000000,0.000000,0.000000,0.000000,-0.436000,0.000000,0.000000,0.000000,0.000000
0.95600,0.536490,0.000000,0.000000,0.000000,0.000000,0.000000,0.000000,-0.436000,0.000000,0.000000,0.000000,0.000000
0.95800,0.540228,0.000000,0.000000,0.000000,0.000000,0.000000,0.000000,-0.436000,0.000000,0.000000,0.000000,0.000000
0.96000,0.543966,0.000000,0.000000,0.000000,0.000000,0.000000,0.000000,-0.436000,0.000000,0.000000,0.000000,0.000000
0.96200,0.547704,0.000000,0.000000,0.000000,0.000000,0.000000,0.000000,-0.436000,0.000000,0.000000,0.000000,0.000000
0.96400,0.551442,0.000000,0.000000,0.000000,0.000000,0.000000,0.000000,-0.436000,0.000000,0.000000,0.000000,0.000000
0.96600,0.555180,0.000000,0.000000,0.000000,0.000000,0.000000,0.000000,-0.436000,0.000000,0.000000,0.000000,0.000000
0.96800,0.558918,0.000000,0.000000,0.000000,0.000000,0.000000,0.000000,-0.436000,0.000000,0.000000,0.000000,0.000000
0.97000,0.562656,0.000000,0.000000,0.000000,0.000000,0.000000,0.000000,-0.436000,0.000000,0.000000,0.000000,0.000000
0.97200,0.566394,0.000000,0.000000,0.000000,0.000000,0.000000,0.000000,-0.436000,0.000000,0.000000,0.000000,0.000000
0.97400,0.570132,0.000000,0.000000,0.000000,0.000000,0.000000,0.000000,-0.436000,0.000000,0.000000,0.000000,0.000000
0.97600,0.573870,0.000000,0.000000,0.000000,0.000000,0.000000,0.000000,-0.436000,0.000000,0.000000,0.000000,0.000000
0.97800,0.577608,0.000000,0.000000,0.000000,0.000000,0.000000,0.000000,-0.436000,0.000000,0.000000,0.000000,0.000000
0.98000,0.581346,0.000000,0.000000,0.000000,0.000000,0.000000,0.000000,-0.436000,0.000000,0.000000,0.000000,0.000000
0.98200,0.585084,0.000000,0.000000,0.000000,0.000000,0.000000,0.000000,-0.436000,0.000000,0.000000,0.000000,0.000000
0.98400,0.588822,0.000000,0.000000,0.000000,0.000000,0.000000,0.000000,-0.436000,0.000000,0.000000,0.000000,0.000000
0.98600,0.592560,0.000000,0.000000,0.000000,0.000000,0.000000,0.000000,-0.436000,0.000000,0.000000,0.000000,0.000000
0.98800,0.596298,0.000000,0.000000,0.000000,0.000000,0.000000,0.000000,-0.436000,0.000000,0.000000,0.000000,0.000000
0.99000,0.610000,0.000000,0.000000,0.000000,0.000000,0.000000,0.000000,-0.436000,0.000000,0.000000,0.000000,0.000000
0.99200,0.609600,0.000000,0.000000,0.000000,0.000000,0.000000,0.000000,-0.436000,0.000000,0.000000,0.000000,0.000000
0.99400,0.608400,0.000000,0.000000,0.000000,0.000000,0.000000,0.000000,-0.436000,0.000000,0.000000,0.000000,0.000000
0.99600,0.606400,0.000000,0.000000,0.000000,0.000000,0.000000,0.000000,-0.436000,0.000000,0.000000,0.000000,0.000000
0.99800,0.610000,0.000000,0.000000,0.000000,0.000000,0.000000,0.000000,-0.436000,0.000000,0.000000,0.000000,0.000000
1.00000,0.609600,0.000000,0.000000,0.000000,0.000000,0.000000,0.000000,-0.436000,0.000000,0.000000,0.000000,0.000000
1.00200,0.608400,0.000000,0.000000,0.000000,0.000000,0.000000,0.000000,-0.436000,0.000000,0.000000,0.000000,0.000000
1.00400,0.606400,0.000000,0.000000,0.000000,0.000000,0.000000,0.000000,-0.436000,0.000000,0.000000,0.000000,0.000000
1.00600,0.603600,0.000000,0.000000,0.000000,0.000000,0.000000,0.000000,-0.436000,0.000000,0.000000,0.000000,0.000000
1.00800,0.603600,0.000000,0.000000,0.000000,0.000000,0.000000,0.000000,-0.436000,0.000000,0.000000,0.000000,0.000000
1.01000,0.599862,0.000000,0.000000,0.000000,0.000000,0.000000,0.000000,-0.436000,0.000000,0.000000,0.000000,0.000000
1.01200,0.596124,0.000000,0.000000,0.000000,0.000000,0.000000,0.000000,-0.436000,0.000000,0.000000,0.000000,0.000000
1.01400,0.592386,0.000000,0.000000,0.000000,0.000000,0.000000,0.000000,-0.436000,0.000000,0.000000,0.000000,0.000000
1.01600,0.588648,0.000000,0.000000,0.000000,0.000000,0.000000,0.000000,-0.436000,0.000000,0.000000,0.000000,0.000000
1.01800,0.584910,0.000000,0.000000,0.000000,0.000000,0.000000,0.000000,-0.436000,0.000000,0.000000,0.000000,0.000000
1.02000,0.581172,0.000000,0.000000,0.000000,0.000000,0.000000,0.000000,-0.436000,0.000000,0.000000,0.000000,0.000000
1.02200,0.577434,0.000000,0.000000,0.000000,0.000000,0.000000,0.000000,-0.436000,0.000000,0.000000,0.000000,0.000000
1.02400,0.573696,0.000000,0.000000,0.000000,0.000000,0.000000,0.000000,-0.436000,0.000000,0.000000,0.000000,0.000000
1.02600,0.569958,0.000000,0.000000,0.000000,0.000000,0.000000,0.000000,-0.436000,0.000000,0.000000,0.000000,0.000000
1.02800,0.566220,0.000000,0.000000,0.000000,0.000000,0.000000,0.000000,-0.436000,0.000000,0.000000,0.000000,0.000000
1.03000,0.562482,0.000000,0.000000,0.000000,0.000000,0.000000,0.000000,-0.436000,0.000000,0.000000,0.000000,0.000000
1.03200,0.558744,0.000000,0.000000,0.000000,0.000000,0.000000,0.000000,-0.436000,0.000000,0.000000,0.000000,0.000000
1.03400,0.555006,0.000000,0.000000,0.000000,0.000000,0.000000,0.000000,-0.436000,0.000000,0.000000,0.000000,0.000000
1.03600,0.551268,0.000000,0.000000,0.000000,0.000000,0.000000,0.000000,-0.436000,0.000000,0.000000,0.000000,0.000000
1.03800,0.547530,0.000000,0.000000,0.000000,0.000000,0.000000,0.000000,-0.436000,0.000000,0.000000,0.000000,0.000000
1.04000,0.543792,0.000000,0.000000,0.000000,0.000000,0.000000,0.000000,-0.436000,0.000000,0.000000,0.000000,0.000000
1.04200,0.540054,0.000000,0.000000,0.000000,0.000000,0.000000,0.000000,-0.436000,0.000000,0.000000,0.000000,0.000000
1.04400,0.536316,0.000000,0.000000,0.000000,0.000000,0.000000,0.000000,-0.436000,0.000000,0.000000,0.000000,0.000000
1.04600,0.532578,0.000000,0.000000,0.000000,0.000000,0.000000,0.000000,-0.436000,0.000000,0.000000,0.000000,0.000000
1.04800,0.528840,0.000000,0.000000,0.000000,0.000000,0.000000,0.000000,-0.436000,0.000000,0.000000,0.000000,0.000000
1.05000,0.525102,0.000000,0.000000,0.000000,0.000000,0.000000,0.000000,-0.436000,0.000000,0.000000,0.000000,0.000000
1.05200,0.521364,0.000000,0.000000,0.000000,0.000000,0.000000,0.000000,-0.436000,0.000000,0.000000,0.000000,0.000000
1.05400,0.517626,0.000000,0.000000,0.000000,0.000000,0.000000,0.000000,-0.436000,0.000000,0.000000,0.000000,0.000000
1.05600,0.513888,0.000000,0.000000,0.000000,0.000000,0.000000,0.000000,-0.436000,0.000000,0.000000,0.000000,0.000000
1.05800,0.510150,0.000000,0.000000,0.000000,0.000000,0.000000,0.000000,-0.436000,0.000000,0.000000,0.000000,0.000000
1.06000,0.506412,0.000000,0.000000,0.000000,0.000000,0.000000,0.000000,-0.436000,0.000000,0.000000,0.000000,0.000000
1.06200,0.502674,0.000000,0.000000,0.000000,0.000000,0.000000,0.000000,-0.436000,0.000000,0.000000,0.000000,0.000000
1.06400,0.498936,0.000000,0.000000,0.000000,0.000000,0.000000,0.000000,-0.436000,0.000000,0.000000,0.000000,0.000000
1.06600,0.495198,0.000000,0.000000,0.000000,0.000000,0.000000,0.000000,-0.436000,0.000000,0.000000,0.000000,0.000000
1.06800,0.491460,0.000000,0.000000,0.000000,0.000000,0.000000,0.000000,-0.436000,0.000000,0.000000,0.000000,0.000000
1.07000,0.487722,0.000000,0.000000,0.000000,0.000000,0.000000,0.000000,-0.436000,0.000000,0.000000,0.000000,0.000000
1.07200,0.483984,0.000000,0.000000,0.000000,0.000000,0.000000,0.000000,-0.436000,0.000000,0.000000,0.000000,0.000000
1.07400,0.480246,0.000000,0.000000,0.000000,0.000000,0.000000,0.000000,-0.436000,0.000000,0.000000,0.000000,0.000000
1.07600,0.476508,0.000000,0.000000,0.000000,0.000000,0.000000,0.000000,-0.436000,0.000000,0.000000,0.000000,0.000000
1.07800,0.472770,0.000000,0.000000,0.000000,0.000000,0.000000,0.000000,-0.436000,0.000000,0.000000,0.000000,0.000000
1.08000,0.469032,0.000000,0.000000,0.000000,0.000000,0.000000,0.000000,-0.436000,0.000000,0.000000,0.000000,0.000000
1.08200,0.465294,0.000000,0.000000,0.000000,0.000000,0.000000,0.000000,-0.436000,0.000000,0.000000,0.000000,0.000000
1.08400,0.461556,0.000000,0.000000,0.000000,0.000000,0.000000,0.000000,-0.436000,0.000000,0.000000,0.000000,0.000000
1.08600,0.457818,0.000000,0.000000,0.000000,0.000000,0.000000,0.000000,-0.436000,0.000000,0.000000,0.000000,0.000000
1.08800,0.454080,0.000000,0.000000,0.000000,0.000000,0.000000,0.000000,-0.436000,0.000000,0.000000,0.000000,0.000000
1.09000,0.450342,0.000000,0.000000,0.000000,0.000000,0.000000,0.000000,-0.436000,0.000000,0.000000,0.000000,0.000000
1.09200,0.446604,0.000000,0.000000,0.000000,0.000000,0.000000,0.000000,-0.436000,0.000000,0.000000,0.000000,0.000000
1.09400,0.442866,0.000000,0.000000,0.000000,0.000000,0.000000,0.000000,-0.436000,0.000000,0.000000,0.000000,0.000000
1.09600,0.439128,0.000000,0.000000,0.000000,0.000000,0.000000,0.000000,-0.436000,0.000000,0.000000,0.000000,0.000000
1.09800,0.435390,0.000000,0.000000,0.000000,0.000000,0.000000,0.000000,-0.436000,0.000000,0.000000,0.000000,0.000000
1.10000,0.431652,0.000000,0.000000,0.000000,0.000000,0.000000,0.000000,-0.436000,0.000000,0.000000,0.000000,0.000000
1.10200,0.427914,0.000000,0.000000,0.000000,0.000000,0.000000,0.000000,-0.436000,0.000000,0.000000,0.000000,0.000000
1.10400,0.424176,0.000000,0.000000,0.000000,0.000000,0.000000,0.000000,-0.436000,0.000000,0.000000,0.000000,0.000000
1.10600,0.420438,0.000000,0.000000,0.000000,0.000000,0.000000,0.000000,-0.436000,0.000000,0.000000,0.000000,0.000000
1.10800,0.416700,0.000000,0.000000,0.000000,0.000000,0.000000,0.000000,-0.436000,0.000000,0.000000,0.000000,0.000000
1.11000,0.412962,0.000000,0.000000,0.000000,0.000000,0.000000,0.000000,-0.436000,0.000000,0.000000,0.000000,0.000000
1.11200,0.409224,0.000000,0.000000,0.000000,0.000000,0.000000,0.000000,-0.436000,0.000000,0.000000,0.000000,0.000000
1.11400,0.405486,0.000000,0.000000,0.000000,0.000000,0.000000,0.000000,-0.436000,0.000000,0.000000,0.000000,0.000000
1.11600,0.401748,0.000000,0.000000,0.000000,0.000000,0.000000,0.000000,-0.436000,0.000000,0.000000,0.000000,0.000000
1.11800,0.398010,0.000000,0.000000,0.000000,0.000000,0.000000,0.000000,-0.436000,0.000000,0.000000,0.000000,0.000000
1.12000,0.394272,0.000000,0.000000,0.000000,0.000000,0.000000,0.000000,-0.436000,0.000000,0.000000,0.000000,0.000000
1.12200,0.390534,0.000000,0.000000,0.000000,0.000000,0.000000,0.000000,-0.436000,0.000000,0.000000,0.000000,0.000000
1.12400,0.386796,0.000000,0.000000,0.000000,0.000000,0.000000,0.000000,-0.436000,0.000000,0.000000,0.000000,0.000000
1.12600,0.383058,0.000000,0.000000,0.000000,0.000000,0.000000,0.000000,-0.436000,0.000000,0.000000,0.000000,0.000000
1.12800,0.379320,0.000000,0.000000,0.000000,0.000000,0.000000,0.000000,-0.436000,0.000000,0.000000,0.000000,0.000000
1.13000,0.375582,0.000000,0.000000,0.000000,0.000000,0.000000,0.000000,-0.436000,0.000000,0.000000,0.000000,0.000000
1.13200,0.371844,0.000000,0.000000,0.000000,0.000000,0.000000,0.000000,-0.436000,0.000000,0.000000,0.000000,0.000000
1.13400,0.368106,0.000000,0.000000,0.000000,0.000000,0.000000,0.000000,-0.436000,0.000000,0.000000,0.000000,0.000000
1.13600,0.364368,0.000000,0.000000,0.000000,0.000000,0.000000,0.000000,-0.436000,0.000000,0.000000,0.000000,0.000000
1.13800,0.360630,0.000000,0.000000,0.000000,0.000000,0.000000,0.000000,-0.436000,0.000000,0.000000,0.000000,0.000000
1.14000,0.356892,0.000000,0.000000,0.000000,0.000000,0.000000,0.000000,-0.436000,0.000000,0.000000,0.000000,0.000000
1.14200,0.353154,0.000000,0.000000,0.000000,0.000000,0.000000,0.000000,-0.436000,0.000000,0.000000,0.000000,0.000000
1.14400,0.349416,0.000000,0.000000,0.000000,0.000000,0.000000,0.000000,-0.436000,0.000000,0.000000,0.000000,0.000000
1.14600,0.345678,0.000000,0.000000,0.000000,0.000000,0.000000,0.000000,-0.436000,0.000000,0.000000,0.000000,0.000000
1.14800,0.341940,0.000000,0.000000,0.000000,0.000000,0.000000,0.000000,-0.436000,0.000000,0.000000,0.000000,0.000000
1.15000,0.338202,0.000000,0.000000,0.000000,0.000000,0.000000,0.000000,-0.436000,0.000000,0.000000,0.000000,0.000000
1.15200,0.334464,0.000000,0.000000,0.000000,0.000000,0.000000,0.000000,-0.436000,0.000000,0.000000,0.000000,0.000000
1.15400,0.330726,0.000000,0.000000,0.000000,0.000000,0.000000,0.000000,-0.436000,0.000000,0.000000,0.000000,0.000000
1.15600,0.326988,0.000000,0.000000,0.000000,0.000000,0.000000,0.000000,-0.436000,0.000000,0.000000,0.000000,0.000000
1.15800,0.323250,0.000000,0.000000,0.000000,0.000000,0.000000,0.000000,-0.436000,0.000000,0.000000,0.000000,0.000000
1.16000,0.319512,0.000000,0.000000,0.000000,0.000000,0.000000,0.000000,-0.436000,0.000000,0.000000,0.000000,0.000000
1.16200,0.315774,0.000000,0.000000,0.000000,0.000000,0.000000,0.000000,-0.436000,0.000000,0.000000,0.000000,0.000000
1.16400,0.312036,0.000000,0.000000,0.000000,0.000000,0.000000,0.000000,-0.436000,0.000000,0.000000,0.000000,0.000000
1.16600,0.308298,0.000000,0.000000,0.000000,0.000000,0.000000,0.000000,-0.436000,0.000000,0.000000,0.000000,0.000000
1.16800,0.304560,0.000000,0.000000,0.000000,0.000000,0.000000,0.000000,-0.436000,0.000000,0.000000,0.000000,0.000000
1.17000,0.300822,0.000000,0.000000,0.000000,0.000000,0.000000,0.000000,-0.436000,0.000000,0.000000,0.000000,0.000000
1.17200,0.297084,0.000000,0.000000,0.000000,0.000000,0.000000,0.000000,-0.436000,0.000000,0.000000,0.000000,0.000000
1.17400,0.293346,0.000000,0.000000,0.000000,0.000000,0.000000,0.000000,-0.436000,0.000000,0.000000,0.000000,0.000000
1.17600,0.289608,0.000000,0.000000,0.000000,0.000000,0.000000,0.000000,-0.436000,0.000000,0.000000,0.000000,0.000000
1.17800,0.285870,0.000000,0.000000,0.000000,0.000000,0.000000,0.000000,-0.436000,0.000000,0.000000,0.000000,0.000000
1.18000,0.282132,0.000000,0.000000,0.000000,0.000000,0.000000,0.000000,-0.436000,0.000000,0.000000,0.000000,0.000000
1.18200,0.278394,0.000000,0.000000,0.000000,0.000000,0.000000,0.000000,-0.436000,0.000000,0.000000,0.000000,0.000000
1.18400,0.274656,0.000000,0.000000,0.000000,0.000000,0.000000,0.000000,-0.436000,0.000000,0.000000,0.000000,0.000000
1.18600,0.270918,0.000000,0.000000,0.000000,0.000000,0.000000,0.000000,-0.436000,0.000000,0.000000,0.000000,0.000000
1.18800,0.267180,0.000000,0.000000,0.000000,0.000000,0.000000,0.000000,-0.436000,0.000000,0.000000,0.000000,0.000000
1.19000,0.263442,0.000000,0.000000,0.000000,0.000000,0.000000,0.000000,-0.436000,0.000000,0.000000,0.000000,0.000000
1.19200,0.259704,0.000000,0.000000,0.000000,0.000000,0.000000,0.000000,-0.436000,0.000000,0.000000,0.000000,0.000000
1.19400,0.255966,0.000000,0.000000,0.000000,0.000000,0.000000,0.000000,-0.436000,0.000000,0.000000,0.000000,0.000000
1.19600,0.252228,0.000000,0.000000,0.000000,0.000000,0.000000,0.000000,-0.436000,0.000000,0.000000,0.000000,0.000000
1.19800,0.248490,0.000000,0.000000,0.000000,0.000000,0.000000,0.000000,-0.436000,0.000000,0.000000,0.000000,0.000000
1.20000,0.244752,0.000000,0.000000,0.000000,0.000000,0.000000,0.000000,-0.436000,0.000000,0.000000,0.000000,0.000000
1.20200,0.241014,0.000000,0.000000,0.000000,0.000000,0.000000,0.000000,-0.436000,0.000000,0.000000,0.000000,0.000000
1.20400,0.237276,0.000000,0.000000,0.000000,0.000000,0.000000,0.000000,-0.436000,0.000000,0.000000,0.000000,0.000000
1.20600,0.233538,0.000000,0.000000,0.000000,0.000000,0.000000,0.000000,-0.436000,0.000000,0.000000,0.000000,0.000000
1.20800,0.229800,0.000000,0.000000,0.000000,0.000000,0.000000,0.000000,-0.436000,0.000000,0.000000,0.000000,0.000000
1.21000,0.226062,0.000000,0.000000,0.000000,0.000000,0.000000,0.000000,-0.436000,0.000000,0.000000,0.000000,0.000000
1.21200,0.222324,0.000000,0.000000,0.000000,0.000000,0.000000,0.000000,-0.436000,0.000000,0.000000,0.000000,0.000000
1.21400,0.218586,0.000000,0.000000,0.000000,0.000000,0.000000,0.000000,-0.436000,0.000000,0.000000,0.000000,0.000000
1.21600,0.214848,0.000000,0.000000,0.000000,0.000000,0.000000,0.000000,-0.436000,0.000000,0.000000,0.000000,0.000000
1.21800,0.211110,0.000000,0.000000,0.000000,0.000000,0.000000,0.000000,-0.436000,0.000000,0.000000,0.000000,0.000000
1.22000,0.207372,0.000000,0.000000,0.000000,0.000000,0.000000,0.000000,-0.436000,0.000000,0.000000,0.000000,0.000000
1.22200,0.203634,0.000000,0.000000,0.000000,0.000000,0.000000,0.000000,-0.436000,0.000000,0.000000,0.000000,0.000000
1.22400,0.199896,0.000000,0.000000,0.000000,0.000000,0.000000,0.000000,-0.436000,0.000000,0.000000,0.000000,0.000000
1.22600,0.196158,0.000000,0.000000,0.000000,0.000000,0.000000,0.000000,-0.436000,0.000000,0.000000,0.000000,0.000000
1.22800,0.192420,0.000000,0.000000,0.000000,0.000000,0.000000,0.000000,-0.436000,0.000000,0.000000,0.000000,0.000000
1.23000,0.188682,0.000000,0.000000,0.000000,0.000000,0.000000,0.000000,-0.436000,0.000000,0.000000,0.000000,0.000000
1.23200,0.184944,0.000000,0.000000,0.000000,0.000000,0.000000,0.000000,-0.436000,0.000000,0.000000,0.000000,0.000000
1.23400,0.181206,0.000000,0.000000,0.000000,0.000000,0.000000,0.000000,-0.436000,0.000000,0.000000,0.000000,0.000000
1.23600,0.177468,0.000000,0.000000,0.000000,0.000000,0.000000,0.000000,-0.436000,0.000000,0.000000,0.000000,0.000000
1.23800,0.173730,0.000000,0.000000,0.000000,0.000000,0.000000,0.000000,-0.436000,0.000000,0.000000,0.000000,0.000000
1.24000,0.169992,0.000000,0.000000,0.000000,0.000000,0.000000,0.000000,-0.436000,0.000000,0.000000,0.000000,0.000000
1.24200,0.166254,0.000000,0.000000,0.000000,0.000000,0.000000,0.000000,-0.436000,0.000000,0.000000,0.000000,0.000000
1.24400,0.162516,0.000000,0.000000,0.000000,0.000000,0.000000,0.000000,-0.436000,0.000000,0.000000,0.000000,0.000000
1.24600,0.158778,0.000000,0.000000,0.000000,0.000000,0.000000,0.000000,-0.436000,0.000000,0.000000,0.000000,0.000000
1.24800,0.155040,0.000000,0.000000,0.000000,0.000000,0.000000,0.000000,-0.436000,0.000000,0.000000,0.000000,0.000000
1.25000,0.151302,0.000000,0.000000,0.000000,0.000000,0.000000,0.000000,-0.436000,0.000000,0.000000,0.000000,0.000000
1.25200,0.147564,0.000000,0.000000,0.000000,0.000000,0.000000,0.000000,-0.436000,0.000000,0.000000,0.000000,0.000000
1.25400,0.143826,0.000000,0.000000,0.000000,0.000000,0.000000,0.000000,-0.436000,0.000000,0.000000,0.000000,0.000000
1.25600,0.140088,0.000000,0.000000,0.000000,0.000000,0.000000,0.000000,-0.436000,0.000000,0.000000,0.000000,0.000000
1.25800,0.136350,0.000000,0.000000,0.000000,0.000000,0.000000,0.000000,-0.436000,0.000000,0.000000,0.000000,0.000000
1.26000,0.132612,0.000000,0.000000,0.000000,0.000000,0.000000,0.000000,-0.436000,0.000000,0.000000,0.000000,0.000000
1.26200,0.128874,0.000000,0.000000,0.000000,0.000000,0.000000,0.000000,-0.436000,0.000000,0.000000,0.000000,0.000000
1.26400,0.125136,0.000000,0.000000,0.000000,0.000000,0.000000,0.000000,-0.436000,0.000000,0.000000,0.000000,0.000000
1.26600,0.121398,0.000000,0.000000,0.000000,0.000000,0.000000,0.000000,-0.436000,0.000000,0.000000,0.000000,0.000000
1.26800,0.117660,0.000000,0.000000,0.000000,0.000000,0.000000,0.000000,-0.436000,0.000000,0.000000,0.000000,0.000000
1.27000,0.113922,0.000000,0.000000,0.000000,0.000000,0.000000,0.000000,-0.436000,0.000000,0.000000,0.000000,0.000000
1.27200,0.110184,0.000000,0.000000,0.000000,0.000000,0.000000,0.000000,-0.436000,0.000000,0.000000,0.000000,0.000000
1.27400,0.106446,0.000000,0.000000,0.000000,0.000000,0.000000,0.000000,-0.436000,0.000000,0.000000,0.000000,0.000000
1.27600,0.102708,0.000000,0.000000,0.000000,0.000000,0.000000,0.000000,-0.436000,0.000000,0.000000,0.000000,0.000000
1.27800,0.098970,0.000000,0.000000,0.000000,0.000000,0.000000,0.000000,-0.436000,0.000000,0.000000,0.000000,0.000000
1.28000,0.095232,0.000000,0.000000,0.000000,0.000000,0.000000,0.000000,-0.436000,0.000000,0.000000,0.000000,0.000000
1.28200,0.091494,0.000000,0.000000,0.000000,0.000000,0.000000,0.000000,-0.436000,0.000000,0.000000,0.000000,0.000000
1.28400,0.087756,0.000000,0.000000,0.000000,0.000000,0.000000,0.000000,-0.436000,0.000000,0.000000,0.000000,0.000000
1.28600,0.084018,0.000000,0.000000,0.000000,0.000000,0.000000,0.000000,-0.436000,0.000000,0.000000,0.000000,0.000000
1.28800,0.080280,0.000000,0.000000,0.000000,0.000000,0.000000,0.000000,-0.436000,0.000000,0.000000,0.000000,0.000000
1.29000,0.076542,0.000000,0.000000,0.000000,0.000000,0.000000,0.000000,-0.436000,0.000000,0.000000,0.000000,0.000000
1.29200,0.072804,0.000000,0.000000,0.000000,0.000000,0.000000,0.000000,-0.436000,0.000000,0.000000,0.000000,0.000000
1.29400,0.069066,0.000000,0.000000,0.000000,0.000000,0.000000,0.000000,-0.436000,0.000000,0.000000,0.000000,0.000000
1.29600,0.065328,0.000000,0.000000,0.000000,0.000000,0.000000,0.000000,-0.436000,0.000000,0.000000,0.000000,0.000000
1.29800,0.061590,0.000000,0.000000,0.000000,0.000000,0.000000,0.000000,-0.436000,0.000000,0.000000,0.000000,0.000000
1.30000,0.057852,0.000000,0.000000,0.000000,0.000000,0.000000,0.000000,-0.436000,0.000000,0.000000,0.000000,0.000000
1.30200,0.054114,0.000000,0.000000,0.000000,0.000000,0.000000,0.000000,-0.436000,0.000000,0.000000,0.000000,0.000000
1.30400,0.050376,0.000000,0.000000,0.000000,0.000000,0.000000,0.000000,-0.436000,0.000000,0.000000,0.000000,0.000000
1.30600,0.046638,0.000000,0.000000,0.000000,0.000000,0.000000,0.000000,-0.436000,0.000000,0.000000,0.000000,0.000000
1.30800,0.042900,0.000000,0.000000,0.000000,0.000000,0.000000,0.000000,-0.436000,0.000000,0.000000,0.000000,0.000000
1.31000,0.039162,0.000000,0.000000,0.000000,0.000000,0.000000,0.000000,-0.436000,0.000000,0.000000,0.000000,0.000000
1.31200,0.035424,0.000000,0.000000,0.000000,0.000000,0.000000,0.000000,-0.436000,0.000000,0.000000,0.000000,0.000000
1.31400,0.031686,0.000000,0.000000,0.000000,0.000000,0.000000,0.000000,-0.436000,0.000000,0.000000,0.000000,0.000000
1.31600,0.027948,0.000000,0.000000,0.000000,0.000000,0.000000,0.000000,-0.436000,0.000000,0.000000,0.000000,0.000000
1.31800,0.024210,0.000000,0.000000,0.000000,0.000000,0.000000,0.000000,-0.436000,0.000000,0.000000,0.000000,0.000000
1.32000,0.020472,0.000000,0.000000,0.000000,0.000000,0.000000,0.000000,-0.436000,0.000000,0.000000,0.000000,0.000000
1.32200,0.016734,0.000000,0.000000,0.000000,0.000000,0.000000,0.000000,-0.436000,0.000000,0.000000,0.000000,0.000000
1.32400,0.012996,0.000000,0.000000,0.000000,0.000000,0.000000,0.000000,-0.436000,0.000000,0.000000,0.000000,0.000000
1.32600,0.009258,0.000000,0.000000,0.000000,0.000000,0.000000,0.000000,-0.436000,0.000000,0.000000,0.000000,0.000000
1.32800,0.005520,0.000000,0.000000,0.000000,0.000000,0.000000,0.000000,-0.436000,0.000000,0.000000,0.000000,0.000000
1.33000,0.001782,0.000000,0.000000,0.000000,0.000000,0.000000,0.000000,-0.436000,0.000000,0.000000,0.000000,0.000000
1.33200,-0.001956,0.000000,0.000000,0.000000,0.000000,0.000000,0.000000,-0.436000,0.000000,0.000000,0.000000,0.000000
1.33400,-0.005694,0.000000,0.000000,0.000000,0.000000,0.000000,0.000000,-0.436000,0.000000,0.000000,0.000000,0.000000
1.33600,-0.009432,0.000000,0.000000,0.000000,0.000000,0.000000,0.000000,-0.436000,0.000000,0.000000,0.000000,0.000000
1.33800,-0.013170,0.000000,0.000000,0.000000,0.000000,0.000000,0.000000,-0.436000,0.000000,0.000000,0.000000,0.000000
1.34000,-0.016908,0.000000,0.000000,0.000000,0.000000,0.000000,0.000000,-0.436000,0.000000,0.000000,0.000000,0.000000
1.34200,-0.020646,0.000000,0.000000,0.000000,0.000000,0.000000,0.000000,-0.436000,0.000000,0.000000,0.000000,0.000000
1.34400,-0.024384,0.000000,0.000000,0.000000,0.000000,0.000000,0.000000,-0.436000,0.000000,0.000000,0.000000,0.000000
1.34600,-0.028122,0.000000,0.000000,0.000000,0.000000,0.000000,0.000000,-0.436000,0.000000,0.000000,0.000000,0.000000
1.34800,-0.031860,0.000000,0.000000,0.000000,0.000000,0.000000,0.000000,-0.436000,0.000000,0.000000,0.000000,0.000000
1.35000,-0.035598,0.000000,0.000000,0.000000,0.000000,0.000000,0.000000,-0.436000,0.000000,0.000000,0.000000,0.000000
1.35200,-0.039336,0.000000,0.000000,0.000000,0.000000,0.000000,0.000000,-0.436000,0.000000,0.000000,0.000000,0.000000
1.35400,-0.043074,0.000000,0.000000,0.000000,0.000000,0.000000,0.000000,-0.436000,0.000000,0.000000,0.000000,0.000000
1.35600,-0.046812,0.000000,0.000000,0.000000,0.000000,0.000000,0.000000,-0.436000,0.000000,0.000000,0.000000,0.000000
1.35800,-0.050550,0.000000,0.000000,0.000000,0.000000,0.000000,0.000000,-0.436000,0.000000,0.000000,0.000000,0.000000
1.36000,-0.054288,0.000000,0.000000,0.000000,0.000000,0.000000,0.000000,-0.436000,0.000000,0.000000,0.000000,0.000000
1.36200,-0.058026,0.000000,0.000000,0.000000,0.000000,0.000000,0.000000,-0.436000,0.000000,0.000000,0.000000,0.000000
1.36400,-0.061764,0.000000,0.000000,0.000000,0.000000,0.000000,0.000000,-0.436000,0.000000,0.000000,0.000000,0.000000
1.36600,-0.065502,0.000000,0.000000,0.000000,0.000000,0.000000,0.000000,-0.436000,0.000000,0.000000,0.000000,0.000000
1.36800,-0.069240,0.000000,0.000000,0.000000,0.000000,0.000000,0.000000,-0.436000,0.000000,0.000000,0.000000,0.000000
1.37000,-0.072978,0.000000,0.000000,0.000000,0.000000,0.000000,0.000000,-0.436000,0.000000,0.000000,0.000000,0.000000
1.37200,-0.076716,0.000000,0.000000,0.000000,0.000000,0.000000,0.000000,-0.436000,0.000000,0.000000,0.000000,0.000000
1.37400,-0.080454,0.000000,0.000000,0.000000,0.000000,0.000000,0.000000,-0.436000,0.000000,0.000000,0.000000,0.000000
1.37600,-0.084192,0.000000,0.000000,0.000000,0.000000,0.000000,0.000000,-0.436000,0.000000,0.000000,0.000000,0.000000
1.37800,-0.087930,0.000000,0.000000,0.000000,0.000000,0.000000,0.000000,-0.436000,0.000000,0.000000,0.000000,0.000000
1.38000,-0.091668,0.000000,0.000000,0.000000,0.000000,0.000000,0.000000,-0.436000,0.000000,0.000000,0.000000,0.000000
1.38200,-0.095406,0.000000,0.000000,0.000000,0.000000,0.000000,0.000000,-0.436000,0.000000,0.000000,0.000000,0.000000
1.38400,-0.099144,0.000000,0.000000,0.000000,0.000000,0.000000,0.000000,-0.436000,0.000000,0.000000,0.000000,0.000000
1.38600,-0.102882,0.000000,0.000000,0.000000,0.000000,0.000000,0.000000,-0.436000,0.000000,0.000000,0.000000,0.000000
1.38800,-0.106620,0.000000,0.000000,0.000000,0.000000,0.000000,0.000000,-0.436000,0.000000,0.000000,0.000000,0.000000
1.39000,-0.110358,0.000000,0.000000,0.000000,0.000000,0.000000,0.000000,-0.436000,0.000000,0.000000,0.000000,0.000000
1.39200,-0.114096,0.000000,0.000000,0.000000,0.000000,0.000000,0.000000,-0.436000,0.000000,0.000000,0.000000,0.000000
1.39400,-0.117834,0.000000,0.000000,0.000000,0.000000,0.000000,0.000000,-0.436000,0.000000,0.000000,0.000000,0.000000
1.39600,-0.121572,0.000000,0.000000,0.000000,0.000000,0.000000,0.000000,-0.436000,0.000000,0.000000,0.000000,0.000000
1.39800,-0.125310,0.000000,0.000000,0.000000,0.000000,0.000000,0.000000,-0.436000,0.000000,0.000000,0.000000,0.000000
1.40000,-0.129048,0.000000,0.000000,0.000000,0.000000,0.000000,0.000000,-0.436000,0.000000,0.000000,0.000000,0.000000
1.40200,-0.132786,0.000000,0.000000,0.000000,0.000000,0.000000,0.000000,-0.436000,0.000000,0.000000,0.000000,0.000000
1.40400,-0.136524,0.000000,0.000000,0.000000,0.000000,0.000000,0.000000,-0.436000,0.000000,0.000000,0.000000,0.000000
1.40600,-0.140262,0.000000,0.000000,0.000000,0.000000,0.000000,0.000000,-0.436000,0.000000,0.000000,0.000000,0.000000
1.40800,-0.144000,0.000000,0.000000,0.000000,0.000000,0.000000,0.000000,-0.436000,0.000000,0.000000,0.000000,0.000000
1.41000,-0.147738,0.000000,0.000000,0.000000,0.000000,0.000000,0.000000,-0.436000,0.000000,0.000000,0.000000,0.000000
1.41200,-0.151476,0.000000,0.000000,0.000000,0.000000,0.000000,0.000000,-0.436000,0.000000,0.000000,0.000000,0.000000
1.41400,-0.155214,0.000000,0.000000,0.000000,0.000000,0.000000,0.000000,-0.436000,0.000000,0.000000,0.000000,0.000000
1.41600,-0.158952,0.000000,0.000000,0.000000,0.000000,0.000000,0.000000,-0.436000,0.000000,0.000000,0.000000,0.000000
1.41800,-0.162690,0.000000,0.000000,0.000000,0.000000,0.000000,0.000000,-0.436000,0.000000,0.000000,0.000000,0.000000
1.42000,-0.166428,0.000000,0.000000,0.000000,0.000000,0.000000,0.000000,-0.436000,0.000000,0.000000,0.000000,0.000000
1.42200,-0.170166,0.000000,0.000000,0.000000,0.000000,0.000000,0.000000,-0.436000,0.000000,0.000000,0.000000,0.000000
1.42400,-0.173904,0.000000,0.000000,0.000000,0.000000,0.000000,0.000000,-0.436000,0.000000,0.000000,0.000000,0.000000
1.42600,-0.177642,0.000000,0.000000,0.000000,0.000000,0.000000,0.000000,-0.436000,0.000000,0.000000,0.000000,0.000000
1.42800,-0.181380,0.000000,0.000000,0.000000,0.000000,0.000000,0.000000,-0.436000,0.000000,0.000000,0.000000,0.000000
1.43000,-0.185118,0.000000,0.000000,0.000000,0.000000,0.000000,0.000000,-0.436000,0.000000,0.000000,0.000000,0.000000
1.43200,-0.188856,0.000000,0.000000,0.000000,0.000000,0.000000,0.000000,-0.436000,0.000000,0.000000,0.000000,0.000000
1.43400,-0.192594,0.000000,0.000000,0.000000,0.000000,0.000000,0.000000,-0.436000,0.000000,0.000000,0.000000,0.000000
1.43600,-0.196332,0.000000,0.000000,0.000000,0.000000,0.000000,0.000000,-0.436000,0.000000,0.000000,0.000000,0.000000
1.43800,-0.200070,0.000000,0.000000,0.000000,0.000000,0.000000,0.000000,-0.436000,0.000000,0.000000,0.000000,0.000000
1.44000,-0.203808,0.000000,0.000000,0.000000,0.000000,0.000000,0.000000,-0.436000,0.000000,0.000000,0.000000,0.000000
1.44200,-0.207546,0.000000,0.000000,0.000000,0.000000,0.000000,0.000000,-0.436000,0.000000,0.000000,0.000000,0.000000
1.44400,-0.211284,0.000000,0.000000,0.000000,0.000000,0.000000,0.000000,-0.436000,0.000000,0.000000,0.000000,0.000000
1.44600,-0.215022,0.000000,0.000000,0.000000,0.000000,0.000000,0.000000,-0.436000,0.000000,0.000000,0.000000,0.000000
1.44800,-0.218760,0.000000,0.000000,0.000000,0.000000,0.000000,0.000000,-0.436000,0.000000,0.000000,0.000000,0.000000
1.45000,-0.222498,0.000000,0.000000,0.000000,0.000000,0.000000,0.000000,-0.436000,0.000000,0.000000,0.000000,0.000000
1.45200,-0.226236,0.000000,0.000000,0.000000,0.000000,0.000000,0.000000,-0.436000,0.000000,0.000000,0.000000,0.000000
1.45400,-0.229974,0.000000,0.000000,0.000000,0.000000,0.000000,0.000000,-0.436000,0.000000,0.000000,0.000000,0.000000
1.45600,-0.233712,0.000000,0.000000,0.000000,0.000000,0.000000,0.000000,-0.436000,0.000000,0.000000,0.000000,0.000000
1.45800,-0.237450,0.000000,0.000000,0.000000,0.000000,0.000000,0.000000,-0.436000,0.000000,0.000000,0.000000,0.000000
1.46000,-0.241188,0.000000,0.000000,0.000000,0.000000,0.000000,0.000000,-0.436000,0.000000,0.000000,0.000000,0.000000
1.46200,-0.244926,0.000000,0.000000,0.000000,0.000000,0.000000,0.000000,-0.436000,0.000000,0.000000,0.000000,0.000000
1.46400,-0.248664,0.000000,0.000000,0.000000,0.000000,0.000000,0.000000,-0.436000,0.000000,0.000000,0.000000,0.000000
1.46600,-0.252402,0.000000,0.000000,0.000000,0.000000,0.000000,0.000000,-0.436000,0.000000,0.000000,0.000000,0.000000
1.46800,-0.256140,0.000000,0.000000,0.000000,0.000000,0.000000,0.000000,-0.436000,0.000000,0.000000,0.000000,0.000000
1.47000,-0.259878,0.000000,0.000000,0.000000,0.000000,0.000000,0.000000,-0.436000,0.000000,0.000000,0.000000,0.000000
1.47200,-0.263616,0.000000,0.000000,0.000000,0.000000,0.000000,0.000000,-0.436000,0.000000,0.000000,0.000000,0.000000
1.47400,-0.267354,0.000000,0.000000,0.000000,0.000000,0.000000,0.000000,-0.436000,0.000000,0.000000,0.000000,0.000000
1.47600,-0.271092,0.000000,0.000000,0.000000,0.000000,0.000000,0.000000,-0.436000,0.000000,0.000000,0.000000,0.000000
1.47800,-0.274830,0.000000,0.000000,0.000000,0.000000,0.000000,0.000000,-0.436000,0.000000,0.000000,0.000000,0.000000
1.48000,-0.278568,0.000000,0.000000,0.000000,0.000000,0.000000,0.000000,-0.436000,0.000000,0.000000,0.000000,0.000000
1.48200,-0.282306,0.000000,0.000000,0.000000,0.000000,0.000000,0.000000,-0.436000,0.000000,0.000000,0.000000,0.000000
1.48400,-0.286044,0.000000,0.000000,0.000000,0.000000,0.000000,0.000000,-0.436000,0.000000,0.000000,0.000000,0.000000
1.48600,-0.289782,0.000000,0.000000,0.000000,0.000000,0.000000,0.000000,-0.436000,0.000000,0.000000,0.000000,0.000000
1.48800,-0.293520,0.000000,0.000000,0.000000,0.000000,0.000000,0.000000,-0.436000,0.000000,0.000000,0.000000,0.000000
1.49000,-0.297258,0.000000,0.000000,0.000000,0.000000,0.000000,0.000000,-0.436000,0.000000,0.000000,0.000000,0.000000
1.49200,-0.300996,0.000000,0.000000,0.000000,0.000000,0.000000,0.000000,-0.436000,0.000000,0.000000,0.000000,0.000000
1.49400,-0.304734,0.000000,0.000000,0.000000,0.000000,0.000000,0.000000,-0.436000,0.000000,0.000000,0.000000,0.000000
1.49600,-0.308472,0.000000,0.000000,0.000000,0.000000,0.000000,0.000000,-0.436000,0.000000,0.000000,0.000000,0.000000
1.49800,-0.312210,0.000000,0.000000,0.000000,0.000000,0.000000,0.000000,-0.436000,0.000000,0.000000,0.000000,0.000000
1.50000,-0.315948,0.000000,0.000000,0.000000,0.000000,0.000000,0.000000,-0.436000,0.000000,0.000000,0.000000,0.000000
1.50200,-0.319686,0.000000,0.000000,0.000000,0.000000,0.000000,0.000000,-0.436000,0.000000,0.000000,0.000000,0.000000
1.50400,-0.323424,0.000000,0.000000,0.000000,0.000000,0.000000,0.000000,-0.436000,0.000000,0.000000,0.000000,0.000000
1.50600,-0.327162,0.000000,0.000000,0.000000,0.000000,0.000000,0.000000,-0.436000,0.000000,0.000000,0.000000,0.000000
1.50800,-0.330900,0.000000,0.000000,0.000000,0.000000,0.000000,0.000000,-0.436000,0.000000,0.000000,0.000000,0.000000
1.51000,-0.334638,0.000000,0.000000,0.000000,0.000000,0.000000,0.000000,-0.436000,0.000000,0.000000,0.000000,0.000000
1.51200,-0.338376,0.000000,0.000000,0.000000,0.000000,0.000000,0.000000,-0.436000,0.000000,0.000000,0.000000,0.000000
1.51400,-0.342114,0.000000,0.000000,0.000000,0.000000,0.000000,0.000000,-0.436000,0.000000,0.000000,0.000000,0.000000
1.51600,-0.345852,0.000000,0.000000,0.000000,0.000000,0.000000,0.000000,-0.436000,0.000000,0.000000,0.000000,0.000000
1.51800,-0.349590,0.000000,0.000000,0.000000,0.000000,0.000000,0.000000,-0.436000,0.000000,0.000000,0.000000,0.000000
1.52000,-0.353328,0.000000,0.000000,0.000000,0.000000,0.000000,0.000000,-0.436000,0.000000,0.000000,0.000000,0.000000
1.52200,-0.357066,0.000000,0.000000,0.000000,0.000000,0.000000,0.000000,-0.436000,0.000000,0.000000,0.000000,0.000000
1.52400,-0.360804,0.000000,0.000000,0.000000,0.000000,0.000000,0.000000,-0.436000,0.000000,0.000000,0.000000,0.000000
1.52600,-0.364542,0.000000,0.000000,0.000000,0.000000,0.000000,0.000000,-0.436000,0.000000,0.000000,0.000000,0.000000
1.52800,-0.368280,0.000000,0.000000,0.000000,0.000000,0.000000,0.000000,-0.436000,0.000000,0.000000,0.000000,0.000000
1.53000,-0.372018,0.000000,0.000000,0.000000,0.000000,0.000000,0.000000,-0.436000,0.000000,0.000000,0.000000,0.000000
1.53200,-0.375756,0.000000,0.000000,0.000000,0.000000,0.000000,0.000000,-0.436000,0.000000,0.000000,0.000000,0.000000
1.53400,-0.379494,0.000000,0.000000,0.000000,0.000000,0.000000,0.000000,-0.436000,0.000000,0.000000,0.000000,0.000000
1.53600,-0.383232,0.000000,0.000000,0.000000,0.000000,0.000000,0.000000,-0.436000,0.000000,0.000000,0.000000,0.000000
1.53800,-0.386970,0.000000,0.000000,0.000000,0.000000,0.000000,0.000000,-0.436000,0.000000,0.000000,0.000000,0.000000
1.54000,-0.390708,0.000000,0.000000,0.000000,0.000000,0.000000,0.000000,-0.436000,0.000000,0.000000,0.000000,0.000000
1.54200,-0.394446,0.000000,0.000000,0.000000,0.000000,0.000000,0.000000,-0.436000,0.000000,0.000000,0.000000,0.000000
1.54400,-0.398184,0.000000,0.000000,0.000000,0.000000,0.000000,0.000000,-0.436000,0.000000,0.000000,0.000000,0.000000
1.54600,-0.401922,0.000000,0.000000,0.000000,0.000000,0.000000,0.000000,-0.436000,0.000000,0.000000,0.000000,0.000000
1.54800,-0.405660,0.000000,0.000000,0.000000,0.000000,0.000000,0.000000,-0.436000,0.000000,0.000000,0.000000,0.000000
1.55000,-0.409398,0.000000,0.000000,0.000000,0.000000,0.000000,0.000000,-0.436000,0.000000,0.000000,0.000000,0.000000
1.55200,-0.413136,0.000000,0.000000,0.000000,0.000000,0.000000,0.000000,-0.436000,0.000000,0.000000,0.000000,0.000000
1.55400,-0.416874,0.000000,0.000000,0.000000,0.000000,0.000000,0.000000,-0.436000,0.000000,0.000000,0.000000,0.000000
1.55600,-0.420612,0.000000,0.000000,0.000000,0.000000,0.000000,0.000000,-0.436000,0.000000,0.000000,0.000000,0.000000
1.55800,-0.424350,0.000000,0.000000,0.000000,0.000000,0.000000,0.000000,-0.436000,0.000000,0.000000,0.000000,0.000000
1.56000,-0.428088,0.000000,0.000000,0.000000,0.000000,0.000000,0.000000,-0.436000,0.000000,0.000000,0.000000,0.000000
1.56200,-0.431826,0.000000,0.000000,0.000000,0.000000,0.000000,0.000000,-0.436000,0.000000,0.000000,0.000000,0.000000
1.56400,-0.435564,0.000000,0.000000,0.000000,0.000000,0.000000,0.000000,-0.436000,0.000000,0.000000,0.000000,0.000000
1.56600,-0.439302,0.000000,0.000000,0.000000,0.000000,0.000000,0.000000,-0.436000,0.000000,0.000000,0.000000,0.000000
1.56800,-0.443040,0.000000,0.000000,0.000000,0.000000,0.000000,0.000000,-0.436000,0.000000,0.000000,0.000000,0.000000
1.57000,-0.446778,0.000000,0.000000,0.000000,0.000000,0.000000,0.000000,-0.436000,0.000000,0.000000,0.000000,0.000000
1.57200,-0.450516,0.000000,0.000000,0.000000,0.000000,0.000000,0.000000,-0.436000,0.000000,0.000000,0.000000,0.000000
1.57400,-0.454254,0.000000,0.000000,0.000000,0.000000,0.000000,0.000000,-0.436000,0.000000,0.000000,0.000000,0.000000
1.57600,-0.457992,0.000000,0.000000,0.000000,0.000000,0.000000,0.000000,-0.436000,0.000000,0.000000,0.000000,0.000000
1.57800,-0.461730,0.000000,0.000000,0.000000,0.000000,0.000000,0.000000,-0.436000,0.000000,0.000000,0.000000,0.000000
1.58000,-0.465468,0.000000,0.000000,0.000000,0.000000,0.000000,0.000000,-0.436000,0.000000,0.000000,0.000000,0.000000
1.58200,-0.469206,0.000000,0.000000,0.000000,0.000000,0.000000,0.000000,-0.436000,0.000000,0.000000,0.000000,0.000000
1.58400,-0.472944,0.000000,0.000000,0.000000,0.000000,0.000000,0.000000,-0.436000,0.000000,0.000000,0.000000,0.000000
1.58600,-0.476682,0.000000,0.000000,0.000000,0.000000,0.000000,0.000000,-0.436000,0.000000,0.000000,0.000000,0.000000
1.58800,-0.480420,0.000000,0.000000,0.000000,0.000000,0.000000,0.000000,-0.436000,0.000000,0.000000,0.000000,0.000000
1.59000,-0.484158,0.000000,0.000000,0.000000,0.000000,0.000000,0.000000,-0.436000,0.000000,0.000000,0.000000,0.000000
1.59200,-0.487896,0.000000,0.000000,0.000000,0.000000,0.000000,0.000000,-0.436000,0.000000,0.000000,0.000000,0.000000
1.59400,-0.491634,0.000000,0.000000,0.000000,0.000000,0.000000,0.000000,-0.436000,0.000000,0.000000,0.000000,0.000000
1.59600,-0.495372,0.000000,0.000000,0.000000,0.000000,0.000000,0.000000,-0.436000,0.000000,0.000000,0.000000,0.000000
1.59800,-0.499110,0.000000,0.000000,0.000000,0.000000,0.000000,0.000000,-0.436000,0.000000,0.000000,0.000000,0.000000
1.60000,-0.502848,0.000000,0.000000,0.000000,0.000000,0.000000,0.000000,-0.436000,0.000000,0.000000,0.000000,0.000000
1.60200,-0.506586,0.000000,0.000000,0.000000,0.000000,0.000000,0.000000,-0.436000,0.000000,0.000000,0.000000,0.000000
1.60400,-0.510324,0.000000,0.000000,0.000000,0.000000,0.000000,0.000000,-0.436000,0.000000,0.000000,0.000000,0.000000
1.60600,-0.514062,0.000000,0.000000,0.000000,0.000000,0.000000,0.000000,-0.436000,0.000000,0.000000,0.000000,0.000000
1.60800,-0.517800,0.000000,0.000000,0.000000,0.000000,0.000000,0.000000,-0.436000,0.000000,0.000000,0.000000,0.000000
1.61000,-0.521538,0.000000,0.000000,0.000000,0.000000,0.000000,0.000000,-0.436000,0.000000,0.000000,0.000000,0.000000
1.61200,-0.525276,0.000000,0.000000,0.000000,0.000000,0.000000,0.000000,-0.436000,0.000000,0.000000,0.000000,0.000000
1.61400,-0.529014,0.000000,0.000000,0.000000,0.000000,0.000000,0.000000,-0.436000,0.000000,0.000000,0.000000,0.000000
1.61600,-0.532752,0.000000,0.000000,0.000000,0.000000,0.000000,0.000000,-0.436000,0.000000,0.000000,0.000000,0.000000
1.61800,-0.536490,0.000000,0.000000,0.000000,0.000000,0.000000,0.000000,-0.436000,0.000000,0.000000,0.000000,0.000000
1.62000,-0.540228,0.000000,0.000000,0.000000,0.000000,0.000000,0.000000,-0.436000,0.000000,0.000000,0.000000,0.000000
1.62200,-0.543966,0.000000,0.000000,0.000000,0.000000,0.000000,0.000000,-0.436000,0.000000,0.000000,0.000000,0.000000
1.62400,-0.547704,0.000000,0.000000,0.000000,0.000000,0.000000,0.000000,-0.436000,0.000000,0.000000,0.000000,0.000000
1.62600,-0.551442,0.000000,0.000000,0.000000,0.000000,0.000000,0.000000,-0.436000,0.000000,0.000000,0.000000,0.000000
1.62800,-0.555180,0.000000,0.000000,0.000000,0.000000,0.000000,0.000000,-0.436000,0.000000,0.000000,0.000000,0.000000
1.63000,-0.558918,0.000000,0.000000,0.000000,0.000000,0.000000,0.000000,-0.436000,0.000000,0.000000,0.000000,0.000000
1.63200,-0.562656,0.000000,0.000000,0.000000,0.000000,0.000000,0.000000,-0.436000,0.000000,0.000000,0.000000,0.000000
1.63400,-0.566394,0.000000,0.000000,0.000000,0.000000,0.000000,0.000000,-0.436000,0.000000,0.000000,0.000000,0.000000
1.63600,-0.570132,0.000000,0.000000,0.000000,0.000000,0.000000,0.000000,-0.436000,0.000000,0.000000,0.000000,0.000000
1.63800,-0.573870,0.000000,0.000000,0.000000,0.000000,0.000000,0.000000,-0.436000,0.000000,0.000000,0.000000,0.000000
1.64000,-0.577608,0.000000,0.000000,0.000000,0.000000,0.000000,0.000000,-0.436000,0.000000,0.000000,0.000000,0.000000
1.64200,-0.581346,0.000000,0.000000,0.000000,0.000000,0.000000,0.000000,-0.436000,0.000000,0.000000,0.000000,0.000000
1.64400,-0.585084,0.000000,0.000000,0.000000,0.000000,0.000000,0.000000,-0.436000,0.000000,0.000000,0.000000,0.000000
1.64600,-0.588822,0.000000,0.000000,0.000000,0.000000,0.000000,0.000000,-0.436000,0.000000,0.000000,0.000000,0.000000
1.64800,-0.592560,0.000000,0.000000,0.000000,0.000000,0.000000,0.000000,-0.436000,0.000000,0.000000,0.000000,0.000000
1.65000,-0.596298,0.000000,0.000000,0.000000,0.000000,0.000000,0.000000,-0.436000,0.000000,0.000000,0.000000,0.000000
1.65200,-0.610000,0.000000,0.000000,0.000000,0.000000,0.000000,0.000000,-0.436000,0.000000,0.000000,0.000000,0.000000
1.65400,-0.609600,0.000000,0.000000,0.000000,0.000000,0.000000,0.000000,-0.436000,0.000000,0.000000,0.000000,0.000000
1.65600,-0.608400,0.000000,0.000000,0.000000,0.000000,0.000000,0.000000,-0.436000,0.000000,0.000000,0.000000,0.000000
1.65800,-0.606400,0.000000,0.000000,0.000000,0.000000,0.000000,0.000000,-0.436000,0.000000,0.000000,0.000000,0.000000
1.66000,-0.610000,0.000000,0.000000,0.000000,0.000000,0.000000,0.000000,-0.436000,0.000000,0.000000,0.000000,0.000000
1.66200,-0.609600,0.000000,0.000000,0.000000,0.000000,0.000000,0.000000,-0.436000,0.000000,0.000000,0.000000,0.000000
1.66400,-0.608400,0.000000,0.000000,0.000000,0.000000,0.000000,0.000000,-0.436000,0.000000,0.000000,0.000000,0.000000
1.66600,-0.606400,0.000000,0.000000,0.000000,0.000000,0.000000,0.000000,-0.436000,0.000000,0.000000,0.000000,0.000000
1.66800,-0.603600,0.000000,0.000000,0.000000,0.000000,0.000000,0.000000,-0.436000,0.000000,0.000000,0.000000,0.000000
1.67000,-0.603600,0.000000,0.000000,0.000000,0.000000,0.000000,0.000000,-0.436000,0.000000,0.000000,0.000000,0.000000
1.67200,-0.599862,0.000000,0.000000,0.000000,0.000000,0.000000,0.000000,-0.436000,0.000000,0.000000,0.000000,0.000000
1.67400,-0.596124,0.000000,0.000000,0.000000,0.000000,0.000000,0.000000,-0.436000,0.000000,0.000000,0.000000,0.000000
1.67600,-0.592386,0.000000,0.000000,0.000000,0.000000,0.000000,0.000000,-0.436000,0.000000,0.000000,0.000000,0.000000
1.67800,-0.588648,0.000000,0.000000,0.000000,0.000000,0.000000,0.000000,-0.436000,0.000000,0.000000,0.000000,0.000000
1.68000,-0.584910,0.000000,0.000000,0.000000,0.000000,0.000000,0.000000,-0.436000,0.000000,0.000000,0.000000,0.000000
1.68200,-0.581172,0.000000,0.000000,0.000000,0.000000,0.000000,0.000000,-0.436000,0.000000,0.000000,0.000000,0.000000
1.68400,-0.577434,0.000000,0.000000,0.000000,0.000000,0.000000,0.000000,-0.436000,0.000000,0.000000,0.000000,0.000000
1.68600,-0.573696,0.000000,0.000000,0.000000,0.000000,0.000000,0.000000,-0.436000,0.000000,0.000000,0.000000,0.000000
1.68800,-0.569958,0.000000,0.000000,0.000000,0.000000,0.000000,0.000000,-0.436000,0.000000,0.000000,0.000000,0.000000
1.69000,-0.566220,0.000000,0.000000,0.000000,0.000000,0.000000,0.000000,-0.436000,0.000000,0.000000,0.000000,0.000000
1.69200,-0.562482,0.000000,0.000000,0.000000,0.000000,0.000000,0.000000,-0.436000,0.000000,0.000000,0.000000,0.000000
1.69400,-0.558744,0.000000,0.000000,0.000000,0.000000,0.000000,0.000000,-0.436000,0.000000,0.000000,0.000000,0.000000
