sainanliu129-hub/model/applications/Body_GravityPara_Iden/data/excitation/0-260116_run_softly_轻跑步_002_leg_500Hz_PD-M1-v0_multi_joint_20260325-035526.csv
time,cmd_leg_l1_joint,pos_leg_l1_joint,vel_leg_l1_joint,torque_leg_l1_joint,acc_leg_l1_joint,cmd_torque_leg_l1_joint,cmd_leg_l2_joint,pos_leg_l2_joint,vel_leg_l2_joint,torque_leg_l2_joint,acc_leg_l2_joint,cmd_torque_leg_l2_joint,cmd_leg_l3_joint,pos_leg_l3_joint,vel_leg_l3_joint,torque_leg_l3_joint,acc_leg_l3_joint,cmd_torque_leg_l3_joint,cmd_leg_l4_joint,pos_leg_l4_joint,vel_leg_l4_joint,torque_leg_l4_joint,acc_leg_l4_joint,cmd_torque_leg_l4_joint,cmd_leg_l5_joint,pos_leg_l5_joint,vel_leg_l5_joint,torque_leg_l5_joint,acc_leg_l5_joint,cmd_torque_leg_l5_joint,cmd_leg_l6_joint,pos_leg_l6_joint,vel_leg_l6_joint,torque_leg_l6_joint,acc_leg_l6_joint,cmd_torque_leg_l6_joint,cmd_leg_r1_joint,pos_leg_r1_joint,vel_leg_r1_joint,torque_leg_r1_joint,acc_leg_r1_joint,cmd_torque_leg_r1_joint,cmd_leg_r2_joint,pos_leg_r2_joint,vel_leg_r2_joint,torque_leg_r2_joint,acc_leg_r2_joint,cmd_torque_leg_r2_joint,cmd_leg_r3_joint,pos_leg_r3_joint,vel_leg_r3_joint,torque_leg_r3_joint,acc_leg_r3_joint,cmd_torque_leg_r3_joint,cmd_leg_r4_joint,pos_leg_r4_joint,vel_leg_r4_joint,torque_leg_r4_joint,acc_leg_r4_joint,cmd_torque_leg_r4_joint,cmd_leg_r5_joint,pos_leg_r5_joint,vel_leg_r5_joint,torque_leg_r5_joint,acc_leg_r5_joint,cmd_torque_leg_r5_joint,cmd_leg_r6_joint,pos_leg_r6_joint,vel_leg_r6_joint,torque_leg_r6_joint,acc_leg_r6_joint,cmd_torque_leg_r6_joint
0.000000000,0.000000000,-0.000261887,0.003888551,0.005932820,0.000000000,0.005925326,0.000000000,-0.010542657,0.037917442,2.136528176,0.000000000,2.139042875,-0.006823000,-0.008615775,-0.013258600,0.804567738,0.000000000,0.809483699,0.424885005,0.335519341,0.388500627,2.877476244,0.000000000,2.883319830,-0.396259993,-0.378071737,-0.410745082,-0.670408644,0.000000000,-0.670447939,0.000000000,0.000043403,0.000241381,-0.005101716,0.000000000,-0.005072775,0.000000000,0.000007508,0.000089240,-0.001458170,0.000000000,-0.001304940,0.000000000,0.000978683,-0.003586903,-0.196864157,0.000000000,-0.197053659,0.065402001,0.054613725,0.029724151,2.388218902,0.000000000,2.394183070,0.276596010,0.224183193,0.224907764,1.707460025,0.000000000,1.712011275,-0.291951001,-0.276871018,-0.307999594,-0.648367625,0.000000000,-0.648415665,0.000000000,0.000005052,-0.000041042,-0.000393590,0.000000000,-0.000393853
0.001999820,-0.000031000,-0.000254110,0.003895648,0.005925326,0.000000000,0.001751902,0.000016000,-0.010466837,0.037909971,2.139042875,0.000000000,2.122208357,-0.006821000,-0.008642259,-0.013241939,0.809483699,0.000000000,0.817203220,0.424870014,0.336296415,0.388536655,2.883319830,0.000000000,2.833033028,-0.396315992,-0.378893225,-0.410744323,-0.670447939,0.000000000,-0.593085844,0.000000000,0.000043884,0.000240729,-0.005072775,0.000000000,-0.005119575,-0.000017000,0.000007524,0.000068982,-0.001304940,0.000000000,-0.003004111,-0.000004000,0.000971508,-0.003587996,-0.197053659,0.000000000,-0.196126427,0.065428004,0.054673212,0.029743689,2.394183070,0.000000000,2.384223310,0.276553988,0.224633069,0.224937994,1.712011275,0.000000000,1.680725715,-0.291940987,-0.277487012,-0.307997024,-0.648415665,0.000000000,-0.585155509,0.000004000,0.000004975,-0.000041699,-0.000393853,0.000000000,0.000020051
0.003999639,-0.000061000,-0.000246543,0.003790477,0.001751902,0.000000000,-0.001657765,0.000031000,-0.010391097,0.037870143,2.122208357,0.000000000,2.105844088,-0.006816000,-0.008667899,-0.012820107,0.817203220,0.000000000,0.816371031,0.424854010,0.337070356,0.386970482,2.833033028,0.000000000,2.794268526,-0.396375000,-0.379702122,-0.404448074,-0.593085844,0.000000000,-0.535198695,0.000000000,0.000044663,0.000389183,-0.005119575,0.000000000,-0.005620283,-0.000034000,0.000007573,0.000183994,-0.003004111,0.000000000,-0.005471846,-0.000010000,0.000964415,-0.003547102,-0.196126427,0.000000000,-0.196740580,0.065458000,0.054733964,0.030376427,2.384223310,0.000000000,2.361169022,0.276510000,0.225078604,0.222767486,1.680725715,0.000000000,1.665232949,-0.291929990,-0.278089422,-0.301205214,-0.585155509,0.000000000,-0.542470597,0.000007000,0.000005026,0.000028021,0.000020051,0.000000000,0.000119873
0.005999459,-0.000091000,-0.000239346,0.003605021,-0.001657765,0.000000000,-0.004573900,0.000045000,-0.010315526,0.037785376,2.105844088,0.000000000,2.090260258,-0.006810000,-0.008692156,-0.012128679,0.816371031,0.000000000,0.809332100,0.424836993,0.337838830,0.384237036,2.794268526,0.000000000,2.764082304,-0.396436006,-0.380489082,-0.393479993,-0.535198695,0.000000000,-0.493012346,0.000000000,0.000045790,0.000563529,-0.005620283,0.000000000,-0.006229837,-0.000051000,0.000007709,0.000323063,-0.005471846,0.000000000,-0.008084804,-0.000016000,0.000957354,-0.003530878,-0.196740580,0.000000000,-0.196805960,0.065490000,0.054796479,0.031257370,2.361169022,0.000000000,2.332569466,0.276464999,0.225517611,0.219503791,1.665232949,0.000000000,1.657858861,-0.291918993,-0.278669667,-0.290122301,-0.542470597,0.000000000,-0.514225480,0.000010000,0.000005242,0.000117229,0.000119873,0.000000000,0.000147585
0.007999279,-0.000120000,-0.000232646,0.003356194,-0.004573900,0.000000000,-0.006972071,0.000057000,-0.010240189,0.037668501,2.090260258,0.000000000,2.074900645,-0.006802000,-0.008714629,-0.011236327,0.809332100,0.000000000,0.797809647,0.424820006,0.338600091,0.380630618,2.764082304,0.000000000,2.740558655,-0.396499991,-0.381247236,-0.379077200,-0.493012346,0.000000000,-0.463803318,0.000000000,0.000047262,0.000736354,-0.006229837,0.000000000,-0.006869999,-0.000069000,0.000007976,0.000432591,-0.008084804,0.000000000,-0.010651294,-0.000024000,0.000950283,-0.003535921,-0.196805960,0.000000000,-0.196955933,0.065523997,0.054860918,0.032220017,2.332569466,0.000000000,2.302142176,0.276419014,0.225949046,0.215717138,1.657858861,0.000000000,1.654618202,-0.291909009,-0.279222292,-0.276312446,-0.514225480,0.000000000,-0.496626852,0.000013000,0.000005636,0.000211046,0.000147585,0.000000000,0.000144265
0.009999099,-0.000148000,-0.000226541,0.003058678,-0.006972071,0.000000000,-0.008924945,0.000069000,-0.010165140,0.037524717,2.074900645,0.000000000,2.060231403,-0.006792000,-0.008735034,-0.010202763,0.797809647,0.000000000,0.783074064,0.424802989,0.339352876,0.376392711,2.740558655,0.000000000,2.722057122,-0.396566004,-0.381971774,-0.362269131,-0.463803318,0.000000000,-0.445034715,0.000000000,0.000049045,0.000891746,-0.006869999,0.000000000,-0.007492005,-0.000088000,0.000008376,0.000484796,-0.010651294,0.000000000,-0.013014448,-0.000033000,0.000943181,-0.003551274,-0.196955933,0.000000000,-0.197148268,0.065560997,0.054927272,0.033176921,2.302142176,0.000000000,2.272154205,0.276371002,0.226372517,0.211735830,1.654618202,0.000000000,1.653136099,-0.291898012,-0.279744004,-0.260856021,-0.496626852,0.000000000,-0.486731221,0.000015000,0.000006216,0.000307130,0.000144265,0.000000000,0.000014607
0.011998918,-0.000176000,-0.000221104,0.002724229,-0.008924945,0.000000000,-0.010597749,0.000079000,-0.010090424,0.037357616,2.060231403,0.000000000,2.045616073,-0.006781000,-0.008753184,-0.009075090,0.783074064,0.000000000,0.765852926,0.424784988,0.340096301,0.371712621,2.722057122,0.000000000,2.707227738,-0.396634012,-0.382659540,-0.343882893,-0.445034715,0.000000000,-0.434671061,0.000000000,0.000051087,0.001021000,-0.007492005,0.000000000,-0.008065827,-0.000106000,0.000008852,0.000469561,-0.013014448,0.000000000,-0.014897645,-0.000043000,0.000936042,-0.003569955,-0.197148268,0.000000000,-0.197538985,0.065600999,0.054995437,0.034082527,2.272154205,0.000000000,2.243665200,0.276322007,0.226788012,0.207747341,1.653136099,0.000000000,1.652146791,-0.291887999,-0.280233018,-0.244507272,-0.486731221,0.000000000,-0.482776435,0.000017000,0.000006948,0.000383002,0.000014607,0.000000000,-0.000072921
0.013998738,-0.000202000,-0.000216393,0.002360747,-0.010597749,0.000000000,-0.011815821,0.000089000,-0.010016086,0.037169324,2.045616073,0.000000000,2.031587122,-0.006769000,-0.008768962,-0.007888889,0.765852926,0.000000000,0.746917917,0.424766988,0.340829774,0.366736081,2.707227738,0.000000000,2.695134208,-0.396703988,-0.383308700,-0.324579962,-0.434671061,0.000000000,-0.431014056,0.000000000,0.000053338,0.001125665,-0.008065827,0.000000000,-0.008590898,-0.000125000,0.000009303,0.000389413,-0.014897645,0.000000000,-0.016517731,-0.000055000,0.000928862,-0.003590801,-0.197538985,0.000000000,-0.198437389,0.065641999,0.055065260,0.034911488,2.243665200,0.000000000,2.216722329,0.276271999,0.227195745,0.203866349,1.652146791,0.000000000,1.650819671,-0.291877002,-0.280688692,-0.227836537,-0.482776435,0.000000000,-0.483007319,0.000018000,0.000007811,0.000447463,-0.000072921,0.000000000,-0.000242373
0.015998558,-0.000228000,-0.000212450,0.001976022,-0.011815821,0.000000000,-0.012831898,0.000097000,-0.009942162,0.036961969,2.031587122,0.000000000,2.017538738,-0.006755000,-0.008782305,-0.006671538,0.746917917,0.000000000,0.727154796,0.424748003,0.341552925,0.361575940,2.695134208,0.000000000,2.684935470,-0.396777004,-0.383918473,-0.304886439,-0.431014056,0.000000000,-0.432755377,0.000000000,0.000055750,0.001206083,-0.008590898,0.000000000,-0.009063290,-0.000145000,0.000009613,0.000246259,-0.016517731,0.000000000,-0.017873152,-0.000067000,0.000921633,-0.003614900,-0.198437389,0.000000000,-0.199248546,0.065686002,0.055136566,0.035652936,2.216722329,0.000000000,2.192190852,0.276219994,0.227596049,0.200152346,1.650819671,0.000000000,1.648648656,-0.291866988,-0.281111161,-0.211234918,-0.483007319,0.000000000,-0.486496782,0.000019000,0.000008758,0.000487076,-0.000242373,0.000000000,-0.000349639
0.017998378,-0.000252000,-0.000209309,0.001574064,-0.012831898,0.000000000,-0.013451829,0.000104000,-0.009868689,0.036736539,2.017538738,0.000000000,2.003743094,-0.006740000,-0.008793188,-0.005441816,0.727154796,0.000000000,0.706696948,0.424728990,0.342265556,0.356315176,2.684935470,0.000000000,2.676114677,-0.396851003,-0.384488916,-0.285221592,-0.432755377,0.000000000,-0.438489424,0.000000000,0.000058286,0.001267924,-0.009063290,0.000000000,-0.009495366,-0.000164000,0.000009682,0.000047201,-0.017873152,0.000000000,-0.018780026,-0.000080000,0.000914350,-0.003642044,-0.199248546,0.000000000,-0.200259645,0.065732002,0.055209185,0.036309739,2.192190852,0.000000000,2.169768160,0.276167989,0.227989293,0.196621865,1.648648656,0.000000000,1.645619176,-0.291855991,-0.281501140,-0.194989127,-0.486496782,0.000000000,-0.492158996,0.000020000,0.000009760,0.000512224,-0.000349639,0.000000000,-0.000421306
0.019998197,-0.000276000,-0.000206995,0.001159666,-0.013451829,0.000000000,-0.013913283,0.000111000,-0.009795700,0.036494180,2.003743094,0.000000000,1.990468160,-0.006724000,-0.008801617,-0.004214144,0.706696948,0.000000000,0.685871855,0.424708992,0.342967587,0.351015869,2.676114677,0.000000000,2.668175184,-0.396926999,-0.385020707,-0.265895828,-0.438489424,0.000000000,-0.447367576,0.000000000,0.000060913,0.001313677,-0.009495366,0.000000000,-0.009890955,-0.000184000,0.000009447,-0.000196135,-0.018780026,0.000000000,-0.019510748,-0.000093000,0.000907007,-0.003672158,-0.200259645,0.000000000,-0.201186466,0.065779001,0.055282963,0.036888737,2.169768160,0.000000000,2.149059942,0.276113987,0.228375838,0.193272421,1.645619176,0.000000000,1.641599892,-0.291846007,-0.281859705,-0.179282822,-0.492158996,0.000000000,-0.499564573,0.000021000,0.000010800,0.000529716,-0.000421306,0.000000000,-0.000475123
0.021998017,-0.000298000,-0.000205527,0.000735520,-0.013913283,0.000000000,-0.014016238,0.000116000,-0.009723229,0.036235875,1.990468160,0.000000000,1.977132255,-0.006707000,-0.008807613,-0.002998446,0.685871855,0.000000000,0.664910672,0.424688995,0.343659033,0.345723000,2.668175184,0.000000000,2.660858577,-0.397004992,-0.385515010,-0.247151542,-0.447367576,0.000000000,-0.458583169,0.000000000,0.000063604,0.001345591,-0.009890955,0.000000000,-0.010253653,-0.000205000,0.000008907,-0.000477087,-0.019510748,0.000000000,-0.020102892,-0.000108000,0.000899598,-0.003705188,-0.201186466,0.000000000,-0.202597070,0.065828003,0.055357759,0.037398256,2.149059942,0.000000000,2.130203311,0.276059002,0.228756025,0.190093557,1.641599892,0.000000000,1.636707593,-0.291835994,-0.282188221,-0.164257941,-0.499564573,0.000000000,-0.508066826,0.000022000,0.000011868,0.000542133,-0.000475123,0.000000000,-0.000517327
0.023997837,-0.000319000,-0.000204919,0.000304621,-0.014016238,0.000000000,-0.013882800,0.000121000,-0.009651304,0.035962160,1.977132255,0.000000000,1.964300527,-0.006690000,-0.008811216,-0.001801523,0.664910672,0.000000000,0.643693741,0.424668998,0.344339971,0.340468874,2.660858577,0.000000000,2.653930335,-0.397085011,-0.385973347,-0.229168108,-0.458583169,0.000000000,-0.471475467,0.000000000,0.000066339,0.001367654,-0.010253653,0.000000000,-0.010592806,-0.000225000,0.000008174,-0.000790535,-0.020102892,0.000000000,-0.020384060,-0.000123000,0.000892117,-0.003741405,-0.202597070,0.000000000,-0.203914996,0.065879002,0.055433458,0.037849545,2.130203311,0.000000000,2.112974803,0.276003003,0.229130152,0.187063399,1.636707593,0.000000000,1.631077087,-0.291826010,-0.282488211,-0.149994777,-0.508066826,0.000000000,-0.517289547,0.000022000,0.000012962,0.000553778,-0.000517327,0.000000000,-0.000660999
0.025997657,-0.000339000,-0.000205178,-0.000130458,-0.013882800,0.000000000,-0.013526626,0.000124000,-0.009579957,0.035673847,1.964300527,0.000000000,1.951394385,-0.006671000,-0.008812474,-0.000628798,0.643693741,0.000000000,0.622926079,0.424647987,0.345010526,0.335277201,2.653930335,0.000000000,2.647150044,-0.397166014,-0.386397496,-0.212074643,-0.471475467,0.000000000,-0.485392079,0.000000000,0.000069100,0.001380353,-0.010592806,0.000000000,-0.010907904,-0.000246000,0.000007586,-0.001125805,-0.020384060,0.000000000,-0.020663771,-0.000138000,0.000884560,-0.003779253,-0.203914996,0.000000000,-0.205174524,0.065931000,0.055509965,0.038253462,2.112974803,0.000000000,2.096871936,0.275945991,0.229498469,0.184158454,1.631077087,0.000000000,1.624859544,-0.291815996,-0.282761293,-0.136541175,-0.517289547,0.000000000,-0.526927047,0.000022000,0.000014038,0.000543587,-0.000660999,0.000000000,-0.000740766
0.027997476,-0.000357000,-0.000206311,-0.000568574,-0.013526626,0.000000000,-0.012846963,0.000127000,-0.009509214,0.035371100,1.951394385,0.000000000,1.938986846,-0.006653000,-0.008811437,0.000518556,0.622926079,0.000000000,0.601795585,0.424627006,0.345670842,0.330158084,2.647150044,0.000000000,2.640502598,-0.397249013,-0.386789392,-0.195947980,-0.485392079,0.000000000,-0.500021560,0.000000000,0.000071875,0.001387554,-0.010907904,0.000000000,-0.011208827,-0.000267000,-0.000007792,-0.001480436,-0.020663771,0.000000000,-0.019257671,-0.000154000,0.000876923,-0.003819181,-0.205174524,0.000000000,-0.206648560,0.065985002,0.055587201,0.038618067,2.096871936,0.000000000,2.082020698,0.275887996,0.229861189,0.181359950,1.624859544,0.000000000,1.618176833,-0.291806012,-0.283009137,-0.123922089,-0.526927047,0.000000000,-0.536745725,0.000022000,0.000015076,0.000523558,-0.000740766,0.000000000,-0.000788711
0.029997296,-0.000374000,-0.000208318,-0.001006790,-0.012846963,0.000000000,-0.011966962,0.000129000,-0.009439105,0.035054728,1.938986846,0.000000000,1.926783095,-0.006634000,-0.008808162,0.001637332,0.601795585,0.000000000,0.580959810,0.424605995,0.346321088,0.325123166,2.640502598,0.000000000,2.633890848,-0.397332996,-0.387151079,-0.180843682,-0.500021560,0.000000000,-0.514896882,0.000000000,0.000074651,0.001388226,-0.011208827,0.000000000,-0.011491328,-0.000289000,-0.000009406,-0.001814732,-0.019257671,0.000000000,-0.019540193,-0.000170000,0.000869209,-0.003857443,-0.206648560,0.000000000,-0.208138550,0.066040002,0.055665110,0.038954299,2.082020698,0.000000000,2.067903853,0.275828987,0.230218472,0.178641420,1.618176833,0.000000000,1.611205095,-0.291795999,-0.283233415,-0.112138750,-0.536745725,0.000000000,-0.546567128,0.000023000,0.000016063,0.000497306,-0.000788711,0.000000000,-0.000712754
0.031997116,-0.000390000,-0.000211197,-0.001443873,-0.011966962,0.000000000,-0.010893829,0.000130000,-0.009369655,0.034725065,1.926783095,0.000000000,1.914783139,-0.006614000,-0.008802707,0.002727549,0.580959810,0.000000000,0.560434537,0.424584001,0.346961437,0.320174505,2.633890848,0.000000000,2.627229027,-0.397419006,-0.387484640,-0.166780181,-0.514896882,0.000000000,-0.529860687,0.000000000,0.000077420,0.001384460,-0.011491328,0.000000000,-0.011760450,-0.000311000,-0.000012491,-0.002165392,-0.019540193,0.000000000,-0.019573377,-0.000187000,0.000861413,-0.003899080,-0.208138550,0.000000000,-0.209812776,0.066096000,0.055743641,0.039265581,2.067903853,0.000000000,2.054458195,0.275768995,0.230570458,0.175993290,1.611205095,0.000000000,1.604005373,-0.291785985,-0.283435787,-0.101186364,-0.546567128,0.000000000,-0.556239939,0.000023000,0.000017042,0.000492852,-0.000712754,0.000000000,-0.000799029
0.033996936,-0.000404000,-0.000214944,-0.001878686,-0.010893829,0.000000000,-0.009527873,0.000130000,-0.009300890,0.034382405,1.914783139,0.000000000,1.902987701,-0.006594000,-0.008795128,0.003789648,0.560434537,0.000000000,0.539941497,0.424562007,0.347592060,0.315311684,2.627229027,0.000000000,2.620571377,-0.397507012,-0.387792167,-0.153763911,-0.529860687,0.000000000,-0.544679998,0.000000000,0.000080174,0.001377312,-0.011760450,0.000000000,-0.012018514,-0.000333000,-0.000016797,-0.002524978,-0.019573377,0.000000000,-0.019425964,-0.000204000,0.000853529,-0.003942654,-0.209812776,0.000000000,-0.211418439,0.066152997,0.055822756,0.039557653,2.054458195,0.000000000,2.041564788,0.275707990,0.230917257,0.173399668,1.604005373,0.000000000,1.596681852,-0.291776001,-0.283617875,-0.091043959,-0.556239939,0.000000000,-0.565663071,0.000022000,0.000017993,0.000478291,-0.000799029,0.000000000,-0.000954785
0.035996755,-0.000416000,-0.000219550,-0.002309197,-0.009527873,0.000000000,-0.007881466,0.000128000,-0.009232836,0.034027228,1.902987701,0.000000000,1.891108838,-0.006572000,-0.008785481,0.004823466,0.539941497,0.000000000,0.520068770,0.424539000,0.348213129,0.310534296,2.620571377,0.000000000,2.613845993,-0.397601008,-0.388075737,-0.141784798,-0.544679998,0.000000000,-0.559577412,0.000000000,0.000082908,0.001367080,-0.012018514,0.000000000,-0.012265739,-0.000356000,-0.000022110,-0.002887794,-0.019425964,0.000000000,-0.019259493,-0.000223000,0.000845556,-0.003987147,-0.211418439,0.000000000,-0.213546507,0.066214003,0.055902427,0.039835279,2.041564788,0.000000000,2.029979670,0.275644988,0.231258951,0.170846839,1.596681852,0.000000000,1.589264752,-0.291765004,-0.283781242,-0.081683339,-0.565663071,0.000000000,-0.574653240,0.000019000,0.000018867,0.000439373,-0.000954785,0.000000000,-0.001235656
0.037996575,-0.000428000,-0.000225005,-0.002734191,-0.007881466,0.000000000,-0.006175815,0.000125000,-0.009165517,0.033659511,1.891108838,0.000000000,1.879438398,-0.006546000,-0.008773820,0.005830400,0.520068770,0.000000000,0.501368836,0.424515009,0.348824809,0.305840013,2.613845993,0.000000000,2.607060802,-0.397702008,-0.388337432,-0.130847701,-0.559577412,0.000000000,-0.574430907,0.000000000,0.000085619,0.001355576,-0.012265739,0.000000000,-0.012507028,-0.000379000,-0.000028311,-0.003252270,-0.019259493,0.000000000,-0.018989012,-0.000244000,0.000837494,-0.004032213,-0.213546507,0.000000000,-0.216204500,0.066279002,0.055982641,0.040107271,2.029979670,0.000000000,2.019502508,0.275579005,0.231595572,0.168310646,1.589264752,0.000000000,1.581861556,-0.291752994,-0.283927352,-0.073054959,-0.574653240,0.000000000,-0.583203301,0.000012000,0.000019573,0.000355068,-0.001235656,0.000000000,-0.001774842
0.039996395,-0.000438000,-0.000231298,-0.003154036,-0.006175815,0.000000000,-0.004196727,0.000120000,-0.009098958,0.033279297,1.879438398,0.000000000,1.867698297,-0.006518000,-0.008760193,0.006813317,0.501368836,0.000000000,0.483221863,0.424488991,0.349427255,0.301222862,2.607060802,0.000000000,2.600182637,-0.397810012,-0.388579328,-0.120947954,-0.574430907,0.000000000,-0.589044063,0.000000000,0.000088306,0.001343395,-0.012507028,0.000000000,-0.012743927,-0.000403000,-0.000035332,-0.003615024,-0.018989012,0.000000000,-0.018747503,-0.000267000,0.000829341,-0.004077324,-0.216204500,0.000000000,-0.219404337,0.066347003,0.056063401,0.040379863,2.019502508,0.000000000,2.009710286,0.275510013,0.231927119,0.165773115,1.581861556,0.000000000,1.574598302,-0.291741014,-0.284057578,-0.065113232,-0.583203301,0.000000000,-0.591409481,0.000002000,0.000019928,0.000178170,-0.001774842,0.000000000,-0.002318422
0.041996215,-0.000448000,-0.000238417,-0.003567568,-0.004196727,0.000000000,-0.002165278,0.000114000,-0.009033185,0.032886725,1.867698297,0.000000000,1.856176627,-0.006487000,-0.008744645,0.007774066,0.483221863,0.000000000,0.465882798,0.424463004,0.350020609,0.296677465,2.600182637,0.000000000,2.593370549,-0.397922993,-0.388803461,-0.112066520,-0.589044063,0.000000000,-0.603060361,0.000000000,0.000090969,0.001331259,-0.012743927,0.000000000,-0.012978505,-0.000427000,-0.000043136,-0.003977138,-0.018747503,0.000000000,-0.018426151,-0.000291000,0.000821095,-0.004123644,-0.219404337,0.000000000,-0.222834748,0.066418998,0.056144712,0.040655411,2.009710286,0.000000000,2.000829685,0.275438994,0.232253572,0.163226848,1.574598302,0.000000000,1.567590808,-0.291729003,-0.284173232,-0.057827023,-0.591409481,0.000000000,-0.599221773,-0.000012000,0.000019749,-0.000089868,-0.002318422,0.000000000,-0.002953240
0.043996034,-0.000457000,-0.000246350,-0.003974736,-0.002165278,0.000000000,0.000023503,0.000107000,-0.008968221,0.032481922,1.856176627,0.000000000,1.844877512,-0.006453000,-0.008727216,0.008714801,0.465882798,0.000000000,0.449314315,0.424436003,0.350605002,0.292196368,2.593370549,0.000000000,2.586603504,-0.398039013,-0.389011780,-0.104159493,-0.603060361,0.000000000,-0.616211887,0.000000000,0.000093606,0.001318949,-0.012978505,0.000000000,-0.013210098,-0.000452000,-0.000051696,-0.004336253,-0.018426151,0.000000000,-0.018147682,-0.000318000,0.000812756,-0.004170516,-0.222834748,0.000000000,-0.227078783,0.066494003,0.056226586,0.040937122,2.000829685,0.000000000,1.992505128,0.275366008,0.232574898,0.160663103,1.567590808,0.000000000,1.560907187,-0.291716009,-0.284275552,-0.051159831,-0.599221773,0.000000000,-0.606522442,-0.000028000,0.000018822,-0.000466089,-0.002953240,0.000000000,-0.003406984
0.045995854,-0.000466000,-0.000255082,-0.004374856,0.000023503,0.000000000,0.002257677,0.000098000,-0.008904090,0.032065167,1.844877512,0.000000000,1.833517165,-0.006417000,-0.008707939,0.009638086,0.449314315,0.000000000,0.433184129,0.424407989,0.351180541,0.287769508,2.586603504,0.000000000,2.579946185,-0.398158014,-0.389206106,-0.097162750,-0.616211887,0.000000000,-0.628490923,0.000000000,0.000096219,0.001306196,-0.013210098,0.000000000,-0.013437855,-0.000477000,-0.000061001,-0.004695295,-0.018147682,0.000000000,-0.017790288,-0.000346000,0.000804317,-0.004220150,-0.227078783,0.000000000,-0.231516362,0.066573001,0.056309038,0.041225989,1.992505128,0.000000000,1.984989623,0.275292009,0.232891054,0.158077510,1.560907187,0.000000000,1.554641487,-0.291703999,-0.284365688,-0.045067918,-0.606522442,0.000000000,-0.613518349,-0.000047000,0.000017009,-0.000912046,-0.003406984,0.000000000,-0.003876155
0.047995674,-0.000474000,-0.000264601,-0.004767835,0.002257677,0.000000000,0.004641815,0.000088000,-0.008840818,0.031636410,1.833517165,0.000000000,1.822387796,-0.006380000,-0.008686848,0.010545473,0.433184129,0.000000000,0.417182052,0.424380004,0.351747319,0.283389129,2.579946185,0.000000000,2.573513739,-0.398279011,-0.389388131,-0.091012696,-0.628490923,0.000000000,-0.639807738,0.000000000,0.000098807,0.001294008,-0.013437855,0.000000000,-0.013664758,-0.000503000,-0.000071039,-0.005052574,-0.017790288,0.000000000,-0.017471304,-0.000375000,0.000795775,-0.004272152,-0.231516362,0.000000000,-0.236155096,0.066653997,0.056392083,0.041522700,1.984989623,0.000000000,1.977695575,0.275216013,0.233201991,0.155468978,1.554641487,0.000000000,1.548742255,-0.291691989,-0.284444742,-0.039527035,-0.613518349,0.000000000,-0.620067653,-0.000069000,0.000014171,-0.001430805,-0.003876155,0.000000000,-0.004337915
0.049995494,-0.000482000,-0.000274888,-0.005152298,0.004641815,0.000000000,0.007059754,0.000077000,-0.008778426,0.031196022,1.822387796,0.000000000,1.811487616,-0.006340000,-0.008663974,0.011437097,0.417182052,0.000000000,0.401882421,0.424351990,0.352305420,0.279050153,2.573513739,0.000000000,2.567333260,-0.398400992,-0.389559413,-0.085640747,-0.639807738,0.000000000,-0.650097624,0.000000000,0.000101369,0.001281165,-0.013664758,0.000000000,-0.013887198,-0.000529000,-0.000081804,-0.005409707,-0.017471304,0.000000000,-0.017075571,-0.000405000,0.000787122,-0.004327164,-0.236155096,0.000000000,-0.240978715,0.066737004,0.056475735,0.041826084,1.977695575,0.000000000,1.970649939,0.275139987,0.233507669,0.152838932,1.548742255,0.000000000,1.543326317,-0.291680008,-0.284513746,-0.034502063,-0.620067653,0.000000000,-0.626168933,-0.000093000,0.000010187,-0.002019993,-0.004337915,0.000000000,-0.004685714
0.051995313,-0.000490000,-0.000285927,-0.005528020,0.007059754,0.000000000,0.009508374,0.000065000,-0.008716937,0.030744217,1.811487616,0.000000000,1.800818286,-0.006300000,-0.008639345,0.012314655,0.401882421,0.000000000,0.386401940,0.424324006,0.352854908,0.274744327,2.567333260,0.000000000,2.561462985,-0.398521990,-0.389721358,-0.080972798,-0.650097624,0.000000000,-0.659230179,0.000000000,0.000103904,0.001267777,-0.013887198,0.000000000,-0.014105387,-0.000555000,-0.000093293,-0.005766210,-0.017075571,0.000000000,-0.016606327,-0.000436000,0.000778353,-0.004385740,-0.240978715,0.000000000,-0.245972680,0.066822998,0.056560004,0.042134357,1.970649939,0.000000000,1.964167706,0.275063008,0.233808052,0.150191114,1.543326317,0.000000000,1.538310959,-0.291667998,-0.284573664,-0.029959081,-0.626168933,0.000000000,-0.631815177,-0.000118000,0.000005080,-0.002657161,-0.004685714,0.000000000,-0.004884779
0.053995133,-0.000498000,-0.000297698,-0.005894069,0.009508374,0.000000000,0.011980357,0.000053000,-0.008656374,0.030281386,1.800818286,0.000000000,1.790661450,-0.006258000,-0.008612990,0.013177581,0.386401940,0.000000000,0.371330348,0.424295992,0.353395843,0.270467272,2.561462985,0.000000000,2.555926647,-0.398642004,-0.389875212,-0.076926854,-0.659230179,0.000000000,-0.667312783,0.000000000,0.000106411,0.001253376,-0.014105387,0.000000000,-0.014317783,-0.000582000,-0.000105499,-0.006121047,-0.016606327,0.000000000,-0.016176634,-0.000469000,0.000769458,-0.004448252,-0.245972680,0.000000000,-0.251410602,0.066910997,0.056644900,0.042448190,1.964167706,0.000000000,1.957951004,0.274984986,0.234103098,0.147523145,1.538310959,0.000000000,1.533709989,-0.291658014,-0.284625384,-0.025859801,-0.631815177,0.000000000,-0.637233378,-0.000146000,-0.000002779,-0.003313335,-0.004884779,0.000000000,-0.005054818
0.055994953,-0.000506000,-0.000310181,-0.006249729,0.011980357,0.000000000,0.014469458,0.000040000,-0.008596758,0.029808049,1.790661450,0.000000000,1.780727104,-0.006215000,-0.008584937,0.014026349,0.371330348,0.000000000,0.356380800,0.424268007,0.353928270,0.266213322,2.555926647,0.000000000,2.550765359,-0.398759007,-0.390022069,-0.073428415,-0.667312783,0.000000000,-0.674241761,0.000000000,0.000108885,0.001236932,-0.014317783,0.000000000,-0.014521050,-0.000608000,-0.000118423,-0.006476906,-0.016176634,0.000000000,-0.015558066,-0.000501000,0.000760429,-0.004515945,-0.251410602,0.000000000,-0.256408617,0.067001000,0.056730430,0.042764978,1.957951004,0.000000000,1.952057039,0.274908006,0.234392782,0.144841966,1.533709989,0.000000000,1.529607526,-0.291648000,-0.284669766,-0.022190984,-0.637233378,0.000000000,-0.642166339,-0.000175000,-0.000010106,-0.003980787,-0.005054818,0.000000000,-0.005347590
0.057994773,-0.000515000,-0.000323353,-0.006594335,0.014469458,0.000000000,0.016862967,0.000026000,-0.008538109,0.029324631,1.780727104,0.000000000,1.771011339,-0.006172000,-0.008555216,0.014860898,0.356380800,0.000000000,0.341278453,0.424239993,0.354452225,0.261977552,2.550765359,0.000000000,2.546008072,-0.398871988,-0.390162860,-0.070395747,-0.674241761,0.000000000,-0.680052927,0.000000000,0.000111323,0.001219018,-0.014521050,0.000000000,-0.014716515,-0.000635000,-0.000132055,-0.006828571,-0.015558066,0.000000000,-0.014994338,-0.000535000,0.000751257,-0.004586787,-0.256408617,0.000000000,-0.261863651,0.067092001,0.056816597,0.043083650,1.952057039,0.000000000,1.946223083,0.274830997,0.234677081,0.142149481,1.529607526,0.000000000,1.525923676,-0.291639000,-0.284707594,-0.018914193,-0.642166339,0.000000000,-0.646749514,-0.000205000,-0.000019383,-0.004685821,-0.005347590,0.000000000,-0.005437546
0.059994592,-0.000524000,-0.000337193,-0.006927669,0.016862967,0.000000000,0.019263863,0.000012000,-0.008480447,0.028831312,1.771011339,0.000000000,1.761799988,-0.006128000,-0.008523855,0.015680256,0.341278453,0.000000000,0.326338074,0.424214005,0.354967739,0.257757108,2.546008072,0.000000000,2.541803020,-0.398979992,-0.390298361,-0.067750624,-0.680052927,0.000000000,-0.684793967,0.000000000,0.000113723,0.001200095,-0.014716515,0.000000000,-0.014905287,-0.000662000,-0.000146393,-0.007179808,-0.014994338,0.000000000,-0.014357748,-0.000568000,0.000741933,-0.004663020,-0.261863651,0.000000000,-0.266869192,0.067184001,0.056903400,0.043401352,1.946223083,0.000000000,1.940514257,0.274753988,0.234955985,0.139452273,1.525923676,0.000000000,1.522614138,-0.291631997,-0.284739605,-0.016005407,-0.646749514,0.000000000,-0.651076208,-0.000236000,-0.000030120,-0.005386601,-0.005437546,0.000000000,-0.005493118
0.061994412,-0.000533000,-0.000351676,-0.007248683,0.019263863,0.000000000,0.021663581,-0.000002000,-0.008423789,0.028328756,1.761799988,0.000000000,1.753083255,-0.006084000,-0.008490888,0.016483309,0.326338074,0.000000000,0.311309981,0.424187988,0.355474840,0.253550532,2.541803020,0.000000000,2.538028934,-0.399082005,-0.390429200,-0.065419343,-0.684793967,0.000000000,-0.688508565,0.000000000,0.000116081,0.001178971,-0.014905287,0.000000000,-0.015083534,-0.000688000,-0.000161432,-0.007528424,-0.014357748,0.000000000,-0.013554753,-0.000602000,0.000732448,-0.004743735,-0.266869192,0.000000000,-0.272011717,0.067276999,0.056990832,0.043716027,1.940514257,0.000000000,1.934978771,0.274679005,0.235229497,0.136755642,1.522614138,0.000000000,1.519769170,-0.291626990,-0.284766499,-0.013447125,-0.651076208,0.000000000,-0.655125325,-0.000267000,-0.000042260,-0.006079293,-0.005493118,0.000000000,-0.005429902
0.063994232,-0.000543000,-0.000366774,-0.007556370,0.021663581,0.000000000,0.023947002,-0.000016000,-0.008368154,0.027817624,1.753083255,0.000000000,1.744851081,-0.006040000,-0.008456351,0.017268960,0.311309981,0.000000000,0.296229008,0.424163014,0.355973552,0.249355989,2.538028934,0.000000000,2.534765099,-0.399177015,-0.390555861,-0.063330424,-0.688508565,0.000000000,-0.691248549,0.000000000,0.000118391,0.001155288,-0.015083534,0.000000000,-0.015249717,-0.000715000,-0.000177160,-0.007872238,-0.013554753,0.000000000,-0.012811932,-0.000636000,0.000722792,-0.004829403,-0.272011717,0.000000000,-0.276993547,0.067371003,0.057078882,0.044025069,1.934978771,0.000000000,1.929680940,0.274603993,0.235497630,0.134066605,1.519769170,0.000000000,1.517208052,-0.291622996,-0.284788942,-0.011221465,-0.655125325,0.000000000,-0.658781074,-0.000300000,-0.000055730,-0.006740378,-0.005429902,0.000000000,-0.005524290
0.065994052,-0.000554000,-0.000382461,-0.007850389,0.023947002,0.000000000,0.026109292,-0.000031000,-0.008313557,0.027298471,1.744851081,0.000000000,1.736811231,-0.005996000,-0.008420279,0.018035796,0.296229008,0.000000000,0.281137530,0.424138993,0.356463898,0.245173049,2.534765099,0.000000000,2.532007463,-0.399264008,-0.390678695,-0.061416980,-0.691248549,0.000000000,-0.693066202,0.000000000,0.000120650,0.001129161,-0.015249717,0.000000000,-0.015403672,-0.000742000,-0.000193570,-0.008212070,-0.012811932,0.000000000,-0.012018971,-0.000670000,0.000712956,-0.004919078,-0.276993547,0.000000000,-0.281833785,0.067465998,0.057167539,0.044328377,1.929680940,0.000000000,1.924622028,0.274531990,0.235760398,0.131384232,1.517208052,0.000000000,1.515128553,-0.291621000,-0.284807533,-0.009295450,-0.658781074,0.000000000,-0.662176043,-0.000332000,-0.000070523,-0.007400398,-0.005524290,0.000000000,-0.005386838
0.067993871,-0.000566000,-0.000398710,-0.008130727,0.026109292,0.000000000,0.028147456,-0.000045000,-0.008260014,0.026771548,1.736811231,0.000000000,1.729530922,-0.005953000,-0.008382714,0.018782553,0.281137530,0.000000000,0.265791536,0.424116999,0.356945901,0.241001340,2.532007463,0.000000000,2.529825013,-0.399342000,-0.390797926,-0.059615739,-0.693066202,0.000000000,-0.694019330,0.000000000,0.000122854,0.001101940,-0.015403672,0.000000000,-0.015549014,-0.000769000,-0.000210653,-0.008547683,-0.012018971,0.000000000,-0.011178128,-0.000703000,0.000702932,-0.005013649,-0.281833785,0.000000000,-0.286225341,0.067561999,0.057256785,0.044623077,1.924622028,0.000000000,1.919876201,0.274461001,0.236017831,0.128716305,1.515128553,0.000000000,1.513347417,-0.291624010,-0.284822840,-0.007653260,-0.662176043,0.000000000,-0.665602047,-0.000366000,-0.000086549,-0.008015683,-0.005386838,0.000000000,-0.005454103
0.069993691,-0.000578000,-0.000415491,-0.008396613,0.028147456,0.000000000,0.030160649,-0.000063000,-0.008207538,0.026237709,1.729530922,0.000000000,1.721573542,-0.005907000,-0.008343701,0.019506691,0.265791536,0.000000000,0.251398151,0.424095988,0.357419588,0.236843597,2.529825013,0.000000000,2.528130655,-0.399416000,-0.390913665,-0.057869086,-0.694019330,0.000000000,-0.694766715,0.000000000,0.000124997,0.001071770,-0.015549014,0.000000000,-0.015679874,-0.000797000,-0.000228397,-0.008877222,-0.011178128,0.000000000,-0.010407827,-0.000738000,0.000692711,-0.005111583,-0.286225341,0.000000000,-0.291053650,0.067662999,0.057346599,0.044907234,1.919876201,0.000000000,1.916628336,0.274392992,0.236269971,0.126069870,1.513347417,0.000000000,1.511936092,-0.291637003,-0.284835445,-0.006302907,-0.665602047,0.000000000,-0.669480313,-0.000407000,-0.000103800,-0.008627303,-0.005454103,0.000000000,-0.006115480
0.071993511,-0.000589000,-0.000432777,-0.008648920,0.030160649,0.000000000,0.032257495,-0.000082000,-0.008156146,0.025696290,1.721573542,0.000000000,1.713811173,-0.005858000,-0.008303283,0.020208738,0.251398151,0.000000000,0.237958152,0.424077004,0.357884989,0.232700752,2.528130655,0.000000000,2.526981783,-0.399484992,-0.391025994,-0.056164739,-0.694766715,0.000000000,-0.695232310,0.000000000,0.000127085,0.001044089,-0.015679874,0.000000000,-0.015812215,-0.000825000,-0.000246793,-0.009202680,-0.010407827,0.000000000,-0.009591088,-0.000775000,0.000682292,-0.005211051,-0.291053650,0.000000000,-0.296359251,0.067768998,0.057436962,0.045181567,1.916628336,0.000000000,1.914867767,0.274327010,0.236516871,0.123450265,1.511936092,0.000000000,1.510792993,-0.291660994,-0.284846021,-0.005287750,-0.669480313,0.000000000,-0.673722227,-0.000453000,-0.000122488,-0.009345255,-0.006115480,0.000000000,-0.006834669
0.073993331,-0.000600000,-0.000450540,-0.008886937,0.032257495,0.000000000,0.034324339,-0.000104000,-0.008105851,0.025147463,1.713811173,0.000000000,1.705675614,-0.005808000,-0.008261507,0.020888255,0.237958152,0.000000000,0.224925633,0.424057990,0.358342139,0.228574977,2.526981783,0.000000000,2.526230900,-0.399549991,-0.391134967,-0.054486422,-0.695232310,0.000000000,-0.695559536,0.000000000,0.000129120,0.001017360,-0.015812215,0.000000000,-0.015941858,-0.000855000,-0.000265832,-0.009523598,-0.009591088,0.000000000,-0.008944680,-0.000812000,0.000671670,-0.005312418,-0.296359251,0.000000000,-0.301564297,0.067878999,0.057527858,0.045447766,1.914867767,0.000000000,1.914277106,0.274262011,0.236758589,0.120858832,1.510792993,0.000000000,1.509839150,-0.291693985,-0.284855304,-0.004641452,-0.673722227,0.000000000,-0.677955728,-0.000505000,-0.000142842,-0.010178190,-0.006834669,0.000000000,-0.007664929
0.075993150,-0.000612000,-0.000468751,-0.009110985,0.034324339,0.000000000,0.036253426,-0.000128000,-0.008056669,0.024591010,1.705675614,0.000000000,1.697460409,-0.005756000,-0.008218418,0.021544583,0.224925633,0.000000000,0.212613034,0.424039990,0.358791078,0.224469302,2.526230900,0.000000000,2.525919826,-0.399612010,-0.391240621,-0.052826967,-0.695559536,0.000000000,-0.695867363,0.000000000,0.000131107,0.000993499,-0.015941858,0.000000000,-0.016074836,-0.000885000,-0.000285509,-0.009842327,-0.008944680,0.000000000,-0.008242608,-0.000851000,0.000660843,-0.005415208,-0.301564297,0.000000000,-0.307247275,0.067992002,0.057619274,0.045708509,1.914277106,0.000000000,1.914515086,0.274199009,0.236995170,0.118290866,1.509839150,0.000000000,1.509169042,-0.291736990,-0.284864028,-0.004362149,-0.677955728,0.000000000,-0.682214342,-0.000562000,-0.000165136,-0.011147912,-0.007664929,0.000000000,-0.008415574
0.077992970,-0.000623000,-0.000487385,-0.009321959,0.036253426,0.000000000,0.038260202,-0.000153000,-0.008008616,0.024026695,1.697460409,0.000000000,1.689459596,-0.005703000,-0.008174064,0.022177225,0.212613034,0.000000000,0.200760835,0.424023002,0.359231852,0.220387283,2.525919826,0.000000000,2.526020288,-0.399672002,-0.391342998,-0.051188512,-0.695867363,0.000000000,-0.696241855,0.000000000,0.000133052,0.000972422,-0.016074836,0.000000000,-0.016211466,-0.000916000,-0.000305820,-0.010158891,-0.008242608,0.000000000,-0.007591806,-0.000890000,0.000649805,-0.005520694,-0.307247275,0.000000000,-0.312809319,0.068108000,0.057711202,0.045963823,1.914515086,0.000000000,1.915582085,0.274136990,0.237226668,0.115748601,1.509169042,0.000000000,1.508699530,-0.291786999,-0.284872939,-0.004455365,-0.682214342,0.000000000,-0.686102855,-0.000623000,-0.000189608,-0.012236959,-0.008415574,0.000000000,-0.009011083
0.079992790,-0.000636000,-0.000506414,-0.009519005,0.038260202,0.000000000,0.040017109,-0.000180000,-0.007961706,0.023454980,1.689459596,0.000000000,1.681382674,-0.005649000,-0.008128494,0.022784992,0.200760835,0.000000000,0.189409938,0.424005985,0.359664521,0.216334266,2.526020288,0.000000000,2.526424733,-0.399729997,-0.391442157,-0.049579457,-0.696241855,0.000000000,-0.696656202,0.000000000,0.000134956,0.000952191,-0.016211466,0.000000000,-0.016346414,-0.000947000,-0.000326760,-0.010473332,-0.007591806,0.000000000,-0.006885904,-0.000930000,0.000638551,-0.005628948,-0.312809319,0.000000000,-0.318531517,0.068226002,0.057803636,0.046216917,1.915582085,0.000000000,1.917125104,0.274073988,0.237453114,0.113223151,1.508699530,0.000000000,1.508367418,-0.291844010,-0.284882710,-0.004885605,-0.686102855,0.000000000,-0.689654057,-0.000688000,-0.000216440,-0.013416676,-0.009011083,0.000000000,-0.009514589
0.081992610,-0.000648000,-0.000525812,-0.009703775,0.040017109,0.000000000,0.041850624,-0.000207000,-0.007915954,0.022875662,1.681382674,0.000000000,1.673807082,-0.005595000,-0.008081758,0.023367724,0.189409938,0.000000000,0.178294068,0.423988998,0.360089147,0.212312953,2.526424733,0.000000000,2.527113726,-0.399785995,-0.391538167,-0.048004946,-0.696656202,0.000000000,-0.697088791,0.000000000,0.000136824,0.000934064,-0.016346414,0.000000000,-0.016483677,-0.000977000,-0.000348324,-0.010784427,-0.006885904,0.000000000,-0.006025944,-0.000970000,0.000627073,-0.005740597,-0.318531517,0.000000000,-0.324113509,0.068346001,0.057896575,0.046469613,1.917125104,0.000000000,1.919101024,0.274010986,0.237674531,0.110708508,1.508367418,0.000000000,1.508276169,-0.291907012,-0.284893954,-0.005622037,-0.689654057,0.000000000,-0.692791307,-0.000756000,-0.000245777,-0.014668781,-0.009514589,0.000000000,-0.009862384
0.083992429,-0.000662000,-0.000545554,-0.009875154,0.041850624,0.000000000,0.043431822,-0.000235000,-0.007871375,0.022289449,1.673807082,0.000000000,1.666436433,-0.005540000,-0.008033910,0.023924206,0.178294068,0.000000000,0.167739888,0.423972011,0.360505802,0.208327621,2.527113726,0.000000000,2.528050434,-0.399841994,-0.391631105,-0.046469131,-0.697088791,0.000000000,-0.697721802,0.000000000,0.000138654,0.000915133,-0.016483677,0.000000000,-0.016614831,-0.001007000,-0.000370495,-0.011088249,-0.006025944,0.000000000,-0.005142293,-0.001011000,0.000615366,-0.005855609,-0.324113509,0.000000000,-0.329838352,0.068466000,0.057990021,0.046723234,1.919101024,0.000000000,1.920911852,0.273948014,0.237890931,0.108199892,1.508276169,0.000000000,1.508460869,-0.291976005,-0.284907210,-0.006627945,-0.692791307,0.000000000,-0.695564519,-0.000825000,-0.000277705,-0.015964582,-0.009862384,0.000000000,-0.009925079
0.085992249,-0.000677000,-0.000565616,-0.010034703,0.043431822,0.000000000,0.044873588,-0.000264000,-0.007827983,0.021696390,1.666436433,0.000000000,1.659273558,-0.005485000,-0.007985001,0.024454429,0.167739888,0.000000000,0.157478091,0.423954993,0.360914565,0.204381375,2.528050434,0.000000000,2.529205964,-0.399897009,-0.391721082,-0.044988438,-0.697721802,0.000000000,-0.698398000,0.000000000,0.000140447,0.000896397,-0.016614831,0.000000000,-0.016742751,-0.001037000,-0.000393262,-0.011385741,-0.005142293,0.000000000,-0.004230970,-0.001053000,0.000603418,-0.005975820,-0.329838352,0.000000000,-0.335661557,0.068585999,0.058083972,0.046975405,1.920911852,0.000000000,1.922612130,0.273882985,0.238102334,0.105701551,1.508460869,0.000000000,1.508758265,-0.292048991,-0.284922962,-0.007876016,-0.695564519,0.000000000,-0.697800592,-0.000896000,-0.000312202,-0.017248775,-0.009925079,0.000000000,-0.009963319
0.087992069,-0.000692000,-0.000585975,-0.010183088,0.044873588,0.000000000,0.046283903,-0.000293000,-0.007785789,0.021096719,1.659273558,0.000000000,1.652601150,-0.005430000,-0.007935085,0.024957967,0.157478091,0.000000000,0.147533768,0.423936993,0.361315519,0.200476949,2.529205964,0.000000000,2.530495361,-0.399953008,-0.391808217,-0.043567899,-0.698398000,0.000000000,-0.699289708,0.000000000,0.000142203,0.000877779,-0.016742751,0.000000000,-0.016867244,-0.001066000,-0.000416610,-0.011676360,-0.004230970,0.000000000,-0.003189925,-0.001094000,0.000591221,-0.006101053,-0.335661557,0.000000000,-0.341015796,0.068705998,0.058178426,0.047227035,1.922612130,0.000000000,1.924181588,0.273817003,0.238308750,0.103207837,1.508758265,0.000000000,1.509277566,-0.292126000,-0.284941597,-0.009317373,-0.697800592,0.000000000,-0.699602431,-0.000968000,-0.000349234,-0.018516371,-0.009963319,0.000000000,-0.009893577
0.089991889,-0.000710000,-0.000606608,-0.010320145,0.046283903,0.000000000,0.047339644,-0.000322000,-0.007744807,0.020490985,1.652601150,0.000000000,1.646410207,-0.005376000,-0.007884217,0.025434386,0.147533768,0.000000000,0.137647703,0.423918009,0.361708754,0.196617589,2.530495361,0.000000000,2.531889861,-0.400009006,-0.391892667,-0.042224658,-0.699289708,0.000000000,-0.700233169,0.000000000,0.000143918,0.000857878,-0.016867244,0.000000000,-0.016984065,-0.001094000,-0.000440519,-0.011956389,-0.003189925,0.000000000,-0.002042429,-0.001135000,0.000578764,-0.006230599,-0.341015796,0.000000000,-0.346198949,0.068824001,0.058273380,0.047477372,1.924181588,0.000000000,1.925070417,0.273748010,0.238510186,0.100718416,1.509277566,0.000000000,1.509890707,-0.292205006,-0.284963427,-0.010915331,-0.699602431,0.000000000,-0.700837857,-0.001041000,-0.000388732,-0.019749319,-0.009893577,0.000000000,-0.009774182
0.091991708,-0.000728000,-0.000627497,-0.010447648,0.047339644,0.000000000,0.048368581,-0.000351000,-0.007705048,0.019879498,1.646410207,0.000000000,1.640697037,-0.005324000,-0.007832450,0.025883347,0.137647703,0.000000000,0.127558993,0.423898011,0.362094364,0.192805285,2.531889861,0.000000000,2.533367498,-0.400068015,-0.391974594,-0.040963584,-0.700233169,0.000000000,-0.701502134,0.000000000,0.000145592,0.000836969,-0.016984065,0.000000000,-0.017093796,-0.001120000,-0.000464963,-0.012223744,-0.002042429,0.000000000,-0.000696405,-0.001176000,0.000566040,-0.006364558,-0.346198949,0.000000000,-0.351206193,0.068939999,0.058368830,0.047724878,1.925070417,0.000000000,1.925312902,0.273676008,0.238706652,0.098232672,1.509890707,0.000000000,1.510601610,-0.292286992,-0.284988670,-0.012621453,-0.700837857,0.000000000,-0.701722112,-0.001112000,-0.000430608,-0.020938437,-0.009774182,0.000000000,-0.009336893
0.093991528,-0.000748000,-0.000648620,-0.010565114,0.048368581,0.000000000,0.049152662,-0.000379000,-0.007666522,0.019262883,1.640697037,0.000000000,1.635734647,-0.005272000,-0.007779844,0.026303330,0.127558993,0.000000000,0.117886975,0.423877001,0.362472456,0.189045862,2.533367498,0.000000000,2.534880173,-0.400128007,-0.392054214,-0.039810016,-0.701502134,0.000000000,-0.702798029,0.000000000,0.000147221,0.000814135,-0.017093796,0.000000000,-0.017193438,-0.001145000,-0.000489910,-0.012474835,-0.000696405,0.000000000,0.000717810,-0.001217000,0.000553038,-0.006503699,-0.351206193,0.000000000,-0.356017222,0.069054000,0.058464764,0.047967399,1.925312902,0.000000000,1.924962688,0.273602009,0.238898158,0.095753395,1.510601610,0.000000000,1.511453627,-0.292369992,-0.285017485,-0.014407295,-0.701722112,0.000000000,-0.702121159,-0.001183000,-0.000474655,-0.022023898,-0.009336893,0.000000000,-0.008974904
0.095991348,-0.000770000,-0.000669962,-0.010673730,0.049152662,0.000000000,0.049696700,-0.000406000,-0.007629239,0.018641738,1.635734647,0.000000000,1.631512074,-0.005222000,-0.007726454,0.026695077,0.117886975,0.000000000,0.108062439,0.423853993,0.362843133,0.185338613,2.534880173,0.000000000,2.536364208,-0.400191009,-0.392131746,-0.038765988,-0.702798029,0.000000000,-0.704297741,0.000000000,0.000148798,0.000788917,-0.017193438,0.000000000,-0.017281206,-0.001169000,-0.000515323,-0.012708144,0.000717810,0.000000000,0.002187810,-0.001257000,0.000539749,-0.006647094,-0.356017222,0.000000000,-0.360366395,0.069164000,0.058561171,0.048203280,1.924962688,0.000000000,1.923491320,0.273523003,0.239084721,0.093281404,1.511453627,0.000000000,1.512249889,-0.292452008,-0.285049948,-0.016231657,-0.702121159,0.000000000,-0.701942539,-0.001252000,-0.000520697,-0.023020840,-0.008974904,0.000000000,-0.008460913
0.097991168,-0.000794000,-0.000691505,-0.010774337,0.049696700,0.000000000,0.050003747,-0.000432000,-0.007593205,0.018016766,1.631512074,0.000000000,1.628015590,-0.005174000,-0.007672338,0.027058005,0.108062439,0.000000000,0.098115061,0.423828989,0.363206506,0.181686172,2.536364208,0.000000000,2.537793954,-0.400258005,-0.392207439,-0.037846751,-0.704297741,0.000000000,-0.706032081,0.000000000,0.000150320,0.000760877,-0.017281206,0.000000000,-0.017355281,-0.001191000,-0.000541164,-0.012922074,0.002187810,0.000000000,0.003807056,-0.001297000,0.000526166,-0.006794765,-0.360366395,0.000000000,-0.364534984,0.069270998,0.058658032,0.048430647,1.923491320,0.000000000,1.921229810,0.273440987,0.239266353,0.090815743,1.512249889,0.000000000,1.513122512,-0.292535007,-0.285086036,-0.018043908,-0.701942539,0.000000000,-0.701531437,-0.001318000,-0.000568501,-0.023902269,-0.008460913,0.000000000,-0.007793971
0.099990987,-0.000820000,-0.000713236,-0.010867814,0.050003747,0.000000000,0.050077251,-0.000457000,-0.007558428,0.017388613,1.628015590,0.000000000,1.625232404,-0.005128000,-0.007617555,0.027391728,0.098115061,0.000000000,0.088069941,0.423803002,0.363562687,0.178090880,2.537793954,0.000000000,2.539209560,-0.400328994,-0.392281578,-0.037069506,-0.706032081,0.000000000,-0.707923446,0.000000000,0.000151780,0.000730026,-0.017355281,0.000000000,-0.017415130,-0.001210000,-0.000567390,-0.013114196,0.003807056,0.000000000,0.005663724,-0.001336000,0.000512279,-0.006946886,-0.364534984,0.000000000,-0.368232374,0.069371998,0.058755324,0.048646420,1.921229810,0.000000000,1.917403053,0.273353994,0.239443077,0.088362267,1.513122512,0.000000000,1.513904098,-0.292614996,-0.285125690,-0.019827107,-0.701531437,0.000000000,-0.700538281,-0.001381000,-0.000617780,-0.024639642,-0.007793971,0.000000000,-0.007084332
0.101990807,-0.000854000,-0.000735141,-0.010955007,0.050077251,0.000000000,0.049281104,-0.000480000,-0.007524912,0.016757948,1.625232404,0.000000000,1.623433080,-0.005084000,-0.007562163,0.027695810,0.088069941,0.000000000,0.077953906,0.423774004,0.363911797,0.174554854,2.539209560,0.000000000,2.540460485,-0.400402993,-0.392354471,-0.036446050,-0.707923446,0.000000000,-0.709807818,0.000000000,0.000153173,0.000696465,-0.017415130,0.000000000,-0.017460491,-0.001228000,-0.000593946,-0.013279078,0.005663724,0.000000000,0.007508115,-0.001375000,0.000498081,-0.007102593,-0.368232374,0.000000000,-0.371760244,0.069471002,0.058853019,0.048847365,1.917403053,0.000000000,1.913229892,0.273259997,0.239614923,0.085922812,1.513904098,0.000000000,1.514451829,-0.292699993,-0.285168753,-0.021531352,-0.700538281,0.000000000,-0.699931121,-0.001442000,-0.000668234,-0.025227248,-0.007084332,0.000000000,-0.006479576
0.103990627,-0.000900000,-0.000757217,-0.011040759,0.049281104,0.000000000,0.047216011,-0.000504000,-0.007492662,0.016125041,1.623433080,0.000000000,1.621759999,-0.005040000,-0.007506221,0.027971222,0.077953906,0.000000000,0.068329813,0.423741013,0.364253949,0.171075783,2.540460485,0.000000000,2.541493826,-0.400480986,-0.392426420,-0.035974852,-0.709807818,0.000000000,-0.711758168,0.000000000,0.000154495,0.000661037,-0.017460491,0.000000000,-0.017493384,-0.001244000,-0.000620778,-0.013417072,0.007508115,0.000000000,0.009443076,-0.001415000,0.000483566,-0.007261096,-0.371760244,0.000000000,-0.375419196,0.069569997,0.058951084,0.049032703,1.913229892,0.000000000,1.909302249,0.273160011,0.239781926,0.083501536,1.514451829,0.000000000,1.514797839,-0.292793989,-0.285215134,-0.023190335,-0.699931121,0.000000000,-0.700026932,-0.001503000,-0.000719604,-0.025685097,-0.006479576,0.000000000,-0.006151168
0.105990447,-0.000959000,-0.000779480,-0.011133743,0.047216011,0.000000000,0.043825963,-0.000528000,-0.007461684,0.015488968,1.621759999,0.000000000,1.620520129,-0.004998000,-0.007449779,0.028221095,0.068329813,0.000000000,0.058572955,0.423705995,0.364589244,0.167647633,2.541493826,0.000000000,2.542470299,-0.400563002,-0.392497736,-0.035658067,-0.711758168,0.000000000,-0.713740168,0.000000000,0.000155753,0.000628989,-0.017493384,0.000000000,-0.017529409,-0.001259000,-0.000647829,-0.013526294,0.009443076,0.000000000,0.011345229,-0.001455000,0.000468732,-0.007421127,-0.375419196,0.000000000,-0.378952816,0.069669001,0.059049489,0.049202197,1.909302249,0.000000000,1.905638741,0.273054004,0.239944134,0.081104084,1.514797839,0.000000000,1.514897125,-0.292896003,-0.285264866,-0.024866050,-0.700026932,0.000000000,-0.700546679,-0.001565000,-0.000771734,-0.026064944,-0.006151168,0.000000000,-0.006068804
0.107990266,-0.001028000,-0.000801960,-0.011241998,0.043825963,0.000000000,0.039479460,-0.000551000,-0.007431986,0.014849145,1.620520129,0.000000000,1.620013043,-0.004956000,-0.007392887,0.028446011,0.058572955,0.000000000,0.049252603,0.423667997,0.364917784,0.164269790,2.542470299,0.000000000,2.543327664,-0.400647014,-0.392568733,-0.035498217,-0.713740168,0.000000000,-0.715510114,0.000000000,0.000156955,0.000601057,-0.017529409,0.000000000,-0.017571488,-0.001272000,-0.000675040,-0.013606351,0.011345229,0.000000000,0.013312723,-0.001496000,0.000453579,-0.007581329,-0.378952816,0.000000000,-0.382675943,0.069766998,0.059148203,0.049357293,1.905638741,0.000000000,1.901926843,0.272942007,0.240101593,0.078729463,1.514897125,0.000000000,1.514755743,-0.293006003,-0.285318052,-0.026592895,-0.700546679,0.000000000,-0.701379223,-0.001626000,-0.000824562,-0.026414083,-0.006068804,0.000000000,-0.005902106
0.109990086,-0.001107000,-0.000824699,-0.011371468,0.039479460,0.000000000,0.034214627,-0.000575000,-0.007403575,0.014205598,1.620013043,0.000000000,1.619671821,-0.004914000,-0.007335590,0.028648394,0.049252603,0.000000000,0.040326887,0.423628002,0.365239656,0.160936124,2.543327664,0.000000000,2.544166031,-0.400732994,-0.392639689,-0.035478185,-0.715510114,0.000000000,-0.717085399,0.000000000,0.000158107,0.000575981,-0.017571488,0.000000000,-0.017616617,-0.001285000,-0.000702351,-0.013656306,0.013312723,0.000000000,0.015120648,-0.001537000,0.000438104,-0.007742427,-0.382675943,0.000000000,-0.386287440,0.069863997,0.059247199,0.049498275,1.901926843,0.000000000,1.898170265,0.272825003,0.240254350,0.076378296,1.514755743,0.000000000,1.514428409,-0.293121994,-0.285374846,-0.028397151,-0.701379223,0.000000000,-0.702232403,-0.001687000,-0.000877993,-0.026715410,-0.005902106,0.000000000,-0.005810427
0.111989906,-0.001196000,-0.000847752,-0.011528176,0.034214627,0.000000000,0.028071335,-0.000598000,-0.007376459,0.013557814,1.619671821,0.000000000,1.620078925,-0.004873000,-0.007277930,0.028830211,0.040326887,0.000000000,0.031478788,0.423586011,0.365554940,0.157642114,2.544166031,0.000000000,2.545012533,-0.400821000,-0.392710855,-0.035582920,-0.717085399,0.000000000,-0.718489614,0.000000000,0.000159217,0.000555084,-0.017616617,0.000000000,-0.017669407,-0.001298000,-0.000729707,-0.013678852,0.015120648,0.000000000,0.016778398,-0.001578000,0.000422307,-0.007904041,-0.386287440,0.000000000,-0.389795710,0.069959998,0.059346452,0.049626382,1.898170265,0.000000000,1.894348289,0.272702992,0.240402444,0.074046975,1.514428409,0.000000000,1.513938284,-0.293242991,-0.285435401,-0.030277549,-0.702232403,0.000000000,-0.702995034,-0.001748000,-0.000931960,-0.026983713,-0.005810427,0.000000000,-0.005758403
0.113989726,-0.001292000,-0.000871182,-0.011717073,0.028071335,0.000000000,0.021404220,-0.000621000,-0.007350648,0.012905858,1.620078925,0.000000000,1.620951045,-0.004833000,-0.007219946,0.028992099,0.031478788,0.000000000,0.022705274,0.423541009,0.365863712,0.154385905,2.545012533,0.000000000,2.545811573,-0.400911003,-0.392782456,-0.035800350,-0.718489614,0.000000000,-0.719731290,0.000000000,0.000160290,0.000536092,-0.017669407,0.000000000,-0.017723772,-0.001309000,-0.000757058,-0.013676563,0.016778398,0.000000000,0.018508418,-0.001619000,0.000406187,-0.008066123,-0.389795710,0.000000000,-0.393201540,0.070054002,0.059445938,0.049742961,1.894348289,0.000000000,1.890153202,0.272576988,0.240545905,0.071730786,1.513938284,0.000000000,1.513380942,-0.293368995,-0.285499847,-0.032223010,-0.702995034,0.000000000,-0.703685468,-0.001808000,-0.000986413,-0.027226796,-0.005758403,0.000000000,-0.005627878
0.115989545,-0.001396000,-0.000895061,-0.011941214,0.021404220,0.000000000,0.014131455,-0.000644000,-0.007326148,0.012249939,1.620951045,0.000000000,1.622285682,-0.004794000,-0.007161676,0.029135010,0.022705274,0.000000000,0.013995304,0.423494011,0.366166041,0.151164846,2.545811573,0.000000000,2.546641560,-0.401001990,-0.392854692,-0.036117898,-0.719731290,0.000000000,-0.720723541,0.000000000,0.000161326,0.000518306,-0.017723772,0.000000000,-0.017777971,-0.001321000,-0.000784353,-0.013647918,0.018508418,0.000000000,0.019976694,-0.001660000,0.000389742,-0.008228928,-0.393201540,0.000000000,-0.396498818,0.070147000,0.059545632,0.049846991,1.890153202,0.000000000,1.885896930,0.272446990,0.240684767,0.069431125,1.513380942,0.000000000,1.512744397,-0.293498009,-0.285568303,-0.034227909,-0.703685468,0.000000000,-0.704105880,-0.001869000,-0.001041274,-0.027430307,-0.005627878,0.000000000,-0.005669783
0.117989365,-0.001506000,-0.000919465,-0.012204025,0.014131455,0.000000000,0.006493876,-0.000666000,-0.007302968,0.011590065,1.622285682,0.000000000,1.624369153,-0.004755000,-0.007103157,0.029259539,0.013995304,0.000000000,0.005630461,0.423446000,0.366461995,0.147976794,2.546641560,0.000000000,2.547575681,-0.401093990,-0.392927727,-0.036517609,-0.720723541,0.000000000,-0.721503816,0.000000000,0.000162329,0.000501371,-0.017777971,0.000000000,-0.017831166,-0.001332000,-0.000811547,-0.013597856,0.019976694,0.000000000,0.021419798,-0.001700000,0.000372973,-0.008391902,-0.396498818,0.000000000,-0.399415827,0.070238002,0.059645511,0.049940006,1.885896930,0.000000000,1.881269384,0.272312999,0.240819051,0.067141973,1.512744397,0.000000000,1.512070086,-0.293628991,-0.285640833,-0.036265091,-0.704105880,0.000000000,-0.704221526,-0.001930000,-0.001096528,-0.027627000,-0.005669783,0.000000000,-0.005691313
0.119989185,-0.001622000,-0.000944477,-0.012507299,0.006493876,0.000000000,-0.001489794,-0.000689000,-0.007281114,0.010926762,1.624369153,0.000000000,1.626622995,-0.004716000,-0.007044425,0.029366297,0.005630461,0.000000000,-0.002393093,0.423395991,0.366751635,0.144820103,2.547575681,0.000000000,2.548559538,-0.401185989,-0.393001696,-0.036984648,-0.721503816,0.000000000,-0.721998273,0.000000000,0.000163296,0.000483353,-0.017831166,0.000000000,-0.017877639,-0.001344000,-0.000838598,-0.013525969,0.021419798,0.000000000,0.022617569,-0.001739000,0.000355880,-0.008554767,-0.399415827,0.000000000,-0.401958913,0.070326999,0.059745555,0.050021768,1.881269384,0.000000000,1.876280183,0.272177011,0.240948774,0.064861084,1.512070086,0.000000000,1.511499063,-0.293761998,-0.285717447,-0.038307047,-0.704221526,0.000000000,-0.704115671,-0.001990000,-0.001152157,-0.027814757,-0.005691313,0.000000000,-0.005599233
0.121989005,-0.001742000,-0.000970180,-0.012853288,-0.001489794,0.000000000,-0.009584495,-0.000711000,-0.007260594,0.010259981,1.626622995,0.000000000,1.629618832,-0.004678000,-0.006985512,0.029456532,-0.002393093,0.000000000,-0.010378533,0.423345000,0.367035018,0.141691259,2.548559538,0.000000000,2.549678608,-0.401279002,-0.393076692,-0.037497800,-0.721998273,0.000000000,-0.722360315,0.000000000,0.000164227,0.000465773,-0.017877639,0.000000000,-0.017921806,-0.001356000,-0.000865472,-0.013437552,0.022617569,0.000000000,0.023703029,-0.001777000,0.000338462,-0.008718271,-0.401958913,0.000000000,-0.404110991,0.070413999,0.059845735,0.050090165,1.876280183,0.000000000,1.870986835,0.272038013,0.241073958,0.062592296,1.511499063,0.000000000,1.510938510,-0.293895990,-0.285798121,-0.040337105,-0.704115671,0.000000000,-0.703732700,-0.002050000,-0.001208103,-0.027972966,-0.005599233,0.000000000,-0.005559175
0.123988824,-0.001865000,-0.000996661,-0.013241867,-0.009584495,0.000000000,-0.017675279,-0.000733000,-0.007241413,0.009590416,1.629618832,0.000000000,1.633058282,-0.004641000,-0.006926453,0.029529553,-0.010378533,0.000000000,-0.018300300,0.423292011,0.367312201,0.138591674,2.549678608,0.000000000,2.550855151,-0.401371002,-0.393152790,-0.038049025,-0.722360315,0.000000000,-0.722400292,0.000000000,0.000165119,0.000446004,-0.017921806,0.000000000,-0.017955753,-0.001368000,-0.000892140,-0.013334176,0.023703029,0.000000000,0.024681849,-0.001814000,0.000320720,-0.008881841,-0.404110991,0.000000000,-0.405884979,0.070497997,0.059946024,0.050144841,1.870986835,0.000000000,1.865119272,0.271896988,0.241194627,0.060334368,1.510938510,0.000000000,1.510458003,-0.294028014,-0.285882782,-0.042330569,-0.703732700,0.000000000,-0.702852041,-0.002110000,-0.001264329,-0.028113053,-0.005559175,0.000000000,-0.005542324
0.125988644,-0.001991000,-0.001024003,-0.013672604,-0.017675279,0.000000000,-0.025755608,-0.000755000,-0.007223576,0.008918664,1.633058282,0.000000000,1.636929090,-0.004603000,-0.006867282,0.029585632,-0.018300300,0.000000000,-0.025586435,0.423238993,0.367583240,0.135519383,2.550855151,0.000000000,2.552223931,-0.401463002,-0.393230019,-0.038614848,-0.722400292,0.000000000,-0.722284395,0.000000000,0.000165967,0.000424110,-0.017955753,0.000000000,-0.017979232,-0.001382000,-0.000918574,-0.013217628,0.024681849,0.000000000,0.025348172,-0.001850000,0.000302653,-0.009045233,-0.405884979,0.000000000,-0.407286720,0.070579000,0.060046393,0.050184454,1.865119272,0.000000000,1.858718566,0.271755010,0.241310800,0.058086747,1.510458003,0.000000000,1.510127933,-0.294160008,-0.285971271,-0.044244530,-0.702852041,0.000000000,-0.701807526,-0.002170000,-0.001320811,-0.028240755,-0.005542324,0.000000000,-0.005534869
0.127988464,-0.002119000,-0.001052290,-0.014145270,-0.025755608,0.000000000,-0.033711238,-0.000776000,-0.007207086,0.008245097,1.636929090,0.000000000,1.641508119,-0.004567000,-0.006808032,0.029625373,-0.025586435,0.000000000,-0.033094235,0.423184991,0.367848187,0.132473494,2.552223931,0.000000000,2.553727703,-0.401553005,-0.393308389,-0.039184963,-0.722284395,0.000000000,-0.721839254,0.000000000,0.000166768,0.000400173,-0.017979232,0.000000000,-0.017992067,-0.001396000,-0.000944763,-0.013094957,0.025348172,0.000000000,0.025953725,-0.001884000,0.000284263,-0.009208978,-0.407286720,0.000000000,-0.408019904,0.070657000,0.060146804,0.050205300,1.858718566,0.000000000,1.851877029,0.271611989,0.241422516,0.055857731,1.510127933,0.000000000,1.509881330,-0.294288993,-0.286063411,-0.046069792,-0.701807526,0.000000000,-0.700342032,-0.002229000,-0.001377528,-0.028358752,-0.005534869,0.000000000,-0.005430088
0.129988284,-0.002248000,-0.001081603,-0.014658105,-0.033711238,0.000000000,-0.041436947,-0.000797000,-0.007191944,0.007570707,1.641508119,0.000000000,1.646489105,-0.004530000,-0.006748737,0.029647706,-0.033094235,0.000000000,-0.039936653,0.423130006,0.368107097,0.129454891,2.553727703,0.000000000,2.555356757,-0.401641995,-0.393387863,-0.039736797,-0.721839254,0.000000000,-0.721232141,0.000000000,0.000167513,0.000372578,-0.017992067,0.000000000,-0.017988923,-0.001412000,-0.000970695,-0.012966191,0.025953725,0.000000000,0.026284179,-0.001917000,0.000265550,-0.009372401,-0.408019904,0.000000000,-0.408384471,0.070731997,0.060247217,0.050206617,1.851877029,0.000000000,1.844623000,0.271468997,0.241529808,0.053646267,1.509881330,0.000000000,1.509791224,-0.294414014,-0.286158950,-0.047769408,-0.700342032,0.000000000,-0.698489614,-0.002288000,-0.001434431,-0.028451542,-0.005430088,0.000000000,-0.005378217
0.131988103,-0.002377000,-0.001112020,-0.015209637,-0.041436947,0.000000000,-0.048826268,-0.000818000,-0.007178152,0.006896065,1.646489105,0.000000000,1.651859349,-0.004494000,-0.006689430,0.029653608,-0.039936653,0.000000000,-0.046695098,0.423074991,0.368360020,0.126461555,2.555356757,0.000000000,2.557182473,-0.401730001,-0.393468380,-0.040258667,-0.721232141,0.000000000,-0.720505332,0.000000000,0.000168197,0.000342130,-0.017988923,0.000000000,-0.017971513,-0.001429000,-0.000996368,-0.012837103,0.026284179,0.000000000,0.026478705,-0.001947000,0.000246516,-0.009535638,-0.408384471,0.000000000,-0.407809291,0.070803002,0.060347589,0.050186360,1.844623000,0.000000000,1.836733329,0.271324992,0.241632718,0.051454954,1.509791224,0.000000000,1.509770704,-0.294535011,-0.286257574,-0.049311982,-0.698489614,0.000000000,-0.696365251,-0.002347000,-0.001491491,-0.028529952,-0.005378217,0.000000000,-0.005351377
0.133987923,-0.002505000,-0.001143611,-0.015797189,-0.048826268,0.000000000,-0.055780034,-0.000839000,-0.007165708,0.006221932,1.651859349,0.000000000,1.657601327,-0.004458000,-0.006630146,0.029642059,-0.046695098,0.000000000,-0.053052109,0.423018992,0.368607012,0.123495892,2.557182473,0.000000000,2.559124016,-0.401814997,-0.393549867,-0.040743617,-0.720505332,0.000000000,-0.719481254,0.000000000,0.000168814,0.000308612,-0.017971513,0.000000000,-0.017938599,-0.001447000,-0.001021785,-0.012708939,0.026478705,0.000000000,0.026544559,-0.001976000,0.000227165,-0.009697761,-0.407809291,0.000000000,-0.406884883,0.070871003,0.060447873,0.050141943,1.836733329,0.000000000,1.828561918,0.271180987,0.241731294,0.049287989,1.509770704,0.000000000,1.509850877,-0.294651002,-0.286358927,-0.050676546,-0.696365251,0.000000000,-0.693965139,-0.002406000,-0.001548697,-0.028602864,-0.005351377,0.000000000,-0.005325429
0.135987743,-0.002641000,-0.001176444,-0.016417798,-0.055780034,0.000000000,-0.063267300,-0.000858000,-0.007154610,0.005549034,1.657601327,0.000000000,1.664266379,-0.004423000,-0.006570919,0.029613439,-0.053052109,0.000000000,-0.059291030,0.422962993,0.368848124,0.120556028,2.559124016,0.000000000,2.561253579,-0.401901007,-0.393632208,-0.041170298,-0.719481254,0.000000000,-0.718638999,0.000000000,0.000169359,0.000272221,-0.017938599,0.000000000,-0.017890163,-0.001467000,-0.001046953,-0.012584261,0.026544559,0.000000000,0.026390353,-0.002003000,0.000207501,-0.009858699,-0.406884883,0.000000000,-0.405329936,0.070935003,0.060548018,0.050072290,1.828561918,0.000000000,1.819863660,0.271032989,0.241825587,0.047146451,1.509850877,0.000000000,1.509768600,-0.294766992,-0.286462607,-0.051840104,-0.693965139,0.000000000,-0.691901297,-0.002464000,-0.001606039,-0.028671051,-0.005325429,0.000000000,-0.005198066
0.137987563,-0.002788000,-0.001210589,-0.017073888,-0.063267300,0.000000000,-0.071586546,-0.000877000,-0.007144855,0.004877774,1.664266379,0.000000000,1.671275979,-0.004387000,-0.006511786,0.029566828,-0.059291030,0.000000000,-0.064812341,0.422904015,0.369083416,0.117646169,2.561253579,0.000000000,2.563349220,-0.401988000,-0.393715317,-0.041554327,-0.718638999,0.000000000,-0.717939774,0.000000000,0.000169825,0.000232968,-0.017890163,0.000000000,-0.017825656,-0.001488000,-0.001071887,-0.012467232,0.026390353,0.000000000,0.026147862,-0.002030000,0.000187529,-0.010019031,-0.405329936,0.000000000,-0.403701151,0.070995003,0.060647966,0.049974427,1.819863660,0.000000000,1.810721872,0.270877987,0.241915665,0.045039161,1.509768600,0.000000000,1.509266727,-0.294885993,-0.286568278,-0.052835657,-0.691901297,0.000000000,-0.690418074,-0.002521000,-0.001663474,-0.028717558,-0.005198066,0.000000000,-0.005021896
0.139987382,-0.002945000,-0.001246129,-0.017771134,-0.071586546,0.000000000,-0.080590331,-0.000895000,-0.007136439,0.004207872,1.671275979,0.000000000,1.678919956,-0.004352000,-0.006452777,0.029504693,-0.064812341,0.000000000,-0.070231362,0.422845006,0.369312942,0.114763003,2.563349220,0.000000000,2.565617474,-0.402076006,-0.393799126,-0.041904750,-0.717939774,0.000000000,-0.717367667,0.000000000,0.000170214,0.000194714,-0.017825656,0.000000000,-0.017756257,-0.001511000,-0.001096606,-0.012359971,0.026147862,0.000000000,0.025724580,-0.002056000,0.000167254,-0.010179253,-0.403701151,0.000000000,-0.401704399,0.071053997,0.060747661,0.049847558,1.810721872,0.000000000,1.802022377,0.270716995,0.242001606,0.042970473,1.509266727,0.000000000,1.508373434,-0.295004994,-0.286675705,-0.053713284,-0.690418074,0.000000000,-0.689092718,-0.002577000,-0.001720940,-0.028732970,-0.005021896,0.000000000,-0.004829924
0.141987202,-0.003109000,-0.001283153,-0.018513229,-0.080590331,0.000000000,-0.089928412,-0.000912000,-0.007129360,0.003539537,1.678919956,0.000000000,1.687192657,-0.004317000,-0.006393924,0.029426580,-0.070231362,0.000000000,-0.075244562,0.422782987,0.369536761,0.111909673,2.565617474,0.000000000,2.567843986,-0.402164996,-0.393883592,-0.042232764,-0.717367667,0.000000000,-0.716892364,0.000000000,0.000170528,0.000157077,-0.017756257,0.000000000,-0.017681006,-0.001534000,-0.001121134,-0.012264003,0.025724580,0.000000000,0.025344686,-0.002081000,0.000146686,-0.010338219,-0.401704399,0.000000000,-0.399368526,0.071108997,0.060847055,0.049697164,1.802022377,0.000000000,1.792805361,0.270552009,0.242083461,0.040927130,1.508373434,0.000000000,1.507305870,-0.295125991,-0.286784658,-0.054476702,-0.689092718,0.000000000,-0.688139549,-0.002633000,-0.001778371,-0.028715950,-0.004829924,0.000000000,-0.004733599
0.143987022,-0.003282000,-0.001321754,-0.019302136,-0.089928412,0.000000000,-0.099792948,-0.000929000,-0.007123614,0.002873219,1.687192657,0.000000000,1.695798566,-0.004282000,-0.006335257,0.029333648,-0.075244562,0.000000000,-0.079869765,0.422719985,0.369754931,0.109084681,2.567843986,0.000000000,2.570163830,-0.402253002,-0.393968681,-0.042544660,-0.716892364,0.000000000,-0.716300443,0.000000000,0.000170767,0.000119570,-0.017681006,0.000000000,-0.017598542,-0.001559000,-0.001145489,-0.012177964,0.025344686,0.000000000,0.024789434,-0.002105000,0.000125841,-0.010495720,-0.399368526,0.000000000,-0.396702833,0.071162999,0.060946096,0.049520168,1.792805361,0.000000000,1.784006898,0.270384014,0.242161297,0.038918167,1.507305870,0.000000000,1.506057595,-0.295246005,-0.286894983,-0.055162458,-0.688139549,0.000000000,-0.687169167,-0.002688000,-0.001835744,-0.028686350,-0.004733599,0.000000000,-0.004577953
0.145986842,-0.003461000,-0.001362034,-0.020141084,-0.099792948,0.000000000,-0.109835175,-0.000946000,-0.007119196,0.002208840,1.695798566,0.000000000,1.704738276,-0.004247000,-0.006276803,0.029226906,-0.079869765,0.000000000,-0.084121881,0.422654986,0.369967503,0.106286349,2.570163830,0.000000000,2.572521566,-0.402341008,-0.394054346,-0.042832245,-0.716300443,0.000000000,-0.715719510,0.000000000,0.000170934,0.000083501,-0.017598542,0.000000000,-0.017512875,-0.001586000,-0.001169697,-0.012104087,0.024789434,0.000000000,0.024074024,-0.002128000,0.000104748,-0.010651240,-0.396702833,0.000000000,-0.393726905,0.071214996,0.061044737,0.049320597,1.784006898,0.000000000,1.775262824,0.270213008,0.242235164,0.036933579,1.506057595,0.000000000,1.504696656,-0.295365989,-0.287006508,-0.055762308,-0.687169167,0.000000000,-0.686318756,-0.002743000,-0.001893012,-0.028633797,-0.004577953,0.000000000,-0.004498186
0.147986661,-0.003645000,-0.001404094,-0.021031138,-0.109835175,0.000000000,-0.119931615,-0.000962000,-0.007116103,0.001546616,1.704738276,0.000000000,1.714289979,-0.004213000,-0.006218590,0.029107014,-0.084121881,0.000000000,-0.088292738,0.422589004,0.370174531,0.103513953,2.572521566,0.000000000,2.574983066,-0.402429014,-0.394140538,-0.043096425,-0.715719510,0.000000000,-0.715151718,0.000000000,0.000171031,0.000048494,-0.017512875,0.000000000,-0.017423152,-0.001613000,-0.001193786,-0.012044825,0.024074024,0.000000000,0.023428627,-0.002151000,0.000083458,-0.010804776,-0.393726905,0.000000000,-0.390740282,0.071266003,0.061142934,0.049098547,1.775262824,0.000000000,1.766871761,0.270040989,0.242305111,0.034973520,1.504696656,0.000000000,1.503344964,-0.295484990,-0.287119081,-0.056286596,-0.686318756,0.000000000,-0.685477800,-0.002799000,-0.001950159,-0.028573803,-0.004498186,0.000000000,-0.004552764
0.149986481,-0.003834000,-0.001448035,-0.021972010,-0.119931615,0.000000000,-0.130073059,-0.000979000,-0.007114328,0.000887199,1.714289979,0.000000000,1.723868785,-0.004180000,-0.006160643,0.028973476,-0.088292738,0.000000000,-0.092363196,0.422520012,0.370376070,0.100769336,2.574983066,0.000000000,2.577403705,-0.402516007,-0.394227217,-0.043339277,-0.715151718,0.000000000,-0.714493068,0.000000000,0.000171057,0.000012788,-0.017423152,0.000000000,-0.017324226,-0.001642000,-0.001217782,-0.011998089,0.023428627,0.000000000,0.022630909,-0.002174000,0.000062097,-0.010955518,-0.390740282,0.000000000,-0.387796606,0.071315996,0.061240644,0.048855407,1.766871761,0.000000000,1.758807957,0.269867003,0.242371182,0.033035261,1.503344964,0.000000000,1.501958942,-0.295601994,-0.287232551,-0.056734852,-0.685477800,0.000000000,-0.684560593,-0.002854000,-0.002007223,-0.028531951,-0.004552764,0.000000000,-0.004463181
0.151986301,-0.004026000,-0.001493961,-0.022964080,-0.130073059,0.000000000,-0.140033233,-0.000996000,-0.007113867,0.000230648,1.723868785,0.000000000,1.733756031,-0.004147000,-0.006102990,0.028826950,-0.092363196,0.000000000,-0.096056574,0.422450006,0.370572171,0.098050761,2.577403705,0.000000000,2.579918676,-0.402601004,-0.394314324,-0.043553420,-0.714493068,0.000000000,-0.713670949,0.000000000,0.000171013,-0.000021889,-0.017324226,0.000000000,-0.017221216,-0.001672000,-0.001241715,-0.011967027,0.022630909,0.000000000,0.021808627,-0.002195000,0.000041042,-0.011104506,-0.387796606,0.000000000,-0.384411062,0.071364999,0.061337830,0.048592883,1.758807957,0.000000000,1.751050167,0.269694000,0.242433410,0.031114232,1.501958942,0.000000000,1.500755251,-0.295717001,-0.287346747,-0.057098203,-0.684560593,0.000000000,-0.683609525,-0.002909000,-0.002064184,-0.028480263,-0.004463181,0.000000000,-0.004411988
0.153986121,-0.004221000,-0.001541971,-0.024006034,-0.140033233,0.000000000,-0.149808956,-0.001013000,-0.007114712,-0.000422586,1.733756031,0.000000000,1.743939598,-0.004114000,-0.006045654,0.028667724,-0.096056574,0.000000000,-0.099372179,0.422376990,0.370762886,0.095357237,2.579918676,0.000000000,2.582405729,-0.402684987,-0.394401779,-0.043727541,-0.713670949,0.000000000,-0.712825012,0.000000000,0.000170900,-0.000056624,-0.017221216,0.000000000,-0.017111018,-0.001704000,-0.001265617,-0.011950907,0.021808627,0.000000000,0.020854218,-0.002216000,0.000022144,-0.011250926,-0.384411062,0.000000000,-0.381696453,0.071414001,0.061434451,0.048310407,1.751050167,0.000000000,1.743904235,0.269522011,0.242491836,0.029212854,1.500755251,0.000000000,1.499716094,-0.295830011,-0.287461499,-0.057375996,-0.683609525,0.000000000,-0.682643745,-0.002965000,-0.002121041,-0.028428553,-0.004411988,0.000000000,-0.004472376
0.155985940,-0.004418000,-0.001592162,-0.025096717,-0.149808956,0.000000000,-0.159289834,-0.001031000,-0.007116856,-0.001072100,1.743939598,0.000000000,1.754124019,-0.004082000,-0.005988662,0.028496627,-0.099372179,0.000000000,-0.102606168,0.422302991,0.370948260,0.092687045,2.582405729,0.000000000,2.585002145,-0.402767003,-0.394489497,-0.043859273,-0.712825012,0.000000000,-0.711874168,0.000000000,0.000170717,-0.000091653,-0.017111018,0.000000000,-0.016992905,-0.001737000,-0.001289525,-0.011954211,0.020854218,0.000000000,0.019903778,-0.002237000,-0.000017695,-0.011395774,-0.381696453,0.000000000,-0.373065308,0.071462996,0.061530468,0.048008750,1.743904235,0.000000000,1.737361554,0.269351006,0.242546497,0.027330687,1.499716094,0.000000000,1.498840271,-0.295938998,-0.287576635,-0.057567764,-0.682643745,0.000000000,-0.681477158,-0.003021000,-0.002177829,-0.028394137,-0.004472376,0.000000000,-0.004490552
0.157985760,-0.004616000,-0.001644628,-0.026234148,-0.159289834,0.000000000,-0.168370431,-0.001050000,-0.007120291,-0.001717312,1.754124019,0.000000000,1.764293721,-0.004051000,-0.005932035,0.028313197,-0.102606168,0.000000000,-0.105741250,0.422226995,0.371128342,0.090041192,2.585002145,0.000000000,2.587633682,-0.402846992,-0.394577381,-0.043941844,-0.711874168,0.000000000,-0.710841586,0.000000000,0.000170463,-0.000126689,-0.016992905,0.000000000,-0.016867689,-0.001772000,-0.001313444,-0.011959910,0.019903778,0.000000000,0.018754906,-0.002257000,-0.000034511,-0.011528833,-0.373065308,0.000000000,-0.370960806,0.071512997,0.061625850,0.047690901,1.737361554,0.000000000,1.731651707,0.269183993,0.242597418,0.025460475,1.498840271,0.000000000,1.498367993,-0.296043009,-0.287691939,-0.057652142,-0.681477158,0.000000000,-0.680095824,-0.003078000,-0.002234627,-0.028398846,-0.004490552,0.000000000,-0.004497611
0.159985580,-0.004813000,-0.001699457,-0.027415778,-0.168370431,0.000000000,-0.176842558,-0.001069000,-0.007125008,-0.002358398,1.764293721,0.000000000,1.774734509,-0.004021000,-0.005875801,0.028117305,-0.105741250,0.000000000,-0.108767394,0.422147989,0.371303182,0.087419691,2.587633682,0.000000000,2.590233168,-0.402925014,-0.394665320,-0.043969380,-0.710841586,0.000000000,-0.709761115,0.000000000,0.000170141,-0.000161062,-0.016867689,0.000000000,-0.016737413,-0.001808000,-0.001337428,-0.011992367,0.018754906,0.000000000,0.017657673,-0.002277000,-0.000056225,-0.011664268,-0.370960806,0.000000000,-0.367410103,0.071562998,0.061720561,0.047355472,1.731651707,0.000000000,1.726530191,0.269019991,0.242644631,0.023606572,1.498367993,0.000000000,1.498204114,-0.296144009,-0.287807174,-0.057617717,-0.680095824,0.000000000,-0.678754999,-0.003135000,-0.002291430,-0.028401640,-0.004497611,0.000000000,-0.004509548
0.161985400,-0.005009000,-0.001756730,-0.028637529,-0.176842558,0.000000000,-0.184720770,-0.001090000,-0.007130996,-0.002994292,1.774734509,0.000000000,1.784850856,-0.003991000,-0.005819984,0.027908662,-0.108767394,0.000000000,-0.111386364,0.422066987,0.371472827,0.084822516,2.590233168,0.000000000,2.592861724,-0.402999014,-0.394753197,-0.043938325,-0.709761115,0.000000000,-0.708446876,0.000000000,0.000169748,-0.000196807,-0.016737413,0.000000000,-0.016596010,-0.001845000,-0.001361517,-0.012044351,0.017657673,0.000000000,0.016575370,-0.002296000,-0.000079127,-0.011797336,-0.367410103,0.000000000,-0.363290992,0.071615003,0.061814564,0.047001759,1.726530191,0.000000000,1.722593009,0.268860996,0.242688177,0.021772941,1.498204114,0.000000000,1.498444042,-0.296238989,-0.287922116,-0.057470632,-0.678754999,0.000000000,-0.677155777,-0.003194000,-0.002348264,-0.028417247,-0.004509548,0.000000000,-0.004684057
0.163985219,-0.005203000,-0.001816520,-0.029896141,-0.184720770,0.000000000,-0.191908976,-0.001112000,-0.007138246,-0.003624757,1.784850856,0.000000000,1.794918606,-0.003963000,-0.005764608,0.027688148,-0.111386364,0.000000000,-0.114180115,0.421983987,0.371637320,0.082246838,2.592861724,0.000000000,2.595536739,-0.403070003,-0.394840858,-0.043830960,-0.708446876,0.000000000,-0.707067077,0.000000000,0.000169283,-0.000232012,-0.016596010,0.000000000,-0.016449025,-0.001884000,-0.001385743,-0.012113092,0.016575370,0.000000000,0.015389285,-0.002315000,-0.000102598,-0.011925582,-0.363290992,0.000000000,-0.359119428,0.071667999,0.061907829,0.046632741,1.722593009,0.000000000,1.719493448,0.268707991,0.242728085,0.019953805,1.498444042,0.000000000,1.499189128,-0.296328992,-0.288036490,-0.057187145,-0.677155777,0.000000000,-0.675498646,-0.003253000,-0.002405224,-0.028479639,-0.004684057,0.000000000,-0.004712922
0.165985039,-0.005393000,-0.001878892,-0.031186987,-0.191908976,0.000000000,-0.198213385,-0.001135000,-0.007146745,-0.004249343,1.794918606,0.000000000,1.804924169,-0.003935000,-0.005709700,0.027454445,-0.114180115,0.000000000,-0.116542520,0.421898991,0.371796710,0.079694908,2.595536739,0.000000000,2.598239206,-0.403138012,-0.394928145,-0.043643477,-0.707067077,0.000000000,-0.705651756,0.000000000,0.000168748,-0.000267534,-0.016449025,0.000000000,-0.016293962,-0.001924000,-0.001410146,-0.012201695,0.015389285,0.000000000,0.014227828,-0.002333000,-0.000126460,-0.012050733,-0.359119428,0.000000000,-0.354622548,0.071722999,0.062000322,0.046246608,1.719493448,0.000000000,1.717570222,0.268561006,0.242764397,0.018156308,1.499189128,0.000000000,1.500387739,-0.296411991,-0.288150029,-0.056769305,-0.675498646,0.000000000,-0.673600128,-0.003314000,-0.002462343,-0.028559832,-0.004712922,0.000000000,-0.004877102
0.167984859,-0.005581000,-0.001943899,-0.032504723,-0.198213385,0.000000000,-0.203871619,-0.001160000,-0.007156479,-0.004867381,1.804924169,0.000000000,1.814564523,-0.003908000,-0.005655284,0.027207821,-0.116542520,0.000000000,-0.118756799,0.421810001,0.371951042,0.077166111,2.598239206,0.000000000,2.600844469,-0.403203011,-0.395014891,-0.043372985,-0.705651756,0.000000000,-0.704222893,0.000000000,0.000168141,-0.000303776,-0.016293962,0.000000000,-0.016129522,-0.001966000,-0.001434762,-0.012308131,0.014227828,0.000000000,0.012976709,-0.002352000,-0.000150638,-0.012171483,-0.354622548,0.000000000,-0.350419427,0.071778998,0.062092013,0.045845192,1.717570222,0.000000000,1.716504683,0.268418014,0.242797153,0.016377527,1.500387739,0.000000000,1.501930283,-0.296489000,-0.288262423,-0.056197185,-0.673600128,0.000000000,-0.671650462,-0.003376000,-0.002519713,-0.028684951,-0.004877102,0.000000000,-0.004989333
0.169984679,-0.005771000,-0.002011589,-0.033845722,-0.203871619,0.000000000,-0.209325603,-0.001188000,-0.007167437,-0.005478789,1.814564523,0.000000000,1.823549741,-0.003882000,-0.005601388,0.026948626,-0.118756799,0.000000000,-0.120823621,0.421716988,0.372100361,0.074659156,2.600844469,0.000000000,2.603357042,-0.403266996,-0.395100926,-0.043017437,-0.704222893,0.000000000,-0.703005305,0.000000000,0.000167463,-0.000339147,-0.016129522,0.000000000,-0.015960413,-0.002013000,-0.001459632,-0.012435262,0.012976709,0.000000000,0.011336780,-0.002371000,-0.000175096,-0.012289249,-0.350419427,0.000000000,-0.346204133,0.071836002,0.062182869,0.045428395,1.716504683,0.000000000,1.716309883,0.268270999,0.242826392,0.014619693,1.501930283,0.000000000,1.503291868,-0.296564013,-0.288373363,-0.055470104,-0.671650462,0.000000000,-0.670086514,-0.003440000,-0.002577399,-0.028843074,-0.004989333,0.000000000,-0.005177879
0.171984498,-0.005962000,-0.002082006,-0.035209410,-0.209325603,0.000000000,-0.214467172,-0.001217000,-0.007179605,-0.006084184,1.823549741,0.000000000,1.832458874,-0.003856000,-0.005548034,0.026677219,-0.120823621,0.000000000,-0.122459946,0.421618998,0.372244710,0.072174356,2.603357042,0.000000000,2.605711673,-0.403329998,-0.395186109,-0.042591579,-0.703005305,0.000000000,-0.701974291,0.000000000,0.000166721,-0.000370786,-0.015960413,0.000000000,-0.015795516,-0.002063000,-0.001484812,-0.012590408,0.011336780,0.000000000,0.009568555,-0.002391000,-0.000199814,-0.012404600,-0.346204133,0.000000000,-0.342254037,0.071893997,0.062272868,0.044999253,1.716309883,0.000000000,1.716919945,0.268119991,0.242852148,0.012878264,1.503291868,0.000000000,1.504504589,-0.296636999,-0.288482601,-0.054618695,-0.670086514,0.000000000,-0.668843312,-0.003504000,-0.002635496,-0.029048533,-0.005177879,0.000000000,-0.005190343
0.173984318,-0.006154000,-0.002155192,-0.036594312,-0.214467172,0.000000000,-0.219300053,-0.001248000,-0.007192972,-0.006683463,1.832458874,0.000000000,1.841001839,-0.003831000,-0.005495244,0.026394735,-0.122459946,0.000000000,-0.123969356,0.421516001,0.372384129,0.069709919,2.605711673,0.000000000,2.607916641,-0.403391987,-0.395270325,-0.042107561,-0.701974291,0.000000000,-0.701104055,0.000000000,0.000165921,-0.000399805,-0.015795516,0.000000000,-0.015632205,-0.002117000,-0.001510364,-0.012776184,0.009568555,0.000000000,0.007586799,-0.002412000,-0.000224780,-0.012518805,-0.342254037,0.000000000,-0.338543577,0.071951002,0.062361989,0.044560823,1.716919945,0.000000000,1.717707653,0.267967999,0.242874445,0.011148232,1.504504589,0.000000000,1.505792732,-0.296707004,-0.288589936,-0.053667569,-0.668843312,0.000000000,-0.667774660,-0.003571000,-0.002694030,-0.029266698,-0.005190343,0.000000000,-0.005425782
0.175984138,-0.006348000,-0.002231189,-0.037999023,-0.219300053,0.000000000,-0.223934680,-0.001281000,-0.007207526,-0.007276670,1.841001839,0.000000000,1.849176214,-0.003806000,-0.005443041,0.026101822,-0.123969356,0.000000000,-0.125076358,0.421409994,0.372518659,0.067264985,2.607916641,0.000000000,2.610101724,-0.403452992,-0.395353476,-0.041575645,-0.701104055,0.000000000,-0.700378114,0.000000000,0.000165070,-0.000425632,-0.015632205,0.000000000,-0.015472745,-0.002175000,-0.001536359,-0.012997689,0.007586799,0.000000000,0.005427941,-0.002433000,-0.000249986,-0.012631929,-0.338543577,0.000000000,-0.334789314,0.072008997,0.062450212,0.044111657,1.717707653,0.000000000,1.719275221,0.267814010,0.242893315,0.009435059,1.505792732,0.000000000,1.507051347,-0.296775997,-0.288695206,-0.052635187,-0.667774660,0.000000000,-0.667043283,-0.003638000,-0.002753108,-0.029539009,-0.005425782,0.000000000,-0.005452243
0.177983957,-0.006543000,-0.002310033,-0.039422858,-0.223934680,0.000000000,-0.228264234,-0.001316000,-0.007223254,-0.007864080,1.849176214,0.000000000,1.856984896,-0.003782000,-0.005391443,0.025799188,-0.125076358,0.000000000,-0.126075622,0.421299011,0.372648338,0.064839203,2.610101724,0.000000000,2.612142752,-0.403513014,-0.395435488,-0.041005993,-0.700378114,0.000000000,-0.699775203,0.000000000,0.000164174,-0.000447895,-0.015472745,0.000000000,-0.015318919,-0.002235000,-0.001562876,-0.013258339,0.005427941,0.000000000,0.003332826,-0.002453000,-0.000275427,-0.012744639,-0.334789314,0.000000000,-0.330693242,0.072067000,0.062537520,0.043653955,1.719275221,0.000000000,1.721298200,0.267661005,0.242908789,0.007736923,1.507051347,0.000000000,1.508479723,-0.296842009,-0.288798304,-0.051549172,-0.667043283,0.000000000,-0.666382708,-0.003705000,-0.002812759,-0.029825834,-0.005452243,0.000000000,-0.005379467
0.179983777,-0.006739000,-0.002391760,-0.040864393,-0.228264234,0.000000000,-0.232292900,-0.001351000,-0.007240145,-0.008445770,1.856984896,0.000000000,1.864994904,-0.003758000,-0.005340469,0.025487362,-0.126075622,0.000000000,-0.126689761,0.421186000,0.372773201,0.062431677,2.612142752,0.000000000,2.614230145,-0.403571993,-0.395516301,-0.040406371,-0.699775203,0.000000000,-0.699273282,0.000000000,0.000163241,-0.000466844,-0.015318919,0.000000000,-0.015170687,-0.002300000,-0.001589987,-0.013555786,0.003332826,0.000000000,0.000976250,-0.002474000,-0.000301100,-0.012856580,-0.330693242,0.000000000,-0.326832896,0.072126001,0.062623895,0.043187615,1.721298200,0.000000000,1.724065440,0.267509997,0.242920901,0.006055989,1.508479723,0.000000000,1.510124304,-0.296905994,-0.288899140,-0.050417618,-0.666382708,0.000000000,-0.665875507,-0.003774000,-0.002872980,-0.030110234,-0.005379467,0.000000000,-0.005458228
0.181983597,-0.006935000,-0.002476401,-0.042321694,-0.232292900,0.000000000,-0.235921771,-0.001388000,-0.007258188,-0.009021325,1.864994904,0.000000000,1.872624861,-0.003735000,-0.005290136,0.025166509,-0.126689761,0.000000000,-0.127201579,0.421068996,0.372893287,0.060043080,2.614230145,0.000000000,2.616232496,-0.403629005,-0.395595870,-0.039784522,-0.699273282,0.000000000,-0.698761452,0.000000000,0.000162271,-0.000484958,-0.015170687,0.000000000,-0.015021163,-0.002367000,-0.001617779,-0.013896344,0.000976250,0.000000000,-0.001277124,-0.002493000,-0.000327003,-0.012968248,-0.326832896,0.000000000,-0.322345066,0.072186001,0.062709320,0.042712652,1.724065440,0.000000000,1.727581530,0.267363012,0.242929692,0.004395359,1.510124304,0.000000000,1.512088484,-0.296968013,-0.288997653,-0.049256558,-0.665875507,0.000000000,-0.665488086,-0.003843000,-0.002933818,-0.030418928,-0.005458228,0.000000000,-0.005405501
0.183983417,-0.007133000,-0.002563985,-0.043792714,-0.235921771,0.000000000,-0.239372650,-0.001426000,-0.007277369,-0.009590650,1.872624861,0.000000000,1.880153282,-0.003712000,-0.005240462,0.024837162,-0.127201579,0.000000000,-0.127334024,0.420949012,0.373008631,0.057672065,2.616232496,0.000000000,2.618221162,-0.403683990,-0.395674147,-0.039138585,-0.698761452,0.000000000,-0.698243859,0.000000000,0.000161268,-0.000501327,-0.015021163,0.000000000,-0.014873296,-0.002437000,-0.001646331,-0.014276167,-0.001277124,0.000000000,-0.003547228,-0.002512000,-0.000353131,-0.013078821,-0.322345066,0.000000000,-0.317817836,0.072245002,0.062793777,0.042228657,1.727581530,0.000000000,1.731293262,0.267221004,0.242935210,0.002759364,1.512088484,0.000000000,1.514398610,-0.297028005,-0.289093813,-0.048080154,-0.665488086,0.000000000,-0.665177259,-0.003913000,-0.002995278,-0.030730352,-0.005405501,0.000000000,-0.005383179
0.185983236,-0.007330000,-0.002654537,-0.045276631,-0.239372650,0.000000000,-0.242327623,-0.001465000,-0.007297677,-0.010153842,1.880153282,0.000000000,1.887578952,-0.003689000,-0.005191463,0.024499983,-0.127334024,0.000000000,-0.127097581,0.420828015,0.373119266,0.055317296,2.618221162,0.000000000,2.620327821,-0.403737992,-0.395751083,-0.038467928,-0.698243859,0.000000000,-0.697832706,0.000000000,0.000160236,-0.000516221,-0.014873296,0.000000000,-0.014726609,-0.002509000,-0.001675724,-0.014696526,-0.003547228,0.000000000,-0.005711700,-0.002530000,-0.000379483,-0.013188834,-0.317817836,0.000000000,-0.312955354,0.072305001,0.062877242,0.041732250,1.731293262,0.000000000,1.735851749,0.267084986,0.242937528,0.001158879,1.514398610,0.000000000,1.517036891,-0.297086000,-0.289187619,-0.046902838,-0.665177259,0.000000000,-0.664905194,-0.003982000,-0.003057378,-0.031049746,-0.005383179,0.000000000,-0.005172526
0.187983056,-0.007529000,-0.002748076,-0.046770486,-0.242327623,0.000000000,-0.245121106,-0.001505000,-0.007319098,-0.010710499,1.887578952,0.000000000,1.894888957,-0.003667000,-0.005143153,0.024154810,-0.127097581,0.000000000,-0.126768390,0.420704007,0.373225227,0.052980584,2.620327821,0.000000000,2.622411200,-0.403789014,-0.395826645,-0.037781091,-0.697832706,0.000000000,-0.697305189,0.000000000,0.000159174,-0.000530699,-0.014726609,0.000000000,-0.014578178,-0.002585000,-0.001706032,-0.015154376,-0.005711700,0.000000000,-0.007992903,-0.002546000,-0.000406057,-0.013297843,-0.312955354,0.000000000,-0.307484283,0.072365999,0.062959690,0.041224185,1.735851749,0.000000000,1.741246528,0.266957998,0.242936718,-0.000404826,1.517036891,0.000000000,1.520181669,-0.297141999,-0.289279078,-0.045729818,-0.664905194,0.000000000,-0.664656217,-0.004052000,-0.003120064,-0.031342876,-0.005172526,0.000000000,-0.005078379
0.189982876,-0.007727000,-0.002844622,-0.048273403,-0.245121106,0.000000000,-0.247436379,-0.001545000,-0.007341619,-0.011260574,1.894888957,0.000000000,1.902362844,-0.003646000,-0.005095550,0.023801977,-0.126768390,0.000000000,-0.126349611,0.420578003,0.373326548,0.050660566,2.622411200,0.000000000,2.624542880,-0.403838009,-0.395900783,-0.037069260,-0.697305189,0.000000000,-0.696787794,0.000000000,0.000158086,-0.000544343,-0.014578178,0.000000000,-0.014429361,-0.002662000,-0.001737334,-0.015650945,-0.007992903,0.000000000,-0.010055905,-0.002560000,-0.000432847,-0.013404794,-0.307484283,0.000000000,-0.301429682,0.072428003,0.063041095,0.040702812,1.741246528,0.000000000,1.747524611,0.266840011,0.242932870,-0.001924145,1.520181669,0.000000000,1.523771389,-0.297196001,-0.289368217,-0.044569502,-0.664656217,0.000000000,-0.664403853,-0.004122000,-0.003183332,-0.031634373,-0.005078379,0.000000000,-0.004929957
0.191982696,-0.007925000,-0.002944185,-0.049782159,-0.247436379,0.000000000,-0.249396982,-0.001586000,-0.007365226,-0.011803432,1.902362844,0.000000000,1.909697843,-0.003624000,-0.005048668,0.023440955,-0.126349611,0.000000000,-0.125256065,0.420450985,0.373423266,0.048358638,2.624542880,0.000000000,2.626772782,-0.403885007,-0.395973451,-0.036333784,-0.696787794,0.000000000,-0.696284485,0.000000000,0.000156968,-0.000559059,-0.014429361,0.000000000,-0.014274524,-0.002742000,-0.001769694,-0.016180182,-0.010055905,0.000000000,-0.012141098,-0.002572000,-0.000459846,-0.013508663,-0.301429682,0.000000000,-0.294816694,0.072489999,0.063121431,0.040167800,1.747524611,0.000000000,1.754413232,0.266732991,0.242926080,-0.003395105,1.523771389,0.000000000,1.527895950,-0.297248006,-0.289455070,-0.043426129,-0.664403853,0.000000000,-0.664132632,-0.004191000,-0.003247165,-0.031916448,-0.004929957,0.000000000,-0.004650213
0.193982515,-0.008124000,-0.003046773,-0.051294994,-0.249396982,0.000000000,-0.251118614,-0.001626000,-0.007389904,-0.012338950,1.909697843,0.000000000,1.917455472,-0.003603000,-0.005002523,0.023072681,-0.125256065,0.000000000,-0.124073422,0.420323998,0.373515413,0.046073787,2.626772782,0.000000000,2.629171822,-0.403928995,-0.396044602,-0.035575687,-0.696284485,0.000000000,-0.695694511,0.000000000,0.000155820,-0.000573842,-0.014274524,0.000000000,-0.014116505,-0.002823000,-0.001803178,-0.016742193,-0.012141098,0.000000000,-0.014027760,-0.002583000,-0.000487050,-0.013609734,-0.294816694,0.000000000,-0.287924756,0.072552003,0.063200663,0.039616321,1.754413232,0.000000000,1.761989961,0.266638011,0.242916465,-0.004807649,1.527895950,0.000000000,1.532544253,-0.297298014,-0.289539682,-0.042306278,-0.664132632,0.000000000,-0.663819086,-0.004260000,-0.003311497,-0.032165941,-0.004650213,0.000000000,-0.004412672
0.195982335,-0.008321000,-0.003152392,-0.052809840,-0.251118614,0.000000000,-0.252292696,-0.001667000,-0.007415637,-0.012866443,1.917455472,0.000000000,1.925047241,-0.003583000,-0.004957131,0.022696264,-0.124073422,0.000000000,-0.122776846,0.420195013,0.373603029,0.043808181,2.629171822,0.000000000,2.631594154,-0.403970987,-0.396114183,-0.034790413,-0.695694511,0.000000000,-0.695138726,0.000000000,0.000154639,-0.000590667,-0.014116505,0.000000000,-0.013949282,-0.002906000,-0.001837843,-0.017332448,-0.014027760,0.000000000,-0.015842036,-0.002590000,-0.000514450,-0.013707057,-0.287924756,0.000000000,-0.279924792,0.072616003,0.063278756,0.039046636,1.761989961,0.000000000,1.770869916,0.266557992,0.242904156,-0.006154352,1.532544253,0.000000000,1.537839678,-0.297347009,-0.289622108,-0.041212825,-0.663819086,0.000000000,-0.663549109,-0.004328000,-0.003376281,-0.032392052,-0.004412672,0.000000000,-0.004094859
0.197982155,-0.008519000,-0.003261037,-0.054323427,-0.252292696,0.000000000,-0.253257836,-0.001707000,-0.007442407,-0.013385446,1.925047241,0.000000000,1.933026286,-0.003562000,-0.004912509,0.022311585,-0.122776846,0.000000000,-0.120790472,0.420065999,0.373686155,0.041562605,2.631594154,0.000000000,2.634155923,-0.404009014,-0.396182144,-0.033980337,-0.695138726,0.000000000,-0.694416602,0.000000000,0.000153421,-0.000608582,-0.013949282,0.000000000,-0.013775337,-0.002991000,-0.001873736,-0.017946722,-0.015842036,0.000000000,-0.017602706,-0.002595000,-0.000542035,-0.013798732,-0.279924792,0.000000000,-0.271431643,0.072679996,0.063355673,0.038458320,1.770869916,0.000000000,1.780503612,0.266492993,0.242889298,-0.007429135,1.537839678,0.000000000,1.543733708,-0.297394007,-0.289702419,-0.040155426,-0.663549109,0.000000000,-0.663188555,-0.004395000,-0.003441450,-0.032584645,-0.004094859,0.000000000,-0.003732367
0.199981975,-0.008716000,-0.003372705,-0.055834383,-0.253257836,0.000000000,-0.253809121,-0.001748000,-0.007470199,-0.013895546,1.933026286,0.000000000,1.940809627,-0.003542000,-0.004868670,0.021919438,-0.120790472,0.000000000,-0.118696432,0.419937998,0.373764825,0.039335241,2.634155923,0.000000000,2.636933623,-0.404044986,-0.396248412,-0.033134030,-0.694416602,0.000000000,-0.693760724,0.000000000,0.000152165,-0.000628356,-0.013775337,0.000000000,-0.013592113,-0.003078000,-0.001910902,-0.018583481,-0.017602706,0.000000000,-0.019313669,-0.002596000,-0.000569792,-0.013884801,-0.271431643,0.000000000,-0.261879060,0.072743997,0.063431370,0.037848869,1.780503612,0.000000000,1.790963957,0.266443998,0.242872052,-0.008622938,1.543733708,0.000000000,1.550213823,-0.297439009,-0.289780688,-0.039134519,-0.663188555,0.000000000,-0.662728811,-0.004462000,-0.003506923,-0.032736545,-0.003732367,0.000000000,-0.003454816
0.201981794,-0.008910000,-0.003487384,-0.057340101,-0.253809121,0.000000000,-0.253749272,-0.001789000,-0.007498991,-0.014396398,1.940809627,0.000000000,1.948668584,-0.003521000,-0.004825633,0.021518805,-0.118696432,0.000000000,-0.115898481,0.419806987,0.373839085,0.037129907,2.636933623,0.000000000,2.639643207,-0.404076993,-0.396312928,-0.032258058,-0.693760724,0.000000000,-0.692965646,-0.000001000,0.000150867,-0.000648811,-0.013592113,0.000000000,-0.013503883,-0.003168000,-0.001949381,-0.019239229,-0.019313669,0.000000000,-0.021097235,-0.002596000,-0.000597708,-0.013963267,-0.261879060,0.000000000,-0.252169286,0.072811998,0.063505804,0.037216733,1.790963957,0.000000000,1.803434015,0.266406000,0.242852594,-0.009728888,1.550213823,0.000000000,1.556903822,-0.297482014,-0.289856984,-0.038148064,-0.662728811,0.000000000,-0.662168710,-0.004528000,-0.003572661,-0.032868600,-0.003454816,0.000000000,-0.003105947
0.203981614,-0.009102000,-0.003605057,-0.058836937,-0.253749272,0.000000000,-0.253207314,-0.001833000,-0.007528766,-0.014887157,1.948668584,0.000000000,1.955725479,-0.003500000,-0.004783411,0.021111332,-0.115898481,0.000000000,-0.112714208,0.419672012,0.373908969,0.034942210,2.639643207,0.000000000,2.642253426,-0.404105991,-0.396375610,-0.031340876,-0.692965646,0.000000000,-0.692168912,-0.000002000,0.000149492,-0.000687440,-0.013503883,0.000000000,-0.013356175,-0.003265000,-0.001989207,-0.019913538,-0.021097235,0.000000000,-0.023378228,-0.002595000,-0.000625766,-0.014033821,-0.252169286,0.000000000,-0.242313884,0.072881997,0.063578943,0.036569551,1.803434015,0.000000000,1.817179897,0.266368002,0.242831067,-0.010763388,1.556903822,0.000000000,1.563216645,-0.297520995,-0.289931344,-0.037180033,-0.662168710,0.000000000,-0.661345279,-0.004595000,-0.003638594,-0.032966763,-0.003105947,0.000000000,-0.002934636
0.205981434,-0.009292000,-0.003725702,-0.060323039,-0.253207314,0.000000000,-0.252196096,-0.001880000,-0.007559503,-0.015368519,1.955725479,0.000000000,1.961990730,-0.003479000,-0.004742014,0.020698261,-0.112714208,0.000000000,-0.109168401,0.419533014,0.373974508,0.032769318,2.642253426,0.000000000,2.644778781,-0.404132009,-0.396436371,-0.030380828,-0.692168912,0.000000000,-0.691386905,-0.000004000,0.000148028,-0.000731895,-0.013356175,0.000000000,-0.013283981,-0.003368000,-0.002030434,-0.020613730,-0.023378228,0.000000000,-0.026003148,-0.002592000,-0.000653951,-0.014096890,-0.242313884,0.000000000,-0.232023208,0.072956003,0.063650776,0.035916642,1.817179897,0.000000000,1.832565872,0.266330987,0.242807562,-0.011752677,1.563216645,0.000000000,1.569395208,-0.297558993,-0.290003732,-0.036193951,-0.661345279,0.000000000,-0.660673091,-0.004662000,-0.003704724,-0.033064741,-0.002934636,0.000000000,-0.002744094
0.207981254,-0.009480000,-0.003849293,-0.061796237,-0.252196096,0.000000000,-0.250730554,-0.001928000,-0.007591184,-0.015840760,1.961990730,0.000000000,1.968033901,-0.003457000,-0.004701454,0.020280423,-0.109168401,0.000000000,-0.104993047,0.419391990,0.374035727,0.030609270,2.644778781,0.000000000,2.647357716,-0.404155999,-0.396495128,-0.029378106,-0.691386905,0.000000000,-0.690724083,-0.000008000,0.000146443,-0.000792954,-0.013283981,0.000000000,-0.013354372,-0.003476000,-0.002073122,-0.021343823,-0.026003148,0.000000000,-0.028836269,-0.002589000,-0.000682248,-0.014152619,-0.232023208,0.000000000,-0.221866675,0.073032998,0.063721306,0.035265028,1.832565872,0.000000000,1.849142213,0.266297013,0.242782137,-0.012712353,1.569395208,0.000000000,1.575676528,-0.297594011,-0.290074122,-0.035195296,-0.660673091,0.000000000,-0.659937308,-0.004729000,-0.003771045,-0.033160887,-0.002744094,0.000000000,-0.002539275
0.209981073,-0.009667000,-0.003975800,-0.063253843,-0.250730554,0.000000000,-0.248935920,-0.001977000,-0.007623791,-0.016303316,1.968033901,0.000000000,1.973836755,-0.003434000,-0.004661738,0.019858371,-0.104993047,0.000000000,-0.100198218,0.419247001,0.374092651,0.028462042,2.647357716,0.000000000,2.649866414,-0.404177994,-0.396551811,-0.028341604,-0.690724083,0.000000000,-0.690165005,-0.000012000,0.000144653,-0.000894883,-0.013354372,0.000000000,-0.013287968,-0.003590000,-0.002117336,-0.022107445,-0.028836269,0.000000000,-0.031956571,-0.002586000,-0.000710644,-0.014201996,-0.221866675,0.000000000,-0.211825587,0.073110998,0.063790542,0.034618462,1.849142213,0.000000000,1.866257844,0.266263992,0.242754835,-0.013650862,1.575676528,0.000000000,1.581986194,-0.297627002,-0.290142474,-0.034175744,-0.659937308,0.000000000,-0.659262206,-0.004796000,-0.003837548,-0.033251523,-0.002539275,0.000000000,-0.002331852
0.211980893,-0.009854000,-0.004105188,-0.064694830,-0.248935920,0.000000000,-0.246928068,-0.002027000,-0.007657304,-0.016756734,1.973836755,0.000000000,1.979406348,-0.003413000,-0.004622871,0.019433665,-0.100198218,0.000000000,-0.095670335,0.419101000,0.374145301,0.026325069,2.649866414,0.000000000,2.652508182,-0.404199004,-0.396606366,-0.027277559,-0.690165005,0.000000000,-0.689799911,-0.000018000,0.000142625,-0.001014074,-0.013287968,0.000000000,-0.013350525,-0.003707000,-0.002163157,-0.022910644,-0.031956571,0.000000000,-0.035001595,-0.002581000,-0.000739129,-0.014246182,-0.211825587,0.000000000,-0.201308188,0.073190004,0.063858498,0.033977939,1.866257844,0.000000000,1.883886833,0.266232014,0.242725696,-0.014569730,1.581986194,0.000000000,1.588338222,-0.297659010,-0.290208755,-0.033140717,-0.659262206,0.000000000,-0.658740912,-0.004863000,-0.003904219,-0.033335426,-0.002331852,0.000000000,-0.002126562
0.213980713,-0.010042000,-0.004237422,-0.066117360,-0.246928068,0.000000000,-0.244827843,-0.002077000,-0.007691705,-0.017200410,1.979406348,0.000000000,1.985007897,-0.003391000,-0.004584862,0.019004554,-0.095670335,0.000000000,-0.090514697,0.418951988,0.374193709,0.024203894,2.652508182,0.000000000,2.655115500,-0.404217988,-0.396658770,-0.026202017,-0.689799911,0.000000000,-0.689480088,-0.000024000,0.000140280,-0.001172304,-0.013350525,0.000000000,-0.013270114,-0.003828000,-0.002210657,-0.023749898,-0.035001595,0.000000000,-0.038090181,-0.002576000,-0.000767690,-0.014283882,-0.201308188,0.000000000,-0.190915868,0.073269002,0.063925187,0.033344813,1.883886833,0.000000000,1.901706295,0.266202986,0.242694756,-0.015470194,1.588338222,0.000000000,1.594859550,-0.297690004,-0.290272961,-0.032103028,-0.658740912,0.000000000,-0.658334527,-0.004929000,-0.003971051,-0.033415913,-0.002126562,0.000000000,-0.001813676
