sainanliu129-hub/model/applications/Body_GravityPara_Iden/data/excitation/0-260116_run_softly_轻跑步_002_leg_500Hz_PD-M1-v0_multi_joint_20260324-134112.csv
time,cmd_leg_l1_joint,pos_leg_l1_joint,vel_leg_l1_joint,torque_leg_l1_joint,acc_leg_l1_joint,cmd_torque_leg_l1_joint,cmd_leg_l2_joint,pos_leg_l2_joint,vel_leg_l2_joint,torque_leg_l2_joint,acc_leg_l2_joint,cmd_torque_leg_l2_joint,cmd_leg_l3_joint,pos_leg_l3_joint,vel_leg_l3_joint,torque_leg_l3_joint,acc_leg_l3_joint,cmd_torque_leg_l3_joint,cmd_leg_l4_joint,pos_leg_l4_joint,vel_leg_l4_joint,torque_leg_l4_joint,acc_leg_l4_joint,cmd_torque_leg_l4_joint,cmd_leg_l5_joint,pos_leg_l5_joint,vel_leg_l5_joint,torque_leg_l5_joint,acc_leg_l5_joint,cmd_torque_leg_l5_joint,cmd_leg_l6_joint,pos_leg_l6_joint,vel_leg_l6_joint,torque_leg_l6_joint,acc_leg_l6_joint,cmd_torque_leg_l6_joint,cmd_leg_r1_joint,pos_leg_r1_joint,vel_leg_r1_joint,torque_leg_r1_joint,acc_leg_r1_joint,cmd_torque_leg_r1_joint,cmd_leg_r2_joint,pos_leg_r2_joint,vel_leg_r2_joint,torque_leg_r2_joint,acc_leg_r2_joint,cmd_torque_leg_r2_joint,cmd_leg_r3_joint,pos_leg_r3_joint,vel_leg_r3_joint,torque_leg_r3_joint,acc_leg_r3_joint,cmd_torque_leg_r3_joint,cmd_leg_r4_joint,pos_leg_r4_joint,vel_leg_r4_joint,torque_leg_r4_joint,acc_leg_r4_joint,cmd_torque_leg_r4_joint,cmd_leg_r5_joint,pos_leg_r5_joint,vel_leg_r5_joint,torque_leg_r5_joint,acc_leg_r5_joint,cmd_torque_leg_r5_joint,cmd_leg_r6_joint,pos_leg_r6_joint,vel_leg_r6_joint,torque_leg_r6_joint,acc_leg_r6_joint,cmd_torque_leg_r6_joint
0.000000000,0.000000000,-0.000019878,-0.000745307,0.006480056,0.000000000,0.006333592,0.000000000,-0.008813151,0.013261163,2.204449649,0.000000000,2.205139782,-0.006823000,-0.006288204,-0.046860951,0.906043685,0.000000000,0.907934850,0.424885005,0.335823592,0.381734052,2.907326667,0.000000000,2.912198677,-0.396259993,-0.378039627,-0.412686454,-0.668079334,0.000000000,-0.668173783,0.000000000,0.000062914,-0.000764541,-0.004187598,0.000000000,-0.004184860,0.000000000,-0.000007577,-0.000102982,0.001531114,0.000000000,0.001390008,0.000000000,0.000817669,-0.001283380,-0.203254739,0.000000000,-0.203389613,0.065402001,0.053792173,0.045119596,2.273752444,0.000000000,2.279475424,0.276596010,0.223859530,0.233719512,1.665354976,0.000000000,1.669821535,-0.291951001,-0.276862324,-0.307146869,-0.651650118,0.000000000,-0.651718658,0.000000000,0.000002930,0.000055602,-0.000450373,0.000000000,-0.000454183
0.001999820,-0.000031000,-0.000020782,-0.000730449,0.006333592,0.000000000,0.003041579,0.000016000,-0.008786639,0.013255791,2.205139782,0.000000000,2.202273419,-0.006821000,-0.006381878,-0.046837075,0.907934850,0.000000000,0.934589543,0.424870014,0.336587165,0.381786642,2.912198677,0.000000000,2.862646883,-0.396315992,-0.378864998,-0.412685653,-0.668173783,0.000000000,-0.590419407,0.000000000,0.000061386,-0.000764040,-0.004184860,0.000000000,-0.004031860,-0.000017000,-0.000007602,-0.000082417,0.001390008,0.000000000,-0.000535676,-0.000004000,0.000815107,-0.001281230,-0.203389613,0.000000000,-0.203846978,0.065428004,0.053882340,0.045083712,2.279475424,0.000000000,2.262048603,0.276553988,0.224326912,0.233690777,1.669821535,0.000000000,1.637849358,-0.291940987,-0.277476632,-0.307154307,-0.651718658,0.000000000,-0.588600389,0.000004000,0.000003015,0.000056656,-0.000454183,0.000000000,-0.000061503
0.003999639,-0.000061000,-0.000021861,-0.000824729,0.003041579,0.000000000,0.000491900,0.000031000,-0.008760179,0.013230186,2.202273419,0.000000000,2.199595016,-0.006816000,-0.006474613,-0.046367673,0.934589543,0.000000000,0.951752689,0.424854010,0.337347489,0.380161862,2.862646883,0.000000000,2.825159089,-0.396375000,-0.379677694,-0.406347809,-0.590419407,0.000000000,-0.532266519,0.000000000,0.000060121,-0.000632711,-0.004031860,0.000000000,-0.004277346,-0.000034000,-0.000007578,0.000057091,-0.000535676,0.000000000,-0.003139227,-0.000010000,0.000812617,-0.001245212,-0.203846978,0.000000000,-0.205659316,0.065458000,0.053973599,0.045629380,2.262048603,0.000000000,2.232292633,0.276510000,0.224789963,0.231525632,1.637849358,0.000000000,1.621212059,-0.291929990,-0.278077468,-0.300417792,-0.588600389,0.000000000,-0.545917433,0.000007000,0.000003219,0.000131619,-0.000061503,0.000000000,0.000007978
0.005999459,-0.000091000,-0.000023255,-0.000996120,0.000491900,0.000000000,-0.001588069,0.000045000,-0.008733828,0.013175359,2.199595016,0.000000000,2.197324536,-0.006810000,-0.006565789,-0.045588425,0.951752689,0.000000000,0.961748767,0.424836993,0.338102093,0.377302492,2.825159089,0.000000000,2.796743981,-0.396436006,-0.380468301,-0.395303409,-0.532266519,0.000000000,-0.489928577,0.000000000,0.000059160,-0.000480406,-0.004277346,0.000000000,-0.004613251,-0.000051000,-0.000007521,0.000209184,-0.003139227,0.000000000,-0.005817449,-0.000016000,0.000810148,-0.001234443,-0.205659316,0.000000000,-0.206906690,0.065490000,0.054066411,0.046406371,2.232292633,0.000000000,2.197432328,0.276464999,0.225246556,0.228296376,1.621212059,0.000000000,1.612482406,-0.291918993,-0.278656258,-0.289395251,-0.545917433,0.000000000,-0.517647638,0.000010000,0.000003586,0.000225241,0.000007978,0.000000000,0.000007890
0.007999279,-0.000120000,-0.000025087,-0.001226464,-0.001588069,0.000000000,-0.003181292,0.000057000,-0.008707622,0.013102897,2.197324536,0.000000000,2.194925607,-0.006802000,-0.006654937,-0.044574280,0.961748767,0.000000000,0.966423677,0.424820006,0.338849128,0.373517461,2.796743981,0.000000000,2.775388516,-0.396499991,-0.381229914,-0.380806690,-0.489928577,0.000000000,-0.460636996,0.000000000,0.000058497,-0.000331938,-0.004613251,0.000000000,-0.004968252,-0.000069000,-0.000007485,0.000323330,-0.005817449,0.000000000,-0.008385392,-0.000024000,0.000807658,-0.001245159,-0.206906690,0.000000000,-0.208230511,0.065523997,0.054160915,0.047252151,2.197432328,0.000000000,2.161102823,0.276419014,0.225695680,0.224562078,1.612482406,0.000000000,1.607752232,-0.291909009,-0.279207541,-0.275641318,-0.517647638,0.000000000,-0.500025678,0.000013000,0.000004142,0.000322998,0.000007890,0.000000000,-0.000023025
0.009999099,-0.000148000,-0.000027466,-0.001500380,-0.003181292,0.000000000,-0.004363309,0.000069000,-0.008681587,0.013017668,2.194925607,0.000000000,2.192863928,-0.006792000,-0.006741715,-0.043389244,0.966423677,0.000000000,0.967128012,0.424802989,0.339587246,0.369059054,2.775388516,0.000000000,2.759380754,-0.396566004,-0.381957709,-0.363897588,-0.460636996,0.000000000,-0.441826468,0.000000000,0.000058095,-0.000200852,-0.004968252,0.000000000,-0.005300333,-0.000088000,0.000007519,0.000373936,-0.008385392,0.000000000,-0.012296143,-0.000033000,0.000805125,-0.001267036,-0.208230511,0.000000000,-0.209573733,0.065560997,0.054257078,0.048081472,2.161102823,0.000000000,2.125527609,0.276371002,0.226136969,0.220644783,1.607752232,0.000000000,1.604689660,-0.291898012,-0.279728009,-0.260234008,-0.500025678,0.000000000,-0.490116142,0.000015000,0.000004903,0.000422682,-0.000023025,0.000000000,-0.000181244
0.011998918,-0.000176000,-0.000030479,-0.001805603,-0.004363309,0.000000000,-0.005300707,0.000079000,-0.008655741,0.012923027,2.192863928,0.000000000,2.190500455,-0.006781000,-0.006825882,-0.042083844,0.967128012,0.000000000,0.964651929,0.424784988,0.340315497,0.364125315,2.759380754,0.000000000,2.747312814,-0.396634012,-0.382648530,-0.345410299,-0.441826468,0.000000000,-0.431441366,0.000000000,0.000057906,-0.000094213,-0.005300333,0.000000000,-0.005584464,-0.000106000,0.000007609,0.000316852,-0.012296143,0.000000000,-0.013901619,-0.000043000,0.000802531,-0.001297229,-0.209573733,0.000000000,-0.210995971,0.065600999,0.054354775,0.048848607,2.125527609,0.000000000,2.091776303,0.276322007,0.226570433,0.216731700,1.604689660,0.000000000,1.602029365,-0.291887999,-0.280215866,-0.243928691,-0.490116142,0.000000000,-0.486154830,0.000017000,0.000005843,0.000504851,-0.000181244,0.000000000,-0.000307711
0.013998738,-0.000202000,-0.000034192,-0.002133834,-0.005300707,0.000000000,-0.005820135,0.000089000,-0.008630099,0.012820924,2.190500455,0.000000000,2.188363811,-0.006769000,-0.006907275,-0.040696697,0.964651929,0.000000000,0.959822554,0.424766988,0.341033236,0.358869441,2.747312814,0.000000000,2.738198579,-0.396703988,-0.383300553,-0.326011366,-0.431441366,0.000000000,-0.427767966,0.000000000,0.000057887,-0.000009688,-0.005584464,0.000000000,-0.005822810,-0.000125000,0.000007697,0.000196869,-0.013901619,0.000000000,-0.015257734,-0.000055000,0.000799872,-0.001329898,-0.210995971,0.000000000,-0.212912149,0.065641999,0.054453839,0.049532495,2.091776303,0.000000000,2.059802943,0.276271999,0.226996287,0.212926923,1.602029365,0.000000000,1.599015885,-0.291877002,-0.280670448,-0.227291057,-0.486154830,0.000000000,-0.486401861,0.000018000,0.000006929,0.000570785,-0.000307711,0.000000000,-0.000503898
0.015998558,-0.000228000,-0.000038649,-0.002477023,-0.005820135,0.000000000,-0.006175729,0.000097000,-0.008604673,0.012713217,2.188363811,0.000000000,2.185846655,-0.006755000,-0.006985790,-0.039257735,0.959822554,0.000000000,0.953571634,0.424748003,0.341740057,0.353410516,2.738198579,0.000000000,2.731155137,-0.396777004,-0.383913013,-0.306230158,-0.427767966,0.000000000,-0.429486967,0.000000000,0.000057994,0.000053546,-0.005822810,0.000000000,-0.006013406,-0.000145000,0.000007717,0.000015444,-0.015257734,0.000000000,-0.016365724,-0.000067000,0.000797140,-0.001366642,-0.212912149,0.000000000,-0.214715288,0.065686002,0.054554086,0.050123352,2.059802943,0.000000000,2.030451423,0.276219994,0.227414862,0.209287640,1.599015885,0.000000000,1.595159705,-0.291866988,-0.281091875,-0.210713182,-0.486401861,0.000000000,-0.489929282,0.000019000,0.000008109,0.000610681,-0.000503898,0.000000000,-0.000635437
0.017998378,-0.000252000,-0.000043875,-0.002830988,-0.006175729,0.000000000,-0.006175188,0.000104000,-0.008579471,0.012600594,2.185846655,0.000000000,2.183220473,-0.006740000,-0.007061366,-0.037787994,0.953571634,0.000000000,0.946073187,0.424728990,0.342435731,0.347836828,2.731155137,0.000000000,2.725629676,-0.396851003,-0.384485989,-0.286487977,-0.429486967,0.000000000,-0.435184899,0.000000000,0.000058197,0.000101386,-0.006013406,0.000000000,-0.006169906,-0.000164000,0.000007645,-0.000220492,-0.016365724,0.000000000,-0.017049097,-0.000080000,0.000794326,-0.001407385,-0.214715288,0.000000000,-0.216689078,0.065732002,0.054655336,0.050624812,2.030451423,0.000000000,2.003404452,0.276167989,0.227826519,0.205828814,1.595159705,0.000000000,1.590457787,-0.291855991,-0.281480841,-0.194482940,-0.489929282,0.000000000,-0.495649605,0.000020000,0.000009348,0.000635635,-0.000635437,0.000000000,-0.000730532
0.019998197,-0.000276000,-0.000049881,-0.003190852,-0.006175188,0.000000000,-0.006058176,0.000111000,-0.008554504,0.012483911,2.183220473,0.000000000,2.180752479,-0.006724000,-0.007133973,-0.036303867,0.946073187,0.000000000,0.937689975,0.424708992,0.343120161,0.342214966,2.725629676,0.000000000,2.721094723,-0.396926999,-0.385020181,-0.267096282,-0.435184899,0.000000000,-0.444007845,0.000000000,0.000058470,0.000136365,-0.006169906,0.000000000,-0.006296912,-0.000184000,0.000007558,-0.000499561,-0.017049097,0.000000000,-0.017593511,-0.000093000,0.000791423,-0.001452036,-0.216689078,0.000000000,-0.218549092,0.065779001,0.054757424,0.051044334,2.003404452,0.000000000,1.978256118,0.276113987,0.228231613,0.202546822,1.590457787,0.000000000,1.584787417,-0.291846007,-0.281838411,-0.178785250,-0.495649605,0.000000000,-0.503131264,0.000021000,0.000010627,0.000652443,-0.000730532,0.000000000,-0.000806582
0.021998017,-0.000298000,-0.000056668,-0.003553917,-0.006058176,0.000000000,-0.005626626,0.000116000,-0.008529776,0.012363843,2.180752479,0.000000000,2.177860793,-0.006707000,-0.007203607,-0.034817005,0.937689975,0.000000000,0.928683806,0.424688995,0.343793348,0.336593736,2.721094723,0.000000000,2.717265403,-0.397004992,-0.385516777,-0.248297780,-0.444007845,0.000000000,-0.455145884,0.000000000,0.000058791,0.000160694,-0.006296912,0.000000000,-0.006398559,-0.000205000,-0.000007688,-0.000815678,-0.017593511,0.000000000,-0.016419212,-0.000108000,0.000788422,-0.001500557,-0.218549092,0.000000000,-0.220862497,0.065828003,0.054860206,0.051390714,1.978256118,0.000000000,1.955134952,0.276059002,0.228630474,0.199430445,1.584787417,0.000000000,1.578271437,-0.291835994,-0.282165938,-0.163763368,-0.503131264,0.000000000,-0.511724961,0.000022000,0.000011935,0.000663734,-0.000806582,0.000000000,-0.000869754
0.023997837,-0.000319000,-0.000064230,-0.003917252,-0.005626626,0.000000000,-0.005004354,0.000121000,-0.008505295,0.012240631,2.177860793,0.000000000,2.175110286,-0.006690000,-0.007270278,-0.033335745,0.928683806,0.000000000,0.918962264,0.424668998,0.344455365,0.331008713,2.717265403,0.000000000,2.713884282,-0.397085011,-0.385977320,-0.230271646,-0.455145884,0.000000000,-0.467936520,0.000000000,0.000059147,0.000178259,-0.006398559,0.000000000,-0.006484522,-0.000225000,-0.000008399,-0.001128123,-0.016419212,0.000000000,-0.016708426,-0.000123000,0.000785325,-0.001549420,-0.220862497,0.000000000,-0.223140392,0.065879002,0.054963561,0.051677569,1.955134952,0.000000000,1.933764697,0.276003003,0.229023379,0.196452653,1.578271437,0.000000000,1.571082569,-0.291826010,-0.282464931,-0.149496655,-0.511724961,0.000000000,-0.521058455,0.000022000,0.000013260,0.000670606,-0.000869754,0.000000000,-0.001023203
0.025997657,-0.000339000,-0.000072556,-0.004278423,-0.005004354,0.000000000,-0.004206314,0.000124000,-0.008481065,0.012114691,2.175110286,0.000000000,2.171924569,-0.006671000,-0.007334011,-0.031866797,0.918962264,0.000000000,0.909252764,0.424647987,0.345106338,0.325486316,2.713884282,0.000000000,2.710691659,-0.397166014,-0.386403613,-0.213146322,-0.467936520,0.000000000,-0.481727087,0.000000000,0.000059526,0.000189508,-0.006484522,0.000000000,-0.006554807,-0.000246000,-0.000010027,-0.001466605,-0.016708426,0.000000000,-0.016859140,-0.000138000,0.000782122,-0.001601812,-0.223140392,0.000000000,-0.225308704,0.065931000,0.055067388,0.051913433,1.933764697,0.000000000,1.913697466,0.275945991,0.229410571,0.193596053,1.571082569,0.000000000,1.563329132,-0.291815996,-0.282737007,-0.136038012,-0.521058455,0.000000000,-0.530811992,0.000022000,0.000014565,0.000659316,-0.001023203,0.000000000,-0.001123057
0.027997476,-0.000357000,-0.000081633,-0.004636450,-0.004206314,0.000000000,-0.003132831,0.000127000,-0.008457094,0.011985859,2.171924569,0.000000000,2.168877509,-0.006653000,-0.007394836,-0.030412559,0.909252764,0.000000000,0.898764845,0.424627006,0.345746416,0.320039041,2.710691659,0.000000000,2.707655102,-0.397249013,-0.386797609,-0.196997840,-0.481727087,0.000000000,-0.496206389,0.000000000,0.000059923,0.000198138,-0.006554807,0.000000000,-0.006619387,-0.000267000,-0.000012722,-0.001824849,-0.016859140,0.000000000,-0.016784466,-0.000154000,0.000778808,-0.001657332,-0.225308704,0.000000000,-0.227658934,0.065985002,0.055171602,0.052106999,1.913697466,0.000000000,1.895046653,0.275887996,0.229792252,0.190840546,1.563329132,0.000000000,1.555143121,-0.291806012,-0.282983832,-0.123412235,-0.530811992,0.000000000,-0.540752749,0.000022000,0.000015831,0.000638085,-0.001123057,0.000000000,-0.001190609
0.029997296,-0.000374000,-0.000091443,-0.004988619,-0.003132831,0.000000000,-0.001907675,0.000129000,-0.008433384,0.011854588,2.168877509,0.000000000,2.165676007,-0.006634000,-0.007452790,-0.028977267,0.898764845,0.000000000,0.888173820,0.424605995,0.346375777,0.314680510,2.707655102,0.000000000,2.704662811,-0.397332996,-0.387161370,-0.181880716,-0.496206389,0.000000000,-0.510908560,0.000000000,0.000060329,0.000202974,-0.006619387,0.000000000,-0.006674161,-0.000289000,-0.000016458,-0.002195608,-0.016784466,0.000000000,-0.016634628,-0.000170000,0.000775378,-0.001715606,-0.227658934,0.000000000,-0.229913766,0.066040002,0.055276137,0.052267828,1.895046653,0.000000000,1.877328655,0.275828987,0.230168579,0.188163202,1.555143121,0.000000000,1.546675745,-0.291795999,-0.283207077,-0.111622929,-0.540752749,0.000000000,-0.550695381,0.000023000,0.000017049,0.000613243,-0.001190609,0.000000000,-0.001141999
0.031997116,-0.000390000,-0.000101968,-0.005333940,-0.001907675,0.000000000,-0.000538440,0.000130000,-0.008409943,0.011720903,2.165676007,0.000000000,2.162320860,-0.006614000,-0.007507914,-0.027561882,0.888173820,0.000000000,0.877512744,0.424584001,0.346994606,0.309414531,2.704662811,0.000000000,2.701615794,-0.397419006,-0.387496995,-0.167812337,-0.510908560,0.000000000,-0.525677604,0.000000000,0.000060740,0.000205904,-0.006674161,0.000000000,-0.006724107,-0.000311000,-0.000021162,-0.002575222,-0.016634628,0.000000000,-0.016331533,-0.000187000,0.000771826,-0.001776932,-0.229913766,0.000000000,-0.232348961,0.066096000,0.055380942,0.052402258,1.877328655,0.000000000,1.860415143,0.275768995,0.230539674,0.185547685,1.546675745,0.000000000,1.538037199,-0.291785985,-0.283408401,-0.100662016,-0.550695381,0.000000000,-0.560498419,0.000023000,0.000018254,0.000606147,-0.001141999,0.000000000,-0.001243596
0.033996936,-0.000404000,-0.000113189,-0.005671573,-0.000538440,0.000000000,0.001074655,0.000130000,-0.008386773,0.011584706,2.162320860,0.000000000,2.158815715,-0.006594000,-0.007560247,-0.026166758,0.877512744,0.000000000,0.866516870,0.424562007,0.347603090,0.304242090,2.701615794,0.000000000,2.698557344,-0.397507012,-0.387806590,-0.154797943,-0.525677604,0.000000000,-0.540282571,0.000000000,0.000061156,0.000207887,-0.006724107,0.000000000,-0.006771761,-0.000333000,-0.000026770,-0.002958915,-0.016331533,0.000000000,-0.015909026,-0.000204000,0.000768146,-0.001840603,-0.232348961,0.000000000,-0.234694920,0.066152997,0.055485974,0.052515968,1.860415143,0.000000000,1.844189438,0.275707990,0.230905632,0.182978828,1.538037199,0.000000000,1.529327515,-0.291776001,-0.283589422,-0.090510126,-0.560498419,0.000000000,-0.570056420,0.000022000,0.000019425,0.000588791,-0.001243596,0.000000000,-0.001413693
0.035996755,-0.000416000,-0.000125084,-0.005999791,0.001074655,0.000000000,0.002919467,0.000128000,-0.008363881,0.011446084,2.158815715,0.000000000,2.154875740,-0.006572000,-0.007609833,-0.024792816,0.866516870,0.000000000,0.855787390,0.424539000,0.348201418,0.299164007,2.698557344,0.000000000,2.695405706,-0.397601008,-0.388092243,-0.142826340,-0.540282571,0.000000000,-0.554948107,0.000000000,0.000061574,0.000209091,-0.006771761,0.000000000,-0.006817445,-0.000356000,-0.000033233,-0.003342381,-0.015909026,0.000000000,-0.015503172,-0.000223000,0.000764335,-0.001905834,-0.234694920,0.000000000,-0.237536986,0.066214003,0.055591201,0.052613681,1.844189438,0.000000000,1.829409389,0.275644988,0.231266519,0.180443415,1.529327515,0.000000000,1.520574288,-0.291765004,-0.283751702,-0.081140036,-0.570056420,0.000000000,-0.579183331,0.000019000,0.000020515,0.000547433,-0.001413693,0.000000000,-0.001709432
0.037996575,-0.000428000,-0.000137628,-0.006317707,0.002919467,0.000000000,0.004775306,0.000125000,-0.008341272,0.011304647,2.154875740,0.000000000,2.150795591,-0.006546000,-0.007656711,-0.023439336,0.855787390,0.000000000,0.845888420,0.424515009,0.348789776,0.294178995,2.695405706,0.000000000,2.692160157,-0.397702008,-0.388356046,-0.131901310,-0.554948107,0.000000000,-0.569554329,0.000000000,0.000061997,0.000211161,-0.006817445,0.000000000,-0.006866010,-0.000379000,-0.000040521,-0.003724708,-0.015503172,0.000000000,-0.015015969,-0.000244000,0.000760392,-0.001972270,-0.237536986,0.000000000,-0.240882558,0.066279002,0.055696610,0.052704278,1.829409389,0.000000000,1.815873936,0.275579005,0.231622354,0.177917509,1.520574288,0.000000000,1.511884336,-0.291752994,-0.283896707,-0.072502741,-0.579183331,0.000000000,-0.587870360,0.000012000,0.000021432,0.000460767,-0.001709432,0.000000000,-0.002263230
0.039996395,-0.000438000,-0.000150801,-0.006626032,0.004775306,0.000000000,0.006857091,0.000120000,-0.008318952,0.011160067,2.150795591,0.000000000,2.146300239,-0.006518000,-0.007700919,-0.022104055,0.845888420,0.000000000,0.836210513,0.424488991,0.349368340,0.289281952,2.692160157,0.000000000,2.688779954,-0.397810012,-0.388600080,-0.122017168,-0.569554329,0.000000000,-0.583907000,0.000000000,0.000062426,0.000214532,-0.006866010,0.000000000,-0.006918954,-0.000403000,-0.000048604,-0.004102887,-0.015015969,0.000000000,-0.014573916,-0.000267000,0.000756314,-0.002039346,-0.240882558,0.000000000,-0.244744003,0.066347003,0.055802198,0.052794091,1.815873936,0.000000000,1.803158619,0.275510013,0.231973120,0.175383276,1.511884336,0.000000000,1.503383590,-0.291741014,-0.284025813,-0.064553015,-0.587870360,0.000000000,-0.596212516,0.000002000,0.000021993,0.000281439,-0.002263230,0.000000000,-0.002820719
0.041996215,-0.000448000,-0.000164580,-0.006923957,0.006857091,0.000000000,0.008944642,0.000114000,-0.008296927,0.011012112,2.146300239,0.000000000,2.141681091,-0.006487000,-0.007742490,-0.020785673,0.836210513,0.000000000,0.827018044,0.424463004,0.349937277,0.284468233,2.688779954,0.000000000,2.685417490,-0.397922993,-0.388826388,-0.113153931,-0.583907000,0.000000000,-0.597651765,0.000000000,0.000062865,0.000219778,-0.006918954,0.000000000,-0.006978290,-0.000427000,-0.000057467,-0.004478258,-0.014573916,0.000000000,-0.014064722,-0.000291000,0.000752099,-0.002108211,-0.244744003,0.000000000,-0.248810076,0.066418998,0.055907969,0.052885578,1.803158619,0.000000000,1.791488563,0.275438994,0.232318787,0.172833438,1.503383590,0.000000000,1.495187878,-0.291729003,-0.284140333,-0.057259986,-0.596212516,0.000000000,-0.604158812,-0.000012000,0.000022015,0.000010915,-0.002820719,0.000000000,-0.003468742
0.043996034,-0.000457000,-0.000178943,-0.007211788,0.008944642,0.000000000,0.011143976,0.000107000,-0.008275206,0.010860532,2.141681091,0.000000000,2.136945856,-0.006453000,-0.007781455,-0.019482536,0.827018044,0.000000000,0.818282227,0.424436003,0.350496739,0.279730991,2.685417490,0.000000000,2.682045876,-0.398039013,-0.389036922,-0.105266832,-0.597651765,0.000000000,-0.610522807,0.000000000,0.000063318,0.000226535,-0.006978290,0.000000000,-0.007043286,-0.000452000,-0.000067090,-0.004848658,-0.014064722,0.000000000,-0.013609116,-0.000318000,0.000747744,-0.002178202,-0.248810076,0.000000000,-0.253663645,0.066494003,0.056013933,0.052982047,1.791488563,0.000000000,1.780506580,0.275366008,0.232659306,0.170259365,1.495187878,0.000000000,1.487365365,-0.291716009,-0.284241508,-0.050587332,-0.604158812,0.000000000,-0.611590728,-0.000028000,0.000021283,-0.000367801,-0.003468742,0.000000000,-0.003935082
0.045995854,-0.000466000,-0.000193868,-0.007489208,0.011143976,0.000000000,0.013344330,0.000098000,-0.008253796,0.010705234,2.136945856,0.000000000,2.131814508,-0.006417000,-0.007817840,-0.018192529,0.818282227,0.000000000,0.809678561,0.424407989,0.351046860,0.275060662,2.682045876,0.000000000,2.678724642,-0.398158014,-0.389233504,-0.098290977,-0.610522807,0.000000000,-0.622514412,0.000000000,0.000063787,0.000234397,-0.007043286,0.000000000,-0.007113013,-0.000477000,-0.000077466,-0.005217164,-0.013609116,0.000000000,-0.013084080,-0.000346000,0.000743242,-0.002251519,-0.253663645,0.000000000,-0.258684545,0.066573001,0.056120102,0.053084590,1.780506580,0.000000000,1.770464063,0.275292009,0.232994619,0.167656802,1.487365365,0.000000000,1.480010146,-0.291703999,-0.284330491,-0.044491425,-0.611590728,0.000000000,-0.618714515,-0.000047000,0.000019658,-0.000816229,-0.003935082,0.000000000,-0.004416254
0.047995674,-0.000474000,-0.000209333,-0.007756488,0.013344330,0.000000000,0.015651569,0.000088000,-0.008232704,0.010545797,2.131814508,0.000000000,2.126583202,-0.006380000,-0.007851669,-0.016914516,0.809678561,0.000000000,0.800903966,0.424380004,0.351587760,0.270449896,2.678724642,0.000000000,2.675564399,-0.398279011,-0.389417828,-0.092162084,-0.622514412,0.000000000,-0.633538739,0.000000000,0.000064275,0.000244238,-0.007113013,0.000000000,-0.007190356,-0.000503000,-0.000088582,-0.005582217,-0.013084080,0.000000000,-0.012606156,-0.000375000,0.000738588,-0.002327754,-0.258684545,0.000000000,-0.263880381,0.066653997,0.056226490,0.053193990,1.770464063,0.000000000,1.760771811,0.275216013,0.233324669,0.165024768,1.480010146,0.000000000,1.473070784,-0.291691989,-0.284408387,-0.038948076,-0.618714515,0.000000000,-0.625387856,-0.000069000,0.000016999,-0.001337413,-0.004416254,0.000000000,-0.004889263
0.049995494,-0.000482000,-0.000225316,-0.008012616,0.015651569,0.000000000,0.017950907,0.000077000,-0.008211940,0.010382222,2.126583202,0.000000000,2.121254216,-0.006340000,-0.007882966,-0.015648738,0.800903966,0.000000000,0.792539325,0.424351990,0.352119548,0.265893939,2.675564399,0.000000000,2.672588245,-0.398400992,-0.389591450,-0.086810975,-0.633538739,0.000000000,-0.643532839,0.000000000,0.000064785,0.000254707,-0.007190356,0.000000000,-0.007271601,-0.000529000,-0.000100434,-0.005945547,-0.012606156,0.000000000,-0.012059625,-0.000405000,0.000733774,-0.002407533,-0.263880381,0.000000000,-0.269234946,0.066737004,0.056333108,0.053309167,1.760771811,0.000000000,1.751455218,0.275139987,0.233649399,0.162364809,1.473070784,0.000000000,1.466664058,-0.291680008,-0.284476231,-0.033922183,-0.625387856,0.000000000,-0.631608966,-0.000093000,0.000013176,-0.001928927,-0.004889263,0.000000000,-0.005246764
0.051995313,-0.000490000,-0.000241794,-0.008257731,0.017950907,0.000000000,0.020240706,0.000065000,-0.008191511,0.010214357,2.121254216,0.000000000,2.115833459,-0.006300000,-0.007911754,-0.014393843,0.792539325,0.000000000,0.783707338,0.424324006,0.352642317,0.261384788,2.672588245,0.000000000,2.669850916,-0.398521990,-0.389755776,-0.082163030,-0.643532839,0.000000000,-0.652367938,0.000000000,0.000065316,0.000265796,-0.007271601,0.000000000,-0.007356850,-0.000555000,-0.000113015,-0.006306769,-0.012059625,0.000000000,-0.011447295,-0.000436000,0.000728793,-0.002491396,-0.269234946,0.000000000,-0.274733718,0.066822998,0.056439965,0.053428425,1.751455218,0.000000000,1.742827754,0.275063008,0.233968760,0.159680795,1.466664058,0.000000000,1.460707153,-0.291667998,-0.284534991,-0.029379815,-0.631608966,0.000000000,-0.637370552,-0.000118000,0.000008137,-0.002568126,-0.005246764,0.000000000,-0.005446870
0.053995133,-0.000498000,-0.000258743,-0.008491259,0.020240706,0.000000000,0.022515181,0.000053000,-0.008171427,0.010042230,2.115833459,0.000000000,2.110606944,-0.006258000,-0.007938055,-0.013150715,0.783707338,0.000000000,0.775003310,0.424295992,0.353156154,0.256918251,2.669850916,0.000000000,2.667373064,-0.398642004,-0.389912047,-0.078135825,-0.652367938,0.000000000,-0.660152899,0.000000000,0.000065870,0.000276918,-0.007356850,0.000000000,-0.007444440,-0.000582000,-0.000126317,-0.006664953,-0.011447295,0.000000000,-0.010881831,-0.000469000,0.000723635,-0.002579729,-0.274733718,0.000000000,-0.280649670,0.066910997,0.056547070,0.053552518,1.742827754,0.000000000,1.734590083,0.274984986,0.234282701,0.156970480,1.460707153,0.000000000,1.455213698,-0.291658014,-0.284585556,-0.025282652,-0.637370552,0.000000000,-0.642899396,-0.000146000,0.000002465,-0.003224484,-0.005446870,0.000000000,-0.005837378
0.055994953,-0.000506000,-0.000276138,-0.008712840,0.022515181,0.000000000,0.024769692,0.000040000,-0.008151695,0.009866006,2.110606944,0.000000000,2.105289039,-0.006215000,-0.007961894,-0.011919174,0.775003310,0.000000000,0.766145546,0.424268007,0.353661131,0.252488793,2.667373064,0.000000000,2.665193102,-0.398759007,-0.390061356,-0.074654501,-0.660152899,0.000000000,-0.666785391,0.000000000,0.000066444,0.000286928,-0.007444440,0.000000000,-0.007530891,-0.000608000,-0.000140339,-0.007022538,-0.010881831,0.000000000,-0.010136481,-0.000501000,0.000718291,-0.002672835,-0.280649670,0.000000000,-0.286120508,0.067001000,0.056654428,0.053678939,1.734590083,0.000000000,1.726797573,0.274908006,0.234591183,0.154240906,1.455213698,0.000000000,1.450267855,-0.291648000,-0.284628791,-0.021617382,-0.642899396,0.000000000,-0.647938214,-0.000175000,-0.000006730,-0.003932135,-0.005837378,0.000000000,-0.005827097
0.057994773,-0.000515000,-0.000293955,-0.008922156,0.024769692,0.000000000,0.026893192,0.000026000,-0.008132323,0.009685735,2.105289039,0.000000000,2.099880922,-0.006172000,-0.007983293,-0.010699551,0.766145546,0.000000000,0.756864014,0.424239993,0.354157314,0.248091564,2.665193102,0.000000000,2.663337683,-0.398871988,-0.390204630,-0.071637025,-0.666785391,0.000000000,-0.672302467,0.000000000,0.000067037,0.000296317,-0.007530891,0.000000000,-0.007617475,-0.000635000,-0.000155069,-0.007375321,-0.010136481,0.000000000,-0.009449325,-0.000535000,0.000712751,-0.002770948,-0.286120508,0.000000000,-0.291990839,0.067092001,0.056762041,0.053806636,1.726797573,0.000000000,1.719187384,0.274830997,0.234894171,0.151494243,1.450267855,0.000000000,1.445788577,-0.291639000,-0.284665482,-0.018345586,-0.647938214,0.000000000,-0.652622121,-0.000205000,-0.000015788,-0.004617571,-0.005827097,0.000000000,-0.005994908
0.059994592,-0.000524000,-0.000312169,-0.009119330,0.026893192,0.000000000,0.028990352,0.000012000,-0.008113321,0.009501268,2.099880922,0.000000000,2.094672573,-0.006128000,-0.008002279,-0.009493066,0.756864014,0.000000000,0.747477954,0.424214005,0.354644762,0.243723754,2.663337683,0.000000000,2.661952949,-0.398979992,-0.390342640,-0.069004956,-0.672302467,0.000000000,-0.676752855,0.000000000,0.000067647,0.000305411,-0.007617475,0.000000000,-0.007705059,-0.000662000,-0.000170505,-0.007726290,-0.009449325,0.000000000,-0.008697306,-0.000568000,0.000707003,-0.002874489,-0.291990839,0.000000000,-0.297395286,0.067184001,0.056869906,0.053932896,1.719187384,0.000000000,1.711821701,0.274753988,0.235191646,0.148737078,1.445788577,0.000000000,1.441732262,-0.291631997,-0.284696368,-0.015443057,-0.652622121,0.000000000,-0.657044690,-0.000236000,-0.000026361,-0.005312110,-0.005994908,0.000000000,-0.006084799
0.061994412,-0.000533000,-0.000330754,-0.009303650,0.028990352,0.000000000,0.031054351,-0.000002000,-0.008094695,0.009312913,2.094672573,0.000000000,2.089659264,-0.006084000,-0.008018881,-0.008301066,0.747477954,0.000000000,0.737741915,0.424187988,0.355123530,0.239383895,2.661952949,0.000000000,2.660915905,-0.399082005,-0.390476009,-0.066684412,-0.676752855,0.000000000,-0.680181219,0.000000000,0.000068273,0.000312946,-0.007705059,0.000000000,-0.007789734,-0.000688000,-0.000186637,-0.008073517,-0.008697306,0.000000000,-0.007785594,-0.000602000,0.000701040,-0.002982824,-0.297395286,0.000000000,-0.302913985,0.067276999,0.056978018,0.054055704,1.711821701,0.000000000,1.704748072,0.274679005,0.235483595,0.145974926,1.441732262,0.000000000,1.438188349,-0.291626990,-0.284722153,-0.012892279,-0.657044690,0.000000000,-0.661184624,-0.000267000,-0.000038344,-0.006003424,-0.006084799,0.000000000,-0.006041346
0.063994232,-0.000543000,-0.000349683,-0.009474433,0.031054351,0.000000000,0.032971830,-0.000016000,-0.008076453,0.009120982,2.089659264,0.000000000,2.084835922,-0.006040000,-0.008033130,-0.007124866,0.737741915,0.000000000,0.727694716,0.424163014,0.355593670,0.235070115,2.660915905,0.000000000,2.660304342,-0.399177015,-0.390605217,-0.064603791,-0.680181219,0.000000000,-0.682640225,0.000000000,0.000068910,0.000318477,-0.007789734,0.000000000,-0.007869826,-0.000715000,-0.000203453,-0.008414938,-0.007785594,0.000000000,-0.006940314,-0.000636000,0.000694848,-0.003096475,-0.302913985,0.000000000,-0.308247857,0.067371003,0.057086363,0.054172524,1.704748072,0.000000000,1.698029379,0.274603993,0.235770025,0.143214951,1.438188349,0.000000000,1.434975743,-0.291622996,-0.284743503,-0.010675283,-0.661184624,0.000000000,-0.664926144,-0.000300000,-0.000051661,-0.006665268,-0.006041346,0.000000000,-0.006148984
0.065994052,-0.000554000,-0.000368927,-0.009631656,0.032971830,0.000000000,0.034739739,-0.000031000,-0.008058602,0.008925694,2.084835922,0.000000000,2.079915311,-0.005996000,-0.008045063,-0.005966080,0.727694716,0.000000000,0.717382504,0.424138993,0.356055234,0.230781913,2.660304342,0.000000000,2.660112934,-0.399264008,-0.390730609,-0.062696129,-0.682640225,0.000000000,-0.684182886,0.000000000,0.000069554,0.000322031,-0.007869826,0.000000000,-0.007945021,-0.000742000,-0.000220945,-0.008751442,-0.006940314,0.000000000,-0.006050938,-0.000670000,0.000688421,-0.003214493,-0.308247857,0.000000000,-0.313415875,0.067465998,0.057194929,0.054283324,1.698029379,0.000000000,1.691665525,0.274531990,0.236050938,0.140456382,1.434975743,0.000000000,1.432291769,-0.291621000,-0.284761021,-0.008759004,-0.664926144,0.000000000,-0.668401866,-0.000332000,-0.000066307,-0.007327060,-0.006148984,0.000000000,-0.006021437
0.067993871,-0.000566000,-0.000388461,-0.009775610,0.034739739,0.000000000,0.036356888,-0.000045000,-0.008041148,0.008726965,2.079915311,0.000000000,2.075469731,-0.005953000,-0.008054715,-0.004826161,0.717382504,0.000000000,0.706564857,0.424116999,0.356508271,0.226518821,2.660112934,0.000000000,2.660409609,-0.399342000,-0.390852405,-0.060898115,-0.684182886,0.000000000,-0.684867635,0.000000000,0.000070204,0.000324881,-0.007945021,0.000000000,-0.008018788,-0.000769000,-0.000239100,-0.009082852,-0.006050938,0.000000000,-0.005119573,-0.000703000,0.000681748,-0.003337750,-0.313415875,0.000000000,-0.318111094,0.067561999,0.057303700,0.054385295,1.691665525,0.000000000,1.685729318,0.274461001,0.236326352,0.137707155,1.432291769,0.000000000,1.429952702,-0.291624010,-0.284775276,-0.007127536,-0.668401866,0.000000000,-0.671903649,-0.000366000,-0.000082190,-0.007944606,-0.006021437,0.000000000,-0.006096715
0.069993691,-0.000578000,-0.000408258,-0.009905821,0.036356888,0.000000000,0.037924236,-0.000063000,-0.008024097,0.008525322,2.075469731,0.000000000,2.070067727,-0.005907000,-0.008062130,-0.003707827,0.706564857,0.000000000,0.696452347,0.424095988,0.356952838,0.222283453,2.660409609,0.000000000,2.661106398,-0.399416000,-0.390970709,-0.059152127,-0.684867635,0.000000000,-0.685353786,0.000000000,0.000070854,0.000325096,-0.008018788,0.000000000,-0.008085108,-0.000797000,-0.000257906,-0.009407370,-0.005119573,0.000000000,-0.004264474,-0.000738000,0.000674821,-0.003464700,-0.318111094,0.000000000,-0.323219143,0.067662999,0.057412653,0.054476566,1.685729318,0.000000000,1.681404270,0.274392992,0.236596301,0.134974473,1.429952702,0.000000000,1.428029495,-0.291637003,-0.284786854,-0.005788808,-0.671903649,0.000000000,-0.675852781,-0.000407000,-0.000099303,-0.008558709,-0.006096715,0.000000000,-0.006764941
0.071993511,-0.000589000,-0.000428290,-0.010023451,0.037924236,0.000000000,0.039552233,-0.000082000,-0.008007457,0.008319776,2.070067727,0.000000000,2.064586621,-0.005858000,-0.008067352,-0.002610719,0.696452347,0.000000000,0.687049057,0.424077004,0.357388991,0.218076596,2.661106398,0.000000000,2.662259995,-0.399484992,-0.391085601,-0.057445906,-0.685353786,0.000000000,-0.685565746,0.000000000,0.000071510,0.000328048,-0.008085108,0.000000000,-0.008159803,-0.000825000,-0.000277352,-0.009727053,-0.004264474,0.000000000,-0.003368455,-0.000775000,0.000667636,-0.003593496,-0.323219143,0.000000000,-0.328780764,0.067768998,0.057521768,0.054557921,1.681404270,0.000000000,1.678678333,0.274327010,0.236860829,0.132263834,1.428029495,0.000000000,1.426420051,-0.291660994,-0.284796426,-0.004786098,-0.675852781,0.000000000,-0.680160710,-0.000453000,-0.000117859,-0.009279236,-0.006764941,0.000000000,-0.007490181
0.073993331,-0.000600000,-0.000448533,-0.010128063,0.039552233,0.000000000,0.041129034,-0.000104000,-0.007991237,0.008110181,2.064586621,0.000000000,2.058463496,-0.005808000,-0.008070423,-0.001535434,0.687049057,0.000000000,0.677812296,0.424057990,0.357816792,0.213900259,2.662259995,0.000000000,2.663722368,-0.399549991,-0.391197128,-0.055763221,-0.685565746,0.000000000,-0.685647310,0.000000000,0.000072174,0.000332131,-0.008159803,0.000000000,-0.008238542,-0.000855000,-0.000297427,-0.010041499,-0.003368455,0.000000000,-0.002648112,-0.000812000,0.000660189,-0.003724483,-0.328780764,0.000000000,-0.334218361,0.067878999,0.057631030,0.054631110,1.678678333,0.000000000,1.677232734,0.274262011,0.237119982,0.129576736,1.426420051,0.000000000,1.425044858,-0.291693985,-0.284804732,-0.004152989,-0.680160710,0.000000000,-0.684455447,-0.000505000,-0.000138086,-0.010114776,-0.007490181,0.000000000,-0.008325876
0.075993150,-0.000612000,-0.000468961,-0.010220238,0.041129034,0.000000000,0.042548679,-0.000128000,-0.007975445,0.007896007,2.058463496,0.000000000,2.051997228,-0.005756000,-0.008071388,-0.000482787,0.677812296,0.000000000,0.669057626,0.424039990,0.358236306,0.209757291,2.663722368,0.000000000,2.665534935,-0.399612010,-0.391305322,-0.054096970,-0.685647310,0.000000000,-0.685717754,0.000000000,0.000072853,0.000339201,-0.008238542,0.000000000,-0.008327202,-0.000885000,-0.000318127,-0.010353110,-0.002648112,0.000000000,-0.001877292,-0.000851000,0.000652477,-0.003857166,-0.334218361,0.000000000,-0.340110700,0.067992002,0.057740428,0.054698872,1.677232734,0.000000000,1.676724828,0.274199009,0.237373800,0.126908636,1.425044858,0.000000000,1.423997817,-0.291736990,-0.284812507,-0.003887545,-0.684455447,0.000000000,-0.688770592,-0.000562000,-0.000160258,-0.011087102,-0.008325876,0.000000000,-0.009081422
0.077992970,-0.000623000,-0.000489552,-0.010301121,0.042548679,0.000000000,0.044028396,-0.000153000,-0.007960092,0.007676711,2.051997228,0.000000000,2.045487222,-0.005703000,-0.008070295,0.000546585,0.669057626,0.000000000,0.660528578,0.424023002,0.358647609,0.205651054,2.665534935,0.000000000,2.667669162,-0.399672002,-0.391410220,-0.052449371,-0.685717754,0.000000000,-0.685863385,0.000000000,0.000073551,0.000349113,-0.008327202,0.000000000,-0.008425946,-0.000916000,-0.000339445,-0.010661960,-0.001877292,0.000000000,-0.001162775,-0.000890000,0.000644494,-0.003992800,-0.340110700,0.000000000,-0.345859214,0.068108000,0.057849950,0.054761293,1.676724828,0.000000000,1.677153595,0.274136990,0.237622324,0.124261927,1.423997817,0.000000000,1.423195207,-0.291786999,-0.284820498,-0.003995217,-0.688770592,0.000000000,-0.692711014,-0.000623000,-0.000184614,-0.012178742,-0.009081422,0.000000000,-0.009681341
0.079992790,-0.000636000,-0.000510282,-0.010370096,0.044028396,0.000000000,0.045242386,-0.000180000,-0.007945187,0.007452456,2.045487222,0.000000000,2.038648379,-0.005649000,-0.008067192,0.001551351,0.660528578,0.000000000,0.652269052,0.424005985,0.359050782,0.201586687,2.667669162,0.000000000,2.670017351,-0.399729997,-0.391511878,-0.050828919,-0.685863385,0.000000000,-0.686057579,0.000000000,0.000074271,0.000359874,-0.008425946,0.000000000,-0.008529276,-0.000947000,-0.000361376,-0.010968133,-0.001162775,0.000000000,-0.000398064,-0.000930000,0.000636234,-0.004131435,-0.345859214,0.000000000,-0.351745319,0.068226002,0.057959593,0.054821641,1.677153595,0.000000000,1.678164640,0.274073988,0.237865579,0.121627882,1.423195207,0.000000000,1.422573218,-0.291844010,-0.284829379,-0.004440445,-0.692711014,0.000000000,-0.696309586,-0.000688000,-0.000211334,-0.013361032,-0.009681341,0.000000000,-0.010188788
0.081992610,-0.000648000,-0.000531131,-0.010429036,0.045242386,0.000000000,0.046518866,-0.000207000,-0.007930741,0.007222744,2.038648379,0.000000000,2.032063565,-0.005595000,-0.008062130,0.002531216,0.652269052,0.000000000,0.644015712,0.423988998,0.359445915,0.197566668,2.670017351,0.000000000,2.672560044,-0.399785995,-0.391610360,-0.049240863,-0.686057579,0.000000000,-0.686278861,0.000000000,0.000075016,0.000372688,-0.008529276,0.000000000,-0.008641035,-0.000977000,-0.000383912,-0.011270450,-0.000398064,0.000000000,0.000515936,-0.000970000,0.000627690,-0.004273679,-0.351745319,0.000000000,-0.357468991,0.068346001,0.058069357,0.054881796,1.678164640,0.000000000,1.679713438,0.274010986,0.238103581,0.119000651,1.422573218,0.000000000,1.422234695,-0.291907012,-0.284839763,-0.005192331,-0.696309586,0.000000000,-0.699489756,-0.000756000,-0.000240565,-0.014615687,-0.010188788,0.000000000,-0.010540070
0.083992429,-0.000662000,-0.000552076,-0.010477040,0.046518866,0.000000000,0.047530626,-0.000235000,-0.007916765,0.006987996,2.032063565,0.000000000,2.025441852,-0.005540000,-0.008055160,0.003484840,0.644015712,0.000000000,0.636098122,0.423972011,0.359833105,0.193595043,2.672560044,0.000000000,2.675260488,-0.399841994,-0.391705739,-0.047689466,-0.686278861,0.000000000,-0.686709506,0.000000000,0.000075785,0.000384600,-0.008641035,0.000000000,-0.008752635,-0.001007000,-0.000407037,-0.011565021,0.000515936,0.000000000,0.001448974,-0.001011000,0.000618854,-0.004419477,-0.357468991,0.000000000,-0.363313665,0.068466000,0.058179243,0.054943135,1.679713438,0.000000000,1.681200565,0.273948014,0.238336332,0.116375612,1.422234695,0.000000000,1.422214097,-0.291976005,-0.284852192,-0.006214100,-0.699489756,0.000000000,-0.702301528,-0.000825000,-0.000272392,-0.015914014,-0.010540070,0.000000000,-0.010605812
0.085992249,-0.000677000,-0.000573099,-0.010515867,0.047530626,0.000000000,0.048392237,-0.000264000,-0.007903269,0.006747979,2.025441852,0.000000000,2.018791538,-0.005485000,-0.008046336,0.004412089,0.636098122,0.000000000,0.628249846,0.423954993,0.360212455,0.189674676,2.675260488,0.000000000,2.678089968,-0.399897009,-0.391798121,-0.046191270,-0.686709506,0.000000000,-0.687192336,0.000000000,0.000076578,0.000396562,-0.008752635,0.000000000,-0.008866797,-0.001037000,-0.000430739,-0.011852824,0.001448974,0.000000000,0.002405137,-0.001053000,0.000609716,-0.004570646,-0.363313665,0.000000000,-0.369235204,0.068585999,0.058289249,0.055003341,1.681200565,0.000000000,1.682679105,0.273882985,0.238563846,0.113757163,1.422214097,0.000000000,1.422347554,-0.292048991,-0.284867148,-0.007478377,-0.702301528,0.000000000,-0.704571901,-0.000896000,-0.000306792,-0.017200708,-0.010605812,0.000000000,-0.010646662
0.087992069,-0.000692000,-0.000594184,-0.010546370,0.048392237,0.000000000,0.049213341,-0.000293000,-0.007890264,0.006502652,2.018791538,0.000000000,2.012400797,-0.005430000,-0.008035711,0.005312416,0.628249846,0.000000000,0.620498822,0.423936993,0.360584071,0.185808051,2.678089968,0.000000000,2.680963800,-0.399953008,-0.391887624,-0.044751426,-0.687192336,0.000000000,-0.687899701,0.000000000,0.000077395,0.000408457,-0.008866797,0.000000000,-0.008983172,-0.001066000,-0.000455002,-0.012133354,0.002405137,0.000000000,0.003486599,-0.001094000,0.000600265,-0.004726988,-0.369235204,0.000000000,-0.374666652,0.068705998,0.058399376,0.055063378,1.682679105,0.000000000,1.684127340,0.273817003,0.238786126,0.111139811,1.422347554,0.000000000,1.422743628,-0.292126000,-0.284885021,-0.008936231,-0.704571901,0.000000000,-0.706403877,-0.000968000,-0.000343733,-0.018470780,-0.010646662,0.000000000,-0.010579100
0.089991889,-0.000710000,-0.000615314,-0.010568559,0.049213341,0.000000000,0.049672438,-0.000322000,-0.007877759,0.006252296,2.012400797,0.000000000,2.006266121,-0.005376000,-0.008023341,0.006185271,0.620498822,0.000000000,0.612588664,0.423918009,0.360948067,0.181998156,2.680963800,0.000000000,2.683853570,-0.400009006,-0.391974399,-0.043387200,-0.687899701,0.000000000,-0.688667837,0.000000000,0.000078233,0.000418842,-0.008983172,0.000000000,-0.009097354,-0.001094000,-0.000479804,-0.012402922,0.003486599,0.000000000,0.004670173,-0.001135000,0.000590493,-0.004887774,-0.374666652,0.000000000,-0.379906300,0.068824001,0.058509621,0.055122548,1.684127340,0.000000000,1.684993976,0.273748010,0.239003172,0.108523370,1.422743628,0.000000000,1.423273623,-0.292205006,-0.284906123,-0.010550927,-0.706403877,0.000000000,-0.707665374,-0.001041000,-0.000383145,-0.019706177,-0.010579100,0.000000000,-0.010461466
0.091991708,-0.000728000,-0.000636476,-0.010584372,0.049672438,0.000000000,0.050098898,-0.000351000,-0.007865766,0.005996958,2.006266121,0.000000000,2.000389304,-0.005324000,-0.008009280,0.007030203,0.612588664,0.000000000,0.604261285,0.423898011,0.361304560,0.178246719,2.683853570,0.000000000,2.686737746,-0.400068015,-0.392058606,-0.042103582,-0.688667837,0.000000000,-0.689770468,0.000000000,0.000079089,0.000427959,-0.009097354,0.000000000,-0.009209773,-0.001120000,-0.000505120,-0.012659475,0.004670173,0.000000000,0.006048037,-0.001176000,0.000580391,-0.005053081,-0.379906300,0.000000000,-0.384949737,0.068939999,0.058619979,0.055179366,1.684993976,0.000000000,1.685311816,0.273676008,0.239214987,0.105907375,1.423273623,0.000000000,1.423940809,-0.292286992,-0.284930671,-0.012273980,-0.707665374,0.000000000,-0.708571731,-0.001112000,-0.000424940,-0.020897717,-0.010461466,0.000000000,-0.010025527
0.093991528,-0.000748000,-0.000657657,-0.010593476,0.050098898,0.000000000,0.050276230,-0.000379000,-0.007854292,0.005737007,2.000389304,0.000000000,1.995048852,-0.005272000,-0.007993589,0.007845580,0.604261285,0.000000000,0.596138854,0.423877001,0.361653679,0.174559298,2.686737746,0.000000000,2.689568716,-0.400128007,-0.392140458,-0.040926032,-0.689770468,0.000000000,-0.690908963,0.000000000,0.000079958,0.000434856,-0.009209773,0.000000000,-0.009317276,-0.001145000,-0.000530916,-0.012899447,0.006048037,0.000000000,0.007489925,-0.001217000,0.000569948,-0.005223657,-0.384949737,0.000000000,-0.389777094,0.069054000,0.058730443,0.055231734,1.685311816,0.000000000,1.685132986,0.273602009,0.239421577,0.103294759,1.423940809,0.000000000,1.424787898,-0.292369992,-0.284958824,-0.014076899,-0.708571731,0.000000000,-0.708989011,-0.001183000,-0.000468911,-0.021985569,-0.010025527,0.000000000,-0.009664488
0.095991348,-0.000770000,-0.000678845,-0.010597197,0.050276230,0.000000000,0.050210773,-0.000406000,-0.007843346,0.005472792,1.995048852,0.000000000,1.990239288,-0.005222000,-0.007976325,0.008632039,0.596138854,0.000000000,0.587654957,0.423853993,0.361995549,0.170934912,2.689568716,0.000000000,2.692283383,-0.400191009,-0.392220171,-0.039856700,-0.690908963,0.000000000,-0.692260148,0.000000000,0.000080836,0.000439045,-0.009317276,0.000000000,-0.009417925,-0.001169000,-0.000557156,-0.013121348,0.007489925,0.000000000,0.008983532,-0.001257000,0.000559155,-0.005398554,-0.389777094,0.000000000,-0.394123156,0.069164000,0.058840998,0.055278048,1.685132986,0.000000000,1.683927516,0.273523003,0.239622950,0.100686486,1.424787898,0.000000000,1.425617367,-0.292452008,-0.284990661,-0.015918443,-0.708989011,0.000000000,-0.708824851,-0.001252000,-0.000514880,-0.022984873,-0.009664488,0.000000000,-0.009151051
0.097991168,-0.000794000,-0.000700033,-0.010596507,0.050210773,0.000000000,0.049907074,-0.000432000,-0.007832936,0.005204774,1.990239288,0.000000000,1.985952360,-0.005174000,-0.007957547,0.009388891,0.587654957,0.000000000,0.578842090,0.423828989,0.362330301,0.167375918,2.692283383,0.000000000,2.694856724,-0.400258005,-0.392297993,-0.038910953,-0.692260148,0.000000000,-0.693854748,0.000000000,0.000081716,0.000440058,-0.009417925,0.000000000,-0.009509750,-0.001191000,-0.000583801,-0.013323602,0.008983532,0.000000000,0.010622378,-0.001297000,0.000548004,-0.005577773,-0.394123156,0.000000000,-0.398269638,0.069270998,0.058951631,0.055316484,1.683927516,0.000000000,1.682024894,0.273440987,0.239819113,0.098081744,1.425617367,0.000000000,1.426560668,-0.292535007,-0.285026157,-0.017747944,-0.708824851,0.000000000,-0.708424529,-0.001318000,-0.000562617,-0.023868635,-0.009151051,0.000000000,-0.008484277
0.099990987,-0.000820000,-0.000721212,-0.010592401,0.049907074,0.000000000,0.049370032,-0.000457000,-0.007823070,0.004933361,1.985952360,0.000000000,1.982180741,-0.005128000,-0.007937316,0.010115648,0.578842090,0.000000000,0.569728182,0.423803002,0.362658069,0.163884378,2.694856724,0.000000000,2.697329569,-0.400328994,-0.392374205,-0.038106104,-0.693854748,0.000000000,-0.695615064,0.000000000,0.000082592,0.000437883,-0.009509750,0.000000000,-0.009592072,-0.001210000,-0.000610806,-0.013503803,0.010622378,0.000000000,0.012494713,-0.001336000,0.000536487,-0.005761466,-0.398269638,0.000000000,-0.401926377,0.069371998,0.059062319,0.055344016,1.682024894,0.000000000,1.678648451,0.273353994,0.240010086,0.095486525,1.426560668,0.000000000,1.427449760,-0.292614996,-0.285065254,-0.019548425,-0.708424529,0.000000000,-0.707438573,-0.001381000,-0.000611833,-0.024608311,-0.008484277,0.000000000,-0.007774426
0.101990807,-0.000854000,-0.000742379,-0.010585829,0.049370032,0.000000000,0.047964953,-0.000480000,-0.007813752,0.004658994,1.982180741,0.000000000,1.979200438,-0.005084000,-0.007915692,0.010811774,0.569728182,0.000000000,0.560342895,0.423774004,0.362978994,0.160462127,2.697329569,0.000000000,2.699552113,-0.400402993,-0.392449113,-0.037454057,-0.695615064,0.000000000,-0.697376970,0.000000000,0.000083457,0.000432596,-0.009592072,0.000000000,-0.009664477,-0.001228000,-0.000638117,-0.013656538,0.012494713,0.000000000,0.014350901,-0.001375000,0.000524595,-0.005948749,-0.401926377,0.000000000,-0.405395544,0.069471002,0.059173034,0.055357459,1.678648451,0.000000000,1.675015486,0.273259997,0.240195892,0.092902803,1.427449760,0.000000000,1.428141151,-0.292699993,-0.285107794,-0.021269951,-0.707438573,0.000000000,-0.706835123,-0.001442000,-0.000662229,-0.025198185,-0.007774426,0.000000000,-0.007169097
0.103990627,-0.000900000,-0.000763538,-0.010581734,0.047964953,0.000000000,0.045293924,-0.000504000,-0.007804988,0.004381722,1.979200438,0.000000000,1.976159205,-0.005040000,-0.007892736,0.011478139,0.560342895,0.000000000,0.551251929,0.423741013,0.363293207,0.157106569,2.699552113,0.000000000,2.701472257,-0.400480986,-0.392523020,-0.036953383,-0.697376970,0.000000000,-0.699213331,0.000000000,0.000084307,0.000425024,-0.009664477,0.000000000,-0.009728857,-0.001244000,-0.000665679,-0.013782183,0.014350901,0.000000000,0.016293882,-0.001415000,0.000512323,-0.006138811,-0.405395544,0.000000000,-0.408978178,0.069569997,0.059283746,0.055356086,1.675015486,0.000000000,1.671716303,0.273160011,0.240376562,0.090334871,1.428141151,0.000000000,1.428666342,-0.292793989,-0.285153686,-0.022946182,-0.706835123,0.000000000,-0.706931245,-0.001503000,-0.000713546,-0.025658270,-0.007169097,0.000000000,-0.006839755
0.105990447,-0.000959000,-0.000784711,-0.010588869,0.045293924,0.000000000,0.041302253,-0.000528000,-0.007796787,0.004100411,1.976159205,0.000000000,1.973369260,-0.004998000,-0.007868501,0.012117779,0.551251929,0.000000000,0.541833481,0.423705995,0.363600830,0.153811380,2.701472257,0.000000000,2.703251573,-0.400563002,-0.392596233,-0.036606329,-0.699213331,0.000000000,-0.701089715,0.000000000,0.000085148,0.000420400,-0.009728857,0.000000000,-0.009800685,-0.001259000,-0.000693435,-0.013878883,0.016293882,0.000000000,0.018200406,-0.001455000,0.000499669,-0.006330367,-0.408978178,0.000000000,-0.412418306,0.069669001,0.059394425,0.055339710,1.671716303,0.000000000,1.668767886,0.273054004,0.240552139,0.087788501,1.428666342,0.000000000,1.428979692,-0.292896003,-0.285202964,-0.024639089,-0.706931245,0.000000000,-0.707447990,-0.001565000,-0.000765626,-0.026040320,-0.006839755,0.000000000,-0.006756109
0.107990266,-0.001028000,-0.000805938,-0.010615348,0.041302253,0.000000000,0.036359724,-0.000551000,-0.007789159,0.003814274,1.973369260,0.000000000,1.971135379,-0.004956000,-0.007843038,0.012731176,0.541833481,0.000000000,0.532659763,0.423667997,0.363901981,0.150575661,2.703251573,0.000000000,2.704828701,-0.400647014,-0.392669064,-0.036415510,-0.701089715,0.000000000,-0.702762292,0.000000000,0.000085987,0.000419447,-0.009800685,0.000000000,-0.009882755,-0.001272000,-0.000721326,-0.013946271,0.018200406,0.000000000,0.020168730,-0.001496000,0.000486632,-0.006522039,-0.412418306,0.000000000,-0.416031199,0.069766998,0.059505044,0.055309826,1.668767886,0.000000000,1.665856099,0.272942007,0.240722664,0.085262834,1.428979692,0.000000000,1.429086579,-0.293006003,-0.285255730,-0.026383050,-0.707447990,0.000000000,-0.708274290,-0.001626000,-0.000818409,-0.026391628,-0.006756109,0.000000000,-0.006587784
0.109990086,-0.001107000,-0.000827268,-0.010667177,0.036359724,0.000000000,0.030505703,-0.000575000,-0.007782113,0.003523138,1.971135379,0.000000000,1.968895819,-0.004914000,-0.007816397,0.013320660,0.532659763,0.000000000,0.523691830,0.423628002,0.364196767,0.147392991,2.704828701,0.000000000,2.706304696,-0.400732994,-0.392741792,-0.036363895,-0.702762292,0.000000000,-0.704248339,0.000000000,0.000086829,0.000420889,-0.009882755,0.000000000,-0.009971926,-0.001285000,-0.000749291,-0.013983428,0.020168730,0.000000000,0.021974040,-0.001537000,0.000473211,-0.006714537,-0.416031199,0.000000000,-0.419516160,0.069863997,0.059615578,0.055266766,1.665856099,0.000000000,1.662983040,0.272825003,0.240888182,0.082758626,1.429086579,0.000000000,1.429041039,-0.293121994,-0.285312139,-0.028204326,-0.708274290,0.000000000,-0.709118057,-0.001687000,-0.000871799,-0.026695089,-0.006587784,0.000000000,-0.006494145
0.111989906,-0.001196000,-0.000848765,-0.010750432,0.030505703,0.000000000,0.023781241,-0.000598000,-0.007775660,0.003226304,1.968895819,0.000000000,1.967238152,-0.004873000,-0.007788621,0.013888106,0.523691830,0.000000000,0.514615626,0.423586011,0.364485284,0.144258560,2.706304696,0.000000000,2.707707655,-0.400821000,-0.392814665,-0.036436515,-0.704248339,0.000000000,-0.705571322,0.000000000,0.000087681,0.000426036,-0.009971926,0.000000000,-0.010072671,-0.001298000,-0.000777276,-0.013993070,0.021974040,0.000000000,0.023625814,-0.001578000,0.000459404,-0.006907463,-0.419516160,0.000000000,-0.422881994,0.069959998,0.059726001,0.055211815,1.662983040,0.000000000,1.660126387,0.272702992,0.241048726,0.080272398,1.429041039,0.000000000,1.428865533,-0.293242991,-0.285372342,-0.030101633,-0.709118057,0.000000000,-0.709868175,-0.001748000,-0.000925730,-0.026965495,-0.006494145,0.000000000,-0.006439824
0.113989726,-0.001292000,-0.000870502,-0.010870107,0.023781241,0.000000000,0.016542127,-0.000621000,-0.007769813,0.002923652,1.967238152,0.000000000,1.965884150,-0.004833000,-0.007759753,0.014434054,0.514615626,0.000000000,0.505431104,0.423541009,0.364767624,0.141170226,2.707707655,0.000000000,2.708982977,-0.400911003,-0.392887907,-0.036621376,-0.705571322,0.000000000,-0.706739637,0.000000000,0.000088546,0.000432601,-0.010072671,0.000000000,-0.010178773,-0.001309000,-0.000805230,-0.013977787,0.023625814,0.000000000,0.025346576,-0.001619000,0.000445212,-0.007100753,-0.422881994,0.000000000,-0.426129880,0.070054002,0.059836294,0.055146367,1.660126387,0.000000000,1.656976817,0.272576988,0.241204325,0.077799568,1.428865533,0.000000000,1.428654933,-0.293368995,-0.285436470,-0.032063876,-0.709868175,0.000000000,-0.710543064,-0.001808000,-0.000980151,-0.027210651,-0.006439824,0.000000000,-0.006306670
0.115989545,-0.001396000,-0.000892557,-0.011029290,0.016542127,0.000000000,0.008707628,-0.000644000,-0.007764582,0.002615212,1.965884150,0.000000000,1.964836382,-0.004794000,-0.007729834,0.014959370,0.505431104,0.000000000,0.496130214,0.423494011,0.365043875,0.138125052,2.708982977,0.000000000,2.710210090,-0.401001990,-0.392961719,-0.036905977,-0.706739637,0.000000000,-0.707666262,0.000000000,0.000089426,0.000439871,-0.010178773,0.000000000,-0.010288350,-0.001321000,-0.000833101,-0.013936072,0.025346576,0.000000000,0.026802379,-0.001660000,0.000430632,-0.007294647,-0.426129880,0.000000000,-0.429254149,0.070147000,0.059946432,0.055069444,1.656976817,0.000000000,1.653844626,0.272446990,0.241355009,0.075341654,1.428654933,0.000000000,1.428396567,-0.293498009,-0.285504641,-0.034085413,-0.710543064,0.000000000,-0.710944975,-0.001869000,-0.001034983,-0.027416201,-0.006306670,0.000000000,-0.006345628
0.117989365,-0.001506000,-0.000915016,-0.011231431,0.008707628,0.000000000,0.000519628,-0.000666000,-0.007759981,0.002300823,1.964836382,0.000000000,1.964386175,-0.004755000,-0.007698905,0.015464557,0.496130214,0.000000000,0.486997546,0.423446000,0.365314116,0.135120610,2.710210090,0.000000000,2.711463230,-0.401093990,-0.393036264,-0.037272433,-0.707666262,0.000000000,-0.708388506,0.000000000,0.000090321,0.000447481,-0.010288350,0.000000000,-0.010400434,-0.001332000,-0.000860846,-0.013872882,0.026802379,0.000000000,0.028229883,-0.001700000,0.000415666,-0.007488576,-0.429254149,0.000000000,-0.431983428,0.070238002,0.060056398,0.054982622,1.653844626,0.000000000,1.650418104,0.272312999,0.241500794,0.072892766,1.428396567,0.000000000,1.428131163,-0.293628991,-0.285576919,-0.036139077,-0.710944975,0.000000000,-0.711039234,-0.001930000,-0.001090213,-0.027614904,-0.006345628,0.000000000,-0.006363891
0.119989185,-0.001622000,-0.000937970,-0.011478337,0.000519628,0.000000000,-0.008002146,-0.000689000,-0.007756019,0.001980843,1.964386175,0.000000000,1.963960067,-0.004716000,-0.007667005,0.015950139,0.486997546,0.000000000,0.478032275,0.423395991,0.365578426,0.132154972,2.711463230,0.000000000,2.712689072,-0.401185989,-0.393111676,-0.037705977,-0.708388506,0.000000000,-0.708832388,0.000000000,0.000091227,0.000453487,-0.010400434,0.000000000,-0.010509170,-0.001344000,-0.000888420,-0.013787818,0.028229883,0.000000000,0.029408973,-0.001739000,0.000400314,-0.007682248,-0.431983428,0.000000000,-0.434324483,0.070326999,0.060166169,0.054885710,1.650418104,0.000000000,1.646705237,0.272177011,0.241641696,0.070450778,1.428131163,0.000000000,1.427999082,-0.293761998,-0.285653314,-0.038197346,-0.711039234,0.000000000,-0.710909177,-0.001990000,-0.001145822,-0.027804638,-0.006363891,0.000000000,-0.006268235
0.121989005,-0.001742000,-0.000961511,-0.011772265,-0.008002146,0.000000000,-0.016621699,-0.000711000,-0.007752709,0.001655063,1.963960067,0.000000000,1.964134620,-0.004678000,-0.007634171,0.016417279,0.478032275,0.000000000,0.468934254,0.423345000,0.365836874,0.129224341,2.712689072,0.000000000,2.713974190,-0.401279002,-0.393188047,-0.038185454,-0.708832388,0.000000000,-0.709151174,0.000000000,0.000092146,0.000459402,-0.010509170,0.000000000,-0.010618840,-0.001356000,-0.000915792,-0.013686184,0.029408973,0.000000000,0.030472699,-0.001777000,0.000384575,-0.007876396,-0.434324483,0.000000000,-0.436260557,0.070413999,0.060275722,0.054776638,1.646705237,0.000000000,1.642761856,0.272038013,0.241777735,0.068019646,1.427999082,0.000000000,1.427906837,-0.293895990,-0.285733801,-0.040243531,-0.710909177,0.000000000,-0.710499271,-0.002050000,-0.001201752,-0.027964796,-0.006268235,0.000000000,-0.006224289
0.123988824,-0.001865000,-0.000985734,-0.012113088,-0.016621699,0.000000000,-0.025223176,-0.000733000,-0.007750061,0.001324020,1.964134620,0.000000000,1.964616407,-0.004641000,-0.007600440,0.016865203,0.468934254,0.000000000,0.459732080,0.423292011,0.366089534,0.126329852,2.713974190,0.000000000,2.715241947,-0.401371002,-0.393265453,-0.038702884,-0.709151174,0.000000000,-0.709155064,0.000000000,0.000093071,0.000462588,-0.010618840,0.000000000,-0.010721399,-0.001368000,-0.000942930,-0.013569558,0.030472699,0.000000000,0.031426779,-0.001814000,0.000368449,-0.008070435,-0.436260557,0.000000000,-0.437804932,0.070497997,0.060385032,0.054655093,1.642761856,0.000000000,1.638316242,0.271896988,0.241908932,0.065598244,1.427906837,0.000000000,1.427923312,-0.294028014,-0.285818307,-0.042252925,-0.710499271,0.000000000,-0.709589016,-0.002110000,-0.001257965,-0.028106801,-0.006224289,0.000000000,-0.006203247
0.125988644,-0.001991000,-0.001010732,-0.012500361,-0.025223176,0.000000000,-0.033799191,-0.000755000,-0.007748084,0.000988159,1.964616407,0.000000000,1.965398095,-0.004603000,-0.007565852,0.017294101,0.459732080,0.000000000,0.451000734,0.423238993,0.366336473,0.123469262,2.715241947,0.000000000,2.716628239,-0.401463002,-0.393343923,-0.039234848,-0.709155064,0.000000000,-0.709010106,0.000000000,0.000093998,0.000463102,-0.010721399,0.000000000,-0.010816464,-0.001382000,-0.000969809,-0.013439738,0.031426779,0.000000000,0.032065403,-0.001850000,0.000351937,-0.008264107,-0.437804932,0.000000000,-0.438963788,0.070579000,0.060494071,0.054519770,1.638316242,0.000000000,1.633407824,0.271755010,0.242035304,0.063186138,1.427923312,0.000000000,1.428118202,-0.294160008,-0.285906672,-0.044182609,-0.709589016,0.000000000,-0.708512316,-0.002170000,-0.001314438,-0.028236392,-0.006203247,0.000000000,-0.006191306
0.127988464,-0.002119000,-0.001036597,-0.012933834,-0.033799191,0.000000000,-0.042234712,-0.000776000,-0.007746789,0.000647707,1.965398095,0.000000000,1.966761414,-0.004567000,-0.007530444,0.017704496,0.451000734,0.000000000,0.441885975,0.423184991,0.366577755,0.120641409,2.716628239,0.000000000,2.718076965,-0.401553005,-0.393423465,-0.039771091,-0.709010106,0.000000000,-0.708542790,0.000000000,0.000094920,0.000461020,-0.010816464,0.000000000,-0.010903727,-0.001396000,-0.000996415,-0.013303779,0.032065403,0.000000000,0.032640331,-0.001884000,0.000335040,-0.008457935,-0.438963788,0.000000000,-0.439441047,0.070657000,0.060602805,0.054367010,1.633407824,0.000000000,1.628127209,0.271611989,0.242156887,0.060791732,1.428118202,0.000000000,1.428423879,-0.294288993,-0.285998719,-0.046023374,-0.708512316,0.000000000,-0.707012132,-0.002229000,-0.001371151,-0.028356251,-0.006191306,0.000000000,-0.006081737
0.129988284,-0.002248000,-0.001063417,-0.013411722,-0.042234712,0.000000000,-0.050423755,-0.000797000,-0.007746182,0.000303516,1.966761414,0.000000000,1.968404982,-0.004530000,-0.007494253,0.018095241,0.441885975,0.000000000,0.433277881,0.423130006,0.366813449,0.117846903,2.718076965,0.000000000,2.719579572,-0.401641995,-0.393504043,-0.040289089,-0.708542790,0.000000000,-0.707920238,0.000000000,0.000095829,0.000454721,-0.010903727,0.000000000,-0.010977729,-0.001412000,-0.001022738,-0.013161709,0.032640331,0.000000000,0.032937238,-0.001917000,0.000317759,-0.008651229,-0.439441047,0.000000000,-0.439536964,0.070731997,0.060711197,0.054196088,1.628127209,0.000000000,1.622501076,0.271468997,0.242273716,0.058414084,1.428423879,0.000000000,1.428912685,-0.294414014,-0.286094195,-0.047738263,-0.707012132,0.000000000,-0.705122588,-0.002288000,-0.001428052,-0.028450873,-0.006081737,0.000000000,-0.006024791
0.131988103,-0.002377000,-0.001091279,-0.013932514,-0.050423755,0.000000000,-0.058259171,-0.000818000,-0.007746270,-0.000043983,1.968404982,0.000000000,1.970320916,-0.004494000,-0.007457319,0.018467235,0.433277881,0.000000000,0.424598095,0.423074991,0.367043616,0.115083458,2.719579572,0.000000000,2.721208617,-0.401730001,-0.393585597,-0.040777202,-0.707920238,0.000000000,-0.707184590,0.000000000,0.000096719,0.000445004,-0.010977729,0.000000000,-0.011040051,-0.001429000,-0.001048776,-0.013019310,0.032937238,0.000000000,0.033095341,-0.001947000,0.000300095,-0.008844115,-0.439536964,0.000000000,-0.438680566,0.070803002,0.060819207,0.054004999,1.622501076,0.000000000,1.616304611,0.271324992,0.242385827,0.056055904,1.428912685,0.000000000,1.429497020,-0.294535011,-0.286192787,-0.049295873,-0.705122588,0.000000000,-0.702958734,-0.002347000,-0.001485114,-0.028531089,-0.006024791,0.000000000,-0.005992586
0.133987923,-0.002505000,-0.001120263,-0.014493491,-0.058259171,0.000000000,-0.065641147,-0.000839000,-0.007747058,-0.000394160,1.970320916,0.000000000,1.972496502,-0.004458000,-0.007419680,0.018819384,0.424598095,0.000000000,0.416167147,0.423018992,0.367268323,0.112353218,2.721208617,0.000000000,2.722884432,-0.401814997,-0.393668054,-0.041228518,-0.707184590,0.000000000,-0.706158122,0.000000000,0.000097582,0.000431648,-0.011040051,0.000000000,-0.011089326,-0.001447000,-0.001074531,-0.012877827,0.033095341,0.000000000,0.033121881,-0.001976000,0.000282052,-0.009035653,-0.438680566,0.000000000,-0.437462539,0.070871003,0.060926789,0.053791194,1.616304611,0.000000000,1.609890026,0.271180987,0.242493270,0.053721491,1.429497020,0.000000000,1.430207324,-0.294651002,-0.286294137,-0.050675227,-0.702958734,0.000000000,-0.700516841,-0.002406000,-0.001542326,-0.028605780,-0.005992586,0.000000000,-0.005960993
0.135987743,-0.002641000,-0.001150444,-0.015091638,-0.065641147,0.000000000,-0.073538155,-0.000858000,-0.007748551,-0.000746416,1.972496502,0.000000000,1.975487853,-0.004423000,-0.007381376,0.019151995,0.416167147,0.000000000,0.407704726,0.422962993,0.367487631,0.109654044,2.722884432,0.000000000,2.724680414,-0.401901007,-0.393751298,-0.041621723,-0.706158122,0.000000000,-0.705319791,0.000000000,0.000098412,0.000414846,-0.011089326,0.000000000,-0.011125408,-0.001467000,-0.001100010,-0.012739828,0.033121881,0.000000000,0.032925515,-0.002003000,0.000263633,-0.009225762,-0.437462539,0.000000000,-0.435601588,0.070935003,0.061033896,0.053553634,1.609890026,0.000000000,1.603010548,0.271032989,0.242596094,0.051412032,1.430207324,0.000000000,1.430779767,-0.294766992,-0.286397844,-0.051853324,-0.700516841,0.000000000,-0.698408991,-0.002464000,-0.001599677,-0.028675718,-0.005960993,0.000000000,-0.005827708
0.137987563,-0.002788000,-0.001181900,-0.015729327,-0.073538155,0.000000000,-0.082248098,-0.000877000,-0.007750752,-0.001100465,1.975487853,0.000000000,1.978721053,-0.004387000,-0.007342448,0.019464073,0.407704726,0.000000000,0.399813520,0.422904015,0.367701610,0.106989888,2.724680414,0.000000000,2.726375806,-0.401988000,-0.393835243,-0.041972472,-0.705319791,0.000000000,-0.704630661,0.000000000,0.000099201,0.000394619,-0.011125408,0.000000000,-0.011147665,-0.001488000,-0.001125228,-0.012609475,0.032925515,0.000000000,0.032638006,-0.002030000,0.000244841,-0.009415011,-0.435601588,0.000000000,-0.433654216,0.070995003,0.061140475,0.053289384,1.603010548,0.000000000,1.595747747,0.270877987,0.242694367,0.049136440,1.430779767,0.000000000,1.430956572,-0.294885993,-0.286503570,-0.052863156,-0.698408991,0.000000000,-0.696879613,-0.002521000,-0.001657125,-0.028723952,-0.005827708,0.000000000,-0.005645335
0.139987382,-0.002945000,-0.001214721,-0.016412171,-0.082248098,0.000000000,-0.091623045,-0.000895000,-0.007753665,-0.001456697,1.978721053,0.000000000,1.982490363,-0.004352000,-0.007302932,0.019758008,0.399813520,0.000000000,0.391881405,0.422845006,0.367910325,0.104357180,2.726375806,0.000000000,2.728178368,-0.402076006,-0.393919822,-0.042289837,-0.704630661,0.000000000,-0.704074699,0.000000000,0.000099951,0.000374837,-0.011147665,0.000000000,-0.011167190,-0.001511000,-0.001150205,-0.012488896,0.032638006,0.000000000,0.032166895,-0.002056000,0.000225679,-0.009603882,-0.433654216,0.000000000,-0.431325780,0.071053997,0.061246470,0.052997686,1.595747747,0.000000000,1.588985718,0.270716995,0.242788166,0.046899168,1.430956572,0.000000000,1.430765263,-0.295004994,-0.286611080,-0.053754799,-0.696879613,0.000000000,-0.695506017,-0.002577000,-0.001714607,-0.028741068,-0.005645335,0.000000000,-0.005446883
0.141987202,-0.003109000,-0.001249006,-0.017143796,-0.091623045,0.000000000,-0.101312283,-0.000912000,-0.007757295,-0.001815005,1.982490363,0.000000000,1.986794565,-0.004317000,-0.007262866,0.020033272,0.391881405,0.000000000,0.384215113,0.422782987,0.368113842,0.101758814,2.728178368,0.000000000,2.729874957,-0.402164996,-0.394004993,-0.042585046,-0.704074699,0.000000000,-0.703621452,0.000000000,0.000100661,0.000355123,-0.011167190,0.000000000,-0.011182923,-0.001534000,-0.001174964,-0.012379618,0.032166895,0.000000000,0.031736387,-0.002081000,0.000206152,-0.009791220,-0.431325780,0.000000000,-0.428644033,0.071108997,0.061351838,0.052684053,1.588985718,0.000000000,1.581763004,0.270552009,0.242877540,0.044687060,1.430765263,0.000000000,1.430422285,-0.295125991,-0.286720144,-0.054531975,-0.695506017,0.000000000,-0.694502563,-0.002633000,-0.001772059,-0.028725732,-0.005446883,0.000000000,-0.005343792
0.143987022,-0.003282000,-0.001284856,-0.017926093,-0.101312283,0.000000000,-0.111507555,-0.000929000,-0.007761646,-0.002175041,1.986794565,0.000000000,1.991342557,-0.004282000,-0.007222284,0.020290956,0.384215113,0.000000000,0.376799984,0.422719985,0.368312229,0.099193041,2.729874957,0.000000000,2.731601890,-0.402253002,-0.394090721,-0.042864415,-0.703621452,0.000000000,-0.703057374,0.000000000,0.000101331,0.000334989,-0.011182923,0.000000000,-0.011193390,-0.001559000,-0.001199524,-0.012280282,0.031736387,0.000000000,0.031127753,-0.002105000,0.000186267,-0.009976799,-0.428644033,0.000000000,-0.425616030,0.071162999,0.061456529,0.052345442,1.581763004,0.000000000,1.575013970,0.270384014,0.242962558,0.042509246,1.430422285,0.000000000,1.429920544,-0.295246005,-0.286830606,-0.055231225,-0.694502563,0.000000000,-0.693479919,-0.002688000,-0.001829454,-0.028697801,-0.005343792,0.000000000,-0.005181088
0.145986842,-0.003461000,-0.001322378,-0.018762213,-0.111507555,0.000000000,-0.121859737,-0.000946000,-0.007766719,-0.002536976,1.991342557,0.000000000,1.996139238,-0.004247000,-0.007181221,0.020531997,0.376799984,0.000000000,0.369624278,0.422654986,0.368505544,0.096657932,2.731601890,0.000000000,2.733304993,-0.402341008,-0.394176961,-0.043119773,-0.703057374,0.000000000,-0.702509946,0.000000000,0.000101962,0.000315744,-0.011193390,0.000000000,-0.011202497,-0.001586000,-0.001223910,-0.012193115,0.031127753,0.000000000,0.030356163,-0.002128000,0.000166034,-0.010160087,-0.425616030,0.000000000,-0.422256557,0.071214996,0.061560500,0.051985912,1.575013970,0.000000000,1.568372805,0.270213008,0.243043270,0.040355817,1.429920544,0.000000000,1.429327391,-0.295365989,-0.286942295,-0.055844308,-0.693479919,0.000000000,-0.692575313,-0.002743000,-0.001886748,-0.028646916,-0.005181088,0.000000000,-0.005093927
0.147986661,-0.003645000,-0.001361681,-0.019653137,-0.121859737,0.000000000,-0.132245037,-0.000962000,-0.007772521,-0.002900687,1.996139238,0.000000000,2.001467107,-0.004213000,-0.007139707,0.020756990,0.369624278,0.000000000,0.362399331,0.422589004,0.368693849,0.094152521,2.733304993,0.000000000,2.735051393,-0.402429014,-0.394263665,-0.043352047,-0.702509946,0.000000000,-0.701981195,0.000000000,0.000102556,0.000297010,-0.011202497,0.000000000,-0.011209270,-0.001613000,-0.001248151,-0.012120553,0.030356163,0.000000000,0.029651705,-0.002151000,0.000145464,-0.010341057,-0.422256557,0.000000000,-0.418854170,0.071266003,0.061663711,0.051605592,1.568372805,0.000000000,1.562136441,0.270040989,0.243119724,0.038227021,1.429327391,0.000000000,1.428764073,-0.295484990,-0.287055058,-0.056381564,-0.692575313,0.000000000,-0.691678290,-0.002799000,-0.001943925,-0.028588618,-0.005093927,0.000000000,-0.005140688
0.149986481,-0.003834000,-0.001402876,-0.020598490,-0.132245037,0.000000000,-0.142653961,-0.000979000,-0.007779052,-0.003265609,2.001467107,0.000000000,2.006745568,-0.004180000,-0.007097776,0.020965374,0.362399331,0.000000000,0.355147431,0.422520012,0.368877206,0.091678412,2.735051393,0.000000000,2.736697716,-0.402516007,-0.394350792,-0.043563337,-0.701981195,0.000000000,-0.701366986,0.000000000,0.000103111,0.000277027,-0.011209270,0.000000000,-0.011208452,-0.001642000,-0.001272271,-0.012060477,0.029651705,0.000000000,0.028791852,-0.002174000,0.000124580,-0.010518858,-0.418854170,0.000000000,-0.415433752,0.071315996,0.061766123,0.051205901,1.562136441,0.000000000,1.556277432,0.269867003,0.243191964,0.036120215,1.428764073,0.000000000,1.428186364,-0.295601994,-0.287168743,-0.056842521,-0.691678290,0.000000000,-0.690703211,-0.002854000,-0.002001022,-0.028548546,-0.005140688,0.000000000,-0.005042692
0.151986301,-0.004026000,-0.001446070,-0.021598560,-0.142653961,0.000000000,-0.152860021,-0.000996000,-0.007786316,-0.003631766,2.006745568,0.000000000,2.012260146,-0.004147000,-0.007055461,0.021157744,0.355147431,0.000000000,0.348148403,0.422450006,0.369055674,0.089233630,2.736697716,0.000000000,2.738380433,-0.402601004,-0.394438284,-0.043746280,-0.701366986,0.000000000,-0.700594585,0.000000000,0.000103626,0.000257520,-0.011208452,0.000000000,-0.011205046,-0.001672000,-0.001296303,-0.012015926,0.028791852,0.000000000,0.027903714,-0.002195000,0.000103410,-0.010694451,-0.415433752,0.000000000,-0.411413777,0.071364999,0.061867700,0.050788581,1.556277432,0.000000000,1.550772742,0.269694000,0.243260026,0.034030906,1.428186364,0.000000000,1.427810344,-0.295717001,-0.287283180,-0.057218296,-0.690703211,0.000000000,-0.689692550,-0.002909000,-0.002058020,-0.028498876,-0.005042692,0.000000000,-0.004981999
0.153986121,-0.004221000,-0.001491372,-0.022651933,-0.152860021,0.000000000,-0.162859855,-0.001013000,-0.007794313,-0.003998786,2.012260146,0.000000000,2.018002858,-0.004114000,-0.007012792,0.021334327,0.348148403,0.000000000,0.341406060,0.422376990,0.369229307,0.086816951,2.738380433,0.000000000,2.739978565,-0.402684987,-0.394526063,-0.043889581,-0.700594585,0.000000000,-0.699803516,0.000000000,0.000104100,0.000237399,-0.011205046,0.000000000,-0.011195827,-0.001704000,-0.001320274,-0.011985815,0.027903714,0.000000000,0.026877630,-0.002216000,0.000082016,-0.010866792,-0.411413777,0.000000000,-0.407403563,0.071414001,0.061968406,0.050353115,1.550772742,0.000000000,1.545926050,0.269522011,0.243323949,0.031961553,1.427810344,0.000000000,1.427617902,-0.295830011,-0.287398196,-0.057508194,-0.689692550,0.000000000,-0.688665633,-0.002965000,-0.002114920,-0.028449924,-0.004981999,0.000000000,-0.005030226
0.155985940,-0.004418000,-0.001538884,-0.023757354,-0.162859855,0.000000000,-0.172542937,-0.001031000,-0.007803046,-0.004366323,2.018002858,0.000000000,2.023681975,-0.004082000,-0.006969801,0.021495891,0.341406060,0.000000000,0.334627413,0.422302991,0.369398160,0.084426431,2.739978565,0.000000000,2.741630637,-0.402767003,-0.394614045,-0.043990894,-0.699803516,0.000000000,-0.698912550,0.000000000,0.000104533,0.000216416,-0.011195827,0.000000000,-0.011179913,-0.001737000,-0.001344219,-0.011972999,0.026877630,0.000000000,0.025840040,-0.002237000,0.000060537,-0.011035860,-0.407403563,0.000000000,-0.403443172,0.071462996,0.062068207,0.049900407,1.545926050,0.000000000,1.541724605,0.269351006,0.243383772,0.029911567,1.427617902,0.000000000,1.427608895,-0.295938998,-0.287513619,-0.057711551,-0.688665633,0.000000000,-0.687437036,-0.003021000,-0.002171763,-0.028421571,-0.005030226,0.000000000,-0.005025620
0.157985760,-0.004616000,-0.001588707,-0.024912741,-0.172542937,0.000000000,-0.181803711,-0.001050000,-0.007812514,-0.004734122,2.023681975,0.000000000,2.029291881,-0.004051000,-0.006926517,0.021641959,0.334627413,0.000000000,0.327831913,0.422226995,0.369562286,0.082062763,2.741630637,0.000000000,2.743264319,-0.402846992,-0.394702132,-0.044043359,-0.698912550,0.000000000,-0.697945040,0.000000000,0.000104923,0.000195118,-0.011179913,0.000000000,-0.011158803,-0.001772000,-0.001368174,-0.011977377,0.025840040,0.000000000,0.024687420,-0.002257000,0.000039409,-0.011201909,-0.403443172,0.000000000,-0.399366867,0.071512997,0.062167071,0.049432168,1.541724605,0.000000000,1.538426529,0.269183993,0.243439526,0.027876762,1.427608895,0.000000000,1.428001295,-0.296043009,-0.287629239,-0.057809964,-0.687437036,0.000000000,-0.685983900,-0.003078000,-0.002228570,-0.028403505,-0.005025620,0.000000000,-0.005096487
0.159985580,-0.004813000,-0.001640935,-0.026115412,-0.181803711,0.000000000,-0.190434087,-0.001069000,-0.007822718,-0.005101920,2.029291881,0.000000000,2.035110846,-0.004021000,-0.006882973,0.021772232,0.327831913,0.000000000,0.321035299,0.422147989,0.369721738,0.079725950,2.743264319,0.000000000,2.744812191,-0.402925014,-0.394790215,-0.044041368,-0.697945040,0.000000000,-0.696933961,0.000000000,0.000105270,0.000173531,-0.011158803,0.000000000,-0.011132507,-0.001808000,-0.001392175,-0.012000733,0.024687420,0.000000000,0.023540506,-0.002277000,0.000020897,-0.011364552,-0.399366867,0.000000000,-0.396110828,0.071562998,0.062264969,0.048949161,1.538426529,0.000000000,1.535737095,0.269019991,0.243491239,0.025856438,1.428001295,0.000000000,1.428736113,-0.296144009,-0.287744811,-0.057785834,-0.685983900,0.000000000,-0.684579824,-0.003135000,-0.002285391,-0.028410702,-0.005096487,0.000000000,-0.005094075
0.161985400,-0.005009000,-0.001695655,-0.027361209,-0.190434087,0.000000000,-0.198448424,-0.001090000,-0.007833656,-0.005469039,2.035110846,0.000000000,2.040554645,-0.003991000,-0.006839200,0.021886496,0.321035299,0.000000000,0.314535985,0.422066987,0.369876569,0.077415562,2.744812191,0.000000000,2.746337987,-0.402999014,-0.394878177,-0.043981151,-0.696933961,0.000000000,-0.695693974,0.000000000,0.000105571,0.000150169,-0.011132507,0.000000000,-0.011096441,-0.001845000,-0.001416266,-0.012045596,0.023540506,0.000000000,0.022418199,-0.002296000,-0.000018966,-0.011525916,-0.396110828,0.000000000,-0.386530857,0.071615003,0.062361869,0.048449716,1.535737095,0.000000000,1.534273084,0.268860996,0.243538953,0.023857312,1.428736113,0.000000000,1.429889060,-0.296238989,-0.287860110,-0.057649408,-0.684579824,0.000000000,-0.682914161,-0.003194000,-0.002342242,-0.028425174,-0.005094075,0.000000000,-0.005270208
0.163985219,-0.005203000,-0.001752946,-0.028646735,-0.198448424,0.000000000,-0.205750808,-0.001112000,-0.007845326,-0.005835087,2.040554645,0.000000000,2.045898088,-0.003963000,-0.006795229,0.021985488,0.314535985,0.000000000,0.307757199,0.421983987,0.370026826,0.075128683,2.746337987,0.000000000,2.747859455,-0.403070003,-0.394965867,-0.043845152,-0.695693974,0.000000000,-0.694392714,0.000000000,0.000105824,0.000126645,-0.011096441,0.000000000,-0.011055160,-0.001884000,-0.001440451,-0.012092696,0.022418199,0.000000000,0.021105388,-0.002315000,-0.000036946,-0.011673503,-0.386530857,0.000000000,-0.383482468,0.071667999,0.062457744,0.047937878,1.534273084,0.000000000,1.533662022,0.268707991,0.243582696,0.021871135,1.429889060,0.000000000,1.431579262,-0.296328992,-0.287974858,-0.057374237,-0.682914161,0.000000000,-0.681195573,-0.003253000,-0.002399268,-0.028513074,-0.005270208,0.000000000,-0.005219797
0.165985039,-0.005393000,-0.001812879,-0.029967266,-0.205750808,0.000000000,-0.212147386,-0.001135000,-0.007857726,-0.006200136,2.045898088,0.000000000,2.051142199,-0.003935000,-0.006751094,0.022067951,0.307757199,0.000000000,0.301305541,0.421898991,0.370172561,0.072867156,2.747859455,0.000000000,2.749360289,-0.403138012,-0.395053126,-0.043629338,-0.694392714,0.000000000,-0.693060797,0.000000000,0.000106029,0.000102665,-0.011055160,0.000000000,-0.011007736,-0.001924000,-0.001464785,-0.012167443,0.021105388,0.000000000,0.019858273,-0.002333000,-0.000059113,-0.011823147,-0.383482468,0.000000000,-0.378913163,0.071722999,0.062552564,0.047409851,1.533662022,0.000000000,1.534287028,0.268561006,0.243622516,0.019909976,1.431579262,0.000000000,1.433719642,-0.296411991,-0.288088794,-0.056968053,-0.681195573,0.000000000,-0.679223743,-0.003314000,-0.002456451,-0.028591655,-0.005219797,0.000000000,-0.005382125
0.167984859,-0.005581000,-0.001875511,-0.031317309,-0.212147386,0.000000000,-0.217876083,-0.001160000,-0.007870853,-0.006563282,2.051142199,0.000000000,2.055981259,-0.003908000,-0.006706826,0.022133993,0.301305541,0.000000000,0.294903450,0.421810001,0.370313821,0.070630331,2.749360289,0.000000000,2.750715880,-0.403203011,-0.395139788,-0.043331036,-0.693060797,0.000000000,-0.691719476,0.000000000,0.000106184,0.000077302,-0.011007736,0.000000000,-0.010951254,-0.001966000,-0.001489307,-0.012260951,0.019858273,0.000000000,0.018523992,-0.002352000,-0.000082395,-0.011968344,-0.378913163,0.000000000,-0.374411964,0.071778998,0.062646300,0.046868315,1.534287028,0.000000000,1.535809209,0.268418014,0.243658453,0.017968683,1.433719642,0.000000000,1.436216303,-0.296489000,-0.288201608,-0.056407120,-0.679223743,0.000000000,-0.677199838,-0.003376000,-0.002513882,-0.028715632,-0.005382125,0.000000000,-0.005491402
0.169984679,-0.005771000,-0.001940895,-0.032693122,-0.217876083,0.000000000,-0.223378923,-0.001188000,-0.007884702,-0.006924440,2.055981259,0.000000000,2.060127906,-0.003882000,-0.006662458,0.022183962,0.294903450,0.000000000,0.288552260,0.421716988,0.370450655,0.068416684,2.750715880,0.000000000,2.751932232,-0.403266996,-0.395225684,-0.042948167,-0.691719476,0.000000000,-0.690593563,0.000000000,0.000106288,0.000052170,-0.010951254,0.000000000,-0.010890350,-0.002013000,-0.001514057,-0.012375315,0.018523992,0.000000000,0.016799090,-0.002371000,-0.000106248,-0.012109812,-0.374411964,0.000000000,-0.369832581,0.071836002,0.062738927,0.046313513,1.535809209,0.000000000,1.538232776,0.268270999,0.243690551,0.016048979,1.436216303,0.000000000,1.438547903,-0.296564013,-0.288312989,-0.055690266,-0.677199838,0.000000000,-0.675562314,-0.003440000,-0.002571631,-0.028874403,-0.005491402,0.000000000,-0.005671774
0.171984498,-0.005962000,-0.002009081,-0.034094006,-0.223378923,0.000000000,-0.228547957,-0.001217000,-0.007899270,-0.007284304,2.060127906,0.000000000,2.064165629,-0.003856000,-0.006618022,0.022218173,0.288552260,0.000000000,0.282538076,0.421618998,0.370583107,0.066226320,2.751932232,0.000000000,2.752945428,-0.403329998,-0.395310675,-0.042495468,-0.690593563,0.000000000,-0.689658285,0.000000000,0.000106349,0.000030231,-0.010890350,0.000000000,-0.010834086,-0.002063000,-0.001539093,-0.012517996,0.016799090,0.000000000,0.014944941,-0.002391000,-0.000130511,-0.012248379,-0.369832581,0.000000000,-0.365486506,0.071893997,0.062830424,0.045748410,1.538232776,0.000000000,1.541492258,0.268119991,0.243718844,0.014146624,1.438547903,0.000000000,1.440744249,-0.296636999,-0.288422686,-0.054848566,-0.675562314,0.000000000,-0.674245046,-0.003504000,-0.002629793,-0.029080802,-0.005671774,0.000000000,-0.005675044
0.173984318,-0.006154000,-0.002080116,-0.035518359,-0.228547957,0.000000000,-0.233387138,-0.001248000,-0.007914556,-0.007642833,2.064165629,0.000000000,2.067808472,-0.003831000,-0.006573547,0.022237708,0.282538076,0.000000000,0.276560462,0.421516001,0.370711222,0.064057249,2.752945428,0.000000000,2.753765035,-0.403391987,-0.395394645,-0.041985089,-0.689658285,0.000000000,-0.688887748,0.000000000,0.000106370,0.000010412,-0.010834086,0.000000000,-0.010779847,-0.002117000,-0.001564476,-0.012691691,0.014944941,0.000000000,0.012876853,-0.002412000,-0.000155121,-0.012385489,-0.365486506,0.000000000,-0.361359169,0.071951002,0.062920775,0.045176014,1.541492258,0.000000000,1.544960434,0.267967999,0.243743358,0.012256832,1.440744249,0.000000000,1.443027919,-0.296707004,-0.288530500,-0.053906886,-0.674245046,0.000000000,-0.673101164,-0.003571000,-0.002688392,-0.029299678,-0.005675044,0.000000000,-0.005901797
0.175984138,-0.006348000,-0.002154043,-0.036964648,-0.233387138,0.000000000,-0.238007171,-0.001281000,-0.007930556,-0.008000112,2.067808472,0.000000000,2.071057645,-0.003806000,-0.006529061,0.022243174,0.276560462,0.000000000,0.270897995,0.421409994,0.370835039,0.061908420,2.753765035,0.000000000,2.754522098,-0.403452992,-0.395477500,-0.041427296,-0.688887748,0.000000000,-0.688265361,0.000000000,0.000106356,-0.000006709,-0.010779847,0.000000000,-0.010729816,-0.002175000,-0.001590278,-0.012901474,0.012876853,0.000000000,0.010631199,-0.002433000,-0.000180045,-0.012521228,-0.361359169,0.000000000,-0.357173421,0.072008997,0.063009965,0.044594885,1.544960434,0.000000000,1.549238165,0.267814010,0.243764128,0.010385141,1.443027919,0.000000000,1.445293253,-0.296775997,-0.288636267,-0.052883722,-0.673101164,0.000000000,-0.672293347,-0.003638000,-0.002747537,-0.029572574,-0.005901797,0.000000000,-0.005919810
0.177983957,-0.006543000,-0.002230905,-0.038432059,-0.238007171,0.000000000,-0.242301542,-0.001316000,-0.007947269,-0.008356442,2.071057645,0.000000000,2.073919447,-0.003782000,-0.006484590,0.022235234,0.270897995,0.000000000,0.265259077,0.421299011,0.370954597,0.059779295,2.754522098,0.000000000,2.755093705,-0.403513014,-0.395559165,-0.040832255,-0.688265361,0.000000000,-0.687769750,0.000000000,0.000106315,-0.000020757,-0.010729816,0.000000000,-0.010685683,-0.002235000,-0.001616580,-0.013150701,0.010631199,0.000000000,0.008448540,-0.002453000,-0.000205267,-0.012656228,-0.357173421,0.000000000,-0.352635522,0.072067000,0.063097979,0.044007252,1.549238165,0.000000000,1.553999203,0.267661005,0.243781188,0.008529765,1.445293253,0.000000000,1.447739131,-0.296842009,-0.288739881,-0.051806666,-0.672293347,0.000000000,-0.671555252,-0.003705000,-0.002807257,-0.029860008,-0.005919810,0.000000000,-0.005838393
0.179983777,-0.006739000,-0.002310741,-0.039919040,-0.242301542,0.000000000,-0.246274759,-0.001351000,-0.007964693,-0.008711929,2.073919447,0.000000000,2.076964271,-0.003758000,-0.006440162,0.022214376,0.265259077,0.000000000,0.259924125,0.421186000,0.371069935,0.057668794,2.755093705,0.000000000,2.755671539,-0.403571993,-0.395639580,-0.040207734,-0.687769750,0.000000000,-0.687378763,0.000000000,0.000106251,-0.000031977,-0.010685683,0.000000000,-0.010647320,-0.002300000,-0.001643453,-0.013436981,0.008448540,0.000000000,0.006003488,-0.002474000,-0.000230777,-0.012790101,-0.352635522,0.000000000,-0.348325740,0.072126001,0.063184805,0.043413038,1.553999203,0.000000000,1.559530681,0.267509997,0.243794573,0.006692911,1.447739131,0.000000000,1.450411531,-0.296905994,-0.288841248,-0.050683792,-0.671555252,0.000000000,-0.670969571,-0.003774000,-0.002867547,-0.030145082,-0.005838393,0.000000000,-0.005908196
0.181983597,-0.006935000,-0.002393587,-0.041423534,-0.246274759,0.000000000,-0.249828247,-0.001388000,-0.007982825,-0.009066182,2.076964271,0.000000000,2.079614109,-0.003735000,-0.006395801,0.022180730,0.259924125,0.000000000,0.254613342,0.421068996,0.371181089,0.055577410,2.755671539,0.000000000,2.756125456,-0.403629005,-0.395718703,-0.039561484,-0.687378763,0.000000000,-0.686981392,0.000000000,0.000106165,-0.000042843,-0.010647320,0.000000000,-0.010607769,-0.002367000,-0.001670986,-0.013766620,0.006003488,0.000000000,0.003660715,-0.002493000,-0.000256566,-0.012923335,-0.348325740,0.000000000,-0.343382335,0.072186001,0.063270430,0.042812276,1.559530681,0.000000000,1.565835593,0.267363012,0.243804329,0.004877735,1.450411531,0.000000000,1.453413290,-0.296968013,-0.288940311,-0.049531130,-0.670969571,0.000000000,-0.670502777,-0.003843000,-0.002928456,-0.030454502,-0.005908196,0.000000000,-0.005846215
0.183983417,-0.007133000,-0.002479472,-0.042943364,-0.249828247,0.000000000,-0.253184187,-0.001426000,-0.008001664,-0.009419130,2.079614109,0.000000000,2.082150774,-0.003712000,-0.006351531,0.022134789,0.254613342,0.000000000,0.249606760,0.420949012,0.371288097,0.053503615,2.756125456,0.000000000,2.756528074,-0.403683990,-0.395796486,-0.038891642,-0.686981392,0.000000000,-0.686581674,0.000000000,0.000106060,-0.000052435,-0.010607769,0.000000000,-0.010569899,-0.002437000,-0.001699257,-0.014135753,0.003660715,0.000000000,0.001300225,-0.002512000,-0.000282628,-0.013055096,-0.343382335,0.000000000,-0.338394529,0.072245002,0.063354839,0.042204572,1.565835593,0.000000000,1.572359193,0.267221004,0.243810506,0.003088621,1.453413290,0.000000000,1.456770188,-0.297028005,-0.289037036,-0.048362843,-0.670502777,0.000000000,-0.670111733,-0.003913000,-0.002989990,-0.030766668,-0.005846215,0.000000000,-0.005814440
0.185983236,-0.007330000,-0.002568425,-0.044477584,-0.253184187,0.000000000,-0.256025058,-0.001465000,-0.008021205,-0.009770885,2.082150774,0.000000000,2.084576250,-0.003689000,-0.006307377,0.022077181,0.249606760,0.000000000,0.244896871,0.420828015,0.371390989,0.051445901,2.756528074,0.000000000,2.757012342,-0.403737992,-0.395872881,-0.038197579,-0.686581674,0.000000000,-0.686291709,0.000000000,0.000105938,-0.000061016,-0.010569899,0.000000000,-0.010533171,-0.002509000,-0.001728348,-0.014545649,0.001300225,0.000000000,-0.000955584,-0.002530000,-0.000308960,-0.013185914,-0.338394529,0.000000000,-0.333067207,0.072305001,0.063438012,0.041586560,1.572359193,0.000000000,1.579751092,0.267084986,0.243813179,0.001336501,1.456770188,0.000000000,1.460463846,-0.297086000,-0.289131423,-0.047193365,-0.670111733,0.000000000,-0.669758660,-0.003982000,-0.003052163,-0.031086804,-0.005814440,0.000000000,-0.005594187
0.187983056,-0.007529000,-0.002660470,-0.046023108,-0.256025058,0.000000000,-0.258685699,-0.001505000,-0.008041448,-0.010121063,2.084576250,0.000000000,2.086880824,-0.003667000,-0.006263362,0.022007711,0.244896871,0.000000000,0.240210499,0.420704007,0.371489800,0.049405910,2.757012342,0.000000000,2.757438217,-0.403789014,-0.395947857,-0.037487839,-0.686291709,0.000000000,-0.685888579,0.000000000,0.000105799,-0.000069639,-0.010533171,0.000000000,-0.010494580,-0.002585000,-0.001758334,-0.014993251,-0.000955584,0.000000000,-0.003329087,-0.002546000,-0.000335557,-0.013315337,-0.333067207,0.000000000,-0.327127742,0.072365999,0.063519929,0.040959005,1.579751092,0.000000000,1.587999359,0.266957998,0.243812425,-0.000377298,1.460463846,0.000000000,1.464672021,-0.297141999,-0.289223479,-0.046027910,-0.669758660,0.000000000,-0.669427921,-0.004052000,-0.003114924,-0.031380662,-0.005594187,0.000000000,-0.005490335
0.189982876,-0.007727000,-0.002755626,-0.047578936,-0.258685699,0.000000000,-0.260849820,-0.001545000,-0.008062387,-0.010469628,2.086880824,0.000000000,2.089347109,-0.003646000,-0.006219509,0.021926681,0.240210499,0.000000000,0.235547416,0.420578003,0.371584565,0.047382111,2.757438217,0.000000000,2.757878543,-0.403838009,-0.396021364,-0.036753611,-0.685888579,0.000000000,-0.685498665,0.000000000,0.000105643,-0.000077874,-0.010494580,0.000000000,-0.010455429,-0.002662000,-0.001789294,-0.015479782,-0.003329087,0.000000000,-0.005485342,-0.002560000,-0.000362413,-0.013442305,-0.327127742,0.000000000,-0.320601723,0.072428003,0.063600570,0.040320271,1.587999359,0.000000000,1.597149531,0.266840011,0.243808334,-0.002045121,1.464672021,0.000000000,1.469332589,-0.297196001,-0.289313229,-0.044874889,-0.669427921,0.000000000,-0.669093091,-0.004122000,-0.003178270,-0.031672868,-0.005490335,0.000000000,-0.005332116
0.191982696,-0.007925000,-0.002853908,-0.049141726,-0.260849820,0.000000000,-0.262641404,-0.001586000,-0.008084019,-0.010815956,2.089347109,0.000000000,2.091675426,-0.003624000,-0.006175842,0.021833533,0.235547416,0.000000000,0.231495696,0.420450985,0.371675316,0.045375736,2.757878543,0.000000000,2.758384476,-0.403885007,-0.396093357,-0.035996244,-0.685498665,0.000000000,-0.685125816,0.000000000,0.000105468,-0.000087620,-0.010455429,0.000000000,-0.010410010,-0.002742000,-0.001821292,-0.015999184,-0.005485342,0.000000000,-0.007664735,-0.002572000,-0.000389519,-0.013565784,-0.320601723,0.000000000,-0.313514906,0.072489999,0.063679910,0.039670034,1.597149531,0.000000000,1.606927415,0.266732991,0.243801008,-0.003662941,1.469332589,0.000000000,1.474534867,-0.297248006,-0.289400706,-0.043738545,-0.669093091,0.000000000,-0.668738737,-0.004191000,-0.003242181,-0.031955625,-0.005332116,0.000000000,-0.005042516
0.193982515,-0.008124000,-0.002955326,-0.050709594,-0.262641404,0.000000000,-0.264176640,-0.001626000,-0.008106339,-0.011159929,2.091675426,0.000000000,2.094430240,-0.003603000,-0.006132384,0.021729173,0.231495696,0.000000000,0.227472575,0.420323998,0.371762087,0.043385616,2.758384476,0.000000000,2.759028169,-0.403928995,-0.396163790,-0.035216764,-0.685125816,0.000000000,-0.684669183,0.000000000,0.000105272,-0.000097867,-0.010410010,0.000000000,-0.010361096,-0.002823000,-0.001854395,-0.016551555,-0.007664735,0.000000000,-0.009646552,-0.002583000,-0.000416869,-0.013686055,-0.313514906,0.000000000,-0.306147179,0.072552003,0.063757920,0.039005476,1.606927415,0.000000000,1.617409134,0.266638011,0.243790567,-0.005220654,1.474534867,0.000000000,1.480267204,-0.297298014,-0.289485957,-0.042625459,-0.668738737,0.000000000,-0.668341444,-0.004260000,-0.003306593,-0.032205771,-0.005042516,0.000000000,-0.004795067
0.195982335,-0.008321000,-0.003059885,-0.052280356,-0.264176640,0.000000000,-0.265147409,-0.001667000,-0.008129340,-0.011500866,2.094430240,0.000000000,2.097025986,-0.003583000,-0.006089159,0.021612686,0.227472575,0.000000000,0.223505754,0.420195013,0.371844915,0.041413762,2.759028169,0.000000000,2.759665003,-0.403970987,-0.396232612,-0.034410619,-0.684669183,0.000000000,-0.684249505,0.000000000,0.000105051,-0.000110576,-0.010361096,0.000000000,-0.010302616,-0.002906000,-0.001888659,-0.017132368,-0.009646552,0.000000000,-0.011556871,-0.002590000,-0.000444453,-0.013802157,-0.306147179,0.000000000,-0.297669947,0.072616003,0.063834570,0.038324866,1.617409134,0.000000000,1.629208412,0.266557992,0.243777146,-0.006710785,1.480267204,0.000000000,1.486652412,-0.297347009,-0.289569034,-0.041538508,-0.668341444,0.000000000,-0.667987149,-0.004328000,-0.003371458,-0.032432501,-0.004795067,0.000000000,-0.004467317
0.197982155,-0.008519000,-0.003167585,-0.053850621,-0.265147409,0.000000000,-0.265892839,-0.001707000,-0.008153017,-0.011838305,2.097025986,0.000000000,2.100018670,-0.003562000,-0.006046191,0.021483927,0.223505754,0.000000000,0.220173952,0.420065999,0.371923836,0.039460808,2.759665003,0.000000000,2.760412332,-0.404009014,-0.396299772,-0.033580183,-0.684249505,0.000000000,-0.683666147,0.000000000,0.000104801,-0.000124792,-0.010302616,0.000000000,-0.010236974,-0.002991000,-0.001924133,-0.017737388,-0.011556871,0.000000000,-0.013414506,-0.002595000,-0.000472260,-0.013912183,-0.297669947,0.000000000,-0.288698548,0.072679996,0.063909825,0.037627789,1.629208412,0.000000000,1.641774341,0.266492993,0.243760891,-0.008127214,1.486652412,0.000000000,1.493641447,-0.297394007,-0.289650008,-0.040487354,-0.667987149,0.000000000,-0.667541751,-0.004395000,-0.003436709,-0.032625677,-0.004467317,0.000000000,-0.004094873
0.199981975,-0.008716000,-0.003278421,-0.055418905,-0.265892839,0.000000000,-0.266208522,-0.001748000,-0.008177361,-0.012171825,2.100018670,0.000000000,2.102828062,-0.003542000,-0.006003504,0.021343667,0.220173952,0.000000000,0.216897843,0.419937998,0.371998886,0.037524785,2.760412332,0.000000000,2.761347894,-0.404044986,-0.396365200,-0.032714025,-0.683666147,0.000000000,-0.683151598,0.000000000,0.000104519,-0.000141271,-0.010236974,0.000000000,-0.010161570,-0.003078000,-0.001960863,-0.018365077,-0.013414506,0.000000000,-0.015223315,-0.002596000,-0.000500277,-0.014016171,-0.288698548,0.000000000,-0.278667120,0.072743997,0.063983649,0.036911744,1.641774341,0.000000000,1.655178467,0.266443998,0.243741969,-0.009460833,1.493641447,0.000000000,1.501221227,-0.297439009,-0.289728953,-0.039472435,-0.667541751,0.000000000,-0.666996680,-0.004462000,-0.003502266,-0.032778124,-0.004094873,0.000000000,-0.003807361
0.201981794,-0.008910000,-0.003392385,-0.056982482,-0.266208522,0.000000000,-0.265897730,-0.001789000,-0.008202363,-0.012501080,2.102828062,0.000000000,2.105728187,-0.003521000,-0.005961123,0.021190863,0.216897843,0.000000000,0.214276518,0.419806987,0.372070105,0.035609371,2.761347894,0.000000000,2.762188814,-0.404076993,-0.396428837,-0.031818717,-0.683151598,0.000000000,-0.682500299,-0.000001000,0.000104201,-0.000158831,-0.010161570,0.000000000,-0.010180609,-0.003168000,-0.001998887,-0.019011936,-0.015223315,0.000000000,-0.017105602,-0.002596000,-0.000528487,-0.014112118,-0.278667120,0.000000000,-0.268478335,0.072811998,0.064055999,0.036175189,1.655178467,0.000000000,1.670602496,0.266406000,0.243720560,-0.010704727,1.501221227,0.000000000,1.509015015,-0.297482014,-0.289805937,-0.038491716,-0.666996680,0.000000000,-0.666350808,-0.004528000,-0.003568087,-0.032910690,-0.003807361,0.000000000,-0.003448533
0.203981614,-0.009102000,-0.003509459,-0.058537592,-0.265897730,0.000000000,-0.265090056,-0.001833000,-0.008228013,-0.012825216,2.105728187,0.000000000,2.107844047,-0.003500000,-0.005919069,0.021027145,0.214276518,0.000000000,0.211995117,0.419672012,0.372137525,0.033710028,2.762188814,0.000000000,2.762905076,-0.404105991,-0.396490603,-0.030882706,-0.682500299,0.000000000,-0.681849706,-0.000002000,0.000103811,-0.000194959,-0.010180609,0.000000000,-0.010139557,-0.003265000,-0.002038242,-0.019677548,-0.017105602,0.000000000,-0.019486090,-0.002595000,-0.000556873,-0.014199710,-0.268478335,0.000000000,-0.258144093,0.072881997,0.064126850,0.035425763,1.670602496,0.000000000,1.687311288,0.266368002,0.243696810,-0.011875249,1.509015015,0.000000000,1.516435139,-0.297520995,-0.289880995,-0.037529187,-0.666350808,0.000000000,-0.665441162,-0.004595000,-0.003634106,-0.033009327,-0.003448533,0.000000000,-0.003267270
0.205981434,-0.009292000,-0.003629622,-0.060082266,-0.265090056,0.000000000,-0.263798958,-0.001880000,-0.008254303,-0.013144916,2.107844047,0.000000000,2.109188564,-0.003479000,-0.005877361,0.020853734,0.211995117,0.000000000,0.210031625,0.419533014,0.372201172,0.031823786,2.762905076,0.000000000,2.763512378,-0.404132009,-0.396550411,-0.029904332,-0.681849706,0.000000000,-0.681216111,-0.000004000,0.000103337,-0.000237301,-0.010139557,0.000000000,-0.010173342,-0.003368000,-0.002078980,-0.020369244,-0.019486090,0.000000000,-0.022211167,-0.002592000,-0.000585420,-0.014279381,-0.258144093,0.000000000,-0.247374903,0.072956003,0.064196195,0.034672781,1.687311288,0.000000000,1.705667911,0.266330987,0.243670812,-0.012998580,1.516435139,0.000000000,1.523723872,-0.297558993,-0.289954092,-0.036548391,-0.665441162,0.000000000,-0.664682302,-0.004662000,-0.003700321,-0.033107753,-0.003267270,0.000000000,-0.003066761
0.207981254,-0.009480000,-0.003752850,-0.061614213,-0.263798958,0.000000000,-0.262040002,-0.001928000,-0.008281224,-0.013460440,2.109188564,0.000000000,2.110333754,-0.003457000,-0.005836019,0.020671443,0.210031625,0.000000000,0.208656819,0.419391990,0.372261069,0.029948548,2.763512378,0.000000000,2.764150345,-0.404155999,-0.396608179,-0.028883787,-0.681216111,0.000000000,-0.680703877,-0.000008000,0.000102744,-0.000296627,-0.010173342,0.000000000,-0.010348983,-0.003476000,-0.002121162,-0.021091047,-0.022211167,0.000000000,-0.025145060,-0.002589000,-0.000614112,-0.014351278,-0.247374903,0.000000000,-0.236740405,0.073032998,0.064264042,0.033923272,1.705667911,0.000000000,1.725221331,0.266297013,0.243642632,-0.014090282,1.523723872,0.000000000,1.531117702,-0.297594011,-0.290025201,-0.035554812,-0.664682302,0.000000000,-0.663859420,-0.004729000,-0.003766730,-0.033204323,-0.003066761,0.000000000,-0.002851960
0.209981073,-0.009667000,-0.003879110,-0.063130635,-0.262040002,0.000000000,-0.259939041,-0.001977000,-0.008308766,-0.013771207,2.110333754,0.000000000,2.111263804,-0.003434000,-0.005795057,0.020480807,0.208656819,0.000000000,0.207863367,0.419247001,0.372317238,0.028084165,2.764150345,0.000000000,2.764696323,-0.404177994,-0.396663839,-0.027829963,-0.680703877,0.000000000,-0.680297465,-0.000012000,0.000101949,-0.000397193,-0.010348983,0.000000000,-0.010387051,-0.003590000,-0.002164854,-0.021846593,-0.025145060,0.000000000,-0.028366644,-0.002586000,-0.000642935,-0.014416391,-0.236740405,0.000000000,-0.226222094,0.073110998,0.064330403,0.033180989,1.725221331,0.000000000,1.745319184,0.266263992,0.243612314,-0.015158763,1.531117702,0.000000000,1.538541702,-0.297627002,-0.290094282,-0.034540124,-0.663859420,0.000000000,-0.663096834,-0.004796000,-0.003833320,-0.033295356,-0.002851960,0.000000000,-0.002634545
0.211980893,-0.009854000,-0.004008370,-0.064630398,-0.259939041,0.000000000,-0.257612552,-0.002027000,-0.008336922,-0.014077741,2.111263804,0.000000000,2.111988061,-0.003413000,-0.005754491,0.020283370,0.207863367,0.000000000,0.206767556,0.419101000,0.372369694,0.026227941,2.764696323,0.000000000,2.765354795,-0.404199004,-0.396717337,-0.026749092,-0.680297465,0.000000000,-0.680087025,-0.000018000,0.000100918,-0.000515378,-0.010387051,0.000000000,-0.010553272,-0.003707000,-0.002210138,-0.022641935,-0.028366644,0.000000000,-0.031513376,-0.002581000,-0.000671878,-0.014475886,-0.226222094,0.000000000,-0.215228374,0.073190004,0.064395297,0.032446930,1.745319184,0.000000000,1.765934218,0.266232014,0.243579903,-0.016205521,1.538541702,0.000000000,1.546009420,-0.297659010,-0.290161301,-0.033509745,-0.663096834,0.000000000,-0.662487734,-0.004863000,-0.003900080,-0.033379635,-0.002634545,0.000000000,-0.002419251
0.213980713,-0.010042000,-0.004140592,-0.066111563,-0.257612552,0.000000000,-0.255181994,-0.002077000,-0.008365681,-0.014379417,2.111988061,0.000000000,2.112774005,-0.003391000,-0.005714336,0.020077366,0.206767556,0.000000000,0.206266828,0.418951988,0.372418464,0.024385304,2.765354795,0.000000000,2.765959347,-0.404217988,-0.396768652,-0.025657229,-0.680087025,0.000000000,-0.679923724,-0.000024000,0.000099573,-0.000672946,-0.010553272,0.000000000,-0.010575676,-0.003828000,-0.002257085,-0.023473553,-0.031513376,0.000000000,-0.034704059,-0.002576000,-0.000700927,-0.014528462,-0.215228374,0.000000000,-0.204360988,0.073269002,0.064458742,0.031722454,1.765934218,0.000000000,1.786742237,0.266202986,0.243545440,-0.017231768,1.546009420,0.000000000,1.553647351,-0.297690004,-0.290226254,-0.032476482,-0.662487734,0.000000000,-0.661993281,-0.004929000,-0.003967001,-0.033460466,-0.002419251,0.000000000,-0.002096379
