sainanliu129-hub/model/applications/Body_GravityPara_Iden/data/excitation/0-260116_run_softly_轻跑步_002_leg_500Hz_PD-M1-v0_multi_joint_20260324-091332.csv
time,cmd_leg_l1_joint,pos_leg_l1_joint,vel_leg_l1_joint,torque_leg_l1_joint,acc_leg_l1_joint,cmd_torque_leg_l1_joint,cmd_leg_l2_joint,pos_leg_l2_joint,vel_leg_l2_joint,torque_leg_l2_joint,acc_leg_l2_joint,cmd_torque_leg_l2_joint,cmd_leg_l3_joint,pos_leg_l3_joint,vel_leg_l3_joint,torque_leg_l3_joint,acc_leg_l3_joint,cmd_torque_leg_l3_joint,cmd_leg_l4_joint,pos_leg_l4_joint,vel_leg_l4_joint,torque_leg_l4_joint,acc_leg_l4_joint,cmd_torque_leg_l4_joint,cmd_leg_l5_joint,pos_leg_l5_joint,vel_leg_l5_joint,torque_leg_l5_joint,acc_leg_l5_joint,cmd_torque_leg_l5_joint,cmd_leg_l6_joint,pos_leg_l6_joint,vel_leg_l6_joint,torque_leg_l6_joint,acc_leg_l6_joint,cmd_torque_leg_l6_joint,cmd_leg_r1_joint,pos_leg_r1_joint,vel_leg_r1_joint,torque_leg_r1_joint,acc_leg_r1_joint,cmd_torque_leg_r1_joint,cmd_leg_r2_joint,pos_leg_r2_joint,vel_leg_r2_joint,torque_leg_r2_joint,acc_leg_r2_joint,cmd_torque_leg_r2_joint,cmd_leg_r3_joint,pos_leg_r3_joint,vel_leg_r3_joint,torque_leg_r3_joint,acc_leg_r3_joint,cmd_torque_leg_r3_joint,cmd_leg_r4_joint,pos_leg_r4_joint,vel_leg_r4_joint,torque_leg_r4_joint,acc_leg_r4_joint,cmd_torque_leg_r4_joint,cmd_leg_r5_joint,pos_leg_r5_joint,vel_leg_r5_joint,torque_leg_r5_joint,acc_leg_r5_joint,cmd_torque_leg_r5_joint,cmd_leg_r6_joint,pos_leg_r6_joint,vel_leg_r6_joint,torque_leg_r6_joint,acc_leg_r6_joint,cmd_torque_leg_r6_joint
0.000000000,0.000000000,-0.000191819,0.002454006,0.006570394,0.000000000,0.006568970,0.000000000,-0.009034656,0.030527389,1.875339189,0.000000000,1.877556888,-0.006823000,-0.008027701,-0.018827783,0.763122392,0.000000000,0.768295746,0.424885005,0.337000722,0.381215499,2.835257074,0.000000000,2.841531104,-0.396259993,-0.378078295,-0.410801427,-0.669584777,0.000000000,-0.669624961,0.000000000,0.000043796,0.000057379,-0.004613855,0.000000000,-0.004589353,0.000000000,0.000007505,0.000041443,-0.001152871,0.000000000,-0.001034306,0.000000000,0.001007335,-0.004007968,-0.195431671,0.000000000,-0.195673565,0.065402001,0.054629288,0.029784269,2.382566660,0.000000000,2.388399448,0.276596010,0.224169767,0.225354079,1.705168366,0.000000000,1.709686893,-0.291951001,-0.276869216,-0.307995468,-0.648556648,0.000000000,-0.648609538,0.000000000,0.000005266,-0.000056054,-0.000370975,0.000000000,-0.000372864
0.001999820,-0.000031000,-0.000186897,0.002462339,0.006568970,0.000000000,0.002692818,0.000016000,-0.008973630,0.030513083,1.877556888,0.000000000,1.865082032,-0.006821000,-0.008065329,-0.018814158,0.768295746,0.000000000,0.779251717,0.424870014,0.337763210,0.381244103,2.841531104,0.000000000,2.792218341,-0.396315992,-0.378899896,-0.410800618,-0.669624961,0.000000000,-0.592251630,0.000000000,0.000043909,0.000056448,-0.004589353,0.000000000,-0.004598115,-0.000017000,0.000007511,0.000026737,-0.001034306,0.000000000,-0.002763838,-0.000004000,0.000999319,-0.004008273,-0.195673565,0.000000000,-0.194525252,0.065428004,0.054688888,0.029799893,2.388399448,0.000000000,2.378496241,0.276553988,0.224620526,0.225379233,1.709686893,0.000000000,1.678381667,-0.291940987,-0.277485203,-0.307993608,-0.648609538,0.000000000,-0.585348056,0.000004000,0.000005161,-0.000056604,-0.000372864,0.000000000,0.000043582
0.003999639,-0.000061000,-0.000182146,0.002376499,0.002692818,0.000000000,-0.000525920,0.000031000,-0.008912687,0.030471610,1.865082032,0.000000000,1.852960957,-0.006816000,-0.008102126,-0.018398414,0.779251717,0.000000000,0.781728466,0.424854010,0.338522676,0.379732708,2.792218341,0.000000000,2.753978820,-0.396375000,-0.379709077,-0.404590393,-0.592251630,0.000000000,-0.534091148,0.000000000,0.000044219,0.000155045,-0.004598115,0.000000000,-0.004909765,-0.000034000,0.000007550,0.000147691,-0.002763838,0.000000000,-0.005264093,-0.000010000,0.000991387,-0.003966325,-0.194525252,0.000000000,-0.194924945,0.065458000,0.054749746,0.030429401,2.378496241,0.000000000,2.355484911,0.276510000,0.225066930,0.223202131,1.678381667,0.000000000,1.662880871,-0.291929990,-0.278087606,-0.301201297,-0.585348056,0.000000000,-0.542665359,0.000007000,0.000005184,0.000012478,0.000043582,0.000000000,0.000148094
0.005999459,-0.000091000,-0.000177708,0.002220001,-0.000525920,0.000000000,-0.003311733,0.000045000,-0.008851882,0.030402701,1.852960957,0.000000000,1.841215417,-0.006810000,-0.008137518,-0.017696253,0.781728466,0.000000000,0.777611910,0.424836993,0.339276819,0.377071852,2.753978820,0.000000000,2.724181816,-0.396436006,-0.380496522,-0.393722723,-0.534091148,0.000000000,-0.491570266,0.000000000,0.000044780,0.000280462,-0.004909765,0.000000000,-0.005323012,-0.000051000,0.000007669,0.000292368,-0.005264093,0.000000000,-0.007907032,-0.000016000,0.000983490,-0.003948689,-0.194924945,0.000000000,-0.194784746,0.065490000,0.054812360,0.031307326,2.355484911,0.000000000,2.326925224,0.276464999,0.225506792,0.219931081,1.662880871,0.000000000,1.655505078,-0.291918993,-0.278667841,-0.290117694,-0.542665359,0.000000000,-0.514423135,0.000010000,0.000005371,0.000101148,0.000148094,0.000000000,0.000180256
0.007999279,-0.000120000,-0.000173693,0.002008291,-0.003311733,0.000000000,-0.005633606,0.000057000,-0.008791258,0.030311779,1.841215417,0.000000000,1.829450979,-0.006802000,-0.008171084,-0.016783096,0.777611910,0.000000000,0.768772207,0.424820006,0.340023925,0.373552744,2.724181816,0.000000000,2.700931713,-0.396499991,-0.381255378,-0.379427635,-0.491570266,0.000000000,-0.461984197,0.000000000,0.000045596,0.000407973,-0.005323012,0.000000000,-0.005767987,-0.000069000,0.000007912,0.000407370,-0.007907032,0.000000000,-0.010501889,-0.000024000,0.000975587,-0.003952124,-0.194784746,0.000000000,-0.194734503,0.065523997,0.054876894,0.032267059,2.326925224,0.000000000,2.296537096,0.276419014,0.225939066,0.216136692,1.655505078,0.000000000,1.652266402,-0.291909009,-0.279220456,-0.276307306,-0.514423135,0.000000000,-0.496827059,0.000013000,0.000005735,0.000194448,0.000180256,0.000000000,0.000181424
0.009999099,-0.000148000,-0.000170187,0.001754105,-0.005633606,0.000000000,-0.007554521,0.000069000,-0.008730855,0.030201656,1.829450979,0.000000000,1.818183449,-0.006792000,-0.008202526,-0.015720587,0.768772207,0.000000000,0.756518780,0.424802989,0.340762745,0.369409900,2.700931713,0.000000000,2.682636606,-0.396566004,-0.381980824,-0.362723415,-0.461984197,0.000000000,-0.442828527,0.000000000,0.000046645,0.000524750,-0.005767987,0.000000000,-0.006206047,-0.000088000,0.000008284,0.000464974,-0.010501889,0.000000000,-0.012892483,-0.000033000,0.000967657,-0.003965680,-0.194734503,0.000000000,-0.194731926,0.065560997,0.054943336,0.033221188,2.296537096,0.000000000,2.266586739,0.276371002,0.226363360,0.212147297,1.652266402,0.000000000,1.650789807,-0.291898012,-0.279742156,-0.260850471,-0.496827059,0.000000000,-0.486933717,0.000015000,0.000006284,0.000290054,0.000181424,0.000000000,0.000056288
0.011998918,-0.000176000,-0.000167253,0.001467562,-0.007554521,0.000000000,-0.009231387,0.000079000,-0.008670705,0.030074818,1.818183449,0.000000000,1.806797613,-0.006781000,-0.008231638,-0.014556346,0.756518780,0.000000000,0.741586592,0.424784988,0.341492397,0.364826198,2.682636606,0.000000000,2.667992057,-0.396634012,-0.382669681,-0.344428107,-0.442828527,0.000000000,-0.432096155,0.000000000,0.000047893,0.000624128,-0.006206047,0.000000000,-0.006614728,-0.000106000,0.000008731,0.000455056,-0.012892483,0.000000000,-0.014802789,-0.000043000,0.000959693,-0.003982362,-0.194731926,0.000000000,-0.194933424,0.065600999,0.055011584,0.034124135,2.266586739,0.000000000,2.238134203,0.276322007,0.226779661,0.208150447,1.650789807,0.000000000,1.649809002,-0.291887999,-0.280231159,-0.244501438,-0.486933717,0.000000000,-0.482980917,0.000017000,0.000006983,0.000365528,0.000056288,0.000000000,-0.000026789
0.013998738,-0.000202000,-0.000164944,0.001155543,-0.009231387,0.000000000,-0.010484516,0.000089000,-0.008610840,0.029932460,1.806797613,0.000000000,1.795843759,-0.006769000,-0.008258292,-0.013326934,0.741586592,0.000000000,0.724765719,0.424766988,0.342212284,0.359943592,2.667992057,0.000000000,2.656088944,-0.396703988,-0.383320078,-0.325198821,-0.432096155,0.000000000,-0.428104688,0.000000000,0.000049307,0.000707031,-0.006614728,0.000000000,-0.006993332,-0.000125000,0.000009161,0.000380133,-0.014802789,0.000000000,-0.016450167,-0.000055000,0.000951692,-0.004001014,-0.194933424,0.000000000,-0.195648258,0.065641999,0.055081485,0.034950526,2.238134203,0.000000000,2.211227275,0.276271999,0.227188183,0.204260912,1.649809002,0.000000000,1.648492754,-0.291877002,-0.280686820,-0.227830567,-0.482980917,0.000000000,-0.483213393,0.000018000,0.000007812,0.000429681,-0.000026789,0.000000000,-0.000191916
0.015998558,-0.000228000,-0.000163295,0.000824955,-0.010484516,0.000000000,-0.011562205,0.000097000,-0.008551288,0.029776072,1.795843759,0.000000000,1.784727660,-0.006755000,-0.008282413,-0.012060449,0.724765719,0.000000000,0.706954791,0.424748003,0.342922029,0.354872256,2.656088944,0.000000000,2.646105858,-0.396777004,-0.383931197,-0.305559575,-0.428104688,0.000000000,-0.429555639,0.000000000,0.000050854,0.000773129,-0.006993332,0.000000000,-0.007337516,-0.000145000,0.000009461,0.000242089,-0.016450167,0.000000000,-0.017833274,-0.000067000,0.000943648,-0.004022729,-0.195648258,0.000000000,-0.196281512,0.065686002,0.055152864,0.035689469,2.211227275,0.000000000,2.186731701,0.276219994,0.227589259,0.200538254,1.648492754,0.000000000,1.646334514,-0.291866988,-0.281109278,-0.211228970,-0.483213393,0.000000000,-0.486703997,0.000019000,0.000008724,0.000469074,-0.000191916,0.000000000,-0.000295011
0.017998378,-0.000252000,-0.000162336,0.000479365,-0.011562205,0.000000000,-0.012268238,0.000104000,-0.008492076,0.029606150,1.784727660,0.000000000,1.773730049,-0.006740000,-0.008303966,-0.010776654,0.706954791,0.000000000,0.688306708,0.424728990,0.343621417,0.349693996,2.646105858,0.000000000,2.637535073,-0.396851003,-0.384503057,-0.285929883,-0.429555639,0.000000000,-0.435046571,0.000000000,0.000052506,0.000826321,-0.007337516,0.000000000,-0.007655761,-0.000164000,0.000009529,0.000048006,-0.017833274,0.000000000,-0.018768284,-0.000080000,0.000935555,-0.004047311,-0.196281512,0.000000000,-0.197120185,0.065732002,0.055225552,0.036343813,2.186731701,0.000000000,2.164345247,0.276167989,0.227983258,0.196999058,1.646334514,0.000000000,1.643319329,-0.291855991,-0.281499245,-0.194983355,-0.486703997,0.000000000,-0.492366877,0.000020000,0.000009690,0.000494082,-0.000295011,0.000000000,-0.000362673
0.019998197,-0.000276000,-0.000162090,0.000123116,-0.012268238,0.000000000,-0.012838097,0.000111000,-0.008433229,0.029423454,1.773730049,0.000000000,1.763125226,-0.006724000,-0.008322948,-0.009490675,0.688306708,0.000000000,0.669162450,0.424708992,0.344310357,0.344470257,2.637535073,0.000000000,2.629885346,-0.396926999,-0.385036300,-0.266621350,-0.435046571,0.000000000,-0.443729085,0.000000000,0.000054242,0.000868169,-0.007655761,0.000000000,-0.007950213,-0.000184000,0.000009306,-0.000190519,-0.018768284,0.000000000,-0.019527512,-0.000093000,0.000927407,-0.004074692,-0.197120185,0.000000000,-0.197880023,0.065779001,0.055299393,0.036920386,2.164345247,0.000000000,2.143673893,0.276113987,0.228370539,0.193640877,1.643319329,0.000000000,1.639315600,-0.291846007,-0.281857800,-0.179277365,-0.492366877,0.000000000,-0.499772662,0.000021000,0.000010694,0.000511507,-0.000362673,0.000000000,-0.000412653
0.021998017,-0.000298000,-0.000162573,-0.000241433,-0.012838097,0.000000000,-0.013070163,0.000116000,-0.008374772,0.029228707,1.763125226,0.000000000,1.752335192,-0.006707000,-0.008339374,-0.008213091,0.669162450,0.000000000,0.649765964,0.424688995,0.344988849,0.339245944,2.629885346,0.000000000,2.622899695,-0.397004992,-0.385532056,-0.247878280,-0.443729085,0.000000000,-0.454794326,0.000000000,0.000056042,0.000899924,-0.007950213,0.000000000,-0.008222390,-0.000205000,0.000008791,-0.000466845,-0.019527512,0.000000000,-0.020148454,-0.000108000,0.000919198,-0.004104822,-0.197880023,0.000000000,-0.199129026,0.065828003,0.055374248,0.037427504,2.143673893,0.000000000,2.124854949,0.276059002,0.228751446,0.190453281,1.639315600,0.000000000,1.634439926,-0.291835994,-0.282186306,-0.164252916,-0.499772662,0.000000000,-0.508274703,0.000022000,0.000011726,0.000523918,-0.000412653,0.000000000,-0.000451180
0.023997837,-0.000319000,-0.000163795,-0.000611474,-0.013070163,0.000000000,-0.013085746,0.000121000,-0.008316727,0.029022113,1.752335192,0.000000000,1.741930598,-0.006690000,-0.008353277,-0.006951469,0.649765964,0.000000000,0.630013323,0.424668998,0.345656957,0.334053861,2.622899695,0.000000000,2.616340863,-0.397085011,-0.385991821,-0.229882642,-0.454794326,0.000000000,-0.467576892,0.000000000,0.000057891,0.000924526,-0.008222390,0.000000000,-0.008479206,-0.000225000,0.000008096,-0.000775869,-0.020148454,0.000000000,-0.020458607,-0.000123000,0.000910924,-0.004137985,-0.199129026,0.000000000,-0.200290603,0.065879002,0.055450000,0.037876409,2.124854949,0.000000000,2.107665083,0.276003003,0.229126275,0.187414417,1.634439926,0.000000000,1.628826960,-0.291826010,-0.282486286,-0.149990279,-0.508274703,0.000000000,-0.517496834,0.000022000,0.000012784,0.000535610,-0.000451180,0.000000000,-0.000591323
0.025997657,-0.000339000,-0.000165763,-0.000984742,-0.013085746,0.000000000,-0.012896954,0.000124000,-0.008259119,0.028804346,1.741930598,0.000000000,1.731334021,-0.006671000,-0.008364700,-0.005711617,0.630013323,0.000000000,0.610616855,0.424647987,0.346314793,0.328918056,2.616340863,0.000000000,2.609966807,-0.397166014,-0.386417353,-0.212765733,-0.467576892,0.000000000,-0.481420464,0.000000000,0.000059775,0.000942129,-0.008479206,0.000000000,-0.008719680,-0.000246000,0.000007552,-0.001106938,-0.020458607,0.000000000,-0.020766896,-0.000138000,0.000902580,-0.004172627,-0.200290603,0.000000000,-0.201399048,0.065931000,0.055526556,0.038277956,2.107665083,0.000000000,2.091601919,0.275945991,0.229495276,0.184500804,1.628826960,0.000000000,1.622627778,-0.291815996,-0.282759361,-0.136537277,-0.517496834,0.000000000,-0.527133416,0.000022000,0.000013824,0.000525512,-0.000591323,0.000000000,-0.000667708
0.027997476,-0.000357000,-0.000168482,-0.001360130,-0.012896954,0.000000000,-0.012403015,0.000127000,-0.008201968,0.028575351,1.731334021,0.000000000,1.721121583,-0.006653000,-0.008373691,-0.004495343,0.610616855,0.000000000,0.590777825,0.424627006,0.346962492,0.323849623,2.609966807,0.000000000,2.603756051,-0.397249013,-0.386810567,-0.196607195,-0.481420464,0.000000000,-0.496007316,0.000000000,0.000061687,0.000955610,-0.008719680,0.000000000,-0.008951161,-0.000267000,-0.000007793,-0.001457589,-0.020766896,0.000000000,-0.019386776,-0.000154000,0.000894163,-0.004209205,-0.201399048,0.000000000,-0.202727152,0.065985002,0.055603837,0.038640201,2.091601919,0.000000000,2.076791474,0.275887996,0.229858664,0.181693682,1.622627778,0.000000000,1.615964163,-0.291806012,-0.283007198,-0.123918844,-0.527133416,0.000000000,-0.536950893,0.000022000,0.000014826,0.000505614,-0.000667708,0.000000000,-0.000712401
0.029997296,-0.000374000,-0.000171950,-0.001735026,-0.012403015,0.000000000,-0.011725379,0.000129000,-0.008145296,0.028335807,1.721121583,0.000000000,1.710999694,-0.006634000,-0.008380303,-0.003306060,0.590777825,0.000000000,0.571157540,0.424605995,0.347600213,0.318860680,2.603756051,0.000000000,2.597608654,-0.397332996,-0.387173496,-0.181464528,-0.496007316,0.000000000,-0.510866231,0.000000000,0.000063615,0.000964115,-0.008951161,0.000000000,-0.009170212,-0.000289000,-0.000009403,-0.001788086,-0.019386776,0.000000000,-0.019691173,-0.000170000,0.000885677,-0.004243969,-0.202727152,0.000000000,-0.204076544,0.066040002,0.055681785,0.038974082,2.076791474,0.000000000,2.062716556,0.275828987,0.230216597,0.178966586,1.615964163,0.000000000,1.609012235,-0.291795999,-0.283231471,-0.112136192,-0.536950893,0.000000000,-0.546770862,0.000023000,0.000015777,0.000479521,-0.000712401,0.000000000,-0.000633305
0.031997116,-0.000390000,-0.000176164,-0.002108293,-0.011725379,0.000000000,-0.010870831,0.000130000,-0.008089125,0.028085837,1.710999694,0.000000000,1.700971504,-0.006614000,-0.008384591,-0.002144200,0.571157540,0.000000000,0.551781310,0.424584001,0.348228122,0.313954265,2.597608654,0.000000000,2.591432347,-0.397419006,-0.387508213,-0.167358501,-0.510866231,0.000000000,-0.525834044,0.000000000,0.000065553,0.000969124,-0.009170212,0.000000000,-0.009380338,-0.000311000,-0.000012448,-0.002135044,-0.019691173,0.000000000,-0.019749602,-0.000187000,0.000877115,-0.004281961,-0.204076544,0.000000000,-0.205615587,0.066096000,0.055760351,0.039283027,2.062716556,0.000000000,2.049313842,0.275768995,0.230569217,0.176309939,1.609012235,0.000000000,1.601833049,-0.291785985,-0.283433840,-0.101184508,-0.546770862,0.000000000,-0.556442050,0.000023000,0.000016721,0.000475249,-0.000633305,0.000000000,-0.000716539
0.033996936,-0.000404000,-0.000181119,-0.002478934,-0.010870831,0.000000000,-0.009738953,0.000130000,-0.008033473,0.027825652,1.700971504,0.000000000,1.691038016,-0.006594000,-0.008386610,-0.001009548,0.551781310,0.000000000,0.532375485,0.424562007,0.348846383,0.309130653,2.591432347,0.000000000,2.585276852,-0.397507012,-0.387816808,-0.154297239,-0.525834044,0.000000000,-0.540673464,0.000000000,0.000067496,0.000971454,-0.009380338,0.000000000,-0.009583320,-0.000333000,-0.000016692,-0.002491116,-0.019749602,0.000000000,-0.019628599,-0.000204000,0.000868473,-0.004321756,-0.205615587,0.000000000,-0.207091210,0.066152997,0.055839497,0.039572768,2.049313842,0.000000000,2.036464555,0.275707990,0.230916632,0.173707870,1.601833049,0.000000000,1.594530631,-0.291776001,-0.283615925,-0.091042818,-0.556442050,0.000000000,-0.565863379,0.000022000,0.000017637,0.000460906,-0.000716539,0.000000000,-0.000869400
0.035996755,-0.000416000,-0.000186806,-0.002845116,-0.009738953,0.000000000,-0.008341072,0.000128000,-0.007978362,0.027555555,1.691038016,0.000000000,1.680913803,-0.006572000,-0.008386415,0.000097525,0.532375485,0.000000000,0.513532458,0.424539000,0.349455163,0.304390109,2.585276852,0.000000000,2.579065771,-0.397601008,-0.388101352,-0.142272181,-0.540673464,0.000000000,-0.555602985,0.000000000,0.000069439,0.000971373,-0.009583320,0.000000000,-0.009779432,-0.000356000,-0.000021933,-0.002850644,-0.019628599,0.000000000,-0.019488480,-0.000223000,0.000859750,-0.004362347,-0.207091210,0.000000000,-0.209094281,0.066214003,0.055919193,0.039848067,2.036464555,0.000000000,2.024924816,0.275644988,0.231258926,0.171146675,1.594530631,0.000000000,1.587135120,-0.291765004,-0.283779291,-0.081682919,-0.565863379,0.000000000,-0.574851586,0.000019000,0.000018477,0.000422234,-0.000869400,0.000000000,-0.001147506
0.037996575,-0.000428000,-0.000193215,-0.003205692,-0.008341072,0.000000000,-0.006898047,0.000125000,-0.007923811,0.027275445,1.680913803,0.000000000,1.670891047,-0.006546000,-0.008384059,0.001178201,0.513532458,0.000000000,0.495809274,0.424515009,0.350054625,0.299730834,2.579065771,0.000000000,2.572803516,-0.397702008,-0.388363931,-0.131289267,-0.555602985,0.000000000,-0.570497484,0.000000000,0.000071379,0.000970329,-0.009779432,0.000000000,-0.009972593,-0.000379000,-0.000028054,-0.003212065,-0.019488480,0.000000000,-0.019243846,-0.000244000,0.000850945,-0.004403391,-0.209094281,0.000000000,-0.211632258,0.066279002,0.055999428,0.040117735,2.024924816,0.000000000,2.014494254,0.275579005,0.231596130,0.168602197,1.587135120,0.000000000,1.579753979,-0.291752994,-0.283925402,-0.073055253,-0.574851586,0.000000000,-0.583399556,0.000012000,0.000019149,0.000338196,-0.001147506,0.000000000,-0.001684044
0.039996395,-0.000438000,-0.000200334,-0.003561049,-0.006898047,0.000000000,-0.005195596,0.000120000,-0.007869841,0.026985361,1.670891047,0.000000000,1.660690323,-0.006518000,-0.008379588,0.002235241,0.495809274,0.000000000,0.478588304,0.424488991,0.350644919,0.295147223,2.572803516,0.000000000,2.566454483,-0.397810012,-0.388606620,-0.121344533,-0.570497484,0.000000000,-0.585158377,0.000000000,0.000073317,0.000968693,-0.009972593,0.000000000,-0.010163743,-0.000403000,-0.000034988,-0.003572000,-0.019243846,0.000000000,-0.019027500,-0.000267000,0.000842058,-0.004444364,-0.211632258,0.000000000,-0.214717045,0.066347003,0.056080204,0.040388009,2.014494254,0.000000000,2.004749828,0.275510013,0.231928243,0.166056464,1.579753979,0.000000000,1.572513230,-0.291741014,-0.284055630,-0.065114226,-0.583399556,0.000000000,-0.591603545,0.000002000,0.000019471,0.000161585,-0.001684044,0.000000000,-0.002225096
0.041996215,-0.000448000,-0.000208151,-0.003910086,-0.005195596,0.000000000,-0.003454493,0.000114000,-0.007816470,0.026685255,1.660690323,0.000000000,1.650602665,-0.006487000,-0.008373048,0.003270280,0.478588304,0.000000000,0.462129239,0.424463004,0.351226188,0.290634469,2.566454483,0.000000000,2.560173780,-0.397922993,-0.388831459,-0.112419876,-0.585158377,0.000000000,-0.599226132,0.000000000,0.000075251,0.000967115,-0.010163743,0.000000000,-0.010354737,-0.000427000,-0.000042700,-0.003931525,-0.019027500,0.000000000,-0.018730571,-0.000291000,0.000833087,-0.004486437,-0.214717045,0.000000000,-0.218037292,0.066418998,0.056161527,0.040661244,2.004749828,0.000000000,1.995918246,0.275438994,0.232255247,0.163502083,1.572513230,0.000000000,1.565528645,-0.291729003,-0.284171288,-0.057828699,-0.591603545,0.000000000,-0.599413559,-0.000012000,0.000019260,-0.000106152,-0.002225096,0.000000000,-0.002857500
0.043996034,-0.000457000,-0.000216653,-0.004252865,-0.003454493,0.000000000,-0.001569106,0.000107000,-0.007763720,0.026375224,1.650602665,0.000000000,1.640631489,-0.006453000,-0.008364477,0.004285437,0.462129239,0.000000000,0.446395434,0.424436003,0.351798559,0.286185520,2.560173780,0.000000000,2.553937583,-0.398039013,-0.389040403,-0.104471915,-0.599226132,0.000000000,-0.612430884,0.000000000,0.000077182,0.000965375,-0.010354737,0.000000000,-0.010544920,-0.000452000,-0.000051164,-0.004288278,-0.018730571,0.000000000,-0.018475749,-0.000318000,0.000824031,-0.004528956,-0.218037292,0.000000000,-0.222176043,0.066494003,0.056243408,0.040940648,1.995918246,0.000000000,1.987643861,0.275366008,0.232577108,0.160930307,1.565528645,0.000000000,1.558868344,-0.291716009,-0.284273612,-0.051162165,-0.599413559,0.000000000,-0.606711887,-0.000028000,0.000018301,-0.000482060,-0.002857500,0.000000000,-0.003308950
0.045995854,-0.000466000,-0.000225827,-0.004588803,-0.001569106,0.000000000,0.000349207,0.000098000,-0.007711609,0.026055399,1.640631489,0.000000000,1.630495165,-0.006417000,-0.008353911,0.005283189,0.446395434,0.000000000,0.431056616,0.424407989,0.352362141,0.281790863,2.553937583,0.000000000,2.547806644,-0.398158014,-0.389235278,-0.097437211,-0.612430884,0.000000000,-0.624762369,0.000000000,0.000079108,0.000963224,-0.010544920,0.000000000,-0.010733499,-0.000477000,-0.000060368,-0.004645175,-0.018475749,0.000000000,-0.018141210,-0.000346000,0.000814884,-0.004574135,-0.222176043,0.000000000,-0.226513167,0.066573001,0.056325862,0.041227215,1.987643861,0.000000000,1.980179668,0.275292009,0.232893781,0.158336772,1.558868344,0.000000000,1.552626351,-0.291703999,-0.284363754,-0.045070882,-0.606711887,0.000000000,-0.613705401,-0.000047000,0.000016458,-0.000927697,-0.003308950,0.000000000,-0.003775959
0.047995674,-0.000474000,-0.000235660,-0.004917916,0.000349207,0.000000000,0.002405687,0.000088000,-0.007660158,0.025725636,1.630495165,0.000000000,1.620486870,-0.006380000,-0.008341381,0.006265006,0.431056616,0.000000000,0.415804371,0.424380004,0.352917027,0.277443233,2.547806644,0.000000000,2.541892565,-0.398279011,-0.389417783,-0.091252599,-0.624762369,0.000000000,-0.636128937,0.000000000,0.000081031,0.000961573,-0.010733499,0.000000000,-0.010923167,-0.000503000,-0.000070301,-0.005000522,-0.018141210,0.000000000,-0.017844289,-0.000375000,0.000805643,-0.004621586,-0.226513167,0.000000000,-0.231056208,0.066653997,0.056408905,0.041521636,1.980179668,0.000000000,1.972938053,0.275216013,0.233205222,0.155720386,1.552626351,0.000000000,1.546751187,-0.291691989,-0.284442815,-0.039530602,-0.613705401,0.000000000,-0.620252271,-0.000069000,0.000013591,-0.001446136,-0.003775959,0.000000000,-0.004235743
0.049995494,-0.000482000,-0.000246135,-0.005239067,0.002405687,0.000000000,0.004485615,0.000077000,-0.007609385,0.025386174,1.620486870,0.000000000,1.610606677,-0.006340000,-0.008326918,0.007231084,0.415804371,0.000000000,0.401211760,0.424351990,0.353463303,0.273137818,2.541892565,0.000000000,2.536220436,-0.398400992,-0.389589482,-0.085849614,-0.636128937,0.000000000,-0.646464842,0.000000000,0.000082950,0.000959526,-0.010923167,0.000000000,-0.011111294,-0.000529000,-0.000080959,-0.005355931,-0.017844289,0.000000000,-0.017469811,-0.000405000,0.000796301,-0.004671953,-0.231056208,0.000000000,-0.235788914,0.066737004,0.056492551,0.041822738,1.972938053,0.000000000,1.965945944,0.275139987,0.233511387,0.153082573,1.546751187,0.000000000,1.541359669,-0.291680008,-0.284511827,-0.034506202,-0.620252271,0.000000000,-0.626351088,-0.000093000,0.000009583,-0.002035019,-0.004235743,0.000000000,-0.004582023
0.051995313,-0.000490000,-0.000257236,-0.005552165,0.004485615,0.000000000,0.006586752,0.000065000,-0.007559311,0.025037119,1.610606677,0.000000000,1.600857658,-0.006300000,-0.008310552,0.008183086,0.401211760,0.000000000,0.386396159,0.424324006,0.354001036,0.268866738,2.536220436,0.000000000,2.530845701,-0.398521990,-0.389751791,-0.081154320,-0.646464842,0.000000000,-0.655638445,0.000000000,0.000084864,0.000957051,-0.011111294,0.000000000,-0.011297703,-0.000555000,-0.000092337,-0.005710906,-0.017469811,0.000000000,-0.017021021,-0.000436000,0.000786852,-0.004725794,-0.235788914,0.000000000,-0.240696719,0.066822998,0.056576808,0.042128740,1.965945944,0.000000000,1.959518263,0.275063008,0.233812241,0.150427077,1.541359669,0.000000000,1.536369079,-0.291667998,-0.284571755,-0.029963762,-0.626351088,0.000000000,-0.631994847,-0.000118000,0.000004493,-0.002671968,-0.004582023,0.000000000,-0.004783316
0.053995133,-0.000498000,-0.000268946,-0.005856516,0.006586752,0.000000000,0.008703326,0.000053000,-0.007509954,0.024678676,1.600857658,0.000000000,1.591524750,-0.006258000,-0.008292311,0.009120457,0.386396159,0.000000000,0.371947131,0.424295992,0.354530288,0.264625960,2.530845701,0.000000000,2.525789440,-0.398642004,-0.389905960,-0.077084832,-0.655638445,0.000000000,-0.663756053,0.000000000,0.000086772,0.000953857,-0.011297703,0.000000000,-0.011481424,-0.000582000,-0.000104429,-0.006064402,-0.017021021,0.000000000,-0.016611012,-0.000469000,0.000777287,-0.004783467,-0.240696719,0.000000000,-0.246053531,0.066910997,0.056661689,0.042440312,1.959518263,0.000000000,1.953357155,0.274984986,0.234107744,0.147751521,1.536369079,0.000000000,1.531793191,-0.291658014,-0.284623485,-0.025864994,-0.631994847,0.000000000,-0.637410542,-0.000146000,-0.000003288,-0.003328703,-0.004783316,0.000000000,-0.004959663
0.055994953,-0.000506000,-0.000281247,-0.006151624,0.008703326,0.000000000,0.010830553,0.000040000,-0.007461331,0.024311253,1.591524750,0.000000000,1.582319613,-0.006215000,-0.008272224,0.010043749,0.371947131,0.000000000,0.357575984,0.424268007,0.355051108,0.260409971,2.525789440,0.000000000,2.521091460,-0.398759007,-0.390053093,-0.073566467,-0.663756053,0.000000000,-0.670713778,0.000000000,0.000088670,0.000948987,-0.011481424,0.000000000,-0.011659398,-0.000608000,-0.000117237,-0.006419096,-0.016611012,0.000000000,-0.016011374,-0.000501000,0.000767597,-0.004846208,-0.246053531,0.000000000,-0.250975836,0.067001000,0.056747198,0.042754855,1.953357155,0.000000000,1.947519741,0.274908006,0.234397870,0.145062841,1.531793191,0.000000000,1.527716134,-0.291648000,-0.284667878,-0.022196658,-0.637410542,0.000000000,-0.642340989,-0.000175000,-0.000010804,-0.003998250,-0.004959663,0.000000000,-0.005227405
0.057994773,-0.000515000,-0.000294118,-0.006437007,0.010830553,0.000000000,0.012857045,0.000026000,-0.007413461,0.023935065,1.582319613,0.000000000,1.573242327,-0.006172000,-0.008250318,0.010952851,0.357575984,0.000000000,0.343008985,0.424239993,0.355563537,0.256214199,2.521091460,0.000000000,2.516777955,-0.398871988,-0.390194128,-0.070517557,-0.670713778,0.000000000,-0.676546501,0.000000000,0.000090556,0.000942901,-0.011659398,0.000000000,-0.011832680,-0.000635000,-0.000130752,-0.006769816,-0.016011374,0.000000000,-0.015465539,-0.000535000,0.000757775,-0.004912124,-0.250975836,0.000000000,-0.256357377,0.067092001,0.056833341,0.043071293,1.947519741,0.000000000,1.941743348,0.274830997,0.234682596,0.142362953,1.527716134,0.000000000,1.524057940,-0.291639000,-0.284705719,-0.018920323,-0.642340989,0.000000000,-0.646921628,-0.000205000,-0.000020121,-0.004700925,-0.005227405,0.000000000,-0.005320085
0.059994592,-0.000524000,-0.000307541,-0.006712652,0.012857045,0.000000000,0.014887247,0.000012000,-0.007366361,0.023550174,1.573242327,0.000000000,1.564580721,-0.006128000,-0.008226624,0.011846839,0.343008985,0.000000000,0.328559812,0.424214005,0.356067609,0.252035977,2.516777955,0.000000000,2.512995544,-0.398979992,-0.390329848,-0.067859644,-0.676546501,0.000000000,-0.681301861,0.000000000,0.000092428,0.000936052,-0.011832680,0.000000000,-0.012002411,-0.000662000,-0.000144970,-0.007120259,-0.015465539,0.000000000,-0.014846153,-0.000568000,0.000747810,-0.004983331,-0.256357377,0.000000000,-0.261294535,0.067184001,0.056920114,0.043386777,1.941743348,0.000000000,1.936092959,0.274753988,0.234961913,0.139658429,1.524057940,0.000000000,1.520774365,-0.291631997,-0.284737743,-0.016011961,-0.646921628,0.000000000,-0.651245790,-0.000236000,-0.000030887,-0.005400192,-0.005320085,0.000000000,-0.005376996
0.061994412,-0.000533000,-0.000321494,-0.006977768,0.014887247,0.000000000,0.016914434,-0.000002000,-0.007320046,0.023157092,1.564580721,0.000000000,1.556327821,-0.006084000,-0.008201175,0.012724693,0.328559812,0.000000000,0.313976520,0.424187988,0.356563356,0.247873860,2.512995544,0.000000000,2.509622577,-0.399082005,-0.390460885,-0.065518640,-0.681301861,0.000000000,-0.685024033,0.000000000,0.000094283,0.000927421,-0.012002411,0.000000000,-0.012165333,-0.000688000,-0.000159888,-0.007468237,-0.014846153,0.000000000,-0.014059605,-0.000602000,0.000737695,-0.005058938,-0.261294535,0.000000000,-0.266373450,0.067276999,0.057007513,0.043699252,1.936092959,0.000000000,1.930616779,0.274679005,0.235235822,0.136954571,1.520774365,0.000000000,1.517955635,-0.291626990,-0.284764651,-0.013454076,-0.651245790,0.000000000,-0.655292372,-0.000267000,-0.000043053,-0.006091913,-0.005376996,0.000000000,-0.005313909
0.063994232,-0.000543000,-0.000335955,-0.007231571,0.016914434,0.000000000,0.018825178,-0.000016000,-0.007274534,0.022756274,1.556327821,0.000000000,1.548477790,-0.006040000,-0.008174004,0.013585329,0.313976520,0.000000000,0.299293548,0.424163014,0.357050809,0.243726172,2.509622577,0.000000000,2.506736911,-0.399177015,-0.390587731,-0.063422891,-0.685024033,0.000000000,-0.687764746,0.000000000,0.000096116,0.000916631,-0.012165333,0.000000000,-0.012319935,-0.000715000,-0.000175495,-0.007811568,-0.014059605,0.000000000,-0.013332460,-0.000636000,0.000727419,-0.005139427,-0.266373450,0.000000000,-0.271296211,0.067371003,0.057095525,0.044006111,1.930616779,0.000000000,1.925379107,0.274603993,0.235504339,0.134258398,1.517955635,0.000000000,1.515421005,-0.291622996,-0.284787108,-0.011228790,-0.655292372,0.000000000,-0.658945582,-0.000300000,-0.000056547,-0.006752318,-0.005313909,0.000000000,-0.005407781
0.065994052,-0.000554000,-0.000350900,-0.007473931,0.018825178,0.000000000,0.020616294,-0.000031000,-0.007229838,0.022348118,1.548477790,0.000000000,1.540741502,-0.005996000,-0.008145150,0.014427367,0.299293548,0.000000000,0.284552418,0.424138993,0.357529994,0.239592557,2.506736911,0.000000000,2.504333653,-0.399264008,-0.390710741,-0.061505195,-0.687764746,0.000000000,-0.689576655,0.000000000,0.000097923,0.000903733,-0.012319935,0.000000000,-0.012465936,-0.000742000,-0.000191783,-0.008151065,-0.013332460,0.000000000,-0.012554408,-0.000670000,0.000716974,-0.005223859,-0.271296211,0.000000000,-0.276081809,0.067465998,0.057184139,0.044307254,1.925379107,0.000000000,1.920381159,0.274531990,0.235767477,0.131568982,1.515421005,0.000000000,1.513368233,-0.291621000,-0.284805715,-0.009303124,-0.658945582,0.000000000,-0.662338009,-0.000332000,-0.000071363,-0.007411810,-0.005407781,0.000000000,-0.005269505
0.067993871,-0.000566000,-0.000366308,-0.007704963,0.020616294,0.000000000,0.022286033,-0.000045000,-0.007185972,0.021932717,1.540741502,0.000000000,1.533689506,-0.005953000,-0.008114651,0.015249505,0.284552418,0.000000000,0.269509843,0.424116999,0.358000939,0.235472781,2.504333653,0.000000000,2.502480482,-0.399342000,-0.390830145,-0.059702049,-0.689576655,0.000000000,-0.690517754,0.000000000,0.000099703,0.000889860,-0.012465936,0.000000000,-0.012606361,-0.000769000,-0.000208744,-0.008486484,-0.012554408,0.000000000,-0.011727723,-0.000703000,0.000706350,-0.005313128,-0.276081809,0.000000000,-0.280423052,0.067561999,0.057273339,0.044599810,1.920381159,0.000000000,1.915697058,0.274461001,0.236025265,0.128894103,1.513368233,0.000000000,1.511614050,-0.291624010,-0.284821037,-0.007661259,-0.662338009,0.000000000,-0.665761469,-0.000366000,-0.000087411,-0.008026646,-0.005269505,0.000000000,-0.005335823
0.069993691,-0.000578000,-0.000382155,-0.007924182,0.022286033,0.000000000,0.023935712,-0.000063000,-0.007142951,0.021510795,1.533689506,0.000000000,1.525887869,-0.005907000,-0.008082552,0.016049363,0.269509843,0.000000000,0.255369194,0.424095988,0.358463678,0.231369401,2.502480482,0.000000000,2.501091271,-0.399416000,-0.390946056,-0.057955262,-0.690517754,0.000000000,-0.691248098,0.000000000,0.000101450,0.000873484,-0.012606361,0.000000000,-0.012736359,-0.000797000,-0.000226365,-0.008815965,-0.011727723,0.000000000,-0.010970818,-0.000738000,0.000695542,-0.005405705,-0.280423052,0.000000000,-0.285205373,0.067662999,0.057363102,0.044881843,1.915697058,0.000000000,1.912511662,0.274392992,0.236277747,0.126240807,1.511614050,0.000000000,1.510229896,-0.291637003,-0.284833660,-0.006311210,-0.665761469,0.000000000,-0.669637193,-0.000407000,-0.000104683,-0.008637854,-0.005335823,0.000000000,-0.005996231
0.071993511,-0.000589000,-0.000398417,-0.008132295,0.023935712,0.000000000,0.025673552,-0.000082000,-0.007100788,0.021081564,1.525887869,0.000000000,1.518211333,-0.005858000,-0.008048898,0.016827169,0.255369194,0.000000000,0.242137959,0.424077004,0.358918245,0.227283489,2.501091271,0.000000000,2.500222081,-0.399484992,-0.391058560,-0.056252342,-0.691248098,0.000000000,-0.691691929,0.000000000,0.000103168,0.000859051,-0.012736359,0.000000000,-0.012868965,-0.000825000,-0.000244639,-0.009141487,-0.010970818,0.000000000,-0.010166763,-0.000775000,0.000684545,-0.005499769,-0.285205373,0.000000000,-0.290469105,0.067768998,0.057453410,0.045154077,1.912511662,0.000000000,1.910814211,0.274327010,0.236524975,0.123614434,1.510229896,0.000000000,1.509114169,-0.291660994,-0.284844252,-0.005296337,-0.669637193,0.000000000,-0.673876565,-0.000453000,-0.000123391,-0.009355412,-0.005996231,0.000000000,-0.006714479
0.073993331,-0.000600000,-0.000415073,-0.008328686,0.025673552,0.000000000,0.027386986,-0.000104000,-0.007059497,0.020645241,1.518211333,0.000000000,1.510090537,-0.005808000,-0.008013732,0.017582717,0.242137959,0.000000000,0.229264851,0.424057990,0.359364678,0.223216650,2.500222081,0.000000000,2.499729199,-0.399549991,-0.391167712,-0.054576005,-0.691691929,0.000000000,-0.691995419,0.000000000,0.000104859,0.000845410,-0.012868965,0.000000000,-0.013001066,-0.000855000,-0.000263555,-0.009462595,-0.010166763,0.000000000,-0.009532291,-0.000812000,0.000673357,-0.005595684,-0.290469105,0.000000000,-0.295636480,0.067878999,0.057544247,0.045418200,1.910814211,0.000000000,1.910287303,0.274262011,0.236767008,0.121016322,1.509114169,0.000000000,1.508187901,-0.291693985,-0.284853553,-0.004650303,-0.673876565,0.000000000,-0.678107528,-0.000505000,-0.000143765,-0.010187961,-0.006714479,0.000000000,-0.007543860
0.075993150,-0.000612000,-0.000432099,-0.008513626,0.027386986,0.000000000,0.028968511,-0.000128000,-0.007019094,0.020201462,1.510090537,0.000000000,1.501822168,-0.005756000,-0.007977102,0.018315157,0.229264851,0.000000000,0.217066533,0.424039990,0.359803022,0.219171964,2.499729199,0.000000000,2.499653825,-0.399612010,-0.391273550,-0.052918957,-0.691995419,0.000000000,-0.692277812,0.000000000,0.000106527,0.000834129,-0.013001066,0.000000000,-0.013137595,-0.000885000,-0.000283111,-0.009781629,-0.009532291,0.000000000,-0.008841442,-0.000851000,0.000661974,-0.005692981,-0.295636480,0.000000000,-0.301285826,0.067992002,0.057635600,0.045676891,1.910287303,0.000000000,1.910589686,0.274199009,0.237003892,0.118441773,1.508187901,0.000000000,1.507545522,-0.291736990,-0.284862295,-0.004371247,-0.678107528,0.000000000,-0.682363599,-0.000562000,-0.000166078,-0.011157299,-0.007543860,0.000000000,-0.008293696
0.077992970,-0.000623000,-0.000449473,-0.008687992,0.028968511,0.000000000,0.030634013,-0.000153000,-0.006979594,0.019750023,1.501822168,0.000000000,1.493699446,-0.005703000,-0.007939054,0.019024024,0.217066533,0.000000000,0.205282731,0.424023002,0.360233328,0.215152666,2.499653825,0.000000000,2.499969759,-0.399672002,-0.391376116,-0.051282725,-0.692277812,0.000000000,-0.692626940,0.000000000,0.000108177,0.000825147,-0.013137595,0.000000000,-0.013278846,-0.000916000,-0.000303301,-0.010098608,-0.008841442,0.000000000,-0.008201148,-0.000890000,0.000650392,-0.005792936,-0.301285826,0.000000000,-0.306818273,0.068108000,0.057727461,0.045930178,1.910589686,0.000000000,1.911721659,0.274136990,0.237235678,0.115893016,1.507545522,0.000000000,1.507103911,-0.291786999,-0.284871225,-0.004464693,-0.682363599,0.000000000,-0.686249573,-0.000623000,-0.000190568,-0.012245963,-0.008293696,0.000000000,-0.008888473
0.079992790,-0.000636000,-0.000467174,-0.008851003,0.030634013,0.000000000,0.032056881,-0.000180000,-0.006941012,0.019291254,1.493699446,0.000000000,1.485434840,-0.005649000,-0.007899638,0.019708121,0.205282731,0.000000000,0.193954498,0.424005985,0.360655655,0.211163814,2.499969759,0.000000000,2.500571305,-0.399729997,-0.391475466,-0.049675348,-0.692626940,0.000000000,-0.693017131,0.000000000,0.000109811,0.000816819,-0.013278846,0.000000000,-0.013420271,-0.000947000,-0.000324122,-0.010413569,-0.008201148,0.000000000,-0.007505047,-0.000930000,0.000638604,-0.005895621,-0.306818273,0.000000000,-0.312514874,0.068226002,0.057819823,0.046181270,1.911721659,0.000000000,1.913330222,0.274073988,0.237462400,0.113361168,1.507103911,0.000000000,1.506799845,-0.291844010,-0.284881015,-0.004895148,-0.686249573,0.000000000,-0.689798234,-0.000688000,-0.000217417,-0.013425296,-0.008888473,0.000000000,-0.009391325
0.081992610,-0.000648000,-0.000485181,-0.009004224,0.032056881,0.000000000,0.033563653,-0.000207000,-0.006903362,0.018824891,1.485434840,0.000000000,1.477607120,-0.005595000,-0.007858903,0.020367125,0.193954498,0.000000000,0.182819185,0.423988998,0.361070071,0.207208121,2.500571305,0.000000000,2.501438763,-0.399785995,-0.391571670,-0.048101932,-0.693017131,0.000000000,-0.693427004,0.000000000,0.000111431,0.000810058,-0.013420271,0.000000000,-0.013564787,-0.000977000,-0.000345567,-0.010725282,-0.007505047,0.000000000,-0.006654210,-0.000970000,0.000626605,-0.006001671,-0.312514874,0.000000000,-0.318075143,0.068346001,0.057912687,0.046431991,1.913330222,0.000000000,1.915372203,0.274010986,0.237684080,0.110840219,1.506799845,0.000000000,1.506736777,-0.291907012,-0.284892279,-0.005631780,-0.689798234,0.000000000,-0.692932944,-0.000756000,-0.000246770,-0.014677017,-0.009391325,0.000000000,-0.009738547
0.083992429,-0.000662000,-0.000503473,-0.009146663,0.033563653,0.000000000,0.034826636,-0.000235000,-0.006866659,0.018351534,1.477607120,0.000000000,1.469922464,-0.005540000,-0.007816903,0.020999908,0.182819185,0.000000000,0.172201573,0.423972011,0.361476651,0.203289543,2.501438763,0.000000000,2.502537439,-0.399841994,-0.391664803,-0.046566330,-0.693427004,0.000000000,-0.694039764,0.000000000,0.000113036,0.000802475,-0.013564787,0.000000000,-0.013705433,-0.001007000,-0.000367622,-0.011029815,-0.006654210,0.000000000,-0.005778997,-0.001011000,0.000614387,-0.006111053,-0.318075143,0.000000000,-0.323782159,0.068466000,0.058006054,0.046683665,1.915372203,0.000000000,1.917249586,0.273948014,0.237900731,0.108325390,1.506736777,0.000000000,1.506949786,-0.291976005,-0.284905554,-0.006637875,-0.692932944,0.000000000,-0.695703618,-0.000825000,-0.000278714,-0.015972434,-0.009738547,0.000000000,-0.009800748
0.085992249,-0.000677000,-0.000522031,-0.009279798,0.034826636,0.000000000,0.035958811,-0.000264000,-0.006830916,0.017871163,1.469922464,0.000000000,1.462385298,-0.005485000,-0.007773691,0.021606307,0.172201573,0.000000000,0.161835867,0.423954993,0.361875473,0.199411151,2.502537439,0.000000000,2.503838552,-0.399897009,-0.391754973,-0.045084960,-0.694039764,0.000000000,-0.694698378,0.000000000,0.000114626,0.000794716,-0.013705433,0.000000000,-0.013844008,-0.001037000,-0.000390273,-0.011328104,-0.005778997,0.000000000,-0.004875458,-0.001053000,0.000601940,-0.006225610,-0.323782159,0.000000000,-0.329591302,0.068585999,0.058099922,0.046933916,1.917249586,0.000000000,1.919016863,0.273882985,0.238112373,0.105820928,1.506949786,0.000000000,1.507275606,-0.292048991,-0.284921327,-0.007886121,-0.695703618,0.000000000,-0.697937153,-0.000896000,-0.000313226,-0.017256242,-0.009800748,0.000000000,-0.009838574
0.087992069,-0.000692000,-0.000540838,-0.009404276,0.035958811,0.000000000,0.037068573,-0.000293000,-0.006796149,0.017383915,1.462385298,0.000000000,1.455280663,-0.005430000,-0.007729319,0.022185826,0.161835867,0.000000000,0.151748824,0.423936993,0.362266624,0.195575600,2.503838552,0.000000000,2.505257579,-0.399953008,-0.391842299,-0.043662855,-0.694698378,0.000000000,-0.695575344,0.000000000,0.000116199,0.000786766,-0.013844008,0.000000000,-0.013980434,-0.001066000,-0.000413508,-0.011619600,-0.004875458,0.000000000,-0.003841551,-0.001094000,0.000589254,-0.006345168,-0.329591302,0.000000000,-0.334935187,0.068705998,0.058194289,0.047183656,1.919016863,0.000000000,1.920653740,0.273817003,0.238319015,0.103321186,1.507275606,0.000000000,1.507823430,-0.292126000,-0.284939982,-0.009327639,-0.697937153,0.000000000,-0.699736456,-0.000968000,-0.000350272,-0.018523451,-0.009838574,0.000000000,-0.009768497
0.089991889,-0.000710000,-0.000559877,-0.009519973,0.037068573,0.000000000,0.037833569,-0.000322000,-0.006762368,0.016890275,1.455280663,0.000000000,1.448601246,-0.005376000,-0.007683843,0.022738056,0.151748824,0.000000000,0.141680788,0.423918009,0.362650196,0.191785888,2.505257579,0.000000000,2.506767406,-0.400009006,-0.391926933,-0.042317001,-0.695575344,0.000000000,-0.696507565,0.000000000,0.000117754,0.000777427,-0.013980434,0.000000000,-0.014111024,-0.001094000,-0.000437306,-0.011900584,-0.003841551,0.000000000,-0.002700557,-0.001135000,0.000576321,-0.006469019,-0.334935187,0.000000000,-0.340111670,0.068824001,0.058289153,0.047432132,1.920653740,0.000000000,1.921610371,0.273748010,0.238520667,0.100825830,1.507823430,0.000000000,1.508465189,-0.292205006,-0.284961833,-0.010925748,-0.699736456,0.000000000,-0.700969347,-0.001041000,-0.000389784,-0.019756013,-0.009768497,0.000000000,-0.009648846
0.091991708,-0.000728000,-0.000579133,-0.009628630,0.037833569,0.000000000,0.038581925,-0.000351000,-0.006729587,0.016390466,1.448601246,0.000000000,1.442345524,-0.005324000,-0.007637318,0.023262554,0.141680788,0.000000000,0.131373382,0.423898011,0.363026284,0.188044056,2.506767406,0.000000000,2.508345613,-0.400068015,-0.392009037,-0.041052446,-0.696507565,0.000000000,-0.697768470,0.000000000,0.000119288,0.000766835,-0.014111024,0.000000000,-0.014235912,-0.001120000,-0.000461640,-0.012168965,-0.002700557,0.000000000,-0.001360416,-0.001176000,0.000563132,-0.006597269,-0.340111670,0.000000000,-0.345115825,0.068939999,0.058384508,0.047677807,1.921610371,0.000000000,1.921921019,0.273676008,0.238717336,0.098334244,1.508465189,0.000000000,1.509204785,-0.292286992,-0.284987097,-0.012632011,-0.700969347,0.000000000,-0.701851069,-0.001112000,-0.000431673,-0.020944747,-0.009648846,0.000000000,-0.009211376
0.093991528,-0.000748000,-0.000598592,-0.009729821,0.038581925,0.000000000,0.039096460,-0.000379000,-0.006697817,0.015884969,1.442345524,0.000000000,1.436790040,-0.005272000,-0.007589803,0.023757763,0.131373382,0.000000000,0.121446913,0.423877001,0.363394995,0.184355741,2.508345613,0.000000000,2.509945357,-0.400128007,-0.392088826,-0.039894475,-0.697768470,0.000000000,-0.699059810,0.000000000,0.000120796,0.000754310,-0.014235912,0.000000000,-0.014352770,-0.001145000,-0.000486479,-0.012421147,-0.001360416,0.000000000,0.000048522,-0.001217000,0.000549676,-0.006730688,-0.345115825,0.000000000,-0.349927301,0.069054000,0.058480345,0.047918529,1.921921019,0.000000000,1.921639300,0.273602009,0.238909034,0.095849219,1.509204785,0.000000000,1.510085558,-0.292369992,-0.285015933,-0.014417983,-0.701851069,0.000000000,-0.702247584,-0.001183000,-0.000475732,-0.022029823,-0.009211376,0.000000000,-0.008849282
0.095991348,-0.000770000,-0.000618241,-0.009824713,0.039096460,0.000000000,0.039382424,-0.000406000,-0.006667068,0.015374336,1.436790040,0.000000000,1.431925277,-0.005222000,-0.007541354,0.024224402,0.121446913,0.000000000,0.111332899,0.423853993,0.363756436,0.180720203,2.509945357,0.000000000,2.511503116,-0.400191009,-0.392166517,-0.038845242,-0.699059810,0.000000000,-0.700558298,0.000000000,0.000122275,0.000739284,-0.014352770,0.000000000,-0.014459481,-0.001169000,-0.000511787,-0.012655608,0.000048522,0.000000000,0.001513837,-0.001257000,0.000535945,-0.006868352,-0.349927301,0.000000000,-0.354280398,0.069164000,0.058576650,0.048152643,1.921639300,0.000000000,1.920236680,0.273523003,0.239095777,0.093371569,1.510085558,0.000000000,1.510910647,-0.292452008,-0.285048418,-0.016242466,-0.702247584,0.000000000,-0.702066438,-0.001252000,-0.000521784,-0.023026382,-0.008849282,0.000000000,-0.008335259
0.097991168,-0.000794000,-0.000638068,-0.009914159,0.039382424,0.000000000,0.039443476,-0.000432000,-0.006637350,0.014859147,1.431925277,0.000000000,1.427740701,-0.005174000,-0.007492030,0.024661842,0.111332899,0.000000000,0.101062300,0.423828989,0.364110716,0.177140014,2.511503116,0.000000000,2.512993613,-0.400258005,-0.392242357,-0.037920096,-0.700558298,0.000000000,-0.702294613,0.000000000,0.000123718,0.000721401,-0.014459481,0.000000000,-0.014554456,-0.001191000,-0.000537526,-0.012870747,0.001513837,0.000000000,0.003128981,-0.001297000,0.000521931,-0.007010286,-0.354280398,0.000000000,-0.358456304,0.069270998,0.058673407,0.048378274,1.920236680,0.000000000,1.918044194,0.273440987,0.239277578,0.090900344,1.510910647,0.000000000,1.511812133,-0.292535007,-0.285084528,-0.018054829,-0.702066438,0.000000000,-0.701652809,-0.001318000,-0.000569599,-0.023907429,-0.008335259,0.000000000,-0.007668359
0.099990987,-0.000820000,-0.000658065,-0.009999035,0.039443476,0.000000000,0.039283605,-0.000457000,-0.006608670,0.014339946,1.427740701,0.000000000,1.424226267,-0.005128000,-0.007441891,0.025069639,0.101062300,0.000000000,0.090661743,0.423803002,0.364457951,0.173617465,2.512993613,0.000000000,2.514457285,-0.400328994,-0.392316630,-0.037136329,-0.702294613,0.000000000,-0.704191011,0.000000000,0.000125119,0.000700647,-0.014554456,0.000000000,-0.014637074,-0.001210000,-0.000563652,-0.013064131,0.003128981,0.000000000,0.004982110,-0.001336000,0.000507624,-0.007156668,-0.358456304,0.000000000,-0.362164336,0.069371998,0.058770591,0.048592345,1.918044194,0.000000000,1.914286683,0.273353994,0.239454461,0.088441397,1.511812133,0.000000000,1.512622617,-0.292614996,-0.285124204,-0.019838131,-0.701652809,0.000000000,-0.700657129,-0.001381000,-0.000618887,-0.024644423,-0.007668359,0.000000000,-0.006958833
0.101990807,-0.000854000,-0.000678225,-0.010080188,0.039283605,0.000000000,0.038267248,-0.000480000,-0.006581036,0.013817297,1.424226267,0.000000000,1.421655433,-0.005084000,-0.007390996,0.025447310,0.090661743,0.000000000,0.080159420,0.423774004,0.364798260,0.170154634,2.514457285,0.000000000,2.515743817,-0.400402993,-0.392389641,-0.036505844,-0.704191011,0.000000000,-0.706083280,0.000000000,0.000126473,0.000677114,-0.014637074,0.000000000,-0.014707035,-0.001228000,-0.000590110,-0.013230323,0.004982110,0.000000000,0.006823513,-0.001375000,0.000493019,-0.007306637,-0.362164336,0.000000000,-0.365706103,0.069471002,0.058868174,0.048791621,1.914286683,0.000000000,1.910182949,0.273259997,0.239626454,0.085996561,1.512622617,0.000000000,1.513199271,-0.292699993,-0.285167289,-0.021542473,-0.700657129,0.000000000,-0.700047450,-0.001442000,-0.000669350,-0.025231651,-0.006958833,0.000000000,-0.006354260
0.103990627,-0.000900000,-0.000698549,-0.010162347,0.038267248,0.000000000,0.035995001,-0.000504000,-0.006554453,0.013291526,1.421655433,0.000000000,1.419169877,-0.005040000,-0.007339405,0.025795785,0.080159420,0.000000000,0.070119351,0.423741013,0.365131759,0.166749304,2.515743817,0.000000000,2.516799574,-0.400480986,-0.392461696,-0.036027231,-0.706083280,0.000000000,-0.708044125,0.000000000,0.000127776,0.000651371,-0.014707035,0.000000000,-0.014765510,-0.001244000,-0.000616847,-0.013369672,0.006823513,0.000000000,0.008756030,-0.001415000,0.000478108,-0.007459406,-0.365706103,0.000000000,-0.369382124,0.069569997,0.058966125,0.048975326,1.910182949,0.000000000,1.906324881,0.273160011,0.239793594,0.083569998,1.513199271,0.000000000,1.513574220,-0.292793989,-0.285213692,-0.023201543,-0.700047450,0.000000000,-0.700140745,-0.001503000,-0.000720728,-0.025689124,-0.006354260,0.000000000,-0.006026109
0.105990447,-0.000959000,-0.000719056,-0.010253738,0.035995001,0.000000000,0.032408739,-0.000528000,-0.006528929,0.012761789,1.419169877,0.000000000,1.417075162,-0.004998000,-0.007287169,0.026117876,0.070119351,0.000000000,0.059924623,0.423705995,0.365458550,0.163395867,2.516799574,0.000000000,2.517782107,-0.400563002,-0.392533102,-0.035703034,-0.708044125,0.000000000,-0.710038108,0.000000000,0.000129031,0.000627741,-0.014765510,0.000000000,-0.014825214,-0.001259000,-0.000643806,-0.013480287,0.008756030,0.000000000,0.010656248,-0.001455000,0.000462889,-0.007613714,-0.369382124,0.000000000,-0.372935821,0.069669001,0.059064411,0.049143223,1.906324881,0.000000000,1.902731040,0.273054004,0.239955928,0.081167350,1.513574220,0.000000000,1.513702445,-0.292896003,-0.285263447,-0.024877340,-0.700140745,0.000000000,-0.700657979,-0.001565000,-0.000772865,-0.026068596,-0.006026109,0.000000000,-0.005944075
0.107990266,-0.001028000,-0.000739779,-0.010362162,0.032408739,0.000000000,0.027876007,-0.000551000,-0.006504474,0.012227642,1.417075162,0.000000000,1.415668102,-0.004956000,-0.007234341,0.026414133,0.059924623,0.000000000,0.050145657,0.423667997,0.365778738,0.160093673,2.517782107,0.000000000,2.518629326,-0.400647014,-0.392604173,-0.035535568,-0.710038108,0.000000000,-0.711822159,0.000000000,0.000130245,0.000607110,-0.014825214,0.000000000,-0.014889275,-0.001272000,-0.000670928,-0.013561775,0.010656248,0.000000000,0.012622329,-0.001496000,0.000447362,-0.007768204,-0.372935821,0.000000000,-0.376682041,0.069766998,0.059163004,0.049296755,1.902731040,0.000000000,1.899088913,0.272942007,0.240113504,0.078787626,1.513702445,0.000000000,1.513589987,-0.293006003,-0.285316655,-0.026604261,-0.700657979,0.000000000,-0.701488011,-0.001626000,-0.000825700,-0.026417362,-0.005944075,0.000000000,-0.005777774
0.109990086,-0.001107000,-0.000760765,-0.010493356,0.027876007,0.000000000,0.022434086,-0.000575000,-0.006481096,0.011689111,1.415668102,0.000000000,1.414382103,-0.004914000,-0.007180967,0.026686901,0.050145657,0.000000000,0.040742947,0.423628002,0.366092411,0.156836732,2.518629326,0.000000000,2.519440211,-0.400732994,-0.392675189,-0.035507917,-0.711822159,0.000000000,-0.713413094,0.000000000,0.000131422,0.000588375,-0.014889275,0.000000000,-0.014954939,-0.001285000,-0.000698152,-0.013613194,0.012622329,0.000000000,0.014429346,-0.001537000,0.000431526,-0.007923602,-0.376682041,0.000000000,-0.380319627,0.069863997,0.059261877,0.049436210,1.899088913,0.000000000,1.895402145,0.272825003,0.240266367,0.076431447,1.513589987,0.000000000,1.513291566,-0.293121994,-0.285373473,-0.028408584,-0.701488011,0.000000000,-0.702338688,-0.001687000,-0.000879136,-0.026718322,-0.005777774,0.000000000,-0.005686550
0.111989906,-0.001196000,-0.000782071,-0.010653090,0.022434086,0.000000000,0.016121696,-0.000598000,-0.006458804,0.011145701,1.414382103,0.000000000,1.413799641,-0.004873000,-0.007127091,0.026937978,0.040742947,0.000000000,0.031403927,0.423586011,0.366399653,0.153620736,2.519440211,0.000000000,2.520240214,-0.400821000,-0.392746399,-0.035605279,-0.713413094,0.000000000,-0.714833749,0.000000000,0.000132568,0.000572704,-0.014954939,0.000000000,-0.015026147,-0.001298000,-0.000725425,-0.013637233,0.014429346,0.000000000,0.016086666,-0.001578000,0.000415378,-0.008079533,-0.380319627,0.000000000,-0.383856841,0.069959998,0.059361002,0.049562827,1.895402145,0.000000000,1.891650001,0.272702992,0.240414557,0.074095206,1.513291566,0.000000000,1.512830318,-0.293242991,-0.285434051,-0.030289044,-0.702338688,0.000000000,-0.703098820,-0.001748000,-0.000933109,-0.026986263,-0.005686550,0.000000000,-0.005635036
0.113989726,-0.001292000,-0.000803763,-0.010846255,0.016121696,0.000000000,0.009293407,-0.000621000,-0.006437609,0.010597555,1.413799641,0.000000000,1.413635927,-0.004833000,-0.007072755,0.027168116,0.031403927,0.000000000,0.022123523,0.423541009,0.366700540,0.150443624,2.520240214,0.000000000,2.520975062,-0.400911003,-0.392818030,-0.035815322,-0.714833749,0.000000000,-0.716093402,0.000000000,0.000133684,0.000558343,-0.015026147,0.000000000,-0.015098174,-0.001309000,-0.000752697,-0.013636466,0.016086666,0.000000000,0.017816744,-0.001619000,0.000398919,-0.008235949,-0.383856841,0.000000000,-0.387294482,0.070054002,0.059460358,0.049677953,1.891650001,0.000000000,1.887524756,0.272576988,0.240558105,0.071774189,1.512830318,0.000000000,1.512301813,-0.293368995,-0.285498520,-0.032234560,-0.703098820,0.000000000,-0.703786762,-0.001808000,-0.000987567,-0.027228989,-0.005635036,0.000000000,-0.005505082
0.115989545,-0.001396000,-0.000825914,-0.011075813,0.009293407,0.000000000,0.001867106,-0.000644000,-0.006417520,0.010044763,1.413635927,0.000000000,1.413891540,-0.004794000,-0.007017998,0.027378163,0.022123523,0.000000000,0.012893698,0.423494011,0.366995146,0.147302853,2.520975062,0.000000000,2.521722244,-0.401001990,-0.392890282,-0.036125732,-0.716093402,0.000000000,-0.717104363,0.000000000,0.000134774,0.000544720,-0.015098174,0.000000000,-0.015169549,-0.001321000,-0.000779914,-0.013609367,0.017816744,0.000000000,0.019285540,-0.001660000,0.000382147,-0.008393109,-0.387294482,0.000000000,-0.390626334,0.070147000,0.059559919,0.049780566,1.887524756,0.000000000,1.883338309,0.272446990,0.240697045,0.069469791,1.512301813,0.000000000,1.511694048,-0.293498009,-0.285566999,-0.034239509,-0.703786762,0.000000000,-0.704204687,-0.001869000,-0.001042431,-0.027432150,-0.005505082,0.000000000,-0.005547613
0.117989365,-0.001506000,-0.000848604,-0.011345138,0.001867106,0.000000000,-0.005916431,-0.000666000,-0.006398545,0.009487347,1.413891540,0.000000000,1.414852894,-0.004755000,-0.006962861,0.027568739,0.012893698,0.000000000,0.003996098,0.423446000,0.367283538,0.144196233,2.521722244,0.000000000,2.522555143,-0.401093990,-0.392963319,-0.036518541,-0.717104363,0.000000000,-0.717904069,0.000000000,0.000135837,0.000531603,-0.015169549,0.000000000,-0.015239710,-0.001332000,-0.000807035,-0.013560871,0.019285540,0.000000000,0.020729617,-0.001700000,0.000365062,-0.008550462,-0.390626334,0.000000000,-0.393580607,0.070238002,0.059659663,0.049872200,1.883338309,0.000000000,1.878780528,0.272312999,0.240831397,0.067175994,1.511694048,0.000000000,1.511048455,-0.293628991,-0.285639552,-0.036276734,-0.704204687,0.000000000,-0.704317855,-0.001930000,-0.001097688,-0.027628496,-0.005547613,0.000000000,-0.005569826
0.119989185,-0.001622000,-0.000871915,-0.011656033,-0.005916431,0.000000000,-0.014038178,-0.000689000,-0.006380693,0.008925783,1.414852894,0.000000000,1.415943051,-0.004716000,-0.006907380,0.027740539,0.003996098,0.000000000,-0.004574484,0.423395991,0.367565782,0.141121919,2.522555143,0.000000000,2.523420656,-0.401185989,-0.393037276,-0.036978800,-0.717904069,0.000000000,-0.718418986,0.000000000,0.000136872,0.000517395,-0.015239710,0.000000000,-0.015303897,-0.001344000,-0.000834015,-0.013490570,0.020729617,0.000000000,0.021928810,-0.001739000,0.000347664,-0.008707731,-0.393580607,0.000000000,-0.396163622,0.070326999,0.059759568,0.049952619,1.878780528,0.000000000,1.873861003,0.272177011,0.240961178,0.064890550,1.511048455,0.000000000,1.510506084,-0.293761998,-0.285716190,-0.038318728,-0.704317855,0.000000000,-0.704209532,-0.001990000,-0.001153320,-0.027815910,-0.005569826,0.000000000,-0.005478486
0.121989005,-0.001742000,-0.000895936,-0.012010637,-0.014038178,0.000000000,-0.022263511,-0.000711000,-0.006363973,0.008359937,1.415943051,0.000000000,1.417735978,-0.004678000,-0.006851590,0.027894701,-0.004574484,0.000000000,-0.013118089,0.423345000,0.367841935,0.138076538,2.523420656,0.000000000,2.524403121,-0.401279002,-0.393112247,-0.037485574,-0.718418986,0.000000000,-0.718801634,0.000000000,0.000137878,0.000503364,-0.015303897,0.000000000,-0.015365752,-0.001356000,-0.000860821,-0.013403753,0.021928810,0.000000000,0.023016111,-0.001777000,0.000329952,-0.008865669,-0.396163622,0.000000000,-0.398358148,0.070413999,0.059859607,0.050019711,1.873861003,0.000000000,1.868637221,0.272038013,0.241086413,0.062617300,1.510506084,0.000000000,1.509974093,-0.293895990,-0.285796887,-0.040348820,-0.704209532,0.000000000,-0.703824099,-0.002050000,-0.001209267,-0.027973783,-0.005478486,0.000000000,-0.005439222
0.123988824,-0.001865000,-0.000920753,-0.012408955,-0.022263511,0.000000000,-0.030476505,-0.000733000,-0.006348392,0.007790480,1.417735978,0.000000000,1.419934338,-0.004641000,-0.006795529,0.028030753,-0.013118089,0.000000000,-0.021613557,0.423292011,0.368112057,0.135061085,2.524403121,0.000000000,2.525427674,-0.401371002,-0.393188308,-0.038030443,-0.718801634,0.000000000,-0.718863433,0.000000000,0.000138853,0.000487465,-0.015365752,0.000000000,-0.015419083,-0.001368000,-0.000887424,-0.013301992,0.023016111,0.000000000,0.023997205,-0.001814000,0.000311928,-0.009023702,-0.398358148,0.000000000,-0.400177139,0.070497997,0.059959754,0.050073120,1.868637221,0.000000000,1.862839105,0.271896988,0.241207123,0.060354999,1.509974093,0.000000000,1.509522059,-0.294028014,-0.285881572,-0.042342310,-0.703824099,0.000000000,-0.702940990,-0.002110000,-0.001265494,-0.028113536,-0.005439222,0.000000000,-0.005423220
0.125988644,-0.001991000,-0.000946454,-0.012850582,-0.030476505,0.000000000,-0.038670211,-0.000755000,-0.006333957,0.007217833,1.419934338,0.000000000,1.422530395,-0.004603000,-0.006739231,0.028148912,-0.021613557,0.000000000,-0.029487177,0.423238993,0.368376204,0.132073693,2.525427674,0.000000000,2.526628285,-0.401463002,-0.393265489,-0.038590269,-0.718863433,0.000000000,-0.718769555,0.000000000,0.000139793,0.000469680,-0.015419083,0.000000000,-0.015463455,-0.001382000,-0.000913797,-0.013187069,0.023997205,0.000000000,0.024666203,-0.001850000,0.000293590,-0.009181593,-0.400177139,0.000000000,-0.401626319,0.070579000,0.060059976,0.050111503,1.862839105,0.000000000,1.856507693,0.271755010,0.241323329,0.058103098,1.509522059,0.000000000,1.509220354,-0.294160008,-0.285970085,-0.044256294,-0.702940990,0.000000000,-0.701894032,-0.002170000,-0.001321976,-0.028240911,-0.005423220,0.000000000,-0.005416663
0.127988464,-0.002119000,-0.000973124,-0.013335305,-0.038670211,0.000000000,-0.046730064,-0.000776000,-0.006320672,0.006642354,1.422530395,0.000000000,1.425801892,-0.004567000,-0.006682731,0.028249874,-0.029487177,0.000000000,-0.037597838,0.423184991,0.368634431,0.129113224,2.526628285,0.000000000,2.527949401,-0.401553005,-0.393343798,-0.039154548,-0.718769555,0.000000000,-0.718347156,0.000000000,0.000140693,0.000450076,-0.015463455,0.000000000,-0.015498696,-0.001396000,-0.000939928,-0.013066033,0.024666203,0.000000000,0.025274830,-0.001884000,0.000274940,-0.009339873,-0.401626319,0.000000000,-0.402409345,0.070657000,0.060160239,0.050131158,1.856507693,0.000000000,1.849735242,0.271611989,0.241435069,0.055869889,1.509220354,0.000000000,1.509002016,-0.294288993,-0.286062248,-0.046081573,-0.701894032,0.000000000,-0.700426109,-0.002229000,-0.001378693,-0.028358585,-0.005416663,0.000000000,-0.005312834
0.129988284,-0.002248000,-0.001000847,-0.013861521,-0.046730064,0.000000000,-0.054549658,-0.000797000,-0.006308542,0.006064882,1.425801892,0.000000000,1.429446747,-0.004530000,-0.006626066,0.028332679,-0.037597838,0.000000000,-0.045060558,0.423130006,0.368886792,0.126180420,2.527949401,0.000000000,2.529382252,-0.401641995,-0.393423199,-0.039700741,-0.718347156,0.000000000,-0.717763366,0.000000000,0.000141548,0.000427377,-0.015498696,0.000000000,-0.015520547,-0.001412000,-0.000965805,-0.012938908,0.025274830,0.000000000,0.025608751,-0.001917000,0.000255979,-0.009497869,-0.402409345,0.000000000,-0.402826133,0.070731997,0.060260501,0.050131321,1.849735242,0.000000000,1.842550128,0.271468997,0.241542377,0.053654323,1.509002016,0.000000000,1.508940045,-0.294414014,-0.286157810,-0.047781203,-0.700426109,0.000000000,-0.698571270,-0.002288000,-0.001435595,-0.028451057,-0.005312834,0.000000000,-0.005261965
0.131988103,-0.002377000,-0.001029702,-0.014427755,-0.054549658,0.000000000,-0.062022260,-0.000818000,-0.006297571,0.005485888,1.429446747,0.000000000,1.433455195,-0.004494000,-0.006569270,0.028398299,-0.045060558,0.000000000,-0.052456197,0.423074991,0.369133338,0.123273196,2.529382252,0.000000000,2.530998664,-0.401730001,-0.393503634,-0.040217246,-0.717763366,0.000000000,-0.717060181,0.000000000,0.000142352,0.000402132,-0.015520547,0.000000000,-0.015530059,-0.001429000,-0.000991428,-0.012811466,0.025608751,0.000000000,0.025807116,-0.001947000,0.000236708,-0.009655720,-0.402826133,0.000000000,-0.402305502,0.070803002,0.060360721,0.050109949,1.842550128,0.000000000,1.834729115,0.271324992,0.241645295,0.051458998,1.508940045,0.000000000,1.508947538,-0.294535011,-0.286256458,-0.049323784,-0.698571270,0.000000000,-0.696444499,-0.002347000,-0.001492653,-0.028529154,-0.005261965,0.000000000,-0.005236176
0.133987923,-0.002505000,-0.001059764,-0.015031448,-0.062022260,0.000000000,-0.069047745,-0.000839000,-0.006287759,0.004906016,1.433455195,0.000000000,1.437813173,-0.004458000,-0.006512378,0.028445807,-0.052456197,0.000000000,-0.059469034,0.423018992,0.369374126,0.120393729,2.530998664,0.000000000,2.532719432,-0.401814997,-0.393585028,-0.040696985,-0.717060181,0.000000000,-0.716060347,0.000000000,0.000143100,0.000374287,-0.015530059,0.000000000,-0.015526550,-0.001447000,-0.001016797,-0.012684950,0.025807116,0.000000000,0.025877176,-0.001976000,0.000217133,-0.009812500,-0.402305502,0.000000000,-0.401437982,0.070871003,0.060460850,0.050064454,1.834729115,0.000000000,1.826626129,0.271180987,0.241743871,0.049288109,1.508947538,0.000000000,1.509055580,-0.294651002,-0.286357834,-0.050688351,-0.696444499,0.000000000,-0.694041992,-0.002406000,-0.001549857,-0.028601758,-0.005236176,0.000000000,-0.005211329
0.135987743,-0.002641000,-0.001091103,-0.015669695,-0.069047745,0.000000000,-0.076594502,-0.000858000,-0.006279107,0.004325877,1.437813173,0.000000000,1.443075437,-0.004423000,-0.006455427,0.028475634,-0.059469034,0.000000000,-0.066383214,0.422962993,0.369609206,0.117540089,2.532719432,0.000000000,2.534617109,-0.401901007,-0.393667265,-0.041118725,-0.716060347,0.000000000,-0.715242561,0.000000000,0.000143788,0.000343963,-0.015526550,0.000000000,-0.015509864,-0.001467000,-0.001041920,-0.012561921,0.025877176,0.000000000,0.025727534,-0.002003000,0.000197256,-0.009968143,-0.401437982,0.000000000,-0.399942313,0.070935003,0.060560837,0.049993763,1.826626129,0.000000000,1.817996009,0.271032989,0.241838157,0.047142737,1.509055580,0.000000000,1.509001030,-0.294766992,-0.286461538,-0.051851908,-0.694041992,0.000000000,-0.691975769,-0.002464000,-0.001607196,-0.028669641,-0.005211329,0.000000000,-0.005085115
0.137987563,-0.002788000,-0.001123792,-0.016344941,-0.076594502,0.000000000,-0.084960574,-0.000877000,-0.006271615,0.003745999,1.443075437,0.000000000,1.448661489,-0.004387000,-0.006398453,0.028486995,-0.066383214,0.000000000,-0.072601991,0.422904015,0.369838638,0.114716116,2.534617109,0.000000000,2.536472430,-0.401988000,-0.393750260,-0.041497545,-0.715242561,0.000000000,-0.714569624,0.000000000,0.000144411,0.000311050,-0.015509864,0.000000000,-0.015479166,-0.001488000,-0.001066812,-0.012446544,0.025727534,0.000000000,0.025489977,-0.002030000,0.000177084,-0.010123229,-0.399942313,0.000000000,-0.398375342,0.070995003,0.060660627,0.049894898,1.817996009,0.000000000,1.808922083,0.270877987,0.241928220,0.045031700,1.509001030,0.000000000,1.508526732,-0.294885993,-0.286567233,-0.052847455,-0.691975769,0.000000000,-0.690490177,-0.002521000,-0.001664628,-0.028715845,-0.005085115,0.000000000,-0.004910151
0.139987382,-0.002945000,-0.001157917,-0.017062508,-0.084960574,0.000000000,-0.094000272,-0.000895000,-0.006265283,0.003166074,1.448661489,0.000000000,1.454862532,-0.004352000,-0.006341489,0.028482051,-0.072601991,0.000000000,-0.078733338,0.422845006,0.370062476,0.111918792,2.536472430,0.000000000,2.538489830,-0.402076006,-0.393833946,-0.041842788,-0.714569624,0.000000000,-0.714024768,0.000000000,0.000144968,0.000278541,-0.015479166,0.000000000,-0.015443043,-0.001511000,-0.001091494,-0.012340934,0.025489977,0.000000000,0.025071969,-0.002056000,0.000156623,-0.010278258,-0.398375342,0.000000000,-0.396443119,0.071053997,0.060760161,0.049767067,1.808922083,0.000000000,1.800290123,0.270716995,0.242014139,0.042959354,1.508526732,0.000000000,1.507660846,-0.295004994,-0.286674683,-0.053725073,-0.690490177,0.000000000,-0.689162462,-0.002577000,-0.001722089,-0.028730956,-0.004910151,0.000000000,-0.004719443
0.141987202,-0.003109000,-0.001193569,-0.017826004,-0.094000272,0.000000000,-0.103363601,-0.000912000,-0.006260110,0.002586334,1.454862532,0.000000000,1.461673185,-0.004317000,-0.006284568,0.028460359,-0.078733338,0.000000000,-0.084473522,0.422782987,0.370280778,0.109151052,2.538489830,0.000000000,2.540456467,-0.402164996,-0.393918277,-0.042165356,-0.714024768,0.000000000,-0.713578572,0.000000000,0.000145460,0.000246287,-0.015443043,0.000000000,-0.015401125,-0.001534000,-0.001115986,-0.012246617,0.025071969,0.000000000,0.024697705,-0.002081000,0.000135885,-0.010432086,-0.396443119,0.000000000,-0.394175125,0.071108997,0.060859392,0.049615747,1.800290123,0.000000000,1.791140328,0.270552009,0.242095964,0.040912441,1.507660846,0.000000000,1.506620513,-0.295125991,-0.286783660,-0.054488479,-0.689162462,0.000000000,-0.688206946,-0.002633000,-0.001779517,-0.028713636,-0.004719443,0.000000000,-0.004624436
0.143987022,-0.003282000,-0.001230843,-0.018637282,-0.103363601,0.000000000,-0.113243133,-0.000929000,-0.006256096,0.002007161,1.461673185,0.000000000,1.468800293,-0.004282000,-0.006227722,0.028423007,-0.084473522,0.000000000,-0.089838265,0.422719985,0.370493601,0.106411399,2.540456467,0.000000000,2.542507440,-0.402253002,-0.394003220,-0.042471651,-0.713578572,0.000000000,-0.713017333,0.000000000,0.000145888,0.000213820,-0.015401125,0.000000000,-0.015352043,-0.001559000,-0.001140310,-0.012162230,0.024697705,0.000000000,0.024148441,-0.002105000,0.000114891,-0.010584507,-0.394175125,0.000000000,-0.391581876,0.071162999,0.060958268,0.049437864,1.791140328,0.000000000,1.782408724,0.270384014,0.242173764,0.038899995,1.506620513,0.000000000,1.505399294,-0.295246005,-0.286894009,-0.055174219,-0.688206946,0.000000000,-0.687234235,-0.002688000,-0.001836884,-0.028683737,-0.004624436,0.000000000,-0.004470169
0.145986842,-0.003461000,-0.001269841,-0.019499426,-0.113243133,0.000000000,-0.123290754,-0.000946000,-0.006253239,0.001428500,1.468800293,0.000000000,1.476244784,-0.004247000,-0.006170980,0.028370912,-0.089838265,0.000000000,-0.094839912,0.422654986,0.370700997,0.103698245,2.542507440,0.000000000,2.544586681,-0.402341008,-0.394088727,-0.042753614,-0.713017333,0.000000000,-0.712468277,0.000000000,0.000146252,0.000182252,-0.015352043,0.000000000,-0.015299134,-0.001586000,-0.001164490,-0.012090009,0.024148441,0.000000000,0.023439390,-0.002128000,0.000093678,-0.010735014,-0.391581876,0.000000000,-0.388685683,0.071214996,0.061056742,0.049237443,1.782408724,0.000000000,1.773731130,0.270213008,0.242247588,0.036912010,1.505399294,0.000000000,1.504065218,-0.295365989,-0.287005557,-0.055774049,-0.687234235,0.000000000,-0.686381509,-0.002743000,-0.001894146,-0.028630877,-0.004470169,0.000000000,-0.004391865
0.147986661,-0.003645000,-0.001310668,-0.020413424,-0.123290754,0.000000000,-0.133383251,-0.000962000,-0.006251538,0.000850548,1.476244784,0.000000000,1.484286021,-0.004213000,-0.006114371,0.028304757,-0.094839912,0.000000000,-0.099770240,0.422589004,0.370903018,0.101010743,2.544586681,0.000000000,2.546760986,-0.402429014,-0.394174751,-0.043012086,-0.712468277,0.000000000,-0.711933759,0.000000000,0.000146555,0.000151416,-0.015299134,0.000000000,-0.015242071,-0.001613000,-0.001188554,-0.012032418,0.023439390,0.000000000,0.022800799,-0.002151000,0.000072328,-0.010883610,-0.388685683,0.000000000,-0.385793475,0.071266003,0.061154771,0.049014581,1.773731130,0.000000000,1.765406172,0.270040989,0.242317485,0.034948644,1.504065218,0.000000000,1.502740182,-0.295484990,-0.287118153,-0.056298313,-0.686381509,0.000000000,-0.685538249,-0.002799000,-0.001951287,-0.028570553,-0.004391865,0.000000000,-0.004448039
0.149986481,-0.003834000,-0.001353425,-0.021379046,-0.133383251,0.000000000,-0.143510925,-0.000979000,-0.006250990,0.000273908,1.484286021,0.000000000,1.492341164,-0.004180000,-0.006057922,0.028224116,-0.099770240,0.000000000,-0.104611264,0.422520012,0.371099720,0.098350541,2.546760986,0.000000000,2.548887172,-0.402516007,-0.394261249,-0.043249051,-0.711933759,0.000000000,-0.711310082,0.000000000,0.000146795,0.000119898,-0.015242071,0.000000000,-0.015176701,-0.001642000,-0.001212529,-0.011987399,0.022800799,0.000000000,0.022010509,-0.002174000,0.000051051,-0.011029505,-0.385793475,0.000000000,-0.382983337,0.071315996,0.061252313,0.048770663,1.765406172,0.000000000,1.757408135,0.269867003,0.242383500,0.033007169,1.502740182,0.000000000,1.501380570,-0.295601994,-0.287231646,-0.056746547,-0.685538249,0.000000000,-0.684618743,-0.002854000,-0.002008343,-0.028528310,-0.004448039,0.000000000,-0.004360307
0.151986301,-0.004026000,-0.001398218,-0.022396572,-0.143510925,0.000000000,-0.153447916,-0.000996000,-0.006251593,-0.000301450,1.492341164,0.000000000,1.500694377,-0.004147000,-0.006001663,0.028129518,-0.104611264,0.000000000,-0.109082795,0.422450006,0.371291152,0.095716098,2.548887172,0.000000000,2.551099067,-0.402601004,-0.394348164,-0.043457497,-0.711310082,0.000000000,-0.710523551,0.000000000,0.000146973,0.000089143,-0.015176701,0.000000000,-0.015107282,-0.001672000,-0.001236444,-0.011958183,0.022010509,0.000000000,0.021196782,-0.002195000,0.000030646,-0.011173799,-0.382983337,0.000000000,-0.379888582,0.071364999,0.061349327,0.048507391,1.757408135,0.000000000,1.749715862,0.269694000,0.242445666,0.031083027,1.501380570,0.000000000,1.500202949,-0.295717001,-0.287345866,-0.057109884,-0.684618743,0.000000000,-0.683665353,-0.002909000,-0.002065296,-0.028476041,-0.004360307,0.000000000,-0.004311618
0.153986121,-0.004221000,-0.001445147,-0.023464724,-0.153447916,0.000000000,-0.163190679,-0.001013000,-0.006253343,-0.000875073,1.500694377,0.000000000,1.509334455,-0.004114000,-0.005945621,0.028021388,-0.109082795,0.000000000,-0.113186775,0.422376990,0.371477364,0.093106212,2.551099067,0.000000000,2.553275995,-0.402684987,-0.394435416,-0.043625970,-0.710523551,0.000000000,-0.709714200,0.000000000,0.000147090,0.000058357,-0.015107282,0.000000000,-0.015031552,-0.001704000,-0.001260333,-0.011944430,0.021196782,0.000000000,0.020254381,-0.002216000,0.000016398,-0.011315917,-0.379888582,0.000000000,-0.378593136,0.071414001,0.061445775,0.048224173,1.749715862,0.000000000,1.742635752,0.269522011,0.242504023,0.029178691,1.500202949,0.000000000,1.499189125,-0.295830011,-0.287460642,-0.057387718,-0.683665353,0.000000000,-0.682697089,-0.002965000,-0.002122141,-0.028422957,-0.004311618,0.000000000,-0.004377042
0.155985940,-0.004418000,-0.001494311,-0.024582319,-0.163190679,0.000000000,-0.172628822,-0.001031000,-0.006256236,-0.001446634,1.509334455,0.000000000,1.517968576,-0.004082000,-0.005889820,0.027900583,-0.113186775,0.000000000,-0.117219582,0.422302991,0.371658402,0.090519088,2.553275995,0.000000000,2.555555838,-0.402767003,-0.394522921,-0.043752147,-0.709714200,0.000000000,-0.708800804,0.000000000,0.000147145,0.000027321,-0.015031552,0.000000000,-0.014948840,-0.001737000,-0.001284240,-0.011953564,0.020254381,0.000000000,0.019336773,-0.002237000,-0.000025179,-0.011458666,-0.378593136,0.000000000,-0.369515506,0.071462996,0.061541619,0.047921574,1.742635752,0.000000000,1.736163923,0.269351006,0.242558611,0.027294177,1.499189125,0.000000000,1.498334602,-0.295938998,-0.287575802,-0.057579981,-0.682697089,0.000000000,-0.681526623,-0.003021000,-0.002178904,-0.028381492,-0.004377042,0.000000000,-0.004417813
0.157985760,-0.004616000,-0.001545806,-0.025747440,-0.172628822,0.000000000,-0.181656388,-0.001050000,-0.006260267,-0.002015528,1.517968576,0.000000000,1.526581572,-0.004051000,-0.005834286,0.027766625,-0.117219582,0.000000000,-0.121163037,0.422226995,0.371834314,0.087955740,2.555555838,0.000000000,2.557864385,-0.402846992,-0.394610580,-0.043829416,-0.708800804,0.000000000,-0.707806020,0.000000000,0.000147137,-0.000003754,-0.014948840,0.000000000,-0.014859737,-0.001772000,-0.001308164,-0.011962505,0.019336773,0.000000000,0.018206784,-0.002257000,-0.000045513,-0.011588018,-0.369515506,0.000000000,-0.366494683,0.071512997,0.061636825,0.047603128,1.736163923,0.000000000,1.730517491,0.269183993,0.242609453,0.025420940,1.498334602,0.000000000,1.497888810,-0.296043009,-0.287691129,-0.057663861,-0.681526623,0.000000000,-0.680144338,-0.003078000,-0.002235679,-0.028387322,-0.004417813,0.000000000,-0.004424015
0.159985580,-0.004813000,-0.001599720,-0.026957487,-0.181656388,0.000000000,-0.190065323,-0.001069000,-0.006265431,-0.002582034,1.526581572,0.000000000,1.535462569,-0.004021000,-0.005779048,0.027619421,-0.121163037,0.000000000,-0.125007491,0.422147989,0.372005146,0.085416121,2.557864385,0.000000000,2.560134963,-0.402925014,-0.394698283,-0.043851903,-0.707806020,0.000000000,-0.706763647,0.000000000,0.000147069,-0.000034132,-0.014859737,0.000000000,-0.014766472,-0.001808000,-0.001332155,-0.011995400,0.018206784,0.000000000,0.017112675,-0.002277000,-0.000067952,-0.011718277,-0.366494683,0.000000000,-0.362855136,0.071562998,0.061731359,0.047267353,1.730517491,0.000000000,1.725453880,0.269019991,0.242656581,0.023563660,1.497888810,0.000000000,1.497754367,-0.296144009,-0.287806387,-0.057628700,-0.680144338,0.000000000,-0.678803383,-0.003135000,-0.002292469,-0.028395230,-0.004424015,0.000000000,-0.004422707
0.161985400,-0.005009000,-0.001656137,-0.028208532,-0.190065323,0.000000000,-0.197869133,-0.001090000,-0.006271722,-0.003145216,1.535462569,0.000000000,1.544020042,-0.003991000,-0.005724130,0.027458845,-0.125007491,0.000000000,-0.128458090,0.422066987,0.372170946,0.082899966,2.560134963,0.000000000,2.562430502,-0.402999014,-0.394785915,-0.043815943,-0.706763647,0.000000000,-0.705488092,0.000000000,0.000146938,-0.000065469,-0.014766472,0.000000000,-0.014664147,-0.001845000,-0.001356250,-0.012047987,0.017112675,0.000000000,0.016034556,-0.002296000,-0.000091149,-0.011846636,-0.362855136,0.000000000,-0.358758911,0.071615003,0.061825185,0.046913192,1.725453880,0.000000000,1.721577188,0.268860996,0.242700035,0.021727102,1.497754367,0.000000000,1.498020892,-0.296238989,-0.287921350,-0.057481542,-0.678803383,0.000000000,-0.677202163,-0.003194000,-0.002349294,-0.028412509,-0.004422707,0.000000000,-0.004593424
0.163985219,-0.005203000,-0.001715131,-0.029497271,-0.197869133,0.000000000,-0.204971816,-0.001112000,-0.006279131,-0.003704910,1.544020042,0.000000000,1.552532611,-0.003963000,-0.005669559,0.027285681,-0.128458090,0.000000000,-0.132094133,0.421983987,0.372331755,0.080404650,2.562430502,0.000000000,2.564767032,-0.403070003,-0.394873324,-0.043704201,-0.705488092,0.000000000,-0.704146360,0.000000000,0.000146745,-0.000096280,-0.014664147,0.000000000,-0.014557090,-0.001884000,-0.001380485,-0.012117387,0.016034556,0.000000000,0.014853114,-0.002315000,-0.000114794,-0.011970381,-0.358758911,0.000000000,-0.354639587,0.071667999,0.061918273,0.046543685,1.721577188,0.000000000,1.718539331,0.268707991,0.242739845,0.019905291,1.498020892,0.000000000,1.498791119,-0.296328992,-0.288035746,-0.057198186,-0.677202163,0.000000000,-0.675542430,-0.003253000,-0.002406245,-0.028475414,-0.004593424,0.000000000,-0.004621683
0.165985039,-0.005393000,-0.001776769,-0.030819199,-0.204971816,0.000000000,-0.211178671,-0.001135000,-0.006287653,-0.004260672,1.552532611,0.000000000,1.560987891,-0.003935000,-0.005615361,0.027098787,-0.132094133,0.000000000,-0.135313234,0.421898991,0.372487620,0.077932176,2.564767032,0.000000000,2.567127414,-0.403138012,-0.394960349,-0.043512643,-0.704146360,0.000000000,-0.702769067,0.000000000,0.000146491,-0.000127124,-0.014557090,0.000000000,-0.014443706,-0.001924000,-0.001404898,-0.012206613,0.014853114,0.000000000,0.013696228,-0.002333000,-0.000138780,-0.012091045,-0.354639587,0.000000000,-0.350208746,0.071722999,0.062010587,0.046157097,1.718539331,0.000000000,1.716677285,0.268561006,0.242776056,0.018105199,1.498791119,0.000000000,1.500014632,-0.296411991,-0.288149307,-0.056780419,-0.675542430,0.000000000,-0.673641455,-0.003314000,-0.002463357,-0.028555912,-0.004621683,0.000000000,-0.004785787
0.167984859,-0.005581000,-0.001841107,-0.032169032,-0.211178671,0.000000000,-0.216726780,-0.001160000,-0.006297277,-0.004811926,1.560987891,0.000000000,1.569086124,-0.003908000,-0.005561564,0.026898479,-0.135313234,0.000000000,-0.138399376,0.421810001,0.372638583,0.075481846,2.567127414,0.000000000,2.569387701,-0.403203011,-0.395046826,-0.043238424,-0.702769067,0.000000000,-0.701377999,0.000000000,0.000146174,-0.000158438,-0.014443706,0.000000000,-0.014322654,-0.001966000,-0.001429524,-0.012313662,0.013696228,0.000000000,0.012449752,-0.002352000,-0.000163056,-0.012207318,-0.350208746,0.000000000,-0.346079188,0.071778998,0.062102097,0.045755270,1.716677285,0.000000000,1.715672132,0.268418014,0.242808704,0.016323885,1.500014632,0.000000000,1.501581951,-0.296489000,-0.288261724,-0.056208304,-0.673641455,0.000000000,-0.671689530,-0.003376000,-0.002520719,-0.028681203,-0.004785787,0.000000000,-0.004898286
0.169984679,-0.005771000,-0.001908193,-0.033543101,-0.216726780,0.000000000,-0.222058090,-0.001188000,-0.006307994,-0.005358622,1.569086124,0.000000000,1.576539298,-0.003882000,-0.005508194,0.026685095,-0.138399376,0.000000000,-0.141352669,0.421716988,0.372784688,0.073052428,2.569387701,0.000000000,2.571552122,-0.403266996,-0.395132585,-0.042879603,-0.701377999,0.000000000,-0.700197577,0.000000000,0.000145796,-0.000188911,-0.014322654,0.000000000,-0.014197836,-0.002013000,-0.001454407,-0.012441436,0.012449752,0.000000000,0.010814781,-0.002371000,-0.000187593,-0.012320660,-0.346079188,0.000000000,-0.341941467,0.071836002,0.062192773,0.045338098,1.715672132,0.000000000,1.715537156,0.268270999,0.242837831,0.014563607,1.501581951,0.000000000,1.502967998,-0.296564013,-0.288372686,-0.055481200,-0.671689530,0.000000000,-0.670123403,-0.003440000,-0.002578398,-0.028839324,-0.004898286,0.000000000,-0.005087596
0.171984498,-0.005962000,-0.001978074,-0.034940670,-0.222058090,0.000000000,-0.227065180,-0.001217000,-0.006319796,-0.005901264,1.576539298,0.000000000,1.583925033,-0.003856000,-0.005455276,0.026458954,-0.141352669,0.000000000,-0.143888884,0.421618998,0.372925977,0.070644224,2.571552122,0.000000000,2.573555612,-0.403329998,-0.395217487,-0.042450774,-0.700197577,0.000000000,-0.699203471,0.000000000,0.000145364,-0.000216112,-0.014197836,0.000000000,-0.014076823,-0.002063000,-0.001479601,-0.012597275,0.010814781,0.000000000,0.009051937,-0.002391000,-0.000212376,-0.012431665,-0.341941467,0.000000000,-0.338071186,0.071893997,0.062282590,0.044908609,1.715537156,0.000000000,1.716206584,0.268119991,0.242863470,0.012819831,1.502967998,0.000000000,1.504204784,-0.296636999,-0.288481946,-0.054629763,-0.670123403,0.000000000,-0.668878045,-0.003504000,-0.002636487,-0.029044637,-0.005087596,0.000000000,-0.005101262
0.173984318,-0.006154000,-0.002050794,-0.036360174,-0.227065180,0.000000000,-0.231752134,-0.001248000,-0.006332676,-0.006439686,1.583925033,0.000000000,1.590952888,-0.003831000,-0.005402833,0.026221274,-0.143888884,0.000000000,-0.146313196,0.421516001,0.373062487,0.068255275,2.573555612,0.000000000,2.575407778,-0.403391987,-0.395301414,-0.041963849,-0.699203471,0.000000000,-0.698370546,0.000000000,0.000144882,-0.000241009,-0.014076823,0.000000000,-0.013957324,-0.002117000,-0.001505168,-0.012783796,0.009051937,0.000000000,0.007076014,-0.002412000,-0.000237395,-0.012541602,-0.338071186,0.000000000,-0.334442086,0.071951002,0.062371530,0.044469863,1.716206584,0.000000000,1.717053182,0.267967999,0.242885645,0.011087545,1.504204784,0.000000000,1.505516615,-0.296707004,-0.288589303,-0.053678605,-0.668878045,0.000000000,-0.667807252,-0.003571000,-0.002695012,-0.029262577,-0.005101262,0.000000000,-0.005338176
0.175984138,-0.006348000,-0.002126394,-0.037800082,-0.231752134,0.000000000,-0.236229968,-0.001281000,-0.006346624,-0.006973979,1.590952888,0.000000000,1.597622612,-0.003806000,-0.005350888,0.025972584,-0.146313196,0.000000000,-0.148347115,0.421409994,0.373194257,0.065884862,2.575407778,0.000000000,2.577237512,-0.403452992,-0.395384273,-0.041429274,-0.698370546,0.000000000,-0.697681750,0.000000000,0.000144356,-0.000263196,-0.013957324,0.000000000,-0.013841047,-0.002175000,-0.001531180,-0.013006088,0.007076014,0.000000000,0.004923395,-0.002433000,-0.000262644,-0.012650541,-0.334442086,0.000000000,-0.330770306,0.072008997,0.062459571,0.044020409,1.717053182,0.000000000,1.718679136,0.267814010,0.242904390,0.009372207,1.505516615,0.000000000,1.506798554,-0.296775997,-0.288694595,-0.052646187,-0.667807252,0.000000000,-0.667073758,-0.003638000,-0.002754082,-0.029534632,-0.005338176,0.000000000,-0.005366250
0.177983957,-0.006543000,-0.002204913,-0.039259587,-0.236229968,0.000000000,-0.240392456,-0.001316000,-0.006361632,-0.007504334,1.597622612,0.000000000,1.603936272,-0.003782000,-0.005299461,0.025713583,-0.148347115,0.000000000,-0.150284745,0.421299011,0.373321322,0.063532579,2.577237512,0.000000000,2.578921172,-0.403513014,-0.395465987,-0.040857071,-0.697681750,0.000000000,-0.697116195,0.000000000,0.000143791,-0.000282360,-0.013841047,0.000000000,-0.013729490,-0.002235000,-0.001557715,-0.013267560,0.004923395,0.000000000,0.002834898,-0.002453000,-0.000288119,-0.012759146,-0.330770306,0.000000000,-0.326757630,0.072067000,0.062546695,0.043562451,1.718679136,0.000000000,1.720759911,0.267661005,0.242919734,0.007671989,1.506798554,0.000000000,1.508249934,-0.296842009,-0.288797715,-0.051560124,-0.667073758,0.000000000,-0.666411102,-0.003705000,-0.002813724,-0.029821194,-0.005366250,0.000000000,-0.005295159
0.179983777,-0.006739000,-0.002286387,-0.040737169,-0.240392456,0.000000000,-0.244244239,-0.001351000,-0.006377694,-0.008030826,1.603936272,0.000000000,1.610461842,-0.003758000,-0.005248572,0.025444777,-0.150284745,0.000000000,-0.151847857,0.421186000,0.373443717,0.061197550,2.578921172,0.000000000,2.580649171,-0.403571993,-0.395546497,-0.040255027,-0.697116195,0.000000000,-0.696651751,0.000000000,0.000143194,-0.000298668,-0.013729490,0.000000000,-0.013622758,-0.002300000,-0.001584846,-0.013565860,0.002834898,0.000000000,0.000485293,-0.002474000,-0.000313816,-0.012867062,-0.326757630,0.000000000,-0.322981430,0.072126001,0.062632887,0.043095888,1.720759911,0.000000000,1.723584342,0.267509997,0.242931712,0.005989053,1.508249934,0.000000000,1.509917204,-0.296905994,-0.288898572,-0.050428513,-0.666411102,0.000000000,-0.665901861,-0.003774000,-0.002873935,-0.030105334,-0.005295159,0.000000000,-0.005375648
0.181983597,-0.006935000,-0.002370848,-0.042230907,-0.244244239,0.000000000,-0.247686269,-0.001388000,-0.006394800,-0.008553006,1.610461842,0.000000000,1.616618283,-0.003735000,-0.005198239,0.025166430,-0.151847857,0.000000000,-0.153321171,0.421068996,0.373561478,0.058880237,2.580649171,0.000000000,2.582291735,-0.403629005,-0.395625758,-0.039630654,-0.696651751,0.000000000,-0.696178200,0.000000000,0.000142565,-0.000314269,-0.013622758,0.000000000,-0.013514882,-0.002367000,-0.001612661,-0.013907299,0.000485293,0.000000000,-0.001760763,-0.002493000,-0.000339734,-0.012974783,-0.322981430,0.000000000,-0.318578416,0.072186001,0.062718128,0.042620735,1.723584342,0.000000000,1.727156981,0.267363012,0.242940365,0.004326496,1.509917204,0.000000000,1.511903777,-0.296968013,-0.288997107,-0.049267386,-0.665901861,0.000000000,-0.665512441,-0.003843000,-0.002934762,-0.030413777,-0.005375648,0.000000000,-0.005324677
0.183983417,-0.007133000,-0.002458325,-0.043738656,-0.247686269,0.000000000,-0.250940821,-0.001426000,-0.006412942,-0.009070887,1.616618283,0.000000000,1.622687627,-0.003712000,-0.005148481,0.024878915,-0.153321171,0.000000000,-0.154423653,0.420949012,0.373674637,0.056579554,2.582291735,0.000000000,2.583918500,-0.403683990,-0.395703723,-0.038982482,-0.696178200,0.000000000,-0.695698512,0.000000000,0.000141908,-0.000328450,-0.013514882,0.000000000,-0.013408176,-0.002437000,-0.001641236,-0.014288021,-0.001760763,0.000000000,-0.004023256,-0.002512000,-0.000365870,-0.013081493,-0.318578416,0.000000000,-0.314136476,0.072245002,0.062802401,0.042136583,1.727156981,0.000000000,1.730924612,0.267221004,0.242945742,0.002688651,1.511903777,0.000000000,1.514235985,-0.297028005,-0.289093289,-0.048090908,-0.665512441,0.000000000,-0.665199651,-0.003913000,-0.002996212,-0.030724960,-0.005324677,0.000000000,-0.005304129
0.185983236,-0.007330000,-0.002548844,-0.045259533,-0.250940821,0.000000000,-0.253690294,-0.001465000,-0.006432111,-0.009584452,1.622687627,0.000000000,1.628667081,-0.003689000,-0.005099315,0.024582982,-0.154423653,0.000000000,-0.155167434,0.420828015,0.373783225,0.054294049,2.583918500,0.000000000,2.585662102,-0.403737992,-0.395780343,-0.038309677,-0.695698512,0.000000000,-0.695325455,0.000000000,0.000141225,-0.000341428,-0.013408176,0.000000000,-0.013302265,-0.002509000,-0.001670655,-0.014709297,-0.004023256,0.000000000,-0.006179825,-0.002530000,-0.000392222,-0.013187723,-0.314136476,0.000000000,-0.309359712,0.072305001,0.062885681,0.041640053,1.730924612,0.000000000,1.735538297,0.267084986,0.242947915,0.001086388,1.514235985,0.000000000,1.516896060,-0.297086000,-0.289187116,-0.046913510,-0.665199651,0.000000000,-0.664925662,-0.003982000,-0.003058300,-0.031044124,-0.005304129,0.000000000,-0.005095268
0.187983056,-0.007529000,-0.002642425,-0.046790572,-0.253690294,0.000000000,-0.256269089,-0.001505000,-0.006452297,-0.010093365,1.628667081,0.000000000,1.634546330,-0.003667000,-0.005050758,0.024278463,-0.155167434,0.000000000,-0.155828190,0.420704007,0.373887276,0.052025426,2.585662102,0.000000000,2.587382165,-0.403789014,-0.395855584,-0.037620714,-0.695325455,0.000000000,-0.694836398,0.000000000,0.000140517,-0.000354057,-0.013302265,0.000000000,-0.013194797,-0.002585000,-0.001700991,-0.015168074,-0.006179825,0.000000000,-0.008452860,-0.002546000,-0.000418787,-0.013293030,-0.309359712,0.000000000,-0.303974718,0.072365999,0.062967945,0.041131897,1.735538297,0.000000000,1.740987582,0.266957998,0.242946957,-0.000479022,1.516896060,0.000000000,1.520062331,-0.297141999,-0.289278597,-0.045740402,-0.664925662,0.000000000,-0.664674797,-0.004052000,-0.003120974,-0.031337036,-0.005095268,0.000000000,-0.005002922
0.189982876,-0.007727000,-0.002739087,-0.048330840,-0.256269089,0.000000000,-0.258360763,-0.001545000,-0.006473493,-0.010597562,1.634546330,0.000000000,1.640605598,-0.003646000,-0.005002827,0.023965660,-0.155828190,0.000000000,-0.156408009,0.420578003,0.373986821,0.049772452,2.587382165,0.000000000,2.589149496,-0.403838009,-0.395929398,-0.036906932,-0.694836398,0.000000000,-0.694357362,0.000000000,0.000139785,-0.000366053,-0.013194797,0.000000000,-0.013086702,-0.002662000,-0.001732321,-0.015665578,-0.008452860,0.000000000,-0.010507456,-0.002560000,-0.000445561,-0.013396361,-0.303974718,0.000000000,-0.298006454,0.072428003,0.063049166,0.040610467,1.740987582,0.000000000,1.747319460,0.266840011,0.242942957,-0.001999974,1.520062331,0.000000000,1.523673240,-0.297196001,-0.289367757,-0.044579993,-0.664674797,0.000000000,-0.664420578,-0.004122000,-0.003184231,-0.031628326,-0.005002922,0.000000000,-0.004856309
0.191982696,-0.007925000,-0.002838841,-0.049877181,-0.258360763,0.000000000,-0.260088439,-0.001586000,-0.006495685,-0.011096460,1.640605598,0.000000000,1.646544345,-0.003624000,-0.004955539,0.023644126,-0.156408009,0.000000000,-0.156323242,0.420450985,0.374081893,0.047536376,2.589149496,0.000000000,2.591015190,-0.403885007,-0.396001737,-0.036169572,-0.694357362,0.000000000,-0.693892602,0.000000000,0.000139027,-0.000378969,-0.013086702,0.000000000,-0.012973381,-0.002742000,-0.001764713,-0.016195755,-0.010507456,0.000000000,-0.012584016,-0.002572000,-0.000472538,-0.013496691,-0.298006454,0.000000000,-0.291480053,0.072489999,0.063129316,0.040075431,1.747319460,0.000000000,1.754261151,0.266732991,0.242936012,-0.003472498,1.523673240,0.000000000,1.527818693,-0.297248006,-0.289454630,-0.043436521,-0.664420578,0.000000000,-0.664147534,-0.004191000,-0.003248051,-0.031910207,-0.004856309,0.000000000,-0.004578379
0.193982515,-0.008124000,-0.002941696,-0.051427743,-0.260088439,0.000000000,-0.261568308,-0.001626000,-0.006518865,-0.011589946,1.646544345,0.000000000,1.652925463,-0.003603000,-0.004908909,0.023314721,-0.156323242,0.000000000,-0.156157468,0.420323998,0.374172526,0.045316250,2.591015190,0.000000000,2.593049864,-0.403928995,-0.396072557,-0.035409749,-0.693892602,0.000000000,-0.693341075,0.000000000,0.000138243,-0.000392098,-0.012973381,0.000000000,-0.012856801,-0.002823000,-0.001798230,-0.016758704,-0.012584016,0.000000000,-0.014461854,-0.002583000,-0.000499711,-0.013594305,-0.291480053,0.000000000,-0.284674844,0.072552003,0.063208364,0.039523961,1.754261151,0.000000000,1.761890182,0.266638011,0.242926239,-0.004886537,1.527818693,0.000000000,1.532487590,-0.297298014,-0.289539263,-0.042316569,-0.664147534,0.000000000,-0.663832200,-0.004260000,-0.003312371,-0.032159518,-0.004578379,0.000000000,-0.004342654
0.195982335,-0.008321000,-0.003047657,-0.052980543,-0.261568308,0.000000000,-0.262491253,-0.001667000,-0.006543020,-0.012077337,1.652925463,0.000000000,1.659161560,-0.003583000,-0.004862956,0.022976678,-0.156157468,0.000000000,-0.155888397,0.420195013,0.374258754,0.043114057,2.593049864,0.000000000,2.595109154,-0.403970987,-0.396141802,-0.034622701,-0.693341075,0.000000000,-0.692824235,0.000000000,0.000137429,-0.000407050,-0.012856801,0.000000000,-0.012732014,-0.002906000,-0.001832929,-0.017349895,-0.014461854,0.000000000,-0.016267111,-0.002590000,-0.000527074,-0.013688251,-0.284674844,0.000000000,-0.276761747,0.072616003,0.063286272,0.038954316,1.761890182,0.000000000,1.770821703,0.266557992,0.242913770,-0.006234666,1.532487590,0.000000000,1.537803303,-0.297347009,-0.289621709,-0.041223010,-0.663832200,0.000000000,-0.663560462,-0.004328000,-0.003377141,-0.032385457,-0.004342654,0.000000000,-0.004026662
0.197982155,-0.008519000,-0.003156721,-0.054532287,-0.262491253,0.000000000,-0.263195981,-0.001707000,-0.006568137,-0.012558309,1.659161560,0.000000000,1.665810166,-0.003562000,-0.004817696,0.022629746,-0.155888397,0.000000000,-0.154936813,0.420065999,0.374340615,0.040930742,2.595109154,0.000000000,2.597308191,-0.404009014,-0.396209424,-0.033811101,-0.692824235,0.000000000,-0.692140650,0.000000000,0.000136583,-0.000423055,-0.012732014,0.000000000,-0.012601001,-0.002991000,-0.001868859,-0.017965099,-0.016267111,0.000000000,-0.018018614,-0.002595000,-0.000554615,-0.013776633,-0.276761747,0.000000000,-0.268355490,0.072679996,0.063363004,0.038366073,1.770821703,0.000000000,1.780506202,0.266492993,0.242898748,-0.007510808,1.537803303,0.000000000,1.543717304,-0.297394007,-0.289702040,-0.040165504,-0.663560462,0.000000000,-0.663198176,-0.004395000,-0.003442297,-0.032577891,-0.004026662,0.000000000,-0.003665989
0.199981975,-0.008716000,-0.003268884,-0.056081602,-0.263195981,0.000000000,-0.263477530,-0.001748000,-0.006594201,-0.013032345,1.665810166,0.000000000,1.672287064,-0.003542000,-0.004773147,0.022274859,-0.154936813,0.000000000,-0.153887691,0.419937998,0.374418144,0.038764333,2.597308191,0.000000000,2.599724741,-0.404044986,-0.396275351,-0.032963295,-0.692140650,0.000000000,-0.691523540,0.000000000,0.000135701,-0.000440845,-0.012601001,0.000000000,-0.012461316,-0.003078000,-0.001906064,-0.018602778,-0.018018614,0.000000000,-0.019720258,-0.002596000,-0.000582323,-0.013859488,-0.268355490,0.000000000,-0.258889832,0.072743997,0.063438518,0.037756727,1.780506202,0.000000000,1.791016534,0.266443998,0.242881336,-0.008705905,1.543717304,0.000000000,1.550217099,-0.297439009,-0.289780329,-0.039144486,-0.663198176,0.000000000,-0.662736732,-0.004462000,-0.003507756,-0.032729640,-0.003665989,0.000000000,-0.003390260
0.201981794,-0.008910000,-0.003384136,-0.057625857,-0.263477530,0.000000000,-0.263138736,-0.001789000,-0.006621200,-0.013499225,1.672287064,0.000000000,1.678867578,-0.003521000,-0.004729325,0.021910870,-0.153887691,0.000000000,-0.152141597,0.419806987,0.374491382,0.036618718,2.599724741,0.000000000,2.602074421,-0.404076993,-0.396339523,-0.032085978,-0.691523540,0.000000000,-0.690767073,-0.000001000,0.000134783,-0.000459333,-0.012461316,0.000000000,-0.012416974,-0.003168000,-0.001944583,-0.019259433,-0.019720258,0.000000000,-0.021494386,-0.002596000,-0.000610183,-0.013934824,-0.258889832,0.000000000,-0.249266899,0.072811998,0.063512767,0.037124728,1.791016534,0.000000000,1.803535821,0.266406000,0.242861710,-0.009813080,1.550217099,0.000000000,1.556926447,-0.297482014,-0.289856645,-0.038157920,-0.662736732,0.000000000,-0.662174954,-0.004528000,-0.003573480,-0.032861556,-0.003390260,0.000000000,-0.003043212
0.203981614,-0.009102000,-0.003502458,-0.059161429,-0.263138736,0.000000000,-0.262308447,-0.001833000,-0.006649116,-0.013958122,1.678867578,0.000000000,1.684675627,-0.003500000,-0.004686246,0.021539528,-0.152141597,0.000000000,-0.150018100,0.419672012,0.374560360,0.034489442,2.602074421,0.000000000,2.604326584,-0.404105991,-0.396401858,-0.031167626,-0.690767073,0.000000000,-0.690008683,-0.000002000,0.000133791,-0.000495862,-0.012416974,0.000000000,-0.012313959,-0.003265000,-0.001984452,-0.019934635,-0.021494386,0.000000000,-0.023765835,-0.002595000,-0.000638178,-0.014002328,-0.249266899,0.000000000,-0.239498264,0.072881997,0.063585722,0.036477714,1.803535821,0.000000000,1.817330098,0.266368002,0.242840013,-0.010848743,1.556926447,0.000000000,1.563258315,-0.297520995,-0.289931024,-0.037189776,-0.662174954,0.000000000,-0.661349877,-0.004595000,-0.003639399,-0.032959590,-0.003043212,0.000000000,-0.002873718
0.205981434,-0.009292000,-0.003623831,-0.060686262,-0.262308447,0.000000000,-0.261000675,-0.001880000,-0.006677935,-0.014409685,1.684675627,0.000000000,1.689721772,-0.003479000,-0.004643922,0.021161927,-0.150018100,0.000000000,-0.147538293,0.419533014,0.374625108,0.032373935,2.604326584,0.000000000,2.606494002,-0.404132009,-0.396462272,-0.030206841,-0.690008683,0.000000000,-0.689263937,-0.000004000,0.000132713,-0.000538730,-0.012313959,0.000000000,-0.012285324,-0.003368000,-0.002025723,-0.020635699,-0.023765835,0.000000000,-0.026381134,-0.002592000,-0.000666294,-0.014062433,-0.239498264,0.000000000,-0.229294129,0.072956003,0.063657372,0.035825004,1.817330098,0.000000000,1.832763664,0.266330987,0.242816334,-0.011839128,1.563258315,0.000000000,1.569455589,-0.297558993,-0.290003432,-0.036203580,-0.661349877,0.000000000,-0.660676066,-0.004662000,-0.003705514,-0.033057448,-0.002873718,0.000000000,-0.002684990
0.207981254,-0.009480000,-0.003748227,-0.062198101,-0.261000675,0.000000000,-0.259230857,-0.001928000,-0.006707644,-0.014854081,1.689721772,0.000000000,1.694574208,-0.003457000,-0.004602364,0.020778971,-0.147538293,0.000000000,-0.144435448,0.419391990,0.374685649,0.030270155,2.606494002,0.000000000,2.608715817,-0.404155999,-0.396520679,-0.029203639,-0.689263937,0.000000000,-0.688637746,-0.000008000,0.000131516,-0.000598640,-0.012285324,0.000000000,-0.012398257,-0.003476000,-0.002068456,-0.021366646,-0.026381134,0.000000000,-0.029204560,-0.002589000,-0.000694516,-0.014115280,-0.229294129,0.000000000,-0.219223918,0.073032998,0.063727719,0.035173620,1.832763664,0.000000000,1.849386776,0.266297013,0.242790735,-0.012799836,1.569455589,0.000000000,1.575755298,-0.297594011,-0.290073841,-0.035204811,-0.660676066,0.000000000,-0.659938687,-0.004729000,-0.003771821,-0.033153483,-0.002684990,0.000000000,-0.002481984
0.209981073,-0.009667000,-0.003875615,-0.063694279,-0.259230857,0.000000000,-0.257124114,-0.001977000,-0.006738225,-0.015290702,1.694574208,0.000000000,1.699214768,-0.003434000,-0.004561582,0.020391345,-0.144435448,0.000000000,-0.140722405,0.419247001,0.374742004,0.028177816,2.608715817,0.000000000,2.610870272,-0.404177994,-0.396577012,-0.028166589,-0.688637746,0.000000000,-0.688115601,-0.000012000,0.000130117,-0.000699483,-0.012398257,0.000000000,-0.012374435,-0.003590000,-0.002112718,-0.022131105,-0.029204560,0.000000000,-0.032315089,-0.002586000,-0.000722833,-0.014161854,-0.219223918,0.000000000,-0.209268959,0.073110998,0.063796773,0.034527313,1.849386776,0.000000000,1.866548355,0.266263992,0.242763256,-0.013739315,1.575755298,0.000000000,1.582083033,-0.297627002,-0.290142211,-0.034185142,-0.659938687,0.000000000,-0.659262015,-0.004796000,-0.003838309,-0.033244017,-0.002481984,0.000000000,-0.002276367
0.211980893,-0.009854000,-0.004005962,-0.065173571,-0.257124114,0.000000000,-0.254797507,-0.002027000,-0.006769665,-0.015720010,1.699214768,0.000000000,1.703649675,-0.003413000,-0.004521581,0.020000507,-0.140722405,0.000000000,-0.137282927,0.419101000,0.374794193,0.026094496,2.610870272,0.000000000,2.613159802,-0.404199004,-0.396631216,-0.027102042,-0.688115601,0.000000000,-0.687787413,-0.000018000,0.000128481,-0.000818094,-0.012374435,0.000000000,-0.012478252,-0.003707000,-0.002158588,-0.022935119,-0.032315089,0.000000000,-0.035350283,-0.002581000,-0.000751232,-0.014203320,-0.209268959,0.000000000,-0.198837405,0.073190004,0.063864547,0.033887078,1.866548355,0.000000000,1.884222477,0.266232014,0.242733938,-0.014659091,1.582083033,0.000000000,1.588452798,-0.297659010,-0.290208511,-0.033149999,-0.659262015,0.000000000,-0.658739175,-0.004863000,-0.003904964,-0.033327828,-0.002276367,0.000000000,-0.002072876
0.213980713,-0.010042000,-0.004139231,-0.066634208,-0.254797507,0.000000000,-0.252371519,-0.002077000,-0.006801948,-0.016141473,1.703649675,0.000000000,1.708146766,-0.003391000,-0.004482371,0.019604704,-0.137282927,0.000000000,-0.133221940,0.418951988,0.374842245,0.024025626,2.613159802,0.000000000,2.615417856,-0.404217988,-0.396683268,-0.026025913,-0.687787413,0.000000000,-0.687504855,-0.000024000,0.000126529,-0.000975811,-0.012478252,0.000000000,-0.012439014,-0.003828000,-0.002206138,-0.023775167,-0.035350283,0.000000000,-0.038428992,-0.002576000,-0.000779703,-0.014238379,-0.198837405,0.000000000,-0.188530607,0.073269002,0.063931056,0.033254268,1.884222477,0.000000000,1.902086289,0.266202986,0.242702817,-0.015560398,1.588452798,0.000000000,1.594991518,-0.297690004,-0.290272736,-0.032112194,-0.658739175,0.000000000,-0.658331266,-0.004929000,-0.003971781,-0.033408231,-0.002072876,0.000000000,-0.001761780
