sainanliu129-hub/model/applications/Body_GravityPara_Iden/data/excitation/0-260116_run_softly_轻跑步_002_leg_500Hz_PD-M1-v0_multi_joint_20260325-035526_stillleg_zero.csv
time,leg_l1_joint,leg_l2_joint,leg_l3_joint,leg_l4_joint,leg_l5_joint,leg_l6_joint,leg_r1_joint,leg_r2_joint,leg_r3_joint,leg_r4_joint,leg_r5_joint,leg_r6_joint
0.00000,0.000000,0.000000,-0.006823,0.424885,-0.396260,0.000000,0.000000,0.000000,0.000000,0.000000,0.000000,0.000000
0.00200,-0.000031,0.000016,-0.006821,0.424870,-0.396316,0.000000,0.000000,0.000000,0.000000,0.000000,0.000000,0.000000
0.00400,-0.000061,0.000031,-0.006816,0.424854,-0.396375,0.000000,0.000000,0.000000,0.000000,0.000000,0.000000,0.000000
0.00600,-0.000091,0.000045,-0.006810,0.424837,-0.396436,0.000000,0.000000,0.000000,0.000000,0.000000,0.000000,0.000000
0.00800,-0.000120,0.000057,-0.006802,0.424820,-0.396500,0.000000,0.000000,0.000000,0.000000,0.000000,0.000000,0.000000
0.01000,-0.000148,0.000069,-0.006792,0.424803,-0.396566,0.000000,0.000000,0.000000,0.000000,0.000000,0.000000,0.000000
0.01200,-0.000176,0.000079,-0.006781,0.424785,-0.396634,0.000000,0.000000,0.000000,0.000000,0.000000,0.000000,0.000000
0.01400,-0.000202,0.000089,-0.006769,0.424767,-0.396704,0.000000,0.000000,0.000000,0.000000,0.000000,0.000000,0.000000
0.01600,-0.000228,0.000097,-0.006755,0.424748,-0.396777,0.000000,0.000000,0.000000,0.000000,0.000000,0.000000,0.000000
0.01800,-0.000252,0.000104,-0.006740,0.424729,-0.396851,0.000000,0.000000,0.000000,0.000000,0.000000,0.000000,0.000000
0.02000,-0.000276,0.000111,-0.006724,0.424709,-0.396927,0.000000,0.000000,0.000000,0.000000,0.000000,0.000000,0.000000
0.02200,-0.000298,0.000116,-0.006707,0.424689,-0.397005,0.000000,0.000000,0.000000,0.000000,0.000000,0.000000,0.000000
0.02400,-0.000319,0.000121,-0.006690,0.424669,-0.397085,0.000000,0.000000,0.000000,0.000000,0.000000,0.000000,0.000000
0.02600,-0.000339,0.000124,-0.006671,0.424648,-0.397166,0.000000,0.000000,0.000000,0.000000,0.000000,0.000000,0.000000
0.02800,-0.000357,0.000127,-0.006653,0.424627,-0.397249,0.000000,0.000000,0.000000,0.000000,0.000000,0.000000,0.000000
0.03000,-0.000374,0.000129,-0.006634,0.424606,-0.397333,0.000000,0.000000,0.000000,0.000000,0.000000,0.000000,0.000000
0.03200,-0.000390,0.000130,-0.006614,0.424584,-0.397419,0.000000,0.000000,0.000000,0.000000,0.000000,0.000000,0.000000
0.03400,-0.000404,0.000130,-0.006594,0.424562,-0.397507,0.000000,0.000000,0.000000,0.000000,0.000000,0.000000,0.000000
0.03600,-0.000416,0.000128,-0.006572,0.424539,-0.397601,0.000000,0.000000,0.000000,0.000000,0.000000,0.000000,0.000000
0.03800,-0.000428,0.000125,-0.006546,0.424515,-0.397702,0.000000,0.000000,0.000000,0.000000,0.000000,0.000000,0.000000
0.04000,-0.000438,0.000120,-0.006518,0.424489,-0.397810,0.000000,0.000000,0.000000,0.000000,0.000000,0.000000,0.000000
0.04200,-0.000448,0.000114,-0.006487,0.424463,-0.397923,0.000000,0.000000,0.000000,0.000000,0.000000,0.000000,0.000000
0.04400,-0.000457,0.000107,-0.006453,0.424436,-0.398039,0.000000,0.000000,0.000000,0.000000,0.000000,0.000000,0.000000
0.04600,-0.000466,0.000098,-0.006417,0.424408,-0.398158,0.000000,0.000000,0.000000,0.000000,0.000000,0.000000,0.000000
0.04800,-0.000474,0.000088,-0.006380,0.424380,-0.398279,0.000000,0.000000,0.000000,0.000000,0.000000,0.000000,0.000000
0.05000,-0.000482,0.000077,-0.006340,0.424352,-0.398401,0.000000,0.000000,0.000000,0.000000,0.000000,0.000000,0.000000
0.05200,-0.000490,0.000065,-0.006300,0.424324,-0.398522,0.000000,0.000000,0.000000,0.000000,0.000000,0.000000,0.000000
0.05400,-0.000498,0.000053,-0.006258,0.424296,-0.398642,0.000000,0.000000,0.000000,0.000000,0.000000,0.000000,0.000000
0.05599,-0.000506,0.000040,-0.006215,0.424268,-0.398759,0.000000,0.000000,0.000000,0.000000,0.000000,0.000000,0.000000
0.05799,-0.000515,0.000026,-0.006172,0.424240,-0.398872,0.000000,0.000000,0.000000,0.000000,0.000000,0.000000,0.000000
0.05999,-0.000524,0.000012,-0.006128,0.424214,-0.398980,0.000000,0.000000,0.000000,0.000000,0.000000,0.000000,0.000000
0.06199,-0.000533,-0.000002,-0.006084,0.424188,-0.399082,0.000000,0.000000,0.000000,0.000000,0.000000,0.000000,0.000000
0.06399,-0.000543,-0.000016,-0.006040,0.424163,-0.399177,0.000000,0.000000,0.000000,0.000000,0.000000,0.000000,0.000000
0.06599,-0.000554,-0.000031,-0.005996,0.424139,-0.399264,0.000000,0.000000,0.000000,0.000000,0.000000,0.000000,0.000000
0.06799,-0.000566,-0.000045,-0.005953,0.424117,-0.399342,0.000000,0.000000,0.000000,0.000000,0.000000,0.000000,0.000000
0.06999,-0.000578,-0.000063,-0.005907,0.424096,-0.399416,0.000000,0.000000,0.000000,0.000000,0.000000,0.000000,0.000000
0.07199,-0.000589,-0.000082,-0.005858,0.424077,-0.399485,0.000000,0.000000,0.000000,0.000000,0.000000,0.000000,0.000000
0.07399,-0.000600,-0.000104,-0.005808,0.424058,-0.399550,0.000000,0.000000,0.000000,0.000000,0.000000,0.000000,0.000000
0.07599,-0.000612,-0.000128,-0.005756,0.424040,-0.399612,0.000000,0.000000,0.000000,0.000000,0.000000,0.000000,0.000000
0.07799,-0.000623,-0.000153,-0.005703,0.424023,-0.399672,0.000000,0.000000,0.000000,0.000000,0.000000,0.000000,0.000000
0.07999,-0.000636,-0.000180,-0.005649,0.424006,-0.399730,0.000000,0.000000,0.000000,0.000000,0.000000,0.000000,0.000000
0.08199,-0.000648,-0.000207,-0.005595,0.423989,-0.399786,0.000000,0.000000,0.000000,0.000000,0.000000,0.000000,0.000000
0.08399,-0.000662,-0.000235,-0.005540,0.423972,-0.399842,0.000000,0.000000,0.000000,0.000000,0.000000,0.000000,0.000000
0.08599,-0.000677,-0.000264,-0.005485,0.423955,-0.399897,0.000000,0.000000,0.000000,0.000000,0.000000,0.000000,0.000000
0.08799,-0.000692,-0.000293,-0.005430,0.423937,-0.399953,0.000000,0.000000,0.000000,0.000000,0.000000,0.000000,0.000000
0.08999,-0.000710,-0.000322,-0.005376,0.423918,-0.400009,0.000000,0.000000,0.000000,0.000000,0.000000,0.000000,0.000000
0.09199,-0.000728,-0.000351,-0.005324,0.423898,-0.400068,0.000000,0.000000,0.000000,0.000000,0.000000,0.000000,0.000000
0.09399,-0.000748,-0.000379,-0.005272,0.423877,-0.400128,0.000000,0.000000,0.000000,0.000000,0.000000,0.000000,0.000000
0.09599,-0.000770,-0.000406,-0.005222,0.423854,-0.400191,0.000000,0.000000,0.000000,0.000000,0.000000,0.000000,0.000000
0.09799,-0.000794,-0.000432,-0.005174,0.423829,-0.400258,0.000000,0.000000,0.000000,0.000000,0.000000,0.000000,0.000000
0.09999,-0.000820,-0.000457,-0.005128,0.423803,-0.400329,0.000000,0.000000,0.000000,0.000000,0.000000,0.000000,0.000000
0.10199,-0.000854,-0.000480,-0.005084,0.423774,-0.400403,0.000000,0.000000,0.000000,0.000000,0.000000,0.000000,0.000000
0.10399,-0.000900,-0.000504,-0.005040,0.423741,-0.400481,0.000000,0.000000,0.000000,0.000000,0.000000,0.000000,0.000000
0.10599,-0.000959,-0.000528,-0.004998,0.423706,-0.400563,0.000000,0.000000,0.000000,0.000000,0.000000,0.000000,0.000000
0.10799,-0.001028,-0.000551,-0.004956,0.423668,-0.400647,0.000000,0.000000,0.000000,0.000000,0.000000,0.000000,0.000000
0.10999,-0.001107,-0.000575,-0.004914,0.423628,-0.400733,0.000000,0.000000,0.000000,0.000000,0.000000,0.000000,0.000000
0.11199,-0.001196,-0.000598,-0.004873,0.423586,-0.400821,0.000000,0.000000,0.000000,0.000000,0.000000,0.000000,0.000000
0.11399,-0.001292,-0.000621,-0.004833,0.423541,-0.400911,0.000000,0.000000,0.000000,0.000000,0.000000,0.000000,0.000000
0.11599,-0.001396,-0.000644,-0.004794,0.423494,-0.401002,0.000000,0.000000,0.000000,0.000000,0.000000,0.000000,0.000000
0.11799,-0.001506,-0.000666,-0.004755,0.423446,-0.401094,0.000000,0.000000,0.000000,0.000000,0.000000,0.000000,0.000000
0.11999,-0.001622,-0.000689,-0.004716,0.423396,-0.401186,0.000000,0.000000,0.000000,0.000000,0.000000,0.000000,0.000000
0.12199,-0.001742,-0.000711,-0.004678,0.423345,-0.401279,0.000000,0.000000,0.000000,0.000000,0.000000,0.000000,0.000000
0.12399,-0.001865,-0.000733,-0.004641,0.423292,-0.401371,0.000000,0.000000,0.000000,0.000000,0.000000,0.000000,0.000000
0.12599,-0.001991,-0.000755,-0.004603,0.423239,-0.401463,0.000000,0.000000,0.000000,0.000000,0.000000,0.000000,0.000000
0.12799,-0.002119,-0.000776,-0.004567,0.423185,-0.401553,0.000000,0.000000,0.000000,0.000000,0.000000,0.000000,0.000000
0.12999,-0.002248,-0.000797,-0.004530,0.423130,-0.401642,0.000000,0.000000,0.000000,0.000000,0.000000,0.000000,0.000000
0.13199,-0.002377,-0.000818,-0.004494,0.423075,-0.401730,0.000000,0.000000,0.000000,0.000000,0.000000,0.000000,0.000000
0.13399,-0.002505,-0.000839,-0.004458,0.423019,-0.401815,0.000000,0.000000,0.000000,0.000000,0.000000,0.000000,0.000000
0.13599,-0.002641,-0.000858,-0.004423,0.422963,-0.401901,0.000000,0.000000,0.000000,0.000000,0.000000,0.000000,0.000000
0.13799,-0.002788,-0.000877,-0.004387,0.422904,-0.401988,0.000000,0.000000,0.000000,0.000000,0.000000,0.000000,0.000000
0.13999,-0.002945,-0.000895,-0.004352,0.422845,-0.402076,0.000000,0.000000,0.000000,0.000000,0.000000,0.000000,0.000000
0.14199,-0.003109,-0.000912,-0.004317,0.422783,-0.402165,0.000000,0.000000,0.000000,0.000000,0.000000,0.000000,0.000000
0.14399,-0.003282,-0.000929,-0.004282,0.422720,-0.402253,0.000000,0.000000,0.000000,0.000000,0.000000,0.000000,0.000000
0.14599,-0.003461,-0.000946,-0.004247,0.422655,-0.402341,0.000000,0.000000,0.000000,0.000000,0.000000,0.000000,0.000000
0.14799,-0.003645,-0.000962,-0.004213,0.422589,-0.402429,0.000000,0.000000,0.000000,0.000000,0.000000,0.000000,0.000000
0.14999,-0.003834,-0.000979,-0.004180,0.422520,-0.402516,0.000000,0.000000,0.000000,0.000000,0.000000,0.000000,0.000000
0.15199,-0.004026,-0.000996,-0.004147,0.422450,-0.402601,0.000000,0.000000,0.000000,0.000000,0.000000,0.000000,0.000000
0.15399,-0.004221,-0.001013,-0.004114,0.422377,-0.402685,0.000000,0.000000,0.000000,0.000000,0.000000,0.000000,0.000000
0.15599,-0.004418,-0.001031,-0.004082,0.422303,-0.402767,0.000000,0.000000,0.000000,0.000000,0.000000,0.000000,0.000000
0.15799,-0.004616,-0.001050,-0.004051,0.422227,-0.402847,0.000000,0.000000,0.000000,0.000000,0.000000,0.000000,0.000000
0.15999,-0.004813,-0.001069,-0.004021,0.422148,-0.402925,0.000000,0.000000,0.000000,0.000000,0.000000,0.000000,0.000000
0.16199,-0.005009,-0.001090,-0.003991,0.422067,-0.402999,0.000000,0.000000,0.000000,0.000000,0.000000,0.000000,0.000000
0.16399,-0.005203,-0.001112,-0.003963,0.421984,-0.403070,0.000000,0.000000,0.000000,0.000000,0.000000,0.000000,0.000000
0.16599,-0.005393,-0.001135,-0.003935,0.421899,-0.403138,0.000000,0.000000,0.000000,0.000000,0.000000,0.000000,0.000000
0.16798,-0.005581,-0.001160,-0.003908,0.421810,-0.403203,0.000000,0.000000,0.000000,0.000000,0.000000,0.000000,0.000000
0.16998,-0.005771,-0.001188,-0.003882,0.421717,-0.403267,0.000000,0.000000,0.000000,0.000000,0.000000,0.000000,0.000000
0.17198,-0.005962,-0.001217,-0.003856,0.421619,-0.403330,0.000000,0.000000,0.000000,0.000000,0.000000,0.000000,0.000000
0.17398,-0.006154,-0.001248,-0.003831,0.421516,-0.403392,0.000000,0.000000,0.000000,0.000000,0.000000,0.000000,0.000000
0.17598,-0.006348,-0.001281,-0.003806,0.421410,-0.403453,0.000000,0.000000,0.000000,0.000000,0.000000,0.000000,0.000000
0.17798,-0.006543,-0.001316,-0.003782,0.421299,-0.403513,0.000000,0.000000,0.000000,0.000000,0.000000,0.000000,0.000000
0.17998,-0.006739,-0.001351,-0.003758,0.421186,-0.403572,0.000000,0.000000,0.000000,0.000000,0.000000,0.000000,0.000000
0.18198,-0.006935,-0.001388,-0.003735,0.421069,-0.403629,0.000000,0.000000,0.000000,0.000000,0.000000,0.000000,0.000000
0.18398,-0.007133,-0.001426,-0.003712,0.420949,-0.403684,0.000000,0.000000,0.000000,0.000000,0.000000,0.000000,0.000000
0.18598,-0.007330,-0.001465,-0.003689,0.420828,-0.403738,0.000000,0.000000,0.000000,0.000000,0.000000,0.000000,0.000000
0.18798,-0.007529,-0.001505,-0.003667,0.420704,-0.403789,0.000000,0.000000,0.000000,0.000000,0.000000,0.000000,0.000000
0.18998,-0.007727,-0.001545,-0.003646,0.420578,-0.403838,0.000000,0.000000,0.000000,0.000000,0.000000,0.000000,0.000000
0.19198,-0.007925,-0.001586,-0.003624,0.420451,-0.403885,0.000000,0.000000,0.000000,0.000000,0.000000,0.000000,0.000000
0.19398,-0.008124,-0.001626,-0.003603,0.420324,-0.403929,0.000000,0.000000,0.000000,0.000000,0.000000,0.000000,0.000000
0.19598,-0.008321,-0.001667,-0.003583,0.420195,-0.403971,0.000000,0.000000,0.000000,0.000000,0.000000,0.000000,0.000000
0.19798,-0.008519,-0.001707,-0.003562,0.420066,-0.404009,0.000000,0.000000,0.000000,0.000000,0.000000,0.000000,0.000000
0.19998,-0.008716,-0.001748,-0.003542,0.419938,-0.404045,0.000000,0.000000,0.000000,0.000000,0.000000,0.000000,0.000000
0.20198,-0.008910,-0.001789,-0.003521,0.419807,-0.404077,-0.000001,0.000000,0.000000,0.000000,0.000000,0.000000,0.000000
0.20398,-0.009102,-0.001833,-0.003500,0.419672,-0.404106,-0.000002,0.000000,0.000000,0.000000,0.000000,0.000000,0.000000
0.20598,-0.009292,-0.001880,-0.003479,0.419533,-0.404132,-0.000004,0.000000,0.000000,0.000000,0.000000,0.000000,0.000000
0.20798,-0.009480,-0.001928,-0.003457,0.419392,-0.404156,-0.000008,0.000000,0.000000,0.000000,0.000000,0.000000,0.000000
0.20998,-0.009667,-0.001977,-0.003434,0.419247,-0.404178,-0.000012,0.000000,0.000000,0.000000,0.000000,0.000000,0.000000
0.21198,-0.009854,-0.002027,-0.003413,0.419101,-0.404199,-0.000018,0.000000,0.000000,0.000000,0.000000,0.000000,0.000000
0.21398,-0.010042,-0.002077,-0.003391,0.418952,-0.404218,-0.000024,0.000000,0.000000,0.000000,0.000000,0.000000,0.000000
0.21598,-0.010230,-0.002127,-0.003370,0.418803,-0.404238,-0.000031,0.000000,0.000000,0.000000,0.000000,0.000000,0.000000
0.21798,-0.010420,-0.002177,-0.003350,0.418653,-0.404257,-0.000039,0.000000,0.000000,0.000000,0.000000,0.000000,0.000000
0.21998,-0.010613,-0.002226,-0.003331,0.418503,-0.404278,-0.000047,0.000000,0.000000,0.000000,0.000000,0.000000,0.000000
0.22198,-0.010808,-0.002273,-0.003313,0.418353,-0.404299,-0.000057,0.000000,0.000000,0.000000,0.000000,0.000000,0.000000
0.22398,-0.011007,-0.002319,-0.003296,0.418204,-0.404321,-0.000067,0.000000,0.000000,0.000000,0.000000,0.000000,0.000000
0.22598,-0.011210,-0.002362,-0.003282,0.418057,-0.404346,-0.000079,0.000000,0.000000,0.000000,0.000000,0.000000,0.000000
0.22798,-0.011419,-0.002402,-0.003269,0.417911,-0.404373,-0.000091,0.000000,0.000000,0.000000,0.000000,0.000000,0.000000
0.22998,-0.011632,-0.002439,-0.003258,0.417768,-0.404404,-0.000103,0.000000,0.000000,0.000000,0.000000,0.000000,0.000000
0.23198,-0.011852,-0.002473,-0.003249,0.417627,-0.404437,-0.000117,0.000000,0.000000,0.000000,0.000000,0.000000,0.000000
0.23398,-0.012080,-0.002502,-0.003243,0.417490,-0.404475,-0.000132,0.000000,0.000000,0.000000,0.000000,0.000000,0.000000
0.23598,-0.012321,-0.002531,-0.003238,0.417354,-0.404519,-0.000160,0.000000,0.000000,0.000000,0.000000,0.000000,0.000000
0.23798,-0.012576,-0.002560,-0.003233,0.417220,-0.404569,-0.000205,0.000000,0.000000,0.000000,0.000000,0.000000,0.000000
0.23998,-0.012842,-0.002590,-0.003228,0.417087,-0.404625,-0.000265,0.000000,0.000000,0.000000,0.000000,0.000000,0.000000
0.24198,-0.013119,-0.002619,-0.003223,0.416954,-0.404687,-0.000339,0.000000,0.000000,0.000000,0.000000,0.000000,0.000000
0.24398,-0.013403,-0.002647,-0.003218,0.416823,-0.404754,-0.000428,0.000000,0.000000,0.000000,0.000000,0.000000,0.000000
0.24598,-0.013692,-0.002675,-0.003214,0.416692,-0.404827,-0.000529,0.000000,0.000000,0.000000,0.000000,0.000000,0.000000
0.24798,-0.013985,-0.002702,-0.003210,0.416562,-0.404905,-0.000643,0.000000,0.000000,0.000000,0.000000,0.000000,0.000000
0.24998,-0.014279,-0.002727,-0.003206,0.416433,-0.404987,-0.000769,0.000000,0.000000,0.000000,0.000000,0.000000,0.000000
0.25198,-0.014573,-0.002750,-0.003203,0.416304,-0.405074,-0.000905,0.000000,0.000000,0.000000,0.000000,0.000000,0.000000
0.25398,-0.014864,-0.002772,-0.003200,0.416176,-0.405166,-0.001051,0.000000,0.000000,0.000000,0.000000,0.000000,0.000000
0.25598,-0.015150,-0.002791,-0.003197,0.416049,-0.405262,-0.001206,0.000000,0.000000,0.000000,0.000000,0.000000,0.000000
0.25798,-0.015429,-0.002807,-0.003195,0.415922,-0.405361,-0.001370,0.000000,0.000000,0.000000,0.000000,0.000000,0.000000
0.25998,-0.015699,-0.002821,-0.003193,0.415796,-0.405464,-0.001541,0.000000,0.000000,0.000000,0.000000,0.000000,0.000000
0.26198,-0.015958,-0.002832,-0.003192,0.415669,-0.405571,-0.001719,0.000000,0.000000,0.000000,0.000000,0.000000,0.000000
0.26398,-0.016204,-0.002839,-0.003191,0.415543,-0.405681,-0.001903,0.000000,0.000000,0.000000,0.000000,0.000000,0.000000
0.26598,-0.016435,-0.002842,-0.003190,0.415418,-0.405793,-0.002092,0.000000,0.000000,0.000000,0.000000,0.000000,0.000000
0.26798,-0.016653,-0.002840,-0.003192,0.415292,-0.405911,-0.002297,0.000000,0.000000,0.000000,0.000000,0.000000,0.000000
0.26998,-0.016868,-0.002827,-0.003202,0.415167,-0.406042,-0.002548,0.000000,0.000000,0.000000,0.000000,0.000000,0.000000
0.27198,-0.017082,-0.002805,-0.003218,0.415043,-0.406185,-0.002845,0.000000,0.000000,0.000000,0.000000,0.000000,0.000000
0.27398,-0.017294,-0.002774,-0.003242,0.414919,-0.406340,-0.003185,0.000000,0.000000,0.000000,0.000000,0.000000,0.000000
0.27598,-0.017502,-0.002735,-0.003272,0.414796,-0.406506,-0.003564,0.000000,0.000000,0.000000,0.000000,0.000000,0.000000
0.27797,-0.017707,-0.002688,-0.003307,0.414672,-0.406682,-0.003979,0.000000,0.000000,0.000000,0.000000,0.000000,0.000000
0.27997,-0.017908,-0.002635,-0.003348,0.414550,-0.406866,-0.004427,0.000000,0.000000,0.000000,0.000000,0.000000,0.000000
0.28197,-0.018103,-0.002577,-0.003393,0.414428,-0.407059,-0.004903,0.000000,0.000000,0.000000,0.000000,0.000000,0.000000
0.28397,-0.018293,-0.002513,-0.003443,0.414306,-0.407260,-0.005405,0.000000,0.000000,0.000000,0.000000,0.000000,0.000000
0.28597,-0.018476,-0.002446,-0.003496,0.414185,-0.407467,-0.005928,0.000000,0.000000,0.000000,0.000000,0.000000,0.000000
0.28797,-0.018652,-0.002375,-0.003553,0.414064,-0.407679,-0.006471,0.000000,0.000000,0.000000,0.000000,0.000000,0.000000
0.28997,-0.018821,-0.002302,-0.003611,0.413944,-0.407896,-0.007028,0.000000,0.000000,0.000000,0.000000,0.000000,0.000000
0.29197,-0.018981,-0.002228,-0.003672,0.413824,-0.408117,-0.007597,0.000000,0.000000,0.000000,0.000000,0.000000,0.000000
0.29397,-0.019132,-0.002153,-0.003735,0.413704,-0.408341,-0.008174,0.000000,0.000000,0.000000,0.000000,0.000000,0.000000
0.29597,-0.019273,-0.002078,-0.003798,0.413585,-0.408566,-0.008756,0.000000,0.000000,0.000000,0.000000,0.000000,0.000000
0.29797,-0.019404,-0.002004,-0.003861,0.413466,-0.408793,-0.009339,0.000000,0.000000,0.000000,0.000000,0.000000,0.000000
0.29997,-0.019523,-0.001932,-0.003925,0.413348,-0.409021,-0.009921,0.000000,0.000000,0.000000,0.000000,0.000000,0.000000
0.30197,-0.019638,-0.001858,-0.003993,0.413228,-0.409252,-0.010522,0.000000,0.000000,0.000000,0.000000,0.000000,0.000000
0.30397,-0.019755,-0.001778,-0.004068,0.413106,-0.409492,-0.011167,0.000000,0.000000,0.000000,0.000000,0.000000,0.000000
0.30597,-0.019871,-0.001691,-0.004152,0.412981,-0.409739,-0.011849,0.000000,0.000000,0.000000,0.000000,0.000000,0.000000
0.30797,-0.019987,-0.001600,-0.004243,0.412855,-0.409994,-0.012566,0.000000,0.000000,0.000000,0.000000,0.000000,0.000000
0.30997,-0.020101,-0.001504,-0.004341,0.412729,-0.410256,-0.013311,0.000000,0.000000,0.000000,0.000000,0.000000,0.000000
0.31197,-0.020212,-0.001404,-0.004445,0.412603,-0.410524,-0.014081,0.000000,0.000000,0.000000,0.000000,0.000000,0.000000
0.31397,-0.020318,-0.001301,-0.004554,0.412477,-0.410798,-0.014872,0.000000,0.000000,0.000000,0.000000,0.000000,0.000000
0.31597,-0.020419,-0.001195,-0.004668,0.412352,-0.411078,-0.015678,0.000000,0.000000,0.000000,0.000000,0.000000,0.000000
0.31797,-0.020514,-0.001087,-0.004787,0.412230,-0.411363,-0.016496,0.000000,0.000000,0.000000,0.000000,0.000000,0.000000
0.31997,-0.020601,-0.000978,-0.004910,0.412111,-0.411653,-0.017321,0.000000,0.000000,0.000000,0.000000,0.000000,0.000000
0.32197,-0.020680,-0.000867,-0.005036,0.411994,-0.411948,-0.018148,0.000000,0.000000,0.000000,0.000000,0.000000,0.000000
0.32397,-0.020749,-0.000757,-0.005164,0.411883,-0.412246,-0.018972,0.000000,0.000000,0.000000,0.000000,0.000000,0.000000
0.32597,-0.020807,-0.000646,-0.005295,0.411775,-0.412548,-0.019791,0.000000,0.000000,0.000000,0.000000,0.000000,0.000000
0.32797,-0.020853,-0.000537,-0.005428,0.411674,-0.412852,-0.020598,0.000000,0.000000,0.000000,0.000000,0.000000,0.000000
0.32997,-0.020886,-0.000429,-0.005562,0.411578,-0.413160,-0.021390,0.000000,0.000000,0.000000,0.000000,0.000000,0.000000
0.33197,-0.020905,-0.000323,-0.005696,0.411490,-0.413470,-0.022162,0.000000,0.000000,0.000000,0.000000,0.000000,0.000000
0.33397,-0.020910,-0.000219,-0.005831,0.411408,-0.413781,-0.022913,0.000000,0.000000,0.000000,0.000000,0.000000,0.000000
0.33597,-0.020911,-0.000115,-0.005970,0.411326,-0.414100,-0.023676,0.000000,0.000000,0.000000,0.000000,0.000000,0.000000
0.33797,-0.020912,-0.000011,-0.006114,0.411243,-0.414426,-0.024461,0.000000,0.000000,0.000000,0.000000,0.000000,0.000000
0.33997,-0.020912,0.000094,-0.006264,0.411158,-0.414758,-0.025260,0.000000,0.000000,0.000000,0.000000,0.000000,0.000000
0.34197,-0.020913,0.000199,-0.006418,0.411074,-0.415097,-0.026068,0.000000,0.000000,0.000000,0.000000,0.000000,0.000000
0.34397,-0.020914,0.000305,-0.006577,0.410991,-0.415442,-0.026881,0.000000,0.000000,0.000000,0.000000,0.000000,0.000000
0.34597,-0.020915,0.000411,-0.006740,0.410911,-0.415792,-0.027692,0.000000,0.000000,0.000000,0.000000,0.000000,0.000000
0.34797,-0.020915,0.000518,-0.006907,0.410833,-0.416146,-0.028497,0.000000,0.000000,0.000000,0.000000,0.000000,0.000000
0.34997,-0.020916,0.000624,-0.007077,0.410759,-0.416504,-0.029289,0.000000,0.000000,0.000000,0.000000,0.000000,0.000000
0.35197,-0.020916,0.000731,-0.007251,0.410689,-0.416865,-0.030065,0.000000,0.000000,0.000000,0.000000,0.000000,0.000000
0.35397,-0.020917,0.000837,-0.007427,0.410626,-0.417229,-0.030818,0.000000,0.000000,0.000000,0.000000,0.000000,0.000000
0.35597,-0.020917,0.000943,-0.007606,0.410569,-0.417594,-0.031542,0.000000,0.000000,0.000000,0.000000,0.000000,0.000000
0.35797,-0.020917,0.001048,-0.007787,0.410520,-0.417962,-0.032234,0.000000,0.000000,0.000000,0.000000,0.000000,0.000000
0.35997,-0.020917,0.001153,-0.007969,0.410479,-0.418330,-0.032886,0.000000,0.000000,0.000000,0.000000,0.000000,0.000000
0.36197,-0.020918,0.001257,-0.008153,0.410447,-0.418698,-0.033495,0.000000,0.000000,0.000000,0.000000,0.000000,0.000000
0.36397,-0.020918,0.001361,-0.008339,0.410426,-0.419065,-0.034054,0.000000,0.000000,0.000000,0.000000,0.000000,0.000000
0.36597,-0.020918,0.001464,-0.008525,0.410416,-0.419432,-0.034558,0.000000,0.000000,0.000000,0.000000,0.000000,0.000000
0.36797,-0.020912,0.001565,-0.008712,0.410420,-0.419798,-0.035017,0.000000,0.000000,0.000000,0.000000,0.000000,0.000000
0.36997,-0.020884,0.001665,-0.008903,0.410445,-0.420164,-0.035479,0.000000,0.000000,0.000000,0.000000,0.000000,0.000000
0.37197,-0.020833,0.001763,-0.009097,0.410490,-0.420531,-0.035943,0.000000,0.000000,0.000000,0.000000,0.000000,0.000000
0.37397,-0.020763,0.001860,-0.009295,0.410554,-0.420900,-0.036404,0.000000,0.000000,0.000000,0.000000,0.000000,0.000000
0.37597,-0.020676,0.001956,-0.009496,0.410635,-0.421269,-0.036858,0.000000,0.000000,0.000000,0.000000,0.000000,0.000000
0.37797,-0.020574,0.002052,-0.009700,0.410732,-0.421641,-0.037301,0.000000,0.000000,0.000000,0.000000,0.000000,0.000000
0.37997,-0.020459,0.002147,-0.009907,0.410845,-0.422014,-0.037729,0.000000,0.000000,0.000000,0.000000,0.000000,0.000000
0.38197,-0.020334,0.002242,-0.010116,0.410971,-0.422388,-0.038137,0.000000,0.000000,0.000000,0.000000,0.000000,0.000000
0.38397,-0.020200,0.002337,-0.010327,0.411109,-0.422765,-0.038522,0.000000,0.000000,0.000000,0.000000,0.000000,0.000000
0.38597,-0.020061,0.002433,-0.010541,0.411258,-0.423144,-0.038879,0.000000,0.000000,0.000000,0.000000,0.000000,0.000000
0.38797,-0.019919,0.002530,-0.010756,0.411417,-0.423525,-0.039203,0.000000,0.000000,0.000000,0.000000,0.000000,0.000000
0.38996,-0.019776,0.002628,-0.010973,0.411585,-0.423909,-0.039492,0.000000,0.000000,0.000000,0.000000,0.000000,0.000000
0.39196,-0.019634,0.002727,-0.011192,0.411760,-0.424295,-0.039739,0.000000,0.000000,0.000000,0.000000,0.000000,0.000000
0.39396,-0.019495,0.002828,-0.011411,0.411940,-0.424685,-0.039941,0.000000,0.000000,0.000000,0.000000,0.000000,0.000000
0.39596,-0.019363,0.002931,-0.011632,0.412125,-0.425077,-0.040095,0.000000,0.000000,0.000000,0.000000,0.000000,0.000000
0.39796,-0.019238,0.003036,-0.011854,0.412314,-0.425472,-0.040195,0.000000,0.000000,0.000000,0.000000,0.000000,0.000000
0.39996,-0.019125,0.003143,-0.012076,0.412505,-0.425871,-0.040237,0.000000,0.000000,0.000000,0.000000,0.000000,0.000000
0.40196,-0.019015,0.003253,-0.012298,0.412713,-0.426271,-0.040248,0.000000,0.000000,0.000000,0.000000,0.000000,0.000000
0.40396,-0.018902,0.003362,-0.012522,0.412956,-0.426672,-0.040259,0.000000,0.000000,0.000000,0.000000,0.000000,0.000000
0.40596,-0.018787,0.003473,-0.012747,0.413231,-0.427073,-0.040270,0.000000,0.000000,0.000000,0.000000,0.000000,0.000000
0.40796,-0.018669,0.003584,-0.012973,0.413536,-0.427476,-0.040279,0.000000,0.000000,0.000000,0.000000,0.000000,0.000000
0.40996,-0.018551,0.003697,-0.013200,0.413869,-0.427881,-0.040288,0.000000,0.000000,0.000000,0.000000,0.000000,0.000000
0.41196,-0.018431,0.003811,-0.013429,0.414229,-0.428289,-0.040296,0.000000,0.000000,0.000000,0.000000,0.000000,0.000000
0.41396,-0.018313,0.003926,-0.013660,0.414613,-0.428699,-0.040303,0.000000,0.000000,0.000000,0.000000,0.000000,0.000000
0.41596,-0.018195,0.004044,-0.013893,0.415020,-0.429114,-0.040310,0.000000,0.000000,0.000000,0.000000,0.000000,0.000000
0.41796,-0.018079,0.004163,-0.014129,0.415447,-0.429532,-0.040316,0.000000,0.000000,0.000000,0.000000,0.000000,0.000000
0.41996,-0.017966,0.004285,-0.014366,0.415893,-0.429956,-0.040322,0.000000,0.000000,0.000000,0.000000,0.000000,0.000000
0.42196,-0.017856,0.004409,-0.014607,0.416356,-0.430384,-0.040326,0.000000,0.000000,0.000000,0.000000,0.000000,0.000000
0.42396,-0.017750,0.004536,-0.014850,0.416834,-0.430819,-0.040330,0.000000,0.000000,0.000000,0.000000,0.000000,0.000000
0.42596,-0.017649,0.004666,-0.015096,0.417324,-0.431260,-0.040333,0.000000,0.000000,0.000000,0.000000,0.000000,0.000000
0.42796,-0.017553,0.004799,-0.015345,0.417826,-0.431709,-0.040335,0.000000,0.000000,0.000000,0.000000,0.000000,0.000000
0.42996,-0.017464,0.004936,-0.015598,0.418337,-0.432165,-0.040337,0.000000,0.000000,0.000000,0.000000,0.000000,0.000000
0.43196,-0.017381,0.005076,-0.015854,0.418855,-0.432629,-0.040338,0.000000,0.000000,0.000000,0.000000,0.000000,0.000000
0.43396,-0.017306,0.005219,-0.016114,0.419380,-0.433102,-0.040335,0.000000,0.000000,0.000000,0.000000,0.000000,0.000000
0.43596,-0.017236,0.005368,-0.016376,0.419931,-0.433585,-0.040291,0.000000,0.000000,0.000000,0.000000,0.000000,0.000000
0.43796,-0.017171,0.005520,-0.016641,0.420514,-0.434077,-0.040198,0.000000,0.000000,0.000000,0.000000,0.000000,0.000000
0.43996,-0.017108,0.005677,-0.016908,0.421127,-0.434579,-0.040060,0.000000,0.000000,0.000000,0.000000,0.000000,0.000000
0.44196,-0.017049,0.005838,-0.017177,0.421769,-0.435090,-0.039880,0.000000,0.000000,0.000000,0.000000,0.000000,0.000000
0.44396,-0.016993,0.006003,-0.017450,0.422441,-0.435608,-0.039663,0.000000,0.000000,0.000000,0.000000,0.000000,0.000000
0.44596,-0.016939,0.006172,-0.017726,0.423140,-0.436135,-0.039412,0.000000,0.000000,0.000000,0.000000,0.000000,0.000000
0.44796,-0.016887,0.006345,-0.018006,0.423865,-0.436669,-0.039131,0.000000,0.000000,0.000000,0.000000,0.000000,0.000000
0.44996,-0.016836,0.006522,-0.018290,0.424617,-0.437209,-0.038823,0.000000,0.000000,0.000000,0.000000,0.000000,0.000000
0.45196,-0.016786,0.006702,-0.018578,0.425393,-0.437756,-0.038494,0.000000,0.000000,0.000000,0.000000,0.000000,0.000000
0.45396,-0.016736,0.006887,-0.018871,0.426193,-0.438308,-0.038146,0.000000,0.000000,0.000000,0.000000,0.000000,0.000000
0.45596,-0.016686,0.007075,-0.019169,0.427016,-0.438866,-0.037783,0.000000,0.000000,0.000000,0.000000,0.000000,0.000000
0.45796,-0.016636,0.007266,-0.019472,0.427861,-0.439428,-0.037410,0.000000,0.000000,0.000000,0.000000,0.000000,0.000000
0.45996,-0.016585,0.007461,-0.019780,0.428728,-0.439994,-0.037030,0.000000,0.000000,0.000000,0.000000,0.000000,0.000000
0.46196,-0.016532,0.007659,-0.020095,0.429614,-0.440565,-0.036646,0.000000,0.000000,0.000000,0.000000,0.000000,0.000000
0.46396,-0.016478,0.007861,-0.020415,0.430519,-0.441138,-0.036263,0.000000,0.000000,0.000000,0.000000,0.000000,0.000000
0.46596,-0.016421,0.008066,-0.020742,0.431442,-0.441714,-0.035885,0.000000,0.000000,0.000000,0.000000,0.000000,0.000000
0.46796,-0.016362,0.008274,-0.021076,0.432389,-0.442292,-0.035505,0.000000,0.000000,0.000000,0.000000,0.000000,0.000000
0.46996,-0.016304,0.008489,-0.021415,0.433376,-0.442871,-0.035089,0.000000,0.000000,0.000000,0.000000,0.000000,0.000000
0.47196,-0.016246,0.008710,-0.021760,0.434403,-0.443452,-0.034638,0.000000,0.000000,0.000000,0.000000,0.000000,0.000000
0.47396,-0.016189,0.008937,-0.022111,0.435470,-0.444035,-0.034156,0.000000,0.000000,0.000000,0.000000,0.000000,0.000000
0.47596,-0.016132,0.009169,-0.022468,0.436576,-0.444622,-0.033643,0.000000,0.000000,0.000000,0.000000,0.000000,0.000000
0.47796,-0.016075,0.009407,-0.022832,0.437719,-0.445214,-0.033104,0.000000,0.000000,0.000000,0.000000,0.000000,0.000000
0.47996,-0.016017,0.009650,-0.023203,0.438899,-0.445812,-0.032541,0.000000,0.000000,0.000000,0.000000,0.000000,0.000000
0.48196,-0.015958,0.009897,-0.023582,0.440114,-0.446416,-0.031957,0.000000,0.000000,0.000000,0.000000,0.000000,0.000000
0.48396,-0.015898,0.010148,-0.023968,0.441364,-0.447028,-0.031354,0.000000,0.000000,0.000000,0.000000,0.000000,0.000000
0.48596,-0.015838,0.010404,-0.024362,0.442647,-0.447648,-0.030736,0.000000,0.000000,0.000000,0.000000,0.000000,0.000000
0.48796,-0.015775,0.010663,-0.024764,0.443962,-0.448279,-0.030104,0.000000,0.000000,0.000000,0.000000,0.000000,0.000000
0.48996,-0.015711,0.010925,-0.025175,0.445308,-0.448919,-0.029463,0.000000,0.000000,0.000000,0.000000,0.000000,0.000000
0.49196,-0.015645,0.011191,-0.025595,0.446685,-0.449572,-0.028814,0.000000,0.000000,0.000000,0.000000,0.000000,0.000000
0.49396,-0.015576,0.011459,-0.026024,0.448091,-0.450237,-0.028160,0.000000,0.000000,0.000000,0.000000,0.000000,0.000000
0.49596,-0.015505,0.011730,-0.026462,0.449525,-0.450916,-0.027505,0.000000,0.000000,0.000000,0.000000,0.000000,0.000000
0.49796,-0.015431,0.012003,-0.026911,0.450986,-0.451609,-0.026850,0.000000,0.000000,0.000000,0.000000,0.000000,0.000000
0.49995,-0.015355,0.012278,-0.027369,0.452472,-0.452318,-0.026199,0.000000,0.000000,0.000000,0.000000,0.000000,0.000000
0.50195,-0.015275,0.012558,-0.027838,0.453998,-0.453043,-0.025536,0.000000,0.000000,0.000000,0.000000,0.000000,0.000000
0.50395,-0.015193,0.012845,-0.028316,0.455574,-0.453784,-0.024845,0.000000,0.000000,0.000000,0.000000,0.000000,0.000000
0.50595,-0.015109,0.013139,-0.028805,0.457200,-0.454542,-0.024130,0.000000,0.000000,0.000000,0.000000,0.000000,0.000000
0.50795,-0.015022,0.013440,-0.029306,0.458875,-0.455315,-0.023394,0.000000,0.000000,0.000000,0.000000,0.000000,0.000000
0.50995,-0.014933,0.013745,-0.029818,0.460598,-0.456103,-0.022641,0.000000,0.000000,0.000000,0.000000,0.000000,0.000000
0.51195,-0.014840,0.014055,-0.030343,0.462369,-0.456907,-0.021874,0.000000,0.000000,0.000000,0.000000,0.000000,0.000000
0.51395,-0.014744,0.014369,-0.030881,0.464186,-0.457726,-0.021098,0.000000,0.000000,0.000000,0.000000,0.000000,0.000000
0.51595,-0.014645,0.014685,-0.031432,0.466048,-0.458558,-0.020315,0.000000,0.000000,0.000000,0.000000,0.000000,0.000000
0.51795,-0.014542,0.015004,-0.031997,0.467955,-0.459405,-0.019529,0.000000,0.000000,0.000000,0.000000,0.000000,0.000000
0.51995,-0.014435,0.015324,-0.032577,0.469906,-0.460266,-0.018743,0.000000,0.000000,0.000000,0.000000,0.000000,0.000000
0.52195,-0.014324,0.015645,-0.033172,0.471899,-0.461140,-0.017962,0.000000,0.000000,0.000000,0.000000,0.000000,0.000000
0.52395,-0.014209,0.015965,-0.033783,0.473934,-0.462028,-0.017188,0.000000,0.000000,0.000000,0.000000,0.000000,0.000000
0.52595,-0.014090,0.016285,-0.034411,0.476010,-0.462928,-0.016426,0.000000,0.000000,0.000000,0.000000,0.000000,0.000000
0.52795,-0.013965,0.016602,-0.035055,0.478126,-0.463841,-0.015678,0.000000,0.000000,0.000000,0.000000,0.000000,0.000000
0.52995,-0.013837,0.016917,-0.035716,0.480281,-0.464766,-0.014948,0.000000,0.000000,0.000000,0.000000,0.000000,0.000000
0.53195,-0.013703,0.017229,-0.036396,0.482474,-0.465703,-0.014241,0.000000,0.000000,0.000000,0.000000,0.000000,0.000000
0.53395,-0.013563,0.017536,-0.037095,0.484706,-0.466653,-0.013555,0.000000,0.000000,0.000000,0.000000,0.000000,0.000000
0.53595,-0.013409,0.017842,-0.037819,0.486995,-0.467626,-0.012858,0.000000,0.000000,0.000000,0.000000,0.000000,0.000000
0.53795,-0.013241,0.018146,-0.038569,0.489346,-0.468626,-0.012142,0.000000,0.000000,0.000000,0.000000,0.000000,0.000000
0.53995,-0.013058,0.018449,-0.039346,0.491759,-0.469650,-0.011414,0.000000,0.000000,0.000000,0.000000,0.000000,0.000000
0.54195,-0.012864,0.018752,-0.040148,0.494234,-0.470696,-0.010680,0.000000,0.000000,0.000000,0.000000,0.000000,0.000000
0.54395,-0.012659,0.019054,-0.040976,0.496770,-0.471762,-0.009946,0.000000,0.000000,0.000000,0.000000,0.000000,0.000000
0.54595,-0.012446,0.019355,-0.041830,0.499366,-0.472845,-0.009216,0.000000,0.000000,0.000000,0.000000,0.000000,0.000000
0.54795,-0.012225,0.019656,-0.042709,0.502023,-0.473943,-0.008498,0.000000,0.000000,0.000000,0.000000,0.000000,0.000000
0.54995,-0.011998,0.019958,-0.043613,0.504739,-0.475055,-0.007798,0.000000,0.000000,0.000000,0.000000,0.000000,0.000000
0.55195,-0.011767,0.020259,-0.044541,0.507514,-0.476178,-0.007120,0.000000,0.000000,0.000000,0.000000,0.000000,0.000000
0.55395,-0.011534,0.020562,-0.045495,0.510349,-0.477309,-0.006471,0.000000,0.000000,0.000000,0.000000,0.000000,0.000000
0.55595,-0.011299,0.020865,-0.046472,0.513241,-0.478448,-0.005857,0.000000,0.000000,0.000000,0.000000,0.000000,0.000000
0.55795,-0.011065,0.021169,-0.047474,0.516192,-0.479591,-0.005284,0.000000,0.000000,0.000000,0.000000,0.000000,0.000000
0.55995,-0.010832,0.021474,-0.048499,0.519201,-0.480737,-0.004757,0.000000,0.000000,0.000000,0.000000,0.000000,0.000000
0.56195,-0.010603,0.021780,-0.049548,0.522266,-0.481883,-0.004283,0.000000,0.000000,0.000000,0.000000,0.000000,0.000000
0.56395,-0.010380,0.022089,-0.050620,0.525388,-0.483028,-0.003867,0.000000,0.000000,0.000000,0.000000,0.000000,0.000000
0.56595,-0.010163,0.022399,-0.051715,0.528567,-0.484168,-0.003515,0.000000,0.000000,0.000000,0.000000,0.000000,0.000000
0.56795,-0.009951,0.022711,-0.052837,0.531809,-0.485312,-0.003219,0.000000,0.000000,0.000000,0.000000,0.000000,0.000000
0.56995,-0.009740,0.023026,-0.053997,0.535139,-0.486484,-0.002931,0.000000,0.000000,0.000000,0.000000,0.000000,0.000000
0.57195,-0.009529,0.023342,-0.055197,0.538558,-0.487682,-0.002649,0.000000,0.000000,0.000000,0.000000,0.000000,0.000000
0.57395,-0.009318,0.023660,-0.056435,0.542065,-0.488900,-0.002376,0.000000,0.000000,0.000000,0.000000,0.000000,0.000000
0.57595,-0.009106,0.023980,-0.057711,0.545657,-0.490134,-0.002112,0.000000,0.000000,0.000000,0.000000,0.000000,0.000000
0.57795,-0.008894,0.024300,-0.059025,0.549334,-0.491378,-0.001859,0.000000,0.000000,0.000000,0.000000,0.000000,0.000000
0.57995,-0.008682,0.024622,-0.060377,0.553093,-0.492627,-0.001618,0.000000,0.000000,0.000000,0.000000,0.000000,0.000000
0.58195,-0.008471,0.024944,-0.061766,0.556934,-0.493876,-0.001391,0.000000,0.000000,0.000000,0.000000,0.000000,0.000000
0.58395,-0.008260,0.025267,-0.063193,0.560855,-0.495119,-0.001179,0.000000,0.000000,0.000000,0.000000,0.000000,0.000000
0.58595,-0.008049,0.025590,-0.064655,0.564854,-0.496352,-0.000984,0.000000,0.000000,0.000000,0.000000,0.000000,0.000000
0.58795,-0.007839,0.025913,-0.066154,0.568930,-0.497570,-0.000807,0.000000,0.000000,0.000000,0.000000,0.000000,0.000000
0.58995,-0.007629,0.026236,-0.067689,0.573081,-0.498766,-0.000650,0.000000,0.000000,0.000000,0.000000,0.000000,0.000000
0.59195,-0.007421,0.026558,-0.069259,0.577307,-0.499936,-0.000514,0.000000,0.000000,0.000000,0.000000,0.000000,0.000000
0.59395,-0.007213,0.026879,-0.070864,0.581605,-0.501075,-0.000400,0.000000,0.000000,0.000000,0.000000,0.000000,0.000000
0.59595,-0.007006,0.027200,-0.072504,0.585974,-0.502178,-0.000310,0.000000,0.000000,0.000000,0.000000,0.000000,0.000000
0.59795,-0.006800,0.027519,-0.074179,0.590412,-0.503239,-0.000246,0.000000,0.000000,0.000000,0.000000,0.000000,0.000000
0.59995,-0.006596,0.027836,-0.075887,0.594919,-0.504253,-0.000209,0.000000,0.000000,0.000000,0.000000,0.000000,0.000000
0.60195,-0.006392,0.028157,-0.077643,0.599516,-0.505274,-0.000186,0.000000,0.000000,0.000000,0.000000,0.000000,0.000000
0.60395,-0.006187,0.028484,-0.079460,0.604227,-0.506348,-0.000164,0.000000,0.000000,0.000000,0.000000,0.000000,0.000000
0.60595,-0.005982,0.028817,-0.081336,0.609049,-0.507461,-0.000143,0.000000,0.000000,0.000000,0.000000,0.000000,0.000000
0.60795,-0.005777,0.029154,-0.083270,0.613980,-0.508595,-0.000124,0.000000,0.000000,0.000000,0.000000,0.000000,0.000000
0.60995,-0.005573,0.029493,-0.085261,0.619017,-0.509737,-0.000106,0.000000,0.000000,0.000000,0.000000,0.000000,0.000000
0.61194,-0.005369,0.029832,-0.087306,0.624159,-0.510871,-0.000089,0.000000,0.000000,0.000000,0.000000,0.000000,0.000000
0.61394,-0.005165,0.030170,-0.089406,0.629403,-0.511982,-0.000074,0.000000,0.000000,0.000000,0.000000,0.000000,0.000000
0.61594,-0.004963,0.030505,-0.091558,0.634746,-0.513053,-0.000060,0.000000,0.000000,0.000000,0.000000,0.000000,0.000000
0.61794,-0.004762,0.030837,-0.093761,0.640187,-0.514070,-0.000047,0.000000,0.000000,0.000000,0.000000,0.000000,0.000000
0.61994,-0.004563,0.031162,-0.096014,0.645724,-0.515018,-0.000036,0.000000,0.000000,0.000000,0.000000,0.000000,0.000000
0.62194,-0.004365,0.031479,-0.098315,0.651354,-0.515881,-0.000026,0.000000,0.000000,0.000000,0.000000,0.000000,0.000000
0.62394,-0.004170,0.031787,-0.100663,0.657075,-0.516643,-0.000018,0.000000,0.000000,0.000000,0.000000,0.000000,0.000000
0.62594,-0.003977,0.032084,-0.103057,0.662884,-0.517290,-0.000011,0.000000,0.000000,0.000000,0.000000,0.000000,0.000000
0.62794,-0.003786,0.032369,-0.105496,0.668780,-0.517806,-0.000006,0.000000,0.000000,0.000000,0.000000,0.000000,0.000000
0.62994,-0.003598,0.032640,-0.107977,0.674760,-0.518175,-0.000002,0.000000,0.000000,0.000000,0.000000,0.000000,0.000000
0.63194,-0.003414,0.032895,-0.110500,0.680822,-0.518383,-0.000000,0.000000,0.000000,0.000000,0.000000,0.000000,0.000000
0.63394,-0.003231,0.033134,-0.113065,0.686968,-0.518420,0.000000,0.000000,0.000000,0.000000,0.000000,0.000000,0.000000
0.63594,-0.003038,0.033376,-0.115706,0.693254,-0.518374,0.000000,0.000000,0.000000,0.000000,0.000000,0.000000,0.000000
0.63794,-0.002833,0.033626,-0.118429,0.699691,-0.518275,0.000000,0.000000,0.000000,0.000000,0.000000,0.000000,0.000000
0.63994,-0.002619,0.033880,-0.121231,0.706272,-0.518125,0.000000,0.000000,0.000000,0.000000,0.000000,0.000000,0.000000
0.64194,-0.002400,0.034135,-0.124108,0.712989,-0.517927,0.000000,0.000000,0.000000,0.000000,0.000000,0.000000,0.000000
0.64394,-0.002178,0.034388,-0.127057,0.719835,-0.517684,0.000000,0.000000,0.000000,0.000000,0.000000,0.000000,0.000000
0.64594,-0.001958,0.034636,-0.130073,0.726803,-0.517398,0.000000,0.000000,0.000000,0.000000,0.000000,0.000000,0.000000
0.64794,-0.001742,0.034876,-0.133155,0.733885,-0.517071,0.000000,0.000000,0.000000,0.000000,0.000000,0.000000,0.000000
0.64994,-0.001533,0.035105,-0.136297,0.741075,-0.516706,0.000000,0.000000,0.000000,0.000000,0.000000,0.000000,0.000000
0.65194,-0.001335,0.035320,-0.139497,0.748364,-0.516306,0.000000,0.000000,0.000000,0.000000,0.000000,0.000000,0.000000
0.65394,-0.001152,0.035518,-0.142751,0.755746,-0.515873,0.000000,0.000000,0.000000,0.000000,0.000000,0.000000,0.000000
0.65594,-0.000985,0.035696,-0.146056,0.763213,-0.515409,0.000000,0.000000,0.000000,0.000000,0.000000,0.000000,0.000000
0.65794,-0.000840,0.035850,-0.149408,0.770759,-0.514918,0.000000,0.000000,0.000000,0.000000,0.000000,0.000000,0.000000
0.65994,-0.000718,0.035979,-0.152803,0.778375,-0.514401,0.000000,0.000000,0.000000,0.000000,0.000000,0.000000,0.000000
0.66194,-0.000623,0.036078,-0.156239,0.786054,-0.513862,0.000000,0.000000,0.000000,0.000000,0.000000,0.000000,0.000000
0.66394,-0.000559,0.036145,-0.159711,0.793789,-0.513303,0.000000,0.000000,0.000000,0.000000,0.000000,0.000000,0.000000
0.66594,-0.000528,0.036176,-0.163215,0.801574,-0.512726,0.000000,0.000000,0.000000,0.000000,0.000000,0.000000,0.000000
0.66794,-0.000535,0.036176,-0.166764,0.809433,-0.512076,0.000000,0.000000,0.000000,0.000000,0.000000,0.000000,0.000000
0.66994,-0.000580,0.036165,-0.170396,0.817462,-0.511180,0.000000,0.000000,0.000000,0.000000,0.000000,0.000000,0.000000
0.67194,-0.000660,0.036145,-0.174111,0.825653,-0.510047,0.000000,0.000000,0.000000,0.000000,0.000000,0.000000,0.000000
0.67394,-0.000774,0.036115,-0.177904,0.833990,-0.508701,0.000000,0.000000,0.000000,0.000000,0.000000,0.000000,0.000000
0.67594,-0.000917,0.036078,-0.181768,0.842454,-0.507167,0.000000,0.000000,0.000000,0.000000,0.000000,0.000000,0.000000
0.67794,-0.001087,0.036033,-0.185699,0.851029,-0.505469,0.000000,0.000000,0.000000,0.000000,0.000000,0.000000,0.000000
0.67994,-0.001281,0.035980,-0.189691,0.859699,-0.503630,0.000000,0.000000,0.000000,0.000000,0.000000,0.000000,0.000000
0.68194,-0.001497,0.035921,-0.193739,0.868445,-0.501676,0.000000,0.000000,0.000000,0.000000,0.000000,0.000000,0.000000
0.68394,-0.001731,0.035855,-0.197838,0.877251,-0.499630,0.000000,0.000000,0.000000,0.000000,0.000000,0.000000,0.000000
0.68594,-0.001981,0.035784,-0.201981,0.886100,-0.497516,0.000000,0.000000,0.000000,0.000000,0.000000,0.000000,0.000000
0.68794,-0.002245,0.035707,-0.206164,0.894976,-0.495359,0.000000,0.000000,0.000000,0.000000,0.000000,0.000000,0.000000
0.68994,-0.002518,0.035625,-0.210382,0.903860,-0.493184,0.000000,0.000000,0.000000,0.000000,0.000000,0.000000,0.000000
0.69194,-0.002799,0.035539,-0.214629,0.912736,-0.491013,0.000000,0.000000,0.000000,0.000000,0.000000,0.000000,0.000000
0.69394,-0.003084,0.035448,-0.218899,0.921587,-0.488872,0.000000,0.000000,0.000000,0.000000,0.000000,0.000000,0.000000
0.69594,-0.003371,0.035354,-0.223188,0.930397,-0.486784,0.000000,0.000000,0.000000,0.000000,0.000000,0.000000,0.000000
0.69794,-0.003658,0.035257,-0.227490,0.939147,-0.484775,0.000000,0.000000,0.000000,0.000000,0.000000,0.000000,0.000000
0.69994,-0.003940,0.035158,-0.231800,0.947821,-0.482867,0.000000,0.000000,0.000000,0.000000,0.000000,0.000000,0.000000
0.70194,-0.004248,0.035040,-0.236146,0.956504,-0.480972,0.000000,0.000000,0.000000,0.000000,0.000000,0.000000,0.000000
0.70394,-0.004607,0.034888,-0.240559,0.965279,-0.478994,0.000000,0.000000,0.000000,0.000000,0.000000,0.000000,0.000000
0.70594,-0.005012,0.034705,-0.245032,0.974125,-0.476950,0.000000,0.000000,0.000000,0.000000,0.000000,0.000000,0.000000
0.70794,-0.005455,0.034494,-0.249558,0.983024,-0.474856,0.000000,0.000000,0.000000,0.000000,0.000000,0.000000,0.000000
0.70994,-0.005927,0.034256,-0.254130,0.991954,-0.472727,0.000000,0.000000,0.000000,0.000000,0.000000,0.000000,0.000000
0.71194,-0.006424,0.033996,-0.258743,1.000898,-0.470580,0.000000,0.000000,0.000000,0.000000,0.000000,0.000000,0.000000
0.71394,-0.006936,0.033715,-0.263389,1.009833,-0.468432,0.000000,0.000000,0.000000,0.000000,0.000000,0.000000,0.000000
0.71594,-0.007456,0.033416,-0.268062,1.018742,-0.466298,0.000000,0.000000,0.000000,0.000000,0.000000,0.000000,0.000000
0.71794,-0.007978,0.033102,-0.272757,1.027604,-0.464195,0.000000,0.000000,0.000000,0.000000,0.000000,0.000000,0.000000
0.71994,-0.008495,0.032775,-0.277465,1.036399,-0.462139,0.000000,0.000000,0.000000,0.000000,0.000000,0.000000,0.000000
0.72193,-0.008999,0.032438,-0.282181,1.045107,-0.460146,0.000000,0.000000,0.000000,0.000000,0.000000,0.000000,0.000000
0.72393,-0.009482,0.032094,-0.286898,1.053709,-0.458232,0.000000,0.000000,0.000000,0.000000,0.000000,0.000000,0.000000
0.72593,-0.009938,0.031744,-0.291610,1.062185,-0.456414,0.000000,0.000000,0.000000,0.000000,0.000000,0.000000,0.000000
0.72793,-0.010359,0.031393,-0.296311,1.070515,-0.454707,0.000000,0.000000,0.000000,0.000000,0.000000,0.000000,0.000000
0.72993,-0.010739,0.031041,-0.300993,1.078679,-0.453129,0.000000,0.000000,0.000000,0.000000,0.000000,0.000000,0.000000
0.73193,-0.011069,0.030693,-0.305650,1.086657,-0.451694,0.000000,0.000000,0.000000,0.000000,0.000000,0.000000,0.000000
0.73393,-0.011346,0.030349,-0.310279,1.094445,-0.450409,0.000000,0.000000,0.000000,0.000000,0.000000,0.000000,0.000000
0.73593,-0.011603,0.029993,-0.314920,1.102206,-0.449140,0.000000,0.000000,0.000000,0.000000,0.000000,0.000000,0.000000
0.73793,-0.011851,0.029621,-0.319581,1.109977,-0.447856,0.000000,0.000000,0.000000,0.000000,0.000000,0.000000,0.000000
0.73993,-0.012090,0.029234,-0.324258,1.117734,-0.446568,0.000000,0.000000,0.000000,0.000000,0.000000,0.000000,0.000000
0.74193,-0.012319,0.028833,-0.328946,1.125453,-0.445291,0.000000,0.000000,0.000000,0.000000,0.000000,0.000000,0.000000
0.74393,-0.012540,0.028420,-0.333640,1.133113,-0.444038,0.000000,0.000000,0.000000,0.000000,0.000000,0.000000,0.000000
0.74593,-0.012751,0.027996,-0.338335,1.140689,-0.442820,0.000000,0.000000,0.000000,0.000000,0.000000,0.000000,0.000000
0.74793,-0.012954,0.027561,-0.343028,1.148160,-0.441651,0.000000,0.000000,0.000000,0.000000,0.000000,0.000000,0.000000
0.74993,-0.013147,0.027117,-0.347712,1.155502,-0.440544,0.000000,0.000000,0.000000,0.000000,0.000000,0.000000,0.000000
0.75193,-0.013332,0.026665,-0.352384,1.162693,-0.439512,0.000000,0.000000,0.000000,0.000000,0.000000,0.000000,0.000000
0.75393,-0.013507,0.026207,-0.357039,1.169708,-0.438568,0.000000,0.000000,0.000000,0.000000,0.000000,0.000000,0.000000
0.75593,-0.013674,0.025743,-0.361672,1.176526,-0.437724,0.000000,0.000000,0.000000,0.000000,0.000000,0.000000,0.000000
0.75793,-0.013831,0.025275,-0.366278,1.183124,-0.436994,0.000000,0.000000,0.000000,0.000000,0.000000,0.000000,0.000000
0.75993,-0.013980,0.024803,-0.370852,1.189478,-0.436390,0.000000,0.000000,0.000000,0.000000,0.000000,0.000000,0.000000
0.76193,-0.014119,0.024330,-0.375391,1.195565,-0.435925,0.000000,0.000000,0.000000,0.000000,0.000000,0.000000,0.000000
0.76393,-0.014250,0.023855,-0.379888,1.201363,-0.435613,0.000000,0.000000,0.000000,0.000000,0.000000,0.000000,0.000000
0.76593,-0.014372,0.023381,-0.384341,1.206849,-0.435466,0.000000,0.000000,0.000000,0.000000,0.000000,0.000000,0.000000
0.76793,-0.014485,0.022906,-0.388753,1.212097,-0.435459,0.000000,0.000000,0.000000,0.000000,0.000000,0.000000,0.000000
0.76993,-0.014595,0.022428,-0.393158,1.217393,-0.435473,0.000000,0.000000,0.000000,0.000000,0.000000,0.000000,0.000000
0.77193,-0.014702,0.021944,-0.397553,1.222722,-0.435499,0.000000,0.000000,0.000000,0.000000,0.000000,0.000000,0.000000
0.77393,-0.014804,0.021456,-0.401935,1.228041,-0.435535,0.000000,0.000000,0.000000,0.000000,0.000000,0.000000,0.000000
0.77593,-0.014903,0.020962,-0.406300,1.233311,-0.435582,0.000000,0.000000,0.000000,0.000000,0.000000,0.000000,0.000000
0.77793,-0.014998,0.020463,-0.410646,1.238489,-0.435638,0.000000,0.000000,0.000000,0.000000,0.000000,0.000000,0.000000
0.77993,-0.015089,0.019958,-0.414967,1.243535,-0.435702,0.000000,0.000000,0.000000,0.000000,0.000000,0.000000,0.000000
0.78193,-0.015176,0.019448,-0.419261,1.248408,-0.435775,0.000000,0.000000,0.000000,0.000000,0.000000,0.000000,0.000000
0.78393,-0.015259,0.018931,-0.423524,1.253067,-0.435855,0.000000,0.000000,0.000000,0.000000,0.000000,0.000000,0.000000
0.78593,-0.015339,0.018409,-0.427753,1.257471,-0.435942,0.000000,0.000000,0.000000,0.000000,0.000000,0.000000,0.000000
0.78793,-0.015413,0.017880,-0.431943,1.261578,-0.436035,0.000000,0.000000,0.000000,0.000000,0.000000,0.000000,0.000000
0.78993,-0.015484,0.017344,-0.436092,1.265349,-0.436133,0.000000,0.000000,0.000000,0.000000,0.000000,0.000000,0.000000
0.79193,-0.015551,0.016802,-0.440195,1.268741,-0.436236,0.000000,0.000000,0.000000,0.000000,0.000000,0.000000,0.000000
0.79393,-0.015613,0.016254,-0.444249,1.271713,-0.436343,0.000000,0.000000,0.000000,0.000000,0.000000,0.000000,0.000000
0.79593,-0.015671,0.015698,-0.448250,1.274225,-0.436453,0.000000,0.000000,0.000000,0.000000,0.000000,0.000000,0.000000
0.79793,-0.015724,0.015135,-0.452195,1.276236,-0.436566,0.000000,0.000000,0.000000,0.000000,0.000000,0.000000,0.000000
0.79993,-0.015773,0.014564,-0.456080,1.277705,-0.436681,0.000000,0.000000,0.000000,0.000000,0.000000,0.000000,0.000000
0.80193,-0.015820,0.013986,-0.459929,1.278869,-0.436831,0.000000,0.000000,0.000000,0.000000,0.000000,0.000000,0.000000
0.80393,-0.015867,0.013400,-0.463764,1.279995,-0.437041,0.000000,0.000000,0.000000,0.000000,0.000000,0.000000,0.000000
0.80593,-0.015913,0.012805,-0.467579,1.281076,-0.437302,0.000000,0.000000,0.000000,0.000000,0.000000,0.000000,0.000000
0.80793,-0.015959,0.012203,-0.471371,1.282109,-0.437606,0.000000,0.000000,0.000000,0.000000,0.000000,0.000000,0.000000
0.80993,-0.016004,0.011593,-0.475134,1.283089,-0.437943,0.000000,0.000000,0.000000,0.000000,0.000000,0.000000,0.000000
0.81193,-0.016048,0.010974,-0.478863,1.284012,-0.438304,0.000000,0.000000,0.000000,0.000000,0.000000,0.000000,0.000000
0.81393,-0.016089,0.010348,-0.482553,1.284874,-0.438679,0.000000,0.000000,0.000000,0.000000,0.000000,0.000000,0.000000
0.81593,-0.016129,0.009713,-0.486200,1.285671,-0.439060,0.000000,0.000000,0.000000,0.000000,0.000000,0.000000,0.000000
0.81793,-0.016165,0.009070,-0.489798,1.286399,-0.439437,0.000000,0.000000,0.000000,0.000000,0.000000,0.000000,0.000000
0.81993,-0.016199,0.008419,-0.493342,1.287052,-0.439801,0.000000,0.000000,0.000000,0.000000,0.000000,0.000000,0.000000
0.82193,-0.016229,0.007760,-0.496827,1.287628,-0.440143,0.000000,0.000000,0.000000,0.000000,0.000000,0.000000,0.000000
0.82393,-0.016256,0.007092,-0.500250,1.288121,-0.440452,0.000000,0.000000,0.000000,0.000000,0.000000,0.000000,0.000000
0.82593,-0.016278,0.006416,-0.503603,1.288528,-0.440722,0.000000,0.000000,0.000000,0.000000,0.000000,0.000000,0.000000
0.82793,-0.016295,0.005732,-0.506884,1.288843,-0.440941,0.000000,0.000000,0.000000,0.000000,0.000000,0.000000,0.000000
0.82993,-0.016307,0.005039,-0.510086,1.289064,-0.441100,0.000000,0.000000,0.000000,0.000000,0.000000,0.000000,0.000000
0.83193,-0.016314,0.004338,-0.513204,1.289185,-0.441192,0.000000,0.000000,0.000000,0.000000,0.000000,0.000000,0.000000
0.83392,-0.016313,0.003628,-0.516239,1.289178,-0.441207,-0.000000,0.000000,0.000000,0.000000,0.000000,0.000000,0.000000
0.83592,-0.016282,0.002900,-0.519245,1.288733,-0.441172,-0.000003,0.000000,0.000000,0.000000,0.000000,0.000000,0.000000
0.83792,-0.016218,0.002153,-0.522232,1.287790,-0.441095,-0.000009,0.000000,0.000000,0.000000,0.000000,0.000000,0.000000
0.83992,-0.016126,0.001389,-0.525194,1.286388,-0.440981,-0.000018,0.000000,0.000000,0.000000,0.000000,0.000000,0.000000
0.84192,-0.016010,0.000610,-0.528124,1.284567,-0.440832,-0.000030,0.000000,0.000000,0.000000,0.000000,0.000000,0.000000
0.84392,-0.015875,-0.000182,-0.531016,1.282366,-0.440649,-0.000046,0.000000,0.000000,0.000000,0.000000,0.000000,0.000000
0.84592,-0.015726,-0.000985,-0.533862,1.279825,-0.440437,-0.000064,0.000000,0.000000,0.000000,0.000000,0.000000,0.000000
0.84792,-0.015568,-0.001796,-0.536655,1.276985,-0.440197,-0.000085,0.000000,0.000000,0.000000,0.000000,0.000000,0.000000
0.84992,-0.015404,-0.002614,-0.539388,1.273885,-0.439932,-0.000109,0.000000,0.000000,0.000000,0.000000,0.000000,0.000000
0.85192,-0.015241,-0.003436,-0.542055,1.270564,-0.439644,-0.000136,0.000000,0.000000,0.000000,0.000000,0.000000,0.000000
0.85392,-0.015083,-0.004261,-0.544648,1.267063,-0.439337,-0.000166,0.000000,0.000000,0.000000,0.000000,0.000000,0.000000
0.85592,-0.014934,-0.005086,-0.547161,1.263422,-0.439013,-0.000198,0.000000,0.000000,0.000000,0.000000,0.000000,0.000000
0.85792,-0.014799,-0.005910,-0.549587,1.259680,-0.438674,-0.000233,0.000000,0.000000,0.000000,0.000000,0.000000,0.000000
0.85992,-0.014683,-0.006730,-0.551918,1.255877,-0.438323,-0.000271,0.000000,0.000000,0.000000,0.000000,0.000000,0.000000
0.86192,-0.014590,-0.007544,-0.554149,1.252053,-0.437963,-0.000311,0.000000,0.000000,0.000000,0.000000,0.000000,0.000000
0.86392,-0.014526,-0.008351,-0.556271,1.248247,-0.437596,-0.000354,0.000000,0.000000,0.000000,0.000000,0.000000,0.000000
0.86592,-0.014495,-0.009147,-0.558278,1.244500,-0.437224,-0.000399,0.000000,0.000000,0.000000,0.000000,0.000000,0.000000
0.86792,-0.014494,-0.009937,-0.560190,1.240743,-0.436829,-0.000458,0.000000,0.000000,0.000000,0.000000,0.000000,0.000000
0.86992,-0.014498,-0.010737,-0.562087,1.236663,-0.436341,-0.000571,0.000000,0.000000,0.000000,0.000000,0.000000,0.000000
0.87192,-0.014504,-0.011545,-0.563968,1.232259,-0.435766,-0.000739,0.000000,0.000000,0.000000,0.000000,0.000000,0.000000
0.87392,-0.014514,-0.012359,-0.565823,1.227558,-0.435113,-0.000958,0.000000,0.000000,0.000000,0.000000,0.000000,0.000000
0.87592,-0.014527,-0.013177,-0.567645,1.222588,-0.434394,-0.001227,0.000000,0.000000,0.000000,0.000000,0.000000,0.000000
0.87792,-0.014543,-0.013996,-0.569425,1.217375,-0.433619,-0.001544,0.000000,0.000000,0.000000,0.000000,0.000000,0.000000
0.87992,-0.014562,-0.014813,-0.571155,1.211948,-0.432798,-0.001905,0.000000,0.000000,0.000000,0.000000,0.000000,0.000000
0.88192,-0.014583,-0.015626,-0.572827,1.206332,-0.431942,-0.002308,0.000000,0.000000,0.000000,0.000000,0.000000,0.000000
0.88392,-0.014608,-0.016433,-0.574433,1.200555,-0.431061,-0.002752,0.000000,0.000000,0.000000,0.000000,0.000000,0.000000
0.88592,-0.014635,-0.017232,-0.575963,1.194644,-0.430166,-0.003233,0.000000,0.000000,0.000000,0.000000,0.000000,0.000000
0.88792,-0.014666,-0.018018,-0.577411,1.188626,-0.429267,-0.003750,0.000000,0.000000,0.000000,0.000000,0.000000,0.000000
0.88992,-0.014698,-0.018792,-0.578767,1.182528,-0.428375,-0.004299,0.000000,0.000000,0.000000,0.000000,0.000000,0.000000
0.89192,-0.014734,-0.019548,-0.580023,1.176377,-0.427500,-0.004879,0.000000,0.000000,0.000000,0.000000,0.000000,0.000000
0.89392,-0.014772,-0.020286,-0.581172,1.170201,-0.426653,-0.005487,0.000000,0.000000,0.000000,0.000000,0.000000,0.000000
0.89592,-0.014813,-0.021003,-0.582204,1.164026,-0.425844,-0.006121,0.000000,0.000000,0.000000,0.000000,0.000000,0.000000
0.89792,-0.014856,-0.021696,-0.583111,1.157880,-0.425084,-0.006779,0.000000,0.000000,0.000000,0.000000,0.000000,0.000000
0.89992,-0.014902,-0.022363,-0.583886,1.151790,-0.424383,-0.007458,0.000000,0.000000,0.000000,0.000000,0.000000,0.000000
0.90192,-0.015009,-0.023010,-0.584589,1.145642,-0.423708,-0.008252,0.000000,0.000000,0.000000,0.000000,0.000000,0.000000
0.90392,-0.015230,-0.023645,-0.585284,1.139319,-0.423023,-0.009248,0.000000,0.000000,0.000000,0.000000,0.000000,0.000000
0.90592,-0.015554,-0.024268,-0.585967,1.132842,-0.422332,-0.010434,0.000000,0.000000,0.000000,0.000000,0.000000,0.000000
0.90792,-0.015969,-0.024880,-0.586632,1.126230,-0.421639,-0.011794,0.000000,0.000000,0.000000,0.000000,0.000000,0.000000
0.90992,-0.016466,-0.025481,-0.587276,1.119504,-0.420948,-0.013315,0.000000,0.000000,0.000000,0.000000,0.000000,0.000000
0.91192,-0.017033,-0.026071,-0.587892,1.112683,-0.420263,-0.014984,0.000000,0.000000,0.000000,0.000000,0.000000,0.000000
0.91392,-0.017660,-0.026650,-0.588477,1.105787,-0.419589,-0.016787,0.000000,0.000000,0.000000,0.000000,0.000000,0.000000
0.91592,-0.018337,-0.027218,-0.589027,1.098838,-0.418931,-0.018710,0.000000,0.000000,0.000000,0.000000,0.000000,0.000000
0.91792,-0.019052,-0.027777,-0.589535,1.091854,-0.418291,-0.020740,0.000000,0.000000,0.000000,0.000000,0.000000,0.000000
0.91992,-0.019796,-0.028325,-0.589998,1.084856,-0.417675,-0.022862,0.000000,0.000000,0.000000,0.000000,0.000000,0.000000
0.92192,-0.020556,-0.028864,-0.590411,1.077864,-0.417087,-0.025063,0.000000,0.000000,0.000000,0.000000,0.000000,0.000000
0.92392,-0.021323,-0.029393,-0.590769,1.070897,-0.416531,-0.027329,0.000000,0.000000,0.000000,0.000000,0.000000,0.000000
0.92592,-0.022086,-0.029914,-0.591067,1.063977,-0.416011,-0.029647,0.000000,0.000000,0.000000,0.000000,0.000000,0.000000
0.92792,-0.022834,-0.030425,-0.591301,1.057123,-0.415531,-0.032002,0.000000,0.000000,0.000000,0.000000,0.000000,0.000000
0.92992,-0.023557,-0.030928,-0.591467,1.050355,-0.415096,-0.034382,0.000000,0.000000,0.000000,0.000000,0.000000,0.000000
0.93192,-0.024244,-0.031422,-0.591558,1.043694,-0.414710,-0.036772,0.000000,0.000000,0.000000,0.000000,0.000000,0.000000
0.93392,-0.024889,-0.031908,-0.591573,1.037146,-0.414375,-0.039174,0.000000,0.000000,0.000000,0.000000,0.000000,0.000000
0.93592,-0.025551,-0.032379,-0.591523,1.030579,-0.414074,-0.041772,0.000000,0.000000,0.000000,0.000000,0.000000,0.000000
0.93792,-0.026244,-0.032836,-0.591416,1.023962,-0.413798,-0.044601,0.000000,0.000000,0.000000,0.000000,0.000000,0.000000
0.93992,-0.026963,-0.033280,-0.591255,1.017313,-0.413544,-0.047633,0.000000,0.000000,0.000000,0.000000,0.000000,0.000000
0.94192,-0.027702,-0.033714,-0.591046,1.010650,-0.413309,-0.050842,0.000000,0.000000,0.000000,0.000000,0.000000,0.000000
0.94391,-0.028454,-0.034138,-0.590790,1.003992,-0.413089,-0.054199,0.000000,0.000000,0.000000,0.000000,0.000000,0.000000
0.94591,-0.029213,-0.034554,-0.590492,0.997356,-0.412882,-0.057677,0.000000,0.000000,0.000000,0.000000,0.000000,0.000000
0.94791,-0.029974,-0.034965,-0.590156,0.990761,-0.412686,-0.061248,0.000000,0.000000,0.000000,0.000000,0.000000,0.000000
0.94991,-0.030731,-0.035372,-0.589785,0.984224,-0.412495,-0.064886,0.000000,0.000000,0.000000,0.000000,0.000000,0.000000
0.95191,-0.031478,-0.035776,-0.589383,0.977763,-0.412309,-0.068561,0.000000,0.000000,0.000000,0.000000,0.000000,0.000000
0.95391,-0.032209,-0.036180,-0.588954,0.971396,-0.412123,-0.072247,0.000000,0.000000,0.000000,0.000000,0.000000,0.000000
0.95591,-0.032917,-0.036586,-0.588502,0.965141,-0.411936,-0.075916,0.000000,0.000000,0.000000,0.000000,0.000000,0.000000
0.95791,-0.033598,-0.036994,-0.588029,0.959017,-0.411743,-0.079541,0.000000,0.000000,0.000000,0.000000,0.000000,0.000000
0.95991,-0.034244,-0.037408,-0.587540,0.953041,-0.411541,-0.083094,0.000000,0.000000,0.000000,0.000000,0.000000,0.000000
0.96191,-0.034851,-0.037828,-0.587039,0.947231,-0.411329,-0.086547,0.000000,0.000000,0.000000,0.000000,0.000000,0.000000
0.96391,-0.035412,-0.038256,-0.586528,0.941605,-0.411102,-0.089873,0.000000,0.000000,0.000000,0.000000,0.000000,0.000000
0.96591,-0.035921,-0.038694,-0.586013,0.936182,-0.410858,-0.093044,0.000000,0.000000,0.000000,0.000000,0.000000,0.000000
0.96791,-0.036389,-0.039143,-0.585475,0.930924,-0.410594,-0.096108,0.000000,0.000000,0.000000,0.000000,0.000000,0.000000
0.96991,-0.036864,-0.039598,-0.584851,0.925675,-0.410314,-0.099277,0.000000,0.000000,0.000000,0.000000,0.000000,0.000000
0.97191,-0.037345,-0.040058,-0.584142,0.920441,-0.410020,-0.102538,0.000000,0.000000,0.000000,0.000000,0.000000,0.000000
0.97391,-0.037827,-0.040523,-0.583353,0.915240,-0.409713,-0.105860,0.000000,0.000000,0.000000,0.000000,0.000000,0.000000
0.97591,-0.038305,-0.040992,-0.582490,0.910092,-0.409397,-0.109210,0.000000,0.000000,0.000000,0.000000,0.000000,0.000000
0.97791,-0.038774,-0.041464,-0.581560,0.905017,-0.409071,-0.112557,0.000000,0.000000,0.000000,0.000000,0.000000,0.000000
0.97991,-0.039229,-0.041940,-0.580568,0.900034,-0.408740,-0.115868,0.000000,0.000000,0.000000,0.000000,0.000000,0.000000
0.98191,-0.039664,-0.042417,-0.579519,0.895163,-0.408405,-0.119113,0.000000,0.000000,0.000000,0.000000,0.000000,0.000000
0.98391,-0.040076,-0.042897,-0.578421,0.890424,-0.408067,-0.122258,0.000000,0.000000,0.000000,0.000000,0.000000,0.000000
0.98591,-0.040458,-0.043377,-0.577278,0.885834,-0.407729,-0.125273,0.000000,0.000000,0.000000,0.000000,0.000000,0.000000
0.98791,-0.040805,-0.043858,-0.576096,0.881416,-0.407392,-0.128126,0.000000,0.000000,0.000000,0.000000,0.000000,0.000000
0.98991,-0.041113,-0.044339,-0.574882,0.877186,-0.407060,-0.130784,0.000000,0.000000,0.000000,0.000000,0.000000,0.000000
0.99191,-0.041377,-0.044820,-0.573642,0.873166,-0.406733,-0.133215,0.000000,0.000000,0.000000,0.000000,0.000000,0.000000
0.99391,-0.041590,-0.045299,-0.572380,0.869375,-0.406414,-0.135389,0.000000,0.000000,0.000000,0.000000,0.000000,0.000000
0.99591,-0.041749,-0.045776,-0.571104,0.865832,-0.406105,-0.137273,0.000000,0.000000,0.000000,0.000000,0.000000,0.000000
0.99791,-0.041848,-0.046251,-0.569819,0.862556,-0.405807,-0.138835,0.000000,0.000000,0.000000,0.000000,0.000000,0.000000
0.99991,-0.041882,-0.046723,-0.568530,0.859567,-0.405524,-0.140043,0.000000,0.000000,0.000000,0.000000,0.000000,0.000000
1.00191,-0.041874,-0.047197,-0.567207,0.856701,-0.405238,-0.141053,0.000000,0.000000,0.000000,0.000000,0.000000,0.000000
1.00391,-0.041848,-0.047676,-0.565819,0.853797,-0.404934,-0.142039,0.000000,0.000000,0.000000,0.000000,0.000000,0.000000
1.00591,-0.041807,-0.048160,-0.564368,0.850883,-0.404617,-0.142995,0.000000,0.000000,0.000000,0.000000,0.000000,0.000000
1.00791,-0.041752,-0.048646,-0.562858,0.847989,-0.404292,-0.143917,0.000000,0.000000,0.000000,0.000000,0.000000,0.000000
1.00991,-0.041682,-0.049135,-0.561294,0.845143,-0.403964,-0.144799,0.000000,0.000000,0.000000,0.000000,0.000000,0.000000
1.01191,-0.041600,-0.049624,-0.559678,0.842372,-0.403636,-0.145637,0.000000,0.000000,0.000000,0.000000,0.000000,0.000000
1.01391,-0.041507,-0.050111,-0.558016,0.839706,-0.403314,-0.146425,0.000000,0.000000,0.000000,0.000000,0.000000,0.000000
1.01591,-0.041403,-0.050597,-0.556310,0.837172,-0.403003,-0.147158,0.000000,0.000000,0.000000,0.000000,0.000000,0.000000
1.01791,-0.041289,-0.051080,-0.554564,0.834800,-0.402706,-0.147832,0.000000,0.000000,0.000000,0.000000,0.000000,0.000000
1.01991,-0.041166,-0.051557,-0.552782,0.832616,-0.402430,-0.148441,0.000000,0.000000,0.000000,0.000000,0.000000,0.000000
1.02191,-0.041036,-0.052028,-0.550969,0.830650,-0.402177,-0.148981,0.000000,0.000000,0.000000,0.000000,0.000000,0.000000
1.02391,-0.040900,-0.052493,-0.549126,0.828929,-0.401954,-0.149446,0.000000,0.000000,0.000000,0.000000,0.000000,0.000000
1.02591,-0.040757,-0.052948,-0.547260,0.827483,-0.401764,-0.149831,0.000000,0.000000,0.000000,0.000000,0.000000,0.000000
1.02791,-0.040611,-0.053393,-0.545372,0.826340,-0.401612,-0.150132,0.000000,0.000000,0.000000,0.000000,0.000000,0.000000
1.02991,-0.040460,-0.053827,-0.543468,0.825527,-0.401503,-0.150343,0.000000,0.000000,0.000000,0.000000,0.000000,0.000000
1.03191,-0.040307,-0.054249,-0.541550,0.825073,-0.401442,-0.150460,0.000000,0.000000,0.000000,0.000000,0.000000,0.000000
1.03391,-0.040149,-0.054657,-0.539621,0.824986,-0.401436,-0.150466,0.000000,0.000000,0.000000,0.000000,0.000000,0.000000
1.03591,-0.039954,-0.055060,-0.537648,0.825012,-0.401528,-0.150222,0.000000,0.000000,0.000000,0.000000,0.000000,0.000000
1.03791,-0.039714,-0.055460,-0.535625,0.825067,-0.401725,-0.149705,0.000000,0.000000,0.000000,0.000000,0.000000,0.000000
1.03991,-0.039435,-0.055857,-0.533554,0.825151,-0.402021,-0.148938,0.000000,0.000000,0.000000,0.000000,0.000000,0.000000
1.04191,-0.039122,-0.056250,-0.531440,0.825263,-0.402409,-0.147944,0.000000,0.000000,0.000000,0.000000,0.000000,0.000000
1.04391,-0.038781,-0.056638,-0.529285,0.825402,-0.402882,-0.146746,0.000000,0.000000,0.000000,0.000000,0.000000,0.000000
1.04591,-0.038418,-0.057020,-0.527093,0.825567,-0.403435,-0.145366,0.000000,0.000000,0.000000,0.000000,0.000000,0.000000
1.04791,-0.038036,-0.057396,-0.524866,0.825757,-0.404061,-0.143828,0.000000,0.000000,0.000000,0.000000,0.000000,0.000000
1.04991,-0.037643,-0.057765,-0.522608,0.825971,-0.404753,-0.142154,0.000000,0.000000,0.000000,0.000000,0.000000,0.000000
1.05191,-0.037243,-0.058126,-0.520323,0.826208,-0.405506,-0.140368,0.000000,0.000000,0.000000,0.000000,0.000000,0.000000
1.05391,-0.036842,-0.058479,-0.518012,0.826468,-0.406312,-0.138491,0.000000,0.000000,0.000000,0.000000,0.000000,0.000000
1.05590,-0.036445,-0.058823,-0.515680,0.826748,-0.407166,-0.136547,0.000000,0.000000,0.000000,0.000000,0.000000,0.000000
1.05790,-0.036057,-0.059157,-0.513330,0.827050,-0.408061,-0.134559,0.000000,0.000000,0.000000,0.000000,0.000000,0.000000
1.05990,-0.035684,-0.059480,-0.510965,0.827370,-0.408990,-0.132550,0.000000,0.000000,0.000000,0.000000,0.000000,0.000000
1.06190,-0.035331,-0.059793,-0.508588,0.827709,-0.409948,-0.130543,0.000000,0.000000,0.000000,0.000000,0.000000,0.000000
1.06390,-0.035004,-0.060093,-0.506202,0.828066,-0.410928,-0.128559,0.000000,0.000000,0.000000,0.000000,0.000000,0.000000
1.06590,-0.034707,-0.060381,-0.503811,0.828439,-0.411923,-0.126623,0.000000,0.000000,0.000000,0.000000,0.000000,0.000000
1.06790,-0.034437,-0.060657,-0.501410,0.828895,-0.412974,-0.124702,0.000000,0.000000,0.000000,0.000000,0.000000,0.000000
1.06990,-0.034165,-0.060926,-0.498977,0.829637,-0.414227,-0.122636,0.000000,0.000000,0.000000,0.000000,0.000000,0.000000
1.07190,-0.033891,-0.061189,-0.496511,0.830659,-0.415677,-0.120426,0.000000,0.000000,0.000000,0.000000,0.000000,0.000000
1.07390,-0.033616,-0.061446,-0.494016,0.831935,-0.417313,-0.118086,0.000000,0.000000,0.000000,0.000000,0.000000,0.000000
1.07590,-0.033343,-0.061696,-0.491494,0.833441,-0.419118,-0.115632,0.000000,0.000000,0.000000,0.000000,0.000000,0.000000
1.07790,-0.033073,-0.061940,-0.488948,0.835151,-0.421081,-0.113077,0.000000,0.000000,0.000000,0.000000,0.000000,0.000000
1.07990,-0.032809,-0.062179,-0.486380,0.837040,-0.423185,-0.110436,0.000000,0.000000,0.000000,0.000000,0.000000,0.000000
1.08190,-0.032553,-0.062411,-0.483793,0.839084,-0.425418,-0.107723,0.000000,0.000000,0.000000,0.000000,0.000000,0.000000
1.08390,-0.032307,-0.062637,-0.481190,0.841258,-0.427766,-0.104954,0.000000,0.000000,0.000000,0.000000,0.000000,0.000000
1.08590,-0.032072,-0.062857,-0.478574,0.843537,-0.430214,-0.102142,0.000000,0.000000,0.000000,0.000000,0.000000,0.000000
1.08790,-0.031851,-0.063072,-0.475946,0.845895,-0.432747,-0.099303,0.000000,0.000000,0.000000,0.000000,0.000000,0.000000
1.08990,-0.031645,-0.063280,-0.473309,0.848308,-0.435354,-0.096451,0.000000,0.000000,0.000000,0.000000,0.000000,0.000000
1.09190,-0.031458,-0.063483,-0.470667,0.850751,-0.438018,-0.093600,0.000000,0.000000,0.000000,0.000000,0.000000,0.000000
1.09390,-0.031290,-0.063681,-0.468022,0.853200,-0.440727,-0.090765,0.000000,0.000000,0.000000,0.000000,0.000000,0.000000
1.09590,-0.031143,-0.063872,-0.465376,0.855628,-0.443465,-0.087960,0.000000,0.000000,0.000000,0.000000,0.000000,0.000000
1.09790,-0.031021,-0.064058,-0.462731,0.858011,-0.446220,-0.085201,0.000000,0.000000,0.000000,0.000000,0.000000,0.000000
1.09990,-0.030924,-0.064239,-0.460092,0.860325,-0.448976,-0.082501,0.000000,0.000000,0.000000,0.000000,0.000000,0.000000
1.10190,-0.030842,-0.064415,-0.457447,0.862657,-0.451820,-0.079795,0.000000,0.000000,0.000000,0.000000,0.000000,0.000000
1.10390,-0.030762,-0.064589,-0.454787,0.865104,-0.454834,-0.077016,0.000000,0.000000,0.000000,0.000000,0.000000,0.000000
1.10590,-0.030684,-0.064761,-0.452114,0.867656,-0.458006,-0.074180,0.000000,0.000000,0.000000,0.000000,0.000000,0.000000
1.10790,-0.030609,-0.064930,-0.449428,0.870301,-0.461323,-0.071301,0.000000,0.000000,0.000000,0.000000,0.000000,0.000000
1.10990,-0.030537,-0.065095,-0.446732,0.873027,-0.464770,-0.068392,0.000000,0.000000,0.000000,0.000000,0.000000,0.000000
1.11190,-0.030468,-0.065257,-0.444028,0.875824,-0.468335,-0.065468,0.000000,0.000000,0.000000,0.000000,0.000000,0.000000
1.11390,-0.030404,-0.065415,-0.441317,0.878681,-0.472003,-0.062543,0.000000,0.000000,0.000000,0.000000,0.000000,0.000000
1.11590,-0.030344,-0.065568,-0.438600,0.881587,-0.475762,-0.059633,0.000000,0.000000,0.000000,0.000000,0.000000,0.000000
1.11790,-0.030289,-0.065718,-0.435880,0.884530,-0.479598,-0.056750,0.000000,0.000000,0.000000,0.000000,0.000000,0.000000
1.11990,-0.030239,-0.065862,-0.433158,0.887499,-0.483497,-0.053909,0.000000,0.000000,0.000000,0.000000,0.000000,0.000000
1.12190,-0.030195,-0.066001,-0.430435,0.890482,-0.487446,-0.051125,0.000000,0.000000,0.000000,0.000000,0.000000,0.000000
1.12390,-0.030157,-0.066135,-0.427714,0.893470,-0.491432,-0.048412,0.000000,0.000000,0.000000,0.000000,0.000000,0.000000
1.12590,-0.030126,-0.066263,-0.424995,0.896451,-0.495441,-0.045784,0.000000,0.000000,0.000000,0.000000,0.000000,0.000000
1.12790,-0.030101,-0.066386,-0.422282,0.899413,-0.499459,-0.043255,0.000000,0.000000,0.000000,0.000000,0.000000,0.000000
1.12990,-0.030084,-0.066502,-0.419574,0.902346,-0.503473,-0.040840,0.000000,0.000000,0.000000,0.000000,0.000000,0.000000
1.13190,-0.030074,-0.066611,-0.416875,0.905237,-0.507470,-0.038554,0.000000,0.000000,0.000000,0.000000,0.000000,0.000000
1.13390,-0.030074,-0.066714,-0.414184,0.908083,-0.511444,-0.036399,0.000000,0.000000,0.000000,0.000000,0.000000,0.000000
1.13590,-0.030090,-0.066818,-0.411496,0.910951,-0.515489,-0.034261,0.000000,0.000000,0.000000,0.000000,0.000000,0.000000
1.13790,-0.030125,-0.066924,-0.408809,0.913855,-0.519626,-0.032112,0.000000,0.000000,0.000000,0.000000,0.000000,0.000000
1.13990,-0.030175,-0.067030,-0.406123,0.916789,-0.523843,-0.029966,0.000000,0.000000,0.000000,0.000000,0.000000,0.000000
1.14190,-0.030237,-0.067137,-0.403438,0.919743,-0.528127,-0.027836,0.000000,0.000000,0.000000,0.000000,0.000000,0.000000
1.14390,-0.030310,-0.067241,-0.400755,0.922710,-0.532467,-0.025737,0.000000,0.000000,0.000000,0.000000,0.000000,0.000000
1.14590,-0.030391,-0.067344,-0.398072,0.925681,-0.536851,-0.023680,0.000000,0.000000,0.000000,0.000000,0.000000,0.000000
1.14790,-0.030476,-0.067442,-0.395392,0.928648,-0.541266,-0.021680,0.000000,0.000000,0.000000,0.000000,0.000000,0.000000
1.14990,-0.030565,-0.067536,-0.392713,0.931604,-0.545701,-0.019750,0.000000,0.000000,0.000000,0.000000,0.000000,0.000000
1.15190,-0.030653,-0.067623,-0.390036,0.934540,-0.550144,-0.017903,0.000000,0.000000,0.000000,0.000000,0.000000,0.000000
1.15390,-0.030738,-0.067704,-0.387361,0.937448,-0.554583,-0.016153,0.000000,0.000000,0.000000,0.000000,0.000000,0.000000
1.15590,-0.030819,-0.067776,-0.384689,0.940320,-0.559005,-0.014514,0.000000,0.000000,0.000000,0.000000,0.000000,0.000000
1.15790,-0.030892,-0.067838,-0.382019,0.943147,-0.563398,-0.012998,0.000000,0.000000,0.000000,0.000000,0.000000,0.000000
1.15990,-0.030955,-0.067890,-0.379352,0.945922,-0.567752,-0.011619,0.000000,0.000000,0.000000,0.000000,0.000000,0.000000
1.16190,-0.031004,-0.067929,-0.376688,0.948636,-0.572053,-0.010390,0.000000,0.000000,0.000000,0.000000,0.000000,0.000000
1.16390,-0.031039,-0.067956,-0.374026,0.951282,-0.576289,-0.009326,0.000000,0.000000,0.000000,0.000000,0.000000,0.000000
1.16589,-0.031056,-0.067969,-0.371369,0.953850,-0.580449,-0.008438,0.000000,0.000000,0.000000,0.000000,0.000000,0.000000
1.16789,-0.031052,-0.067968,-0.368715,0.956357,-0.584544,-0.007701,0.000000,0.000000,0.000000,0.000000,0.000000,0.000000
1.16989,-0.031028,-0.067961,-0.366070,0.958866,-0.588639,-0.006991,0.000000,0.000000,0.000000,0.000000,0.000000,0.000000
1.17189,-0.030984,-0.067948,-0.363433,0.961375,-0.592735,-0.006301,0.000000,0.000000,0.000000,0.000000,0.000000,0.000000
1.17389,-0.030923,-0.067930,-0.360801,0.963876,-0.596824,-0.005635,0.000000,0.000000,0.000000,0.000000,0.000000,0.000000
1.17589,-0.030844,-0.067907,-0.358174,0.966359,-0.600901,-0.004995,0.000000,0.000000,0.000000,0.000000,0.000000,0.000000
1.17789,-0.030750,-0.067881,-0.355551,0.968817,-0.604960,-0.004385,0.000000,0.000000,0.000000,0.000000,0.000000,0.000000
1.17989,-0.030642,-0.067850,-0.352930,0.971241,-0.608995,-0.003807,0.000000,0.000000,0.000000,0.000000,0.000000,0.000000
1.18189,-0.030521,-0.067817,-0.350310,0.973622,-0.613000,-0.003265,0.000000,0.000000,0.000000,0.000000,0.000000,0.000000
1.18389,-0.030388,-0.067781,-0.347690,0.975953,-0.616970,-0.002761,0.000000,0.000000,0.000000,0.000000,0.000000,0.000000
1.18589,-0.030245,-0.067743,-0.345069,0.978223,-0.620898,-0.002299,0.000000,0.000000,0.000000,0.000000,0.000000,0.000000
1.18789,-0.030093,-0.067704,-0.342444,0.980426,-0.624777,-0.001881,0.000000,0.000000,0.000000,0.000000,0.000000,0.000000
1.18989,-0.029933,-0.067663,-0.339816,0.982552,-0.628604,-0.001511,0.000000,0.000000,0.000000,0.000000,0.000000,0.000000
1.19189,-0.029767,-0.067623,-0.337183,0.984593,-0.632370,-0.001191,0.000000,0.000000,0.000000,0.000000,0.000000,0.000000
1.19389,-0.029596,-0.067582,-0.334544,0.986540,-0.636071,-0.000925,0.000000,0.000000,0.000000,0.000000,0.000000,0.000000
1.19589,-0.029420,-0.067542,-0.331897,0.988386,-0.639700,-0.000716,0.000000,0.000000,0.000000,0.000000,0.000000,0.000000
1.19789,-0.029242,-0.067503,-0.329241,0.990121,-0.643251,-0.000567,0.000000,0.000000,0.000000,0.000000,0.000000,0.000000
1.19989,-0.029063,-0.067465,-0.326575,0.991736,-0.646719,-0.000480,0.000000,0.000000,0.000000,0.000000,0.000000,0.000000
1.20189,-0.028858,-0.067429,-0.323905,0.993315,-0.650133,-0.000427,0.000000,0.000000,0.000000,0.000000,0.000000,0.000000
1.20389,-0.028605,-0.067393,-0.321239,0.994933,-0.653523,-0.000377,0.000000,0.000000,0.000000,0.000000,0.000000,0.000000
1.20589,-0.028310,-0.067356,-0.318573,0.996572,-0.656885,-0.000330,0.000000,0.000000,0.000000,0.000000,0.000000,0.000000
1.20789,-0.027979,-0.067318,-0.315908,0.998213,-0.660214,-0.000285,0.000000,0.000000,0.000000,0.000000,0.000000,0.000000
1.20989,-0.027618,-0.067280,-0.313241,0.999840,-0.663506,-0.000244,0.000000,0.000000,0.000000,0.000000,0.000000,0.000000
1.21189,-0.027232,-0.067241,-0.310569,1.001433,-0.666756,-0.000205,0.000000,0.000000,0.000000,0.000000,0.000000,0.000000
1.21389,-0.026827,-0.067201,-0.307893,1.002975,-0.669960,-0.000170,0.000000,0.000000,0.000000,0.000000,0.000000,0.000000
1.21589,-0.026409,-0.067159,-0.305210,1.004448,-0.673113,-0.000137,0.000000,0.000000,0.000000,0.000000,0.000000,0.000000
1.21789,-0.025983,-0.067116,-0.302518,1.005834,-0.676210,-0.000108,0.000000,0.000000,0.000000,0.000000,0.000000,0.000000
1.21989,-0.025555,-0.067070,-0.299815,1.007115,-0.679248,-0.000082,0.000000,0.000000,0.000000,0.000000,0.000000,0.000000
1.22189,-0.025131,-0.067023,-0.297101,1.008272,-0.682222,-0.000060,0.000000,0.000000,0.000000,0.000000,0.000000,0.000000
1.22389,-0.024716,-0.066974,-0.294373,1.009288,-0.685127,-0.000041,0.000000,0.000000,0.000000,0.000000,0.000000,0.000000
1.22589,-0.024317,-0.066922,-0.291630,1.010145,-0.687959,-0.000025,0.000000,0.000000,0.000000,0.000000,0.000000,0.000000
1.22789,-0.023939,-0.066868,-0.288870,1.010825,-0.690713,-0.000014,0.000000,0.000000,0.000000,0.000000,0.000000,0.000000
1.22989,-0.023588,-0.066810,-0.286091,1.011309,-0.693385,-0.000005,0.000000,0.000000,0.000000,0.000000,0.000000,0.000000
1.23189,-0.023268,-0.066750,-0.283293,1.011580,-0.695970,-0.000001,0.000000,0.000000,0.000000,0.000000,0.000000,0.000000
1.23389,-0.022986,-0.066686,-0.280473,1.011631,-0.698468,0.000000,0.000000,0.000000,0.000000,0.000000,0.000000,0.000000
1.23589,-0.022723,-0.066618,-0.277641,1.011606,-0.700932,0.000000,0.000000,0.000000,0.000000,0.000000,0.000000,0.000000
1.23789,-0.022472,-0.066546,-0.274800,1.011551,-0.703373,0.000000,0.000000,0.000000,0.000000,0.000000,0.000000,0.000000
1.23989,-0.022232,-0.066468,-0.271948,1.011467,-0.705787,0.000000,0.000000,0.000000,0.000000,0.000000,0.000000,0.000000
1.24189,-0.022001,-0.066386,-0.269084,1.011356,-0.708166,0.000000,0.000000,0.000000,0.000000,0.000000,0.000000,0.000000
1.24389,-0.021778,-0.066299,-0.266206,1.011217,-0.710506,0.000000,0.000000,0.000000,0.000000,0.000000,0.000000,0.000000
1.24589,-0.021562,-0.066206,-0.263314,1.011053,-0.712799,0.000000,0.000000,0.000000,0.000000,0.000000,0.000000,0.000000
1.24789,-0.021351,-0.066107,-0.260405,1.010864,-0.715041,0.000000,0.000000,0.000000,0.000000,0.000000,0.000000,0.000000
1.24989,-0.021143,-0.066003,-0.257480,1.010652,-0.717224,0.000000,0.000000,0.000000,0.000000,0.000000,0.000000,0.000000
1.25189,-0.020939,-0.065893,-0.254536,1.010416,-0.719345,0.000000,0.000000,0.000000,0.000000,0.000000,0.000000,0.000000
1.25389,-0.020735,-0.065777,-0.251571,1.010158,-0.721395,0.000000,0.000000,0.000000,0.000000,0.000000,0.000000,0.000000
1.25589,-0.020531,-0.065654,-0.248586,1.009879,-0.723370,0.000000,0.000000,0.000000,0.000000,0.000000,0.000000,0.000000
1.25789,-0.020325,-0.065525,-0.245579,1.009580,-0.725264,0.000000,0.000000,0.000000,0.000000,0.000000,0.000000,0.000000
1.25989,-0.020116,-0.065389,-0.242547,1.009262,-0.727070,0.000000,0.000000,0.000000,0.000000,0.000000,0.000000,0.000000
1.26189,-0.019903,-0.065246,-0.239491,1.008926,-0.728783,0.000000,0.000000,0.000000,0.000000,0.000000,0.000000,0.000000
1.26389,-0.019684,-0.065096,-0.236409,1.008573,-0.730397,0.000000,0.000000,0.000000,0.000000,0.000000,0.000000,0.000000
1.26589,-0.019457,-0.064939,-0.233299,1.008204,-0.731906,0.000000,0.000000,0.000000,0.000000,0.000000,0.000000,0.000000
1.26789,-0.019225,-0.064770,-0.230160,1.007760,-0.733338,0.000000,0.000000,0.000000,0.000000,0.000000,0.000000,0.000000
1.26989,-0.018996,-0.064574,-0.226996,1.007061,-0.734798,0.000000,0.000000,0.000000,0.000000,0.000000,0.000000,0.000000
1.27189,-0.018769,-0.064352,-0.223805,1.006110,-0.736278,0.000000,0.000000,0.000000,0.000000,0.000000,0.000000,0.000000
1.27389,-0.018543,-0.064107,-0.220589,1.004928,-0.737762,0.000000,0.000000,0.000000,0.000000,0.000000,0.000000,0.000000
1.27588,-0.018318,-0.063839,-0.217347,1.003534,-0.739234,0.000000,0.000000,0.000000,0.000000,0.000000,0.000000,0.000000
1.27788,-0.018093,-0.063550,-0.214080,1.001948,-0.740679,0.000000,0.000000,0.000000,0.000000,0.000000,0.000000,0.000000
1.27988,-0.017865,-0.063242,-0.210788,1.000189,-0.742082,0.000000,0.000000,0.000000,0.000000,0.000000,0.000000,0.000000
1.28188,-0.017635,-0.062916,-0.207471,0.998278,-0.743425,0.000000,0.000000,0.000000,0.000000,0.000000,0.000000,0.000000
1.28388,-0.017401,-0.062575,-0.204129,0.996233,-0.744694,0.000000,0.000000,0.000000,0.000000,0.000000,0.000000,0.000000
1.28588,-0.017163,-0.062220,-0.200763,0.994074,-0.745873,0.000000,0.000000,0.000000,0.000000,0.000000,0.000000,0.000000
1.28788,-0.016918,-0.061853,-0.197373,0.991822,-0.746945,0.000000,0.000000,0.000000,0.000000,0.000000,0.000000,0.000000
1.28988,-0.016667,-0.061475,-0.193960,0.989495,-0.747896,0.000000,0.000000,0.000000,0.000000,0.000000,0.000000,0.000000
1.29188,-0.016408,-0.061088,-0.190522,0.987113,-0.748709,0.000000,0.000000,0.000000,0.000000,0.000000,0.000000,0.000000
1.29388,-0.016140,-0.060694,-0.187061,0.984696,-0.749369,0.000000,0.000000,0.000000,0.000000,0.000000,0.000000,0.000000
1.29588,-0.015861,-0.060294,-0.183577,0.982264,-0.749860,0.000000,0.000000,0.000000,0.000000,0.000000,0.000000,0.000000
1.29788,-0.015572,-0.059890,-0.180070,0.979836,-0.750166,0.000000,0.000000,0.000000,0.000000,0.000000,0.000000,0.000000
1.29988,-0.015271,-0.059484,-0.176540,0.977432,-0.750272,0.000000,0.000000,0.000000,0.000000,0.000000,0.000000,0.000000
1.30188,-0.014950,-0.059065,-0.172979,0.974954,-0.750254,0.000000,0.000000,0.000000,0.000000,0.000000,0.000000,0.000000
1.30388,-0.014606,-0.058623,-0.169381,0.972300,-0.750199,0.000000,0.000000,0.000000,0.000000,0.000000,0.000000,0.000000
1.30588,-0.014241,-0.058159,-0.165748,0.969481,-0.750110,0.000000,0.000000,0.000000,0.000000,0.000000,0.000000,0.000000
1.30788,-0.013857,-0.057675,-0.162082,0.966510,-0.749987,0.000000,0.000000,0.000000,0.000000,0.000000,0.000000,0.000000
1.30988,-0.013457,-0.057172,-0.158386,0.963399,-0.749832,0.000000,0.000000,0.000000,0.000000,0.000000,0.000000,0.000000
1.31188,-0.013043,-0.056651,-0.154662,0.960159,-0.749645,0.000000,0.000000,0.000000,0.000000,0.000000,0.000000,0.000000
1.31388,-0.012619,-0.056114,-0.150912,0.956804,-0.749428,0.000000,0.000000,0.000000,0.000000,0.000000,0.000000,0.000000
1.31588,-0.012185,-0.055563,-0.147138,0.953346,-0.749183,0.000000,0.000000,0.000000,0.000000,0.000000,0.000000,0.000000
1.31788,-0.011746,-0.054999,-0.143344,0.949795,-0.748909,0.000000,0.000000,0.000000,0.000000,0.000000,0.000000,0.000000
1.31988,-0.011304,-0.054423,-0.139530,0.946166,-0.748610,0.000000,0.000000,0.000000,0.000000,0.000000,0.000000,0.000000
1.32188,-0.010860,-0.053836,-0.135701,0.942469,-0.748284,0.000000,0.000000,0.000000,0.000000,0.000000,0.000000,0.000000
1.32388,-0.010418,-0.053241,-0.131857,0.938717,-0.747935,0.000000,0.000000,0.000000,0.000000,0.000000,0.000000,0.000000
1.32588,-0.009981,-0.052639,-0.128002,0.934923,-0.747562,0.000000,0.000000,0.000000,0.000000,0.000000,0.000000,0.000000
1.32788,-0.009550,-0.052030,-0.124137,0.931098,-0.747168,0.000000,0.000000,0.000000,0.000000,0.000000,0.000000,0.000000
1.32988,-0.009128,-0.051417,-0.120265,0.927254,-0.746753,0.000000,0.000000,0.000000,0.000000,0.000000,0.000000,0.000000
1.33188,-0.008719,-0.050801,-0.116389,0.923403,-0.746319,0.000000,0.000000,0.000000,0.000000,0.000000,0.000000,0.000000
1.33388,-0.008321,-0.050182,-0.112509,0.919550,-0.745849,0.000000,0.000000,0.000000,0.000000,0.000000,0.000000,0.000000
1.33588,-0.007915,-0.049548,-0.108607,0.915581,-0.745137,0.000000,0.000000,0.000000,0.000000,0.000000,0.000000,0.000000
1.33788,-0.007496,-0.048896,-0.104681,0.911476,-0.744135,0.000000,0.000000,0.000000,0.000000,0.000000,0.000000,0.000000
1.33988,-0.007067,-0.048228,-0.100732,0.907250,-0.742864,0.000000,0.000000,0.000000,0.000000,0.000000,0.000000,0.000000
1.34188,-0.006633,-0.047544,-0.096762,0.902919,-0.741345,0.000000,0.000000,0.000000,0.000000,0.000000,0.000000,0.000000
1.34388,-0.006195,-0.046848,-0.092775,0.898499,-0.739601,0.000000,0.000000,0.000000,0.000000,0.000000,0.000000,0.000000
1.34588,-0.005759,-0.046139,-0.088773,0.894005,-0.737651,0.000000,0.000000,0.000000,0.000000,0.000000,0.000000,0.000000
1.34788,-0.005328,-0.045421,-0.084758,0.889454,-0.735517,0.000000,0.000000,0.000000,0.000000,0.000000,0.000000,0.000000
1.34988,-0.004904,-0.044694,-0.080733,0.884860,-0.733221,0.000000,0.000000,0.000000,0.000000,0.000000,0.000000,0.000000
1.35188,-0.004492,-0.043960,-0.076700,0.880241,-0.730784,0.000000,0.000000,0.000000,0.000000,0.000000,0.000000,0.000000
1.35388,-0.004095,-0.043222,-0.072662,0.875612,-0.728226,0.000000,0.000000,0.000000,0.000000,0.000000,0.000000,0.000000
1.35588,-0.003716,-0.042479,-0.068621,0.870988,-0.725569,0.000000,0.000000,0.000000,0.000000,0.000000,0.000000,0.000000
1.35788,-0.003360,-0.041735,-0.064580,0.866386,-0.722835,0.000000,0.000000,0.000000,0.000000,0.000000,0.000000,0.000000
1.35988,-0.003029,-0.040990,-0.060541,0.861821,-0.720044,0.000000,0.000000,0.000000,0.000000,0.000000,0.000000,0.000000
1.36188,-0.002727,-0.040247,-0.056506,0.857309,-0.717217,0.000000,0.000000,0.000000,0.000000,0.000000,0.000000,0.000000
1.36388,-0.002458,-0.039506,-0.052479,0.852866,-0.714377,0.000000,0.000000,0.000000,0.000000,0.000000,0.000000,0.000000
1.36588,-0.002225,-0.038770,-0.048461,0.848508,-0.711543,0.000000,0.000000,0.000000,0.000000,0.000000,0.000000,0.000000
1.36788,-0.002026,-0.038030,-0.044448,0.844203,-0.708676,0.000000,0.000000,0.000000,0.000000,0.000000,0.000000,0.000000
1.36988,-0.001844,-0.037256,-0.040424,0.839815,-0.705593,0.000000,0.000000,0.000000,0.000000,0.000000,0.000000,0.000000
1.37188,-0.001677,-0.036454,-0.036388,0.835354,-0.702293,0.000000,0.000000,0.000000,0.000000,0.000000,0.000000,0.000000
1.37388,-0.001522,-0.035629,-0.032344,0.830844,-0.698791,0.000000,0.000000,0.000000,0.000000,0.000000,0.000000,0.000000
1.37588,-0.001378,-0.034788,-0.028294,0.826308,-0.695100,0.000000,0.000000,0.000000,0.000000,0.000000,0.000000,0.000000
1.37788,-0.001243,-0.033939,-0.024241,0.821768,-0.691235,0.000000,0.000000,0.000000,0.000000,0.000000,0.000000,0.000000
1.37988,-0.001116,-0.033088,-0.020188,0.817248,-0.687210,0.000000,0.000000,0.000000,0.000000,0.000000,0.000000,0.000000
1.38188,-0.000995,-0.032243,-0.016136,0.812770,-0.683039,0.000000,0.000000,0.000000,0.000000,0.000000,0.000000,0.000000
1.38388,-0.000878,-0.031409,-0.012089,0.808356,-0.678738,0.000000,0.000000,0.000000,0.000000,0.000000,0.000000,0.000000
1.38588,-0.000763,-0.030595,-0.008049,0.804031,-0.674319,0.000000,0.000000,0.000000,0.000000,0.000000,0.000000,0.000000
1.38787,-0.000648,-0.029806,-0.004019,0.799817,-0.669798,0.000000,0.000000,0.000000,0.000000,0.000000,0.000000,0.000000
1.38987,-0.000533,-0.029050,-0.000002,0.795737,-0.665188,0.000000,0.000000,0.000000,0.000000,0.000000,0.000000,0.000000
1.39187,-0.000415,-0.028333,0.004001,0.791813,-0.660504,0.000000,0.000000,0.000000,0.000000,0.000000,0.000000,0.000000
1.39387,-0.000292,-0.027663,0.007986,0.788069,-0.655760,0.000000,0.000000,0.000000,0.000000,0.000000,0.000000,0.000000
1.39587,-0.000163,-0.027046,0.011950,0.784528,-0.650971,0.000000,0.000000,0.000000,0.000000,0.000000,0.000000,0.000000
1.39787,-0.000027,-0.026489,0.015892,0.781211,-0.646150,0.000000,0.000000,0.000000,0.000000,0.000000,0.000000,0.000000
1.39987,0.000120,-0.025999,0.019808,0.778144,-0.641313,0.000000,0.000000,0.000000,0.000000,0.000000,0.000000,0.000000
1.40187,0.000275,-0.025542,0.023724,0.775156,-0.636376,0.000000,0.000000,0.000000,0.000000,0.000000,0.000000,0.000000
1.40387,0.000437,-0.025080,0.027662,0.772089,-0.631258,0.000000,0.000000,0.000000,0.000000,0.000000,0.000000,0.000000
1.40587,0.000606,-0.024619,0.031616,0.768977,-0.625974,0.000000,0.000000,0.000000,0.000000,0.000000,0.000000,0.000000
1.40787,0.000779,-0.024163,0.035576,0.765854,-0.620538,0.000000,0.000000,0.000000,0.000000,0.000000,0.000000,0.000000
1.40987,0.000955,-0.023715,0.039536,0.762757,-0.614965,0.000000,0.000000,0.000000,0.000000,0.000000,0.000000,0.000000
1.41187,0.001135,-0.023281,0.043487,0.759720,-0.609269,0.000000,0.000000,0.000000,0.000000,0.000000,0.000000,0.000000
1.41387,0.001316,-0.022864,0.047421,0.756777,-0.603466,0.000000,0.000000,0.000000,0.000000,0.000000,0.000000,0.000000
1.41587,0.001499,-0.022468,0.051332,0.753964,-0.597569,0.000000,0.000000,0.000000,0.000000,0.000000,0.000000,0.000000
1.41787,0.001681,-0.022099,0.055211,0.751316,-0.591593,0.000000,0.000000,0.000000,0.000000,0.000000,0.000000,0.000000
1.41987,0.001862,-0.021759,0.059050,0.748867,-0.585554,0.000000,0.000000,0.000000,0.000000,0.000000,0.000000,0.000000
1.42187,0.002041,-0.021454,0.062842,0.746652,-0.579465,0.000000,0.000000,0.000000,0.000000,0.000000,0.000000,0.000000
1.42387,0.002217,-0.021187,0.066578,0.744707,-0.573342,0.000000,0.000000,0.000000,0.000000,0.000000,0.000000,0.000000
1.42587,0.002388,-0.020963,0.070252,0.743066,-0.567199,0.000000,0.000000,0.000000,0.000000,0.000000,0.000000,0.000000
1.42787,0.002555,-0.020786,0.073855,0.741763,-0.561050,0.000000,0.000000,0.000000,0.000000,0.000000,0.000000,0.000000
1.42987,0.002715,-0.020661,0.077380,0.740835,-0.554910,0.000000,0.000000,0.000000,0.000000,0.000000,0.000000,0.000000
1.43187,0.002868,-0.020591,0.080818,0.740315,-0.548795,0.000000,0.000000,0.000000,0.000000,0.000000,0.000000,0.000000
1.43387,0.003014,-0.020577,0.084168,0.740214,-0.542712,0.000000,0.000000,0.000000,0.000000,0.000000,0.000000,0.000000
1.43587,0.003165,-0.020578,0.087498,0.740223,-0.536602,0.000000,0.000000,0.000000,0.000000,0.000000,0.000000,0.000000
1.43787,0.003324,-0.020579,0.090821,0.740242,-0.530445,0.000000,0.000000,0.000000,0.000000,0.000000,0.000000,0.000000
1.43987,0.003487,-0.020581,0.094129,0.740272,-0.524244,0.000000,0.000000,0.000000,0.000000,0.000000,0.000000,0.000000
1.44187,0.003653,-0.020584,0.097413,0.740312,-0.518001,0.000000,0.000000,0.000000,0.000000,0.000000,0.000000,0.000000
1.44387,0.003819,-0.020588,0.100664,0.740362,-0.511719,0.000000,0.000000,0.000000,0.000000,0.000000,0.000000,0.000000
1.44587,0.003983,-0.020592,0.103873,0.740422,-0.505400,0.000000,0.000000,0.000000,0.000000,0.000000,0.000000,0.000000
1.44787,0.004144,-0.020597,0.107032,0.740493,-0.499047,0.000000,0.000000,0.000000,0.000000,0.000000,0.000000,0.000000
1.44987,0.004297,-0.020602,0.110131,0.740573,-0.492661,0.000000,0.000000,0.000000,0.000000,0.000000,0.000000,0.000000
1.45187,0.004443,-0.020608,0.113162,0.740662,-0.486246,0.000000,0.000000,0.000000,0.000000,0.000000,0.000000,0.000000
1.45387,0.004577,-0.020614,0.116115,0.740761,-0.479804,0.000000,0.000000,0.000000,0.000000,0.000000,0.000000,0.000000
1.45587,0.004698,-0.020620,0.118983,0.740870,-0.473337,0.000000,0.000000,0.000000,0.000000,0.000000,0.000000,0.000000
1.45787,0.004804,-0.020627,0.121755,0.740988,-0.466847,0.000000,0.000000,0.000000,0.000000,0.000000,0.000000,0.000000
1.45987,0.004893,-0.020634,0.124424,0.741115,-0.460337,0.000000,0.000000,0.000000,0.000000,0.000000,0.000000,0.000000
1.46187,0.004961,-0.020641,0.126980,0.741250,-0.453810,0.000000,0.000000,0.000000,0.000000,0.000000,0.000000,0.000000
1.46387,0.005007,-0.020649,0.129415,0.741395,-0.447267,0.000000,0.000000,0.000000,0.000000,0.000000,0.000000,0.000000
1.46587,0.005029,-0.020656,0.131719,0.741549,-0.440712,0.000000,0.000000,0.000000,0.000000,0.000000,0.000000,0.000000
1.46787,0.005029,-0.020664,0.133925,0.741802,-0.434136,0.000000,0.000000,0.000000,0.000000,0.000000,0.000000,0.000000
1.46987,0.005023,-0.020676,0.136150,0.742435,-0.427509,0.000000,0.000000,0.000000,0.000000,0.000000,0.000000,0.000000
1.47187,0.005012,-0.020690,0.138387,0.743440,-0.420835,0.000000,0.000000,0.000000,0.000000,0.000000,0.000000,0.000000
1.47387,0.004995,-0.020708,0.140620,0.744789,-0.414119,0.000000,0.000000,0.000000,0.000000,0.000000,0.000000,0.000000
1.47587,0.004974,-0.020727,0.142830,0.746449,-0.407368,0.000000,0.000000,0.000000,0.000000,0.000000,0.000000,0.000000
1.47787,0.004949,-0.020747,0.145002,0.748392,-0.400587,0.000000,0.000000,0.000000,0.000000,0.000000,0.000000,0.000000
1.47987,0.004919,-0.020769,0.147117,0.750586,-0.393782,0.000000,0.000000,0.000000,0.000000,0.000000,0.000000,0.000000
1.48187,0.004886,-0.020790,0.149159,0.753001,-0.386960,0.000000,0.000000,0.000000,0.000000,0.000000,0.000000,0.000000
1.48387,0.004849,-0.020812,0.151110,0.755608,-0.380125,0.000000,0.000000,0.000000,0.000000,0.000000,0.000000,0.000000
1.48587,0.004809,-0.020833,0.152953,0.758375,-0.373285,0.000000,0.000000,0.000000,0.000000,0.000000,0.000000,0.000000
1.48787,0.004767,-0.020853,0.154671,0.761272,-0.366444,0.000000,0.000000,0.000000,0.000000,0.000000,0.000000,0.000000
1.48987,0.004721,-0.020872,0.156246,0.764270,-0.359609,0.000000,0.000000,0.000000,0.000000,0.000000,0.000000,0.000000
1.49187,0.004674,-0.020888,0.157662,0.767338,-0.352786,0.000000,0.000000,0.000000,0.000000,0.000000,0.000000,0.000000
1.49387,0.004624,-0.020901,0.158901,0.770445,-0.345981,0.000000,0.000000,0.000000,0.000000,0.000000,0.000000,0.000000
1.49587,0.004572,-0.020912,0.159946,0.773561,-0.339199,0.000000,0.000000,0.000000,0.000000,0.000000,0.000000,0.000000
1.49786,0.004519,-0.020918,0.160779,0.776656,-0.332446,0.000000,0.000000,0.000000,0.000000,0.000000,0.000000,0.000000
1.49986,0.004465,-0.020920,0.161384,0.779699,-0.325729,0.000000,0.000000,0.000000,0.000000,0.000000,0.000000,0.000000
1.50186,0.004399,-0.020913,0.161862,0.782816,-0.318995,0.000000,0.000000,0.000000,0.000000,0.000000,0.000000,0.000000
1.50386,0.004313,-0.020890,0.162322,0.786144,-0.312198,0.000000,0.000000,0.000000,0.000000,0.000000,0.000000,0.000000
1.50586,0.004208,-0.020853,0.162765,0.789674,-0.305355,0.000000,0.000000,0.000000,0.000000,0.000000,0.000000,0.000000
1.50786,0.004087,-0.020803,0.163187,0.793396,-0.298480,0.000000,0.000000,0.000000,0.000000,0.000000,0.000000,0.000000
1.50986,0.003953,-0.020741,0.163588,0.797299,-0.291590,0.000000,0.000000,0.000000,0.000000,0.000000,0.000000,0.000000
1.51186,0.003806,-0.020667,0.163965,0.801375,-0.284699,0.000000,0.000000,0.000000,0.000000,0.000000,0.000000,0.000000
1.51386,0.003651,-0.020583,0.164317,0.805613,-0.277823,0.000000,0.000000,0.000000,0.000000,0.000000,0.000000,0.000000
1.51586,0.003488,-0.020490,0.164643,0.810003,-0.270978,0.000000,0.000000,0.000000,0.000000,0.000000,0.000000,0.000000
1.51786,0.003320,-0.020389,0.164939,0.814536,-0.264179,0.000000,0.000000,0.000000,0.000000,0.000000,0.000000,0.000000
1.51986,0.003150,-0.020280,0.165206,0.819201,-0.257441,0.000000,0.000000,0.000000,0.000000,0.000000,0.000000,0.000000
1.52186,0.002979,-0.020165,0.165440,0.823989,-0.250781,0.000000,0.000000,0.000000,0.000000,0.000000,0.000000,0.000000
1.52386,0.002810,-0.020044,0.165641,0.828891,-0.244213,0.000000,0.000000,0.000000,0.000000,0.000000,0.000000,0.000000
1.52586,0.002645,-0.019918,0.165807,0.833895,-0.237754,0.000000,0.000000,0.000000,0.000000,0.000000,0.000000,0.000000
1.52786,0.002487,-0.019789,0.165935,0.838992,-0.231418,0.000000,0.000000,0.000000,0.000000,0.000000,0.000000,0.000000
1.52986,0.002336,-0.019657,0.166025,0.844172,-0.225222,0.000000,0.000000,0.000000,0.000000,0.000000,0.000000,0.000000
1.53186,0.002197,-0.019524,0.166074,0.849426,-0.219180,0.000000,0.000000,0.000000,0.000000,0.000000,0.000000,0.000000
1.53386,0.002069,-0.019388,0.166070,0.854753,-0.213294,0.000000,0.000000,0.000000,0.000000,0.000000,0.000000,0.000000
1.53586,0.001938,-0.019231,0.165867,0.860253,-0.207392,0.000000,0.000000,0.000000,0.000000,0.000000,0.000000,0.000000
1.53786,0.001799,-0.019051,0.165436,0.865956,-0.201442,0.000000,0.000000,0.000000,0.000000,0.000000,0.000000,0.000000
1.53986,0.001655,-0.018847,0.164794,0.871853,-0.195474,0.000000,0.000000,0.000000,0.000000,0.000000,0.000000,0.000000
1.54186,0.001508,-0.018623,0.163958,0.877938,-0.189516,0.000000,0.000000,0.000000,0.000000,0.000000,0.000000,0.000000
1.54386,0.001360,-0.018380,0.162947,0.884204,-0.183597,0.000000,0.000000,0.000000,0.000000,0.000000,0.000000,0.000000
1.54586,0.001213,-0.018120,0.161776,0.890643,-0.177747,0.000000,0.000000,0.000000,0.000000,0.000000,0.000000,0.000000
1.54786,0.001069,-0.017845,0.160464,0.897248,-0.171993,0.000000,0.000000,0.000000,0.000000,0.000000,0.000000,0.000000
1.54986,0.000931,-0.017556,0.159028,0.904013,-0.166364,0.000000,0.000000,0.000000,0.000000,0.000000,0.000000,0.000000
1.55186,0.000800,-0.017255,0.157486,0.910930,-0.160890,0.000000,0.000000,0.000000,0.000000,0.000000,0.000000,0.000000
1.55386,0.000679,-0.016945,0.155854,0.917992,-0.155600,0.000000,0.000000,0.000000,0.000000,0.000000,0.000000,0.000000
1.55586,0.000569,-0.016626,0.154150,0.925193,-0.150521,0.000000,0.000000,0.000000,0.000000,0.000000,0.000000,0.000000
1.55786,0.000473,-0.016302,0.152392,0.932525,-0.145684,0.000000,0.000000,0.000000,0.000000,0.000000,0.000000,0.000000
1.55986,0.000393,-0.015973,0.150596,0.939981,-0.141115,0.000000,0.000000,0.000000,0.000000,0.000000,0.000000,0.000000
1.56186,0.000331,-0.015641,0.148781,0.947554,-0.136846,0.000000,0.000000,0.000000,0.000000,0.000000,0.000000,0.000000
1.56386,0.000289,-0.015308,0.146963,0.955237,-0.132904,0.000000,0.000000,0.000000,0.000000,0.000000,0.000000,0.000000
1.56586,0.000269,-0.014977,0.145161,0.963022,-0.129318,0.000000,0.000000,0.000000,0.000000,0.000000,0.000000,0.000000
1.56786,0.000272,-0.014641,0.143340,0.970943,-0.126013,0.000000,0.000000,0.000000,0.000000,0.000000,0.000000,0.000000
1.56986,0.000294,-0.014281,0.141349,0.979113,-0.122684,0.000000,0.000000,0.000000,0.000000,0.000000,0.000000,0.000000
1.57186,0.000335,-0.013897,0.139186,0.987526,-0.119336,0.000000,0.000000,0.000000,0.000000,0.000000,0.000000,0.000000
1.57386,0.000392,-0.013493,0.136862,0.996169,-0.116003,0.000000,0.000000,0.000000,0.000000,0.000000,0.000000,0.000000
1.57586,0.000466,-0.013072,0.134389,1.005025,-0.112716,0.000000,0.000000,0.000000,0.000000,0.000000,0.000000,0.000000
1.57786,0.000554,-0.012639,0.131777,1.014079,-0.109506,0.000000,0.000000,0.000000,0.000000,0.000000,0.000000,0.000000
1.57986,0.000656,-0.012196,0.129038,1.023316,-0.106407,0.000000,0.000000,0.000000,0.000000,0.000000,0.000000,0.000000
1.58186,0.000771,-0.011747,0.126181,1.032721,-0.103451,0.000000,0.000000,0.000000,0.000000,0.000000,0.000000,0.000000
1.58386,0.000897,-0.011295,0.123219,1.042278,-0.100669,0.000000,0.000000,0.000000,0.000000,0.000000,0.000000,0.000000
1.58586,0.001033,-0.010844,0.120162,1.051973,-0.098095,0.000000,0.000000,0.000000,0.000000,0.000000,0.000000,0.000000
1.58786,0.001178,-0.010397,0.117022,1.061789,-0.095759,0.000000,0.000000,0.000000,0.000000,0.000000,0.000000,0.000000
1.58986,0.001332,-0.009958,0.113808,1.071712,-0.093694,0.000000,0.000000,0.000000,0.000000,0.000000,0.000000,0.000000
1.59186,0.001493,-0.009530,0.110532,1.081727,-0.091933,0.000000,0.000000,0.000000,0.000000,0.000000,0.000000,0.000000
1.59386,0.001660,-0.009116,0.107206,1.091818,-0.090507,0.000000,0.000000,0.000000,0.000000,0.000000,0.000000,0.000000
1.59586,0.001831,-0.008721,0.103840,1.101969,-0.089448,0.000000,0.000000,0.000000,0.000000,0.000000,0.000000,0.000000
1.59786,0.002007,-0.008346,0.100445,1.112167,-0.088790,0.000000,0.000000,0.000000,0.000000,0.000000,0.000000,0.000000
1.59986,0.002185,-0.007997,0.097032,1.122395,-0.088563,0.000000,0.000000,0.000000,0.000000,0.000000,0.000000,0.000000
1.60186,0.002386,-0.007651,0.093546,1.132773,-0.088661,0.000000,0.000000,0.000000,0.000000,0.000000,0.000000,0.000000
1.60386,0.002629,-0.007289,0.089932,1.143410,-0.088946,0.000000,0.000000,0.000000,0.000000,0.000000,0.000000,0.000000
1.60586,0.002912,-0.006916,0.086194,1.154277,-0.089409,0.000000,0.000000,0.000000,0.000000,0.000000,0.000000,0.000000
1.60786,0.003230,-0.006536,0.082338,1.165341,-0.090036,0.000000,0.000000,0.000000,0.000000,0.000000,0.000000,0.000000
1.60985,0.003580,-0.006155,0.078372,1.176573,-0.090818,0.000000,0.000000,0.000000,0.000000,0.000000,0.000000,0.000000
1.61185,0.003959,-0.005777,0.074301,1.187941,-0.091742,0.000000,0.000000,0.000000,0.000000,0.000000,0.000000,0.000000
1.61385,0.004363,-0.005408,0.070130,1.199415,-0.092797,0.000000,0.000000,0.000000,0.000000,0.000000,0.000000,0.000000
1.61585,0.004789,-0.005052,0.065867,1.210963,-0.093972,0.000000,0.000000,0.000000,0.000000,0.000000,0.000000,0.000000
1.61785,0.005233,-0.004715,0.061517,1.222556,-0.095257,0.000000,0.000000,0.000000,0.000000,0.000000,0.000000,0.000000
1.61985,0.005692,-0.004401,0.057087,1.234162,-0.096638,0.000000,0.000000,0.000000,0.000000,0.000000,0.000000,0.000000
1.62185,0.006163,-0.004116,0.052582,1.245751,-0.098105,0.000000,0.000000,0.000000,0.000000,0.000000,0.000000,0.000000
1.62385,0.006641,-0.003864,0.048009,1.257291,-0.099647,0.000000,0.000000,0.000000,0.000000,0.000000,0.000000,0.000000
1.62585,0.007124,-0.003650,0.043373,1.268752,-0.101253,0.000000,0.000000,0.000000,0.000000,0.000000,0.000000,0.000000
1.62785,0.007609,-0.003480,0.038681,1.280103,-0.102910,0.000000,0.000000,0.000000,0.000000,0.000000,0.000000,0.000000
1.62985,0.008091,-0.003359,0.033939,1.291313,-0.104608,0.000000,0.000000,0.000000,0.000000,0.000000,0.000000,0.000000
1.63185,0.008568,-0.003290,0.029153,1.302352,-0.106336,0.000000,0.000000,0.000000,0.000000,0.000000,0.000000,0.000000
1.63385,0.009037,-0.003277,0.024324,1.313208,-0.108104,0.000000,0.000000,0.000000,0.000000,0.000000,0.000000,0.000000
1.63585,0.009521,-0.003281,0.019405,1.324103,-0.110190,0.000000,0.000000,0.000000,0.000000,0.000000,0.000000,0.000000
1.63785,0.010024,-0.003289,0.014382,1.335083,-0.112653,0.000000,0.000000,0.000000,0.000000,0.000000,0.000000,0.000000
1.63985,0.010545,-0.003301,0.009259,1.346115,-0.115463,0.000000,0.000000,0.000000,0.000000,0.000000,0.000000,0.000000
1.64185,0.011081,-0.003317,0.004040,1.357170,-0.118588,0.000000,0.000000,0.000000,0.000000,0.000000,0.000000,0.000000
1.64385,0.011630,-0.003337,-0.001273,1.368215,-0.121996,0.000000,0.000000,0.000000,0.000000,0.000000,0.000000,0.000000
1.64585,0.012190,-0.003361,-0.006674,1.379219,-0.125656,0.000000,0.000000,0.000000,0.000000,0.000000,0.000000,0.000000
1.64785,0.012760,-0.003389,-0.012162,1.390151,-0.129537,0.000000,0.000000,0.000000,0.000000,0.000000,0.000000,0.000000
1.64985,0.013336,-0.003420,-0.017731,1.400980,-0.133606,0.000000,0.000000,0.000000,0.000000,0.000000,0.000000,0.000000
1.65185,0.013917,-0.003454,-0.023378,1.411672,-0.137832,0.000000,0.000000,0.000000,0.000000,0.000000,0.000000,0.000000
1.65385,0.014500,-0.003492,-0.029100,1.422199,-0.142185,0.000000,0.000000,0.000000,0.000000,0.000000,0.000000,0.000000
1.65585,0.015083,-0.003532,-0.034894,1.432527,-0.146632,0.000000,0.000000,0.000000,0.000000,0.000000,0.000000,0.000000
1.65785,0.015665,-0.003575,-0.040754,1.442626,-0.151142,0.000000,0.000000,0.000000,0.000000,0.000000,0.000000,0.000000
1.65985,0.016243,-0.003621,-0.046678,1.452464,-0.155683,0.000000,0.000000,0.000000,0.000000,0.000000,0.000000,0.000000
1.66185,0.016815,-0.003670,-0.052663,1.462009,-0.160224,0.000000,0.000000,0.000000,0.000000,0.000000,0.000000,0.000000
1.66385,0.017379,-0.003721,-0.058704,1.471231,-0.164734,0.000000,0.000000,0.000000,0.000000,0.000000,0.000000,0.000000
