sainanliu129-hub/model/applications/Body_GravityPara_Iden/data/excitation/0-260116_run_softly_轻跑步_002_leg_500Hz_PD-M1-v0_multi_joint_20260325-035526_stillleg_safe_PD-M1-v0_multi_joint_20260325-053633.csv
time,cmd_leg_l1_joint,pos_leg_l1_joint,vel_leg_l1_joint,torque_leg_l1_joint,acc_leg_l1_joint,cmd_torque_leg_l1_joint,cmd_leg_l2_joint,pos_leg_l2_joint,vel_leg_l2_joint,torque_leg_l2_joint,acc_leg_l2_joint,cmd_torque_leg_l2_joint,cmd_leg_l3_joint,pos_leg_l3_joint,vel_leg_l3_joint,torque_leg_l3_joint,acc_leg_l3_joint,cmd_torque_leg_l3_joint,cmd_leg_l4_joint,pos_leg_l4_joint,vel_leg_l4_joint,torque_leg_l4_joint,acc_leg_l4_joint,cmd_torque_leg_l4_joint,cmd_leg_l5_joint,pos_leg_l5_joint,vel_leg_l5_joint,torque_leg_l5_joint,acc_leg_l5_joint,cmd_torque_leg_l5_joint,cmd_leg_l6_joint,pos_leg_l6_joint,vel_leg_l6_joint,torque_leg_l6_joint,acc_leg_l6_joint,cmd_torque_leg_l6_joint,cmd_leg_r1_joint,pos_leg_r1_joint,vel_leg_r1_joint,torque_leg_r1_joint,acc_leg_r1_joint,cmd_torque_leg_r1_joint,cmd_leg_r2_joint,pos_leg_r2_joint,vel_leg_r2_joint,torque_leg_r2_joint,acc_leg_r2_joint,cmd_torque_leg_r2_joint,cmd_leg_r3_joint,pos_leg_r3_joint,vel_leg_r3_joint,torque_leg_r3_joint,acc_leg_r3_joint,cmd_torque_leg_r3_joint,cmd_leg_r4_joint,pos_leg_r4_joint,vel_leg_r4_joint,torque_leg_r4_joint,acc_leg_r4_joint,cmd_torque_leg_r4_joint,cmd_leg_r5_joint,pos_leg_r5_joint,vel_leg_r5_joint,torque_leg_r5_joint,acc_leg_r5_joint,cmd_torque_leg_r5_joint,cmd_leg_r6_joint,pos_leg_r6_joint,vel_leg_r6_joint,torque_leg_r6_joint,acc_leg_r6_joint,cmd_torque_leg_r6_joint
0.000000000,0.000000000,-0.000032835,-0.000344626,0.005421388,0.000000000,0.005448786,0.000000000,-0.009173735,0.018196153,2.195091628,0.000000000,2.196009383,-0.006823000,-0.006842084,-0.039493232,0.895326787,0.000000000,0.898721860,0.424885005,0.335890068,0.381316075,2.905557789,0.000000000,2.910970692,-0.396259993,-0.378050799,-0.412265755,-0.668186899,0.000000000,-0.668240703,0.000000000,0.000057685,-0.000539900,-0.004301902,0.000000000,-0.004295044,0.000000000,-0.000137036,-0.001590934,0.023385343,0.000000000,0.023603691,-0.435999990,-0.361048912,-0.394047194,-12.365541668,0.000000000,-12.391515402,0.000000000,0.005915059,-0.019721483,-1.233679825,0.000000000,-1.235245596,0.000000000,0.011971818,-0.007748044,-0.700624140,0.000000000,-0.701126823,0.000000000,0.006485291,-0.016871230,-0.607600295,0.000000000,-0.607471093,0.000000000,0.001331393,0.001471396,-0.138439059,0.000000000,-0.138740459
0.001999820,-0.000031000,-0.000033422,-0.000336984,0.005448786,0.000000000,0.002163851,0.000016000,-0.009137347,0.018193691,2.196009383,0.000000000,2.190270072,-0.006821000,-0.006921004,-0.039460528,0.898721860,0.000000000,0.920983433,0.424870014,0.336652803,0.381367714,2.910970692,0.000000000,2.861478579,-0.396315992,-0.378875325,-0.412262958,-0.668240703,0.000000000,-0.590577440,0.000000000,0.000056604,-0.000540627,-0.004295044,0.000000000,-0.004183707,0.000000000,-0.000140158,-0.001564087,0.023603691,0.000000000,0.023784645,-0.435999990,-0.361836916,-0.394002216,-12.391515402,0.000000000,-12.168546450,0.000000000,0.005875571,-0.019747339,-1.235245596,0.000000000,-1.223436649,0.000000000,0.011956255,-0.007781512,-0.701126823,0.000000000,-0.699905899,0.000000000,0.006451539,-0.016876312,-0.607471093,0.000000000,-0.604045439,0.000000000,0.001334342,0.001474344,-0.138740459,0.000000000,-0.139046850
0.003999639,-0.000061000,-0.000034179,-0.000437070,0.002163851,0.000000000,-0.000387227,0.000031000,-0.009100991,0.018177981,2.190270072,0.000000000,2.184555087,-0.006816000,-0.006998992,-0.038994182,0.920983433,0.000000000,0.934023990,0.424854010,0.337412337,0.379766835,2.861478579,0.000000000,2.823870800,-0.396375000,-0.379687204,-0.405939105,-0.590577440,0.000000000,-0.532467387,0.000000000,0.000055770,-0.000417084,-0.004183707,0.000000000,-0.004450640,0.000000000,-0.000143100,-0.001474068,0.023784645,0.000000000,0.023589153,-0.435999990,-0.362624140,-0.393611893,-12.168546450,0.000000000,-11.953610752,0.000000000,0.005836194,-0.019691768,-1.223436649,0.000000000,-1.213500896,0.000000000,0.011940231,-0.008012295,-0.699905899,0.000000000,-0.697253296,0.000000000,0.006418578,-0.016480565,-0.604045439,0.000000000,-0.601839335,0.000000000,0.001334937,0.000297329,-0.139046850,0.000000000,-0.135760697
0.005999459,-0.000091000,-0.000035254,-0.000613602,-0.000387227,0.000000000,-0.002472199,0.000045000,-0.009064735,0.018128004,2.184555087,0.000000000,2.179359343,-0.006810000,-0.007075444,-0.038226005,0.934023990,0.000000000,0.940085080,0.424836993,0.338166233,0.376948065,2.823870800,0.000000000,2.795211882,-0.396436006,-0.380477034,-0.394915477,-0.532467387,0.000000000,-0.490148802,0.000000000,0.000055241,-0.000264387,-0.004450640,0.000000000,-0.004831320,0.000000000,-0.000145913,-0.001409724,0.023589153,0.000000000,0.023525109,-0.435999990,-0.363410218,-0.393039167,-11.953610752,0.000000000,-11.743126440,0.000000000,0.005796962,-0.019619253,-1.213500896,0.000000000,-1.203989593,0.000000000,0.011923625,-0.008302678,-0.697253296,0.000000000,-0.694140381,0.000000000,0.006386767,-0.015905458,-0.601839335,0.000000000,-0.600259393,0.000000000,0.001332841,-0.001047751,-0.135760697,0.000000000,-0.131724849
0.007999279,-0.000120000,-0.000036760,-0.000848521,-0.002472199,0.000000000,-0.004074344,0.000057000,-0.009028627,0.018054017,2.179359343,0.000000000,2.174180272,-0.006802000,-0.007149908,-0.037232101,0.940085080,0.000000000,0.941043888,0.424820006,0.338912669,0.373218020,2.795211882,0.000000000,2.773503406,-0.396499991,-0.381237921,-0.380443163,-0.490148802,0.000000000,-0.460861318,0.000000000,0.000055022,-0.000109861,-0.004831320,0.000000000,-0.005248431,0.000000000,-0.000148642,-0.001368054,0.023525109,0.000000000,0.023580426,-0.435999990,-0.364194789,-0.392285209,-11.743126440,0.000000000,-11.537170001,0.000000000,0.005757891,-0.019539171,-1.203989593,0.000000000,-1.194695072,0.000000000,0.011906398,-0.008613953,-0.694140381,0.000000000,-0.690839636,0.000000000,0.006356349,-0.015208836,-0.600259393,0.000000000,-0.599165729,0.000000000,0.001328071,-0.002385142,-0.131724849,0.000000000,-0.127440540
0.009999099,-0.000148000,-0.000038789,-0.001126696,-0.004074344,0.000000000,-0.005269561,0.000069000,-0.008992702,0.017962832,2.174180272,0.000000000,2.169442048,-0.006792000,-0.007222058,-0.036075205,0.941043888,0.000000000,0.938226825,0.424802989,0.339650322,0.368826433,2.773503406,0.000000000,2.757050073,-0.396566004,-0.381965041,-0.363559881,-0.460861318,0.000000000,-0.442045647,0.000000000,0.000055078,0.000028063,-0.005248431,0.000000000,-0.005646221,0.000000000,-0.000151318,-0.001340960,0.023580426,0.000000000,0.023712439,-0.435999990,-0.364977444,-0.391327875,-11.537170001,0.000000000,-11.336357976,0.000000000,0.005719002,-0.019447793,-1.194695072,0.000000000,-1.185708073,0.000000000,0.011888519,-0.008939284,-0.690839636,0.000000000,-0.687397879,0.000000000,0.006327487,-0.014431278,-0.599165729,0.000000000,-0.598459330,0.000000000,0.001320684,-0.003693404,-0.127440540,0.000000000,-0.122974605
0.011998918,-0.000176000,-0.000041413,-0.001436104,-0.005269561,0.000000000,-0.006224756,0.000079000,-0.008956984,0.017858846,2.169442048,0.000000000,2.164483982,-0.006781000,-0.007291667,-0.034804758,0.938226825,0.000000000,0.932403287,0.424784988,0.340378260,0.363969137,2.757050073,0.000000000,2.744458508,-0.396634012,-0.382655237,-0.345098272,-0.442045647,0.000000000,-0.431650607,0.000000000,0.000055359,0.000140539,-0.005646221,0.000000000,-0.005994394,0.000000000,-0.000153965,-0.001326128,0.023712439,0.000000000,0.023910676,-0.435999990,-0.365757774,-0.390164587,-11.336357976,0.000000000,-11.140865739,0.000000000,0.005680310,-0.019349521,-1.185708073,0.000000000,-1.176932870,0.000000000,0.011869991,-0.009264225,-0.687397879,0.000000000,-0.683917854,0.000000000,0.006300240,-0.013623335,-0.598459330,0.000000000,-0.598002627,0.000000000,0.001310801,-0.004941762,-0.122974605,0.000000000,-0.118426645
0.013998738,-0.000202000,-0.000044689,-0.001768669,-0.006224756,0.000000000,-0.006766251,0.000089000,-0.008921495,0.017744217,2.164483982,0.000000000,2.159831806,-0.006769000,-0.007358584,-0.033458565,0.932403287,0.000000000,0.924385486,0.424766988,0.341095855,0.358797360,2.744458508,0.000000000,2.734755621,-0.396703988,-0.383306684,-0.325723653,-0.431650607,0.000000000,-0.427966235,0.000000000,0.000055818,0.000229814,-0.005994394,0.000000000,-0.006294648,0.000000000,-0.000156603,-0.001321900,0.023910676,0.000000000,0.024168008,-0.435999990,-0.366535378,-0.388802278,-11.140865739,0.000000000,-10.950649611,0.000000000,0.005641819,-0.019249183,-1.176932870,0.000000000,-1.168261435,0.000000000,0.011850837,-0.009576716,-0.683917854,0.000000000,-0.680486836,0.000000000,0.006274595,-0.012822217,-0.598002627,0.000000000,-0.597688446,0.000000000,0.001298599,-0.006100597,-0.118426645,0.000000000,-0.113898964
0.015998558,-0.000228000,-0.000048660,-0.002116498,-0.006766251,0.000000000,-0.007147374,0.000097000,-0.008886254,0.017620917,2.159831806,0.000000000,2.154877384,-0.006755000,-0.007422715,-0.032065921,0.924385486,0.000000000,0.915093792,0.424748003,0.341802712,0.353428521,2.734755621,0.000000000,2.727069568,-0.396777004,-0.383918613,-0.305964595,-0.427966235,0.000000000,-0.429675943,0.000000000,0.000056412,0.000296814,-0.006294648,0.000000000,-0.006545120,0.000000000,-0.000159250,-0.001325538,0.024168008,0.000000000,0.024470644,-0.435999990,-0.367309873,-0.387247691,-10.950649611,0.000000000,-10.765666378,0.000000000,0.005603530,-0.019148015,-1.168261435,0.000000000,-1.159666299,0.000000000,0.011831093,-0.009872091,-0.680486836,0.000000000,-0.677140173,0.000000000,0.006250502,-0.012046816,-0.597688446,0.000000000,-0.597457886,0.000000000,0.001284290,-0.007154736,-0.113898964,0.000000000,-0.109455864
0.017998378,-0.000252000,-0.000053358,-0.002475562,-0.007147374,0.000000000,-0.007174317,0.000104000,-0.008851274,0.017489726,2.154877384,0.000000000,2.149891771,-0.006740000,-0.007484010,-0.030647230,0.915093792,0.000000000,0.904690640,0.424728990,0.342498611,0.347949411,2.727069568,0.000000000,2.720857624,-0.396851003,-0.384491097,-0.286241800,-0.429675943,0.000000000,-0.435368522,0.000000000,0.000057107,0.000347566,-0.006545120,0.000000000,-0.006759657,0.000000000,-0.000161913,-0.001334057,0.024470644,0.000000000,0.024802732,-0.435999990,-0.368080885,-0.385505713,-10.765666378,0.000000000,-10.585912059,0.000000000,0.005565446,-0.019045059,-1.159666299,0.000000000,-1.151170128,0.000000000,0.011810793,-0.010150076,-0.677140173,0.000000000,-0.673881996,0.000000000,0.006227891,-0.011305295,-0.597457886,0.000000000,-0.597280888,0.000000000,0.001268088,-0.008100985,-0.109455864,0.000000000,-0.105128226
0.019998197,-0.000276000,-0.000058802,-0.002841094,-0.007174317,0.000000000,-0.007085132,0.000111000,-0.008816571,0.017351602,2.149891771,0.000000000,2.145141514,-0.006724000,-0.007542446,-0.029218301,0.904690640,0.000000000,0.893527877,0.424708992,0.343183461,0.342425339,2.720857624,0.000000000,2.715601000,-0.396926999,-0.385024830,-0.266866421,-0.435368522,0.000000000,-0.444191541,0.000000000,0.000057876,0.000384674,-0.006759657,0.000000000,-0.006942902,0.000000000,-0.000164599,-0.001344937,0.024802732,0.000000000,0.025150526,-0.435999990,-0.368848046,-0.383580528,-10.585912059,0.000000000,-10.411396123,0.000000000,0.005527576,-0.018939011,-1.151170128,0.000000000,-1.142804211,0.000000000,0.011789970,-0.010411544,-0.673881996,0.000000000,-0.670708193,0.000000000,0.006206688,-0.010601695,-0.597280888,0.000000000,-0.597138301,0.000000000,0.001250204,-0.008942222,-0.105128226,0.000000000,-0.100929103
0.021998017,-0.000298000,-0.000065005,-0.003210479,-0.007085132,0.000000000,-0.006680182,0.000116000,-0.008782156,0.017207325,2.145141514,0.000000000,2.140043943,-0.006707000,-0.007598026,-0.027790284,0.893527877,0.000000000,0.881858145,0.424688995,0.343857269,0.336904038,2.715601000,0.000000000,2.711022185,-0.397004992,-0.385520992,-0.248081071,-0.444191541,0.000000000,-0.455335994,0.000000000,0.000058697,0.000410405,-0.006942902,0.000000000,-0.007099003,0.000000000,-0.000167307,-0.001356289,0.025150526,0.000000000,0.025503451,-0.435999990,-0.369610999,-0.381476388,-10.411396123,0.000000000,-10.242124169,0.000000000,0.005489925,-0.018828921,-1.142804211,0.000000000,-1.134592298,0.000000000,0.011768655,-0.010657293,-0.670708193,0.000000000,-0.667615072,0.000000000,0.006186811,-0.009938519,-0.597138301,0.000000000,-0.597014833,0.000000000,0.001230836,-0.009683726,-0.100929103,0.000000000,-0.096863638
0.023997837,-0.000319000,-0.000071968,-0.003580852,-0.006680182,0.000000000,-0.006081870,0.000121000,-0.008748042,0.017057229,2.140043943,0.000000000,2.135163331,-0.006690000,-0.007650768,-0.026371089,0.881858145,0.000000000,0.869581134,0.424668998,0.344520110,0.331420170,2.711022185,0.000000000,2.706870077,-0.397085011,-0.385981122,-0.230064963,-0.455335994,0.000000000,-0.468139903,0.000000000,0.000059554,0.000428697,-0.007099003,0.000000000,-0.007237654,0.000000000,-0.000170037,-0.001366735,0.025503451,0.000000000,0.025853507,-0.435999990,-0.370369394,-0.379197753,-10.242124169,0.000000000,-10.078094493,0.000000000,0.005452504,-0.018714201,-1.134592298,0.000000000,-1.126550346,0.000000000,0.011746879,-0.010887959,-0.667615072,0.000000000,-0.664600021,0.000000000,0.006168176,-0.009317204,-0.597014833,0.000000000,-0.596897943,0.000000000,0.001210173,-0.010331578,-0.096863638,0.000000000,-0.092933477
0.025997657,-0.000339000,-0.000079691,-0.003949803,-0.006081870,0.000000000,-0.005304123,0.000124000,-0.008714238,0.016901856,2.135163331,0.000000000,2.129921905,-0.006671000,-0.007700702,-0.024967095,0.869581134,0.000000000,0.857418443,0.424647987,0.345172108,0.325999427,2.706870077,0.000000000,2.702890072,-0.397166014,-0.386407015,-0.212946758,-0.468139903,0.000000000,-0.481950568,0.000000000,0.000060434,0.000440010,-0.007237654,0.000000000,-0.007358751,0.000000000,-0.000172785,-0.001375254,0.025853507,0.000000000,0.026194519,-0.435999990,-0.371122893,-0.376749241,-10.078094493,0.000000000,-9.919299238,0.000000000,0.005415322,-0.018594464,-1.126550346,0.000000000,-1.118689976,0.000000000,0.011724671,-0.011104152,-0.664600021,0.000000000,-0.661660536,0.000000000,0.006150700,-0.008738137,-0.596897943,0.000000000,-0.596777988,0.000000000,0.001188389,-0.010891978,-0.092933477,0.000000000,-0.089138669
0.027997476,-0.000357000,-0.000088167,-0.004316380,-0.005304123,0.000000000,-0.004246351,0.000127000,-0.008680756,0.016741124,2.129921905,0.000000000,2.124893093,-0.006653000,-0.007747863,-0.023580334,0.857418443,0.000000000,0.844572764,0.424627006,0.345813416,0.320653620,2.702890072,0.000000000,2.699054643,-0.397249013,-0.386800621,-0.196802676,-0.481950568,0.000000000,-0.496456812,0.000000000,0.000061331,0.000448105,-0.007358751,0.000000000,-0.007472336,0.000000000,-0.000175544,-0.001381112,0.026194519,0.000000000,0.026521760,-0.435999990,-0.371871164,-0.374135510,-9.919299238,0.000000000,-9.765726923,0.000000000,0.005378390,-0.018469456,-1.118689976,0.000000000,-1.111019896,0.000000000,0.011702058,-0.011306486,-0.661660536,0.000000000,-0.658793997,0.000000000,0.006134298,-0.008200792,-0.596777988,0.000000000,-0.596648031,0.000000000,0.001165647,-0.011371013,-0.089138669,0.000000000,-0.085478355
0.029997296,-0.000374000,-0.000097384,-0.004677876,-0.004246351,0.000000000,-0.003031693,0.000129000,-0.008647605,0.016575564,2.124893093,0.000000000,2.119783327,-0.006634000,-0.007792292,-0.022214775,0.844572764,0.000000000,0.831714650,0.424605995,0.346444207,0.315395823,2.699054643,0.000000000,2.695255973,-0.397332996,-0.387163996,-0.181687507,-0.496456812,0.000000000,-0.511192478,0.000000000,0.000062234,0.000451868,-0.007472336,0.000000000,-0.007574363,0.000000000,-0.000178309,-0.001383785,0.026521760,0.000000000,0.026831590,-0.435999990,-0.372613886,-0.371361266,-9.765726923,0.000000000,-9.617362391,0.000000000,0.005341720,-0.018338996,-1.111019896,0.000000000,-1.103547314,0.000000000,0.011679067,-0.011495591,-0.658793997,0.000000000,-0.655997596,0.000000000,0.006118890,-0.007703948,-0.596648031,0.000000000,-0.596503354,0.000000000,0.001142098,-0.011774499,-0.085478355,0.000000000,-0.081951270
0.031997116,-0.000390000,-0.000107328,-0.005033287,-0.003031693,0.000000000,-0.001667327,0.000130000,-0.008614794,0.016405288,2.119783327,0.000000000,2.114592823,-0.006614000,-0.007834034,-0.020871120,0.831714650,0.000000000,0.818872439,0.424584001,0.347064666,0.310229370,2.695255973,0.000000000,2.691398588,-0.397419006,-0.387499234,-0.167618942,-0.511192478,0.000000000,-0.526001141,0.000000000,0.000063141,0.000453217,-0.007574363,0.000000000,-0.007669803,0.000000000,-0.000181072,-0.001382935,0.026831590,0.000000000,0.027121341,-0.435999990,-0.373350748,-0.368431218,-9.617362391,0.000000000,-9.474187709,0.000000000,0.005305321,-0.018203009,-1.103547314,0.000000000,-1.096277047,0.000000000,0.011655723,-0.011672032,-0.655997596,0.000000000,-0.653268929,0.000000000,0.006104399,-0.007245943,-0.596503354,0.000000000,-0.596340840,0.000000000,0.001117882,-0.012107968,-0.081951270,0.000000000,-0.078555839
0.033996936,-0.000404000,-0.000117984,-0.005381758,-0.001667327,0.000000000,-0.000053173,0.000130000,-0.008582334,0.016230287,2.114592823,0.000000000,2.109324419,-0.006594000,-0.007873133,-0.019549508,0.818872439,0.000000000,0.805777494,0.424562007,0.347674976,0.305154849,2.691398588,0.000000000,2.687528811,-0.397507012,-0.387808439,-0.154602526,-0.526001141,0.000000000,-0.540651357,0.000000000,0.000064047,0.000453143,-0.007669803,0.000000000,-0.007761180,0.000000000,-0.000183827,-0.001378350,0.027121341,0.000000000,0.027389022,-0.435999990,-0.374081449,-0.365350095,-9.474187709,0.000000000,-9.336181769,0.000000000,0.005269205,-0.018061483,-1.096277047,0.000000000,-1.089212572,0.000000000,0.011632050,-0.011836331,-0.653268929,0.000000000,-0.650605805,0.000000000,0.006090749,-0.006824813,-0.596340840,0.000000000,-0.596158609,0.000000000,0.001093129,-0.012376635,-0.078555839,0.000000000,-0.075290334
0.035996755,-0.000416000,-0.000129332,-0.005721534,-0.000053173,0.000000000,0.001798803,0.000128000,-0.008550232,0.016050724,2.109324419,0.000000000,2.103692777,-0.006572000,-0.007909634,-0.018250661,0.805777494,0.000000000,0.793027457,0.424539000,0.348275321,0.300172738,2.687528811,0.000000000,2.683567570,-0.397601008,-0.388093693,-0.142627365,-0.540651357,0.000000000,-0.555367229,0.000000000,0.000064951,0.000451856,-0.007761180,0.000000000,-0.007848850,0.000000000,-0.000186565,-0.001369927,0.027389022,0.000000000,0.027633226,-0.435999990,-0.374805694,-0.362122641,-9.336181769,0.000000000,-9.203320462,0.000000000,0.005233384,-0.017914465,-1.089212572,0.000000000,-1.082355886,0.000000000,0.011608072,-0.011988951,-0.650605805,0.000000000,-0.648006421,0.000000000,0.006077872,-0.006438434,-0.596158609,0.000000000,-0.595955681,0.000000000,0.001067958,-0.012585396,-0.075290334,0.000000000,-0.072152949
0.037996575,-0.000428000,-0.000141352,-0.006051699,0.001798803,0.000000000,0.003668018,0.000125000,-0.008518500,0.015866309,2.103692777,0.000000000,2.097991504,-0.006546000,-0.007943582,-0.016973718,0.793027457,0.000000000,0.781184078,0.424515009,0.348865884,0.295281481,2.683567570,0.000000000,2.679516332,-0.397702008,-0.388357088,-0.131697541,-0.555367229,0.000000000,-0.570028267,0.000000000,0.000065852,0.000451019,-0.007848850,0.000000000,-0.007937629,0.000000000,-0.000189278,-0.001357634,0.027633226,0.000000000,0.027852949,-0.435999990,-0.375523201,-0.358753605,-9.203320462,0.000000000,-9.075576860,0.000000000,0.005197867,-0.017762063,-1.082355886,0.000000000,-1.075707640,0.000000000,0.011583811,-0.012130284,-0.648006421,0.000000000,-0.645469402,0.000000000,0.006065703,-0.006084596,-0.595955681,0.000000000,-0.595731759,0.000000000,0.001042481,-0.012738841,-0.072152949,0.000000000,-0.069141808
0.039996395,-0.000438000,-0.000154025,-0.006372925,0.003668018,0.000000000,0.005769386,0.000120000,-0.008487146,0.015676786,2.097991504,0.000000000,2.091945005,-0.006518000,-0.007975014,-0.015716244,0.781184078,0.000000000,0.769634702,0.424488991,0.349446836,0.290475720,2.679516332,0.000000000,2.675336491,-0.397810012,-0.388600704,-0.121807640,-0.570028267,0.000000000,-0.584439660,0.000000000,0.000066755,0.000451104,-0.007937629,0.000000000,-0.008029049,0.000000000,-0.000191959,-0.001341492,0.027852949,0.000000000,0.028047479,-0.435999990,-0.376233696,-0.355247741,-9.075576860,0.000000000,-8.952921215,0.000000000,0.005162666,-0.017604412,-1.075707640,0.000000000,-1.069267755,0.000000000,0.011559290,-0.012260688,-0.645469402,0.000000000,-0.642993598,0.000000000,0.006054181,-0.005761056,-0.595731759,0.000000000,-0.595487098,0.000000000,0.001016798,-0.012841262,-0.069141808,0.000000000,-0.066255029
0.041996215,-0.000448000,-0.000167328,-0.006684356,0.005769386,0.000000000,0.007882655,0.000114000,-0.008456182,0.015482012,2.091945005,0.000000000,2.085843746,-0.006487000,-0.008003967,-0.014476783,0.769634702,0.000000000,0.758640805,0.424463004,0.350018337,0.285750596,2.675336491,0.000000000,2.671182292,-0.397922993,-0.388826580,-0.112937935,-0.584439660,0.000000000,-0.598246472,0.000000000,0.000067660,0.000452710,-0.008029049,0.000000000,-0.008125116,0.000000000,-0.000194601,-0.001321564,0.028047479,0.000000000,0.028216370,-0.435999990,-0.376936916,-0.351609792,-8.952921215,0.000000000,-8.835321338,0.000000000,0.005127790,-0.017441670,-1.069267755,0.000000000,-1.063035538,0.000000000,0.011534529,-0.012380486,-0.642993598,0.000000000,-0.640578048,0.000000000,0.006043249,-0.005465582,-0.595487098,0.000000000,-0.595222370,0.000000000,0.000991005,-0.012896669,-0.066255029,0.000000000,-0.063490710
0.043996034,-0.000457000,-0.000181243,-0.006986256,0.007882655,0.000000000,0.010113769,0.000107000,-0.008425619,0.015281798,2.085843746,0.000000000,2.079695135,-0.006453000,-0.008030474,-0.013253558,0.758640805,0.000000000,0.748171447,0.424436003,0.350580535,0.281099085,2.671182292,0.000000000,2.667028472,-0.398039013,-0.389036667,-0.105043877,-0.598246472,0.000000000,-0.611182368,0.000000000,0.000068571,0.000455529,-0.008125116,0.000000000,-0.008225201,0.000000000,-0.000197196,-0.001297933,0.028216370,0.000000000,0.028359304,-0.435999990,-0.377632605,-0.347844501,-8.835321338,0.000000000,-8.722742336,0.000000000,0.005093250,-0.017274025,-1.063035538,0.000000000,-1.057009560,0.000000000,0.011509549,-0.012489948,-0.640578048,0.000000000,-0.638222138,0.000000000,0.006032857,-0.005196001,-0.595222370,0.000000000,-0.594938520,0.000000000,0.000965188,-0.012908800,-0.063490710,0.000000000,-0.060846975
0.045995854,-0.000466000,-0.000195748,-0.007278255,0.010113769,0.000000000,0.012351812,0.000098000,-0.008395466,0.015076153,2.079695135,0.000000000,2.073217782,-0.006417000,-0.008054563,-0.012044346,0.748171447,0.000000000,0.737900105,0.424407989,0.351133558,0.276511492,2.667028472,0.000000000,2.662935867,-0.398158014,-0.389232789,-0.098060798,-0.611182368,0.000000000,-0.623241035,0.000000000,0.000069489,0.000459143,-0.008225201,0.000000000,-0.008328277,0.000000000,-0.000199736,-0.001270699,0.028359304,0.000000000,0.028476073,-0.435999990,-0.378320518,-0.343956593,-8.722742336,0.000000000,-8.615147056,0.000000000,0.005059054,-0.017101671,-1.057009560,0.000000000,-1.051188071,0.000000000,0.011484371,-0.012589322,-0.638222138,0.000000000,-0.635925382,0.000000000,0.006022957,-0.004950200,-0.594938520,0.000000000,-0.594636745,0.000000000,0.000939425,-0.012881144,-0.060846975,0.000000000,-0.058321943
0.047995674,-0.000474000,-0.000210823,-0.007560579,0.012351812,0.000000000,0.014702515,0.000088000,-0.008365737,0.014864702,2.073217782,0.000000000,2.066707707,-0.006380000,-0.008076259,-0.010847906,0.737900105,0.000000000,0.727521821,0.424380004,0.351677518,0.271980336,2.662935867,0.000000000,2.659016416,-0.398279011,-0.389416638,-0.091924580,-0.623241035,0.000000000,-0.634334193,0.000000000,0.000070418,0.000464496,-0.008328277,0.000000000,-0.008437380,0.000000000,-0.000202215,-0.001239973,0.028476073,0.000000000,0.028566558,-0.435999990,-0.379000420,-0.339950770,-8.615147056,0.000000000,-8.512496155,0.000000000,0.005025212,-0.016924809,-1.051188071,0.000000000,-1.045569120,0.000000000,0.011459013,-0.012678836,-0.635925382,0.000000000,-0.633687396,0.000000000,0.006013505,-0.004726155,-0.594636745,0.000000000,-0.594318403,0.000000000,0.000913792,-0.012816958,-0.058321943,0.000000000,-0.055913740
0.049995494,-0.000482000,-0.000226446,-0.007832159,0.014702515,0.000000000,0.017050875,0.000077000,-0.008336442,0.014647521,2.066707707,0.000000000,2.060166449,-0.006340000,-0.008095587,-0.009664381,0.727521821,0.000000000,0.717615630,0.424351990,0.352212520,0.267500769,2.659016416,0.000000000,2.655294290,-0.398400992,-0.389589770,-0.086566217,-0.634334193,0.000000000,-0.644398391,0.000000000,0.000071359,0.000470247,-0.008437380,0.000000000,-0.008548778,0.000000000,-0.000204626,-0.001205867,0.028566558,0.000000000,0.028630668,-0.435999990,-0.379672083,-0.335831727,-8.512496155,0.000000000,-8.414747830,0.000000000,0.004991732,-0.016743646,-1.045569120,0.000000000,-1.040150432,0.000000000,0.011433496,-0.012758688,-0.633687396,0.000000000,-0.631508001,0.000000000,0.006004461,-0.004521949,-0.594318403,0.000000000,-0.593984938,0.000000000,0.000888353,-0.012719264,-0.055913740,0.000000000,-0.053620551
0.051995313,-0.000490000,-0.000242595,-0.008093086,0.017050875,0.000000000,0.019395059,0.000065000,-0.008307593,0.014424539,2.060166449,0.000000000,2.053598943,-0.006300000,-0.008112572,-0.008492339,0.717615630,0.000000000,0.707302758,0.424324006,0.352738649,0.263064715,2.655294290,0.000000000,2.651825162,-0.398521990,-0.389753593,-0.081911225,-0.644398391,0.000000000,-0.653304423,0.000000000,0.000072311,0.000476401,-0.008548778,0.000000000,-0.008662562,0.000000000,-0.000206962,-0.001168494,0.028630668,0.000000000,0.028668356,-0.435999990,-0.380335291,-0.331604124,-8.414747830,0.000000000,-8.321858366,0.000000000,0.004958623,-0.016558399,-1.040150432,0.000000000,-1.034929444,0.000000000,0.011407837,-0.012829054,-0.631508001,0.000000000,-0.629387150,0.000000000,0.005995789,-0.004335768,-0.593984938,0.000000000,-0.593637861,0.000000000,0.000863172,-0.012590885,-0.053620551,0.000000000,-0.051440546
0.053995133,-0.000498000,-0.000259248,-0.008342734,0.019395059,0.000000000,0.021729079,0.000053000,-0.008279201,0.014195856,2.053598943,0.000000000,2.047290380,-0.006258000,-0.008127237,-0.007332605,0.707302758,0.000000000,0.697177475,0.424295992,0.353255985,0.258667930,2.651825162,0.000000000,2.648630472,-0.398642004,-0.389909348,-0.077877296,-0.653304423,0.000000000,-0.661160754,0.000000000,0.000073276,0.000482393,-0.008662562,0.000000000,-0.008777100,0.000000000,-0.000209218,-0.001127973,0.028668356,0.000000000,0.028679610,-0.435999990,-0.380989836,-0.327272593,-8.321858366,0.000000000,-8.233782062,0.000000000,0.004925893,-0.016369267,-1.034929444,0.000000000,-1.029903842,0.000000000,0.011382057,-0.012890117,-0.629387150,0.000000000,-0.627324701,0.000000000,0.005987457,-0.004165901,-0.593637861,0.000000000,-0.593278737,0.000000000,0.000838303,-0.012434453,-0.051440546,0.000000000,-0.049371918
0.055994953,-0.000506000,-0.000276379,-0.008580688,0.021729079,0.000000000,0.024048038,0.000040000,-0.008251278,0.013961717,2.047290380,0.000000000,2.040954088,-0.006215000,-0.008139607,-0.006184919,0.697177475,0.000000000,0.686956583,0.424268007,0.353764595,0.254304836,2.648630472,0.000000000,2.645749384,-0.398759007,-0.390058127,-0.074389676,-0.661160754,0.000000000,-0.667864673,0.000000000,0.000074250,0.000487089,-0.008777100,0.000000000,-0.008888902,0.000000000,-0.000211386,-0.001084412,0.028679610,0.000000000,0.028664400,-0.435999990,-0.381635520,-0.322841748,-8.233782062,0.000000000,-8.150471056,0.000000000,0.004893547,-0.016176470,-1.029903842,0.000000000,-1.025070776,0.000000000,0.011356173,-0.012942019,-0.627324701,0.000000000,-0.625320817,0.000000000,0.005979436,-0.004010767,-0.593278737,0.000000000,-0.592909085,0.000000000,0.000813798,-0.012252408,-0.049371918,0.000000000,-0.047412902
0.057994773,-0.000515000,-0.000293965,-0.008806581,0.024048038,0.000000000,0.026240660,0.000026000,-0.008223833,0.013722219,2.040954088,0.000000000,2.034590930,-0.006172000,-0.008149706,-0.005049544,0.686956583,0.000000000,0.676368699,0.424239993,0.354264536,0.249970539,2.645749384,0.000000000,2.643209270,-0.398871988,-0.390200860,-0.071366398,-0.667864673,0.000000000,-0.673452951,0.000000000,0.000075232,0.000491027,-0.008888902,0.000000000,-0.008999345,0.000000000,-0.000213461,-0.001037926,0.028664400,0.000000000,0.028622745,-0.435999990,-0.382272152,-0.318316151,-8.150471056,0.000000000,-8.071875980,0.000000000,0.004861595,-0.015980206,-1.025070776,0.000000000,-1.020427690,0.000000000,0.011330203,-0.012984921,-0.625320817,0.000000000,-0.623375488,0.000000000,0.005971698,-0.003868878,-0.592909085,0.000000000,-0.592530457,0.000000000,0.000789704,-0.012047040,-0.047412902,0.000000000,-0.045561707
0.059994592,-0.000524000,-0.000311981,-0.009020480,0.026240660,0.000000000,0.028411333,0.000012000,-0.008196879,0.013477307,2.034590930,0.000000000,2.028489440,-0.006128000,-0.008157561,-0.003927654,0.676368699,0.000000000,0.665732238,0.424214005,0.354755860,0.245662228,2.643209270,0.000000000,2.641156725,-0.398979992,-0.390338318,-0.068729098,-0.673452951,0.000000000,-0.677973967,0.000000000,0.000076221,0.000494516,-0.008999345,0.000000000,-0.009109215,0.000000000,-0.000215438,-0.000988622,0.028622745,0.000000000,0.028554654,-0.435999990,-0.382899553,-0.313700342,-8.071875980,0.000000000,-7.997945461,0.000000000,0.004830041,-0.015780676,-1.020427690,0.000000000,-1.015971900,0.000000000,0.011304165,-0.013018965,-0.623375488,0.000000000,-0.621488812,0.000000000,0.005964220,-0.003738867,-0.592530457,0.000000000,-0.592144338,0.000000000,0.000766063,-0.011820467,-0.045561707,0.000000000,-0.043816594
0.061994412,-0.000533000,-0.000330402,-0.009221625,0.028411333,0.000000000,0.030552991,-0.000002000,-0.008170424,0.013227340,2.028489440,0.000000000,2.022644424,-0.006084000,-0.008163202,-0.002820535,0.665732238,0.000000000,0.654800501,0.424187988,0.355238617,0.241378415,2.641156725,0.000000000,2.639469344,-0.399082005,-0.390471126,-0.066403925,-0.677973967,0.000000000,-0.681472187,0.000000000,0.000077214,0.000496338,-0.009109215,0.000000000,-0.009214717,0.000000000,-0.000217311,-0.000936602,0.028554654,0.000000000,0.028460124,-0.435999990,-0.383517551,-0.308998827,-7.997945461,0.000000000,-7.928626312,0.000000000,0.004798893,-0.015578083,-1.015971900,0.000000000,-1.011700584,0.000000000,0.011278077,-0.013044283,-0.621488812,0.000000000,-0.619660971,0.000000000,0.005956981,-0.003619474,-0.592144338,0.000000000,-0.591752167,0.000000000,0.000742914,-0.011574661,-0.043816594,0.000000000,-0.042175848
0.063994232,-0.000543000,-0.000349200,-0.009409282,0.030552991,0.000000000,0.032551997,-0.000016000,-0.008144478,0.012972717,2.022644424,0.000000000,2.017049454,-0.006040000,-0.008166661,-0.001729461,0.654800501,0.000000000,0.643611537,0.424163014,0.355712852,0.237117239,2.639469344,0.000000000,2.638225254,-0.399177015,-0.390599764,-0.064319325,-0.681472187,0.000000000,-0.684000007,0.000000000,0.000078206,0.000496035,-0.009214717,0.000000000,-0.009314117,0.000000000,-0.000219075,-0.000881971,0.028460124,0.000000000,0.028339191,-0.435999990,-0.384125983,-0.304216059,-7.928626312,0.000000000,-7.863863953,0.000000000,0.004768155,-0.015372615,-1.011700584,0.000000000,-1.007611109,0.000000000,0.011251955,-0.013061017,-0.619660971,0.000000000,-0.617892026,0.000000000,0.005949962,-0.003509530,-0.591752167,0.000000000,-0.591355355,0.000000000,0.000720291,-0.011311464,-0.042175848,0.000000000,-0.040637743
0.065994052,-0.000554000,-0.000368348,-0.009583378,0.032551997,0.000000000,0.034405031,-0.000031000,-0.008119051,0.012713710,2.017049454,0.000000000,2.011416639,-0.005996000,-0.008167973,-0.000656009,0.643611537,0.000000000,0.632210799,0.424138993,0.356178608,0.232878212,2.638225254,0.000000000,2.637419487,-0.399264008,-0.390724581,-0.062408351,-0.684000007,0.000000000,-0.685610252,0.000000000,0.000079193,0.000493673,-0.009314117,0.000000000,-0.009407182,0.000000000,-0.000220725,-0.000824831,0.028339191,0.000000000,0.028191895,-0.435999990,-0.384724696,-0.299356456,-7.863863953,0.000000000,-7.803602171,0.000000000,0.004737834,-0.015164460,-1.007611109,0.000000000,-1.003700737,0.000000000,0.011225816,-0.013069302,-0.617892026,0.000000000,-0.616182094,0.000000000,0.005943146,-0.003407971,-0.591355355,0.000000000,-0.590955234,0.000000000,0.000698226,-0.011032594,-0.040637743,0.000000000,-0.039200566
0.067993871,-0.000566000,-0.000387820,-0.009744158,0.034405031,0.000000000,0.036110616,-0.000045000,-0.008094150,0.012450314,2.011416639,0.000000000,2.006317078,-0.005953000,-0.008167176,0.000398417,0.632210799,0.000000000,0.620356798,0.424116999,0.356635930,0.228660880,2.637419487,0.000000000,2.637120296,-0.399342000,-0.390845796,-0.060607706,-0.685610252,0.000000000,-0.686361181,0.000000000,0.000080174,0.000490520,-0.009407182,0.000000000,-0.009497363,0.000000000,-0.000222255,-0.000765282,0.028191895,0.000000000,0.028018290,-0.435999990,-0.385313544,-0.294424387,-7.803602171,0.000000000,-7.747783329,0.000000000,0.004707934,-0.014953802,-1.003700737,0.000000000,-0.999966720,0.000000000,0.011199678,-0.013069271,-0.616182094,0.000000000,-0.614531272,0.000000000,0.005936519,-0.003313823,-0.590955234,0.000000000,-0.590553070,0.000000000,0.000676747,-0.010739651,-0.039200566,0.000000000,-0.037862612
0.069993691,-0.000578000,-0.000407586,-0.009891102,0.036110616,0.000000000,0.037769436,-0.000063000,-0.008069784,0.012183104,2.006317078,0.000000000,2.000318715,-0.005907000,-0.008164314,0.001431136,0.620356798,0.000000000,0.609259369,0.424095988,0.357084866,0.224467875,2.637120296,0.000000000,2.637240014,-0.399416000,-0.390963516,-0.058859759,-0.686361181,0.000000000,-0.686911997,0.000000000,0.000081144,0.000484685,-0.009497363,0.000000000,-0.009578740,0.000000000,-0.000223662,-0.000703419,0.028018290,0.000000000,0.027818419,-0.435999990,-0.385892393,-0.289424187,-7.747783329,0.000000000,-7.696348089,0.000000000,0.004678460,-0.014740816,-0.999966720,0.000000000,-0.996406451,0.000000000,0.011173555,-0.013061062,-0.614531272,0.000000000,-0.612939620,0.000000000,0.005930066,-0.003226201,-0.590553070,0.000000000,-0.590150066,0.000000000,0.000655879,-0.010434112,-0.037862612,0.000000000,-0.036622227
0.071993511,-0.000589000,-0.000427622,-0.010025329,0.037769436,0.000000000,0.039491680,-0.000082000,-0.008045962,0.011911183,2.000318715,0.000000000,1.994297263,-0.005858000,-0.008159429,0.002442512,0.609259369,0.000000000,0.598922567,0.424077004,0.357525466,0.220300031,2.637240014,0.000000000,2.637835411,-0.399484992,-0.391077820,-0.057152255,-0.686911997,0.000000000,-0.687186960,0.000000000,0.000082107,0.000481522,-0.009578740,0.000000000,-0.009667074,0.000000000,-0.000224941,-0.000639342,0.027818419,0.000000000,0.027592377,-0.435999990,-0.386461113,-0.284360119,-7.696348089,0.000000000,-7.649236367,0.000000000,0.004649417,-0.014525687,-0.996406451,0.000000000,-0.993016960,0.000000000,0.011147466,-0.013044799,-0.612939620,0.000000000,-0.611407264,0.000000000,0.005923778,-0.003144299,-0.590150066,0.000000000,-0.589747357,0.000000000,0.000635644,-0.010117383,-0.036622227,0.000000000,-0.035477676
0.073993331,-0.000600000,-0.000447902,-0.010146357,0.039491680,0.000000000,0.041165207,-0.000104000,-0.008022693,0.011634480,1.994297263,0.000000000,1.987688533,-0.005808000,-0.008152565,0.003431994,0.598922567,0.000000000,0.588802633,0.424057990,0.357957784,0.216159392,2.637835411,0.000000000,2.638758649,-0.399549991,-0.391188758,-0.055468961,-0.687186960,0.000000000,-0.687329734,0.000000000,0.000083065,0.000479429,-0.009667074,0.000000000,-0.009758026,0.000000000,-0.000226087,-0.000573141,0.027592377,0.000000000,0.027340209,-0.435999990,-0.387019586,-0.279236426,-7.649236367,0.000000000,-7.606386063,0.000000000,0.004620807,-0.014308571,-0.993016960,0.000000000,-0.989795829,0.000000000,0.011121425,-0.013020632,-0.611407264,0.000000000,-0.609934145,0.000000000,0.005917643,-0.003067381,-0.589747357,0.000000000,-0.589346022,0.000000000,0.000616063,-0.009790739,-0.035477676,0.000000000,-0.034427340
0.075993150,-0.000612000,-0.000468399,-0.010254725,0.041165207,0.000000000,0.042683762,-0.000128000,-0.007999988,0.011352496,1.987688533,0.000000000,1.980791067,-0.005756000,-0.008143768,0.004398813,0.588802633,0.000000000,0.579214208,0.424039990,0.358381882,0.212048833,2.638758649,0.000000000,2.640051361,-0.399612010,-0.391296364,-0.053802753,-0.687329734,0.000000000,-0.687459527,0.000000000,0.000084026,0.000480310,-0.009758026,0.000000000,-0.009857615,0.000000000,-0.000227097,-0.000504921,0.027340209,0.000000000,0.027062094,-0.435999990,-0.387567700,-0.274057277,-7.606386063,0.000000000,-7.567734419,0.000000000,0.004592636,-0.014089628,-0.989795829,0.000000000,-0.986740498,0.000000000,0.011095447,-0.012988714,-0.609934145,0.000000000,-0.608520154,0.000000000,0.005911653,-0.002994788,-0.589346022,0.000000000,-0.588947068,0.000000000,0.000597152,-0.009455386,-0.034427340,0.000000000,-0.033469544
0.077992970,-0.000623000,-0.000489091,-0.010351534,0.042683762,0.000000000,0.044264276,-0.000153000,-0.007977858,0.011064775,1.980791067,0.000000000,1.973902703,-0.005703000,-0.008133083,0.005342367,0.579214208,0.000000000,0.569899911,0.424023002,0.358797826,0.207971761,2.640051361,0.000000000,2.641685109,-0.399672002,-0.391400676,-0.052155832,-0.687459527,0.000000000,-0.687662563,0.000000000,0.000084994,0.000484003,-0.009857615,0.000000000,-0.009965940,0.000000000,-0.000227967,-0.000434777,0.027062094,0.000000000,0.026758152,-0.435999990,-0.388105354,-0.268826806,-7.567734419,0.000000000,-7.533217100,0.000000000,0.004564906,-0.013869021,-0.986740498,0.000000000,-0.983848204,0.000000000,0.011069549,-0.012949177,-0.608520154,0.000000000,-0.607165313,0.000000000,0.005905801,-0.002925936,-0.588947068,0.000000000,-0.588551395,0.000000000,0.000578928,-0.009112445,-0.033469544,0.000000000,-0.032602645
0.079992790,-0.000636000,-0.000509953,-0.010436132,0.044264276,0.000000000,0.045580685,-0.000180000,-0.007956315,0.010771515,1.973902703,0.000000000,1.966737823,-0.005649000,-0.008120560,0.006261352,0.569899911,0.000000000,0.560903091,0.424005985,0.359205692,0.203933358,2.641685109,0.000000000,2.643552293,-0.399729997,-0.391501749,-0.050536659,-0.687662563,0.000000000,-0.687912195,0.000000000,0.000085971,0.000488556,-0.009965940,0.000000000,-0.010077632,0.000000000,-0.000228693,-0.000362806,0.026758152,0.000000000,0.026428541,-0.435999990,-0.388632452,-0.263549086,-7.533217100,0.000000000,-7.502768815,0.000000000,0.004537619,-0.013646900,-0.983848204,0.000000000,-0.981116408,0.000000000,0.011043745,-0.012902173,-0.607165313,0.000000000,-0.605869489,0.000000000,0.005900081,-0.002860288,-0.588551395,0.000000000,-0.588159879,0.000000000,0.000561402,-0.008762959,-0.032602645,0.000000000,-0.031824995
0.081992610,-0.000648000,-0.000530964,-0.010510354,0.045580685,0.000000000,0.046960912,-0.000207000,-0.007935371,0.010472286,1.966737823,0.000000000,1.959878078,-0.005595000,-0.008106249,0.007155502,0.560903091,0.000000000,0.551959691,0.423988998,0.359605565,0.199936154,2.643552293,0.000000000,2.645633480,-0.399785995,-0.391599650,-0.048950461,-0.687912195,0.000000000,-0.688186894,0.000000000,0.000086961,0.000495167,-0.010077632,0.000000000,-0.010196512,0.000000000,-0.000229272,-0.000289112,0.026428541,0.000000000,0.026073482,-0.435999990,-0.389148908,-0.258228126,-7.502768815,0.000000000,-7.476323511,0.000000000,0.004510780,-0.013423416,-0.981116408,0.000000000,-0.978542497,0.000000000,0.011018049,-0.012847856,-0.605869489,0.000000000,-0.604632504,0.000000000,0.005894486,-0.002797370,-0.588159879,0.000000000,-0.587773325,0.000000000,0.000544586,-0.008407913,-0.031824995,0.000000000,-0.031134914
0.083992429,-0.000662000,-0.000552101,-0.010573267,0.046960912,0.000000000,0.048077482,-0.000235000,-0.007915036,0.010167560,1.959878078,0.000000000,1.953031664,-0.005540000,-0.008090202,0.008023508,0.551959691,0.000000000,0.543398530,0.423972011,0.359997533,0.195984243,2.645633480,0.000000000,2.647891965,-0.399841994,-0.391694453,-0.047401465,-0.688186894,0.000000000,-0.688668926,0.000000000,0.000087963,0.000500898,-0.010196512,0.000000000,-0.010314051,0.000000000,-0.000229700,-0.000213789,0.026073482,0.000000000,0.025693159,-0.435999990,-0.389654644,-0.252867895,-7.476323511,0.000000000,-7.453813719,0.000000000,0.004484391,-0.013198713,-0.978542497,0.000000000,-0.976123888,0.000000000,0.010992476,-0.012786376,-0.604632504,0.000000000,-0.603454202,0.000000000,0.005889013,-0.002736759,-0.587773325,0.000000000,-0.587392460,0.000000000,0.000528490,-0.008048212,-0.031134914,0.000000000,-0.030530778
0.085992249,-0.000677000,-0.000573346,-0.010626589,0.048077482,0.000000000,0.049044664,-0.000264000,-0.007895321,0.009857181,1.953031664,0.000000000,1.946205319,-0.005485000,-0.008072472,0.008865266,0.543398530,0.000000000,0.534952372,0.423954993,0.360381694,0.192080552,2.647891965,0.000000000,2.650298982,-0.399897009,-0.391786265,-0.045906195,-0.688668926,0.000000000,-0.689201060,0.000000000,0.000088976,0.000506685,-0.010314051,0.000000000,-0.010432914,0.000000000,-0.000229974,-0.000136941,0.025693159,0.000000000,0.025287837,-0.435999990,-0.390149589,-0.247472284,-7.453813719,0.000000000,-7.435171516,0.000000000,0.004458452,-0.012972932,-0.976123888,0.000000000,-0.973857981,0.000000000,0.010967040,-0.012717893,-0.603454202,0.000000000,-0.602334327,0.000000000,0.005883656,-0.002678078,-0.587392460,0.000000000,-0.587017970,0.000000000,0.000513121,-0.007684711,-0.030530778,0.000000000,-0.030010918
0.087992069,-0.000692000,-0.000594680,-0.010671150,0.049044664,0.000000000,0.049971860,-0.000293000,-0.007876239,0.009541157,1.946205319,0.000000000,1.939686322,-0.005430000,-0.008053111,0.009680243,0.534952372,0.000000000,0.526648838,0.423936993,0.360758149,0.188227624,2.650298982,0.000000000,2.652769787,-0.399953008,-0.391875205,-0.044469763,-0.689201060,0.000000000,-0.689955657,0.000000000,0.000090001,0.000512436,-0.010432914,0.000000000,-0.010552841,0.000000000,-0.000230092,-0.000058668,0.025287837,0.000000000,0.024857781,-0.435999990,-0.390633679,-0.242045137,-7.435171516,0.000000000,-7.420327929,0.000000000,0.004432967,-0.012746211,-0.973857981,0.000000000,-0.971742247,0.000000000,0.010941755,-0.012642571,-0.602334327,0.000000000,-0.601272583,0.000000000,0.005878414,-0.002620994,-0.587017970,0.000000000,-0.586650477,0.000000000,0.000498485,-0.007318204,-0.030010918,0.000000000,-0.029573686
0.089991889,-0.000710000,-0.000616087,-0.010706932,0.049971860,0.000000000,0.050537315,-0.000322000,-0.007857799,0.009219798,1.939686322,0.000000000,1.933470667,-0.005376000,-0.008032175,0.010467914,0.526648838,0.000000000,0.518230825,0.423918009,0.361127006,0.184428502,2.652769787,0.000000000,2.655275966,-0.400009006,-0.391961423,-0.043109393,-0.689955657,0.000000000,-0.690768982,0.000000000,0.000091035,0.000516743,-0.010552841,0.000000000,-0.010669530,0.000000000,-0.000230051,0.000020930,0.024857781,0.000000000,0.024403268,-0.435999990,-0.391106859,-0.236590239,-7.420327929,0.000000000,-7.409213077,0.000000000,0.004407937,-0.012518682,-0.971742247,0.000000000,-0.969774117,0.000000000,0.010916634,-0.012560569,-0.601272583,0.000000000,-0.600268674,0.000000000,0.005873284,-0.002565218,-0.586650477,0.000000000,-0.586290541,0.000000000,0.000484586,-0.006949424,-0.029573686,0.000000000,-0.029217460
0.091991708,-0.000728000,-0.000637552,-0.010735840,0.050537315,0.000000000,0.051070115,-0.000351000,-0.007840013,0.008893219,1.933470667,0.000000000,1.927558758,-0.005324000,-0.008009720,0.011227850,0.518230825,0.000000000,0.509439637,0.423898011,0.361488376,0.180684980,2.655275966,0.000000000,2.657795850,-0.400068015,-0.392045083,-0.041830060,-0.690768982,0.000000000,-0.691914721,0.000000000,0.000092074,0.000519821,-0.010669530,0.000000000,-0.010783350,0.000000000,-0.000229849,0.000101746,0.024403268,0.000000000,0.023924647,-0.435999990,-0.391569082,-0.231111306,-7.409213077,0.000000000,-7.401756606,0.000000000,0.004383364,-0.012290470,-0.969774117,0.000000000,-0.967951133,0.000000000,0.010891690,-0.012472064,-0.600268674,0.000000000,-0.599322169,0.000000000,0.005868263,-0.002510489,-0.586290541,0.000000000,-0.585938689,0.000000000,0.000471428,-0.006579064,-0.029217460,0.000000000,-0.028940586
0.093991528,-0.000748000,-0.000659060,-0.010757521,0.051070115,0.000000000,0.051353533,-0.000379000,-0.007822889,0.008561857,1.927558758,0.000000000,1.922227632,-0.005272000,-0.007985803,0.011958441,0.509439637,0.000000000,0.500896881,0.423877001,0.361842382,0.177002685,2.657795850,0.000000000,2.660281716,-0.400128007,-0.392126398,-0.040657186,-0.691914721,0.000000000,-0.693094264,0.000000000,0.000093116,0.000520715,-0.010783350,0.000000000,-0.010891143,0.000000000,-0.000229482,0.000183679,0.023924647,0.000000000,0.023422248,-0.435999990,-0.392020306,-0.225611998,-7.401756606,0.000000000,-7.397887284,0.000000000,0.004359248,-0.012061705,-0.967951133,0.000000000,-0.966270714,0.000000000,0.010866935,-0.012377221,-0.599322169,0.000000000,-0.598432702,0.000000000,0.005863350,-0.002456590,-0.585938689,0.000000000,-0.585595376,0.000000000,0.000459013,-0.006207766,-0.028940586,0.000000000,-0.028741428
0.095991348,-0.000770000,-0.000680601,-0.010773278,0.051353533,0.000000000,0.051393673,-0.000406000,-0.007806437,0.008226101,1.922227632,0.000000000,1.917471035,-0.005222000,-0.007960482,0.012660333,0.500896881,0.000000000,0.492035755,0.423853993,0.362189143,0.173380700,2.660281716,0.000000000,2.662670337,-0.400191009,-0.392205584,-0.039592890,-0.693094264,0.000000000,-0.694484455,0.000000000,0.000094154,0.000518965,-0.010891143,0.000000000,-0.010991062,0.000000000,-0.000228950,0.000266626,0.023422248,0.000000000,0.022896443,-0.435999990,-0.392460498,-0.220095910,-7.397887284,0.000000000,-7.397533352,0.000000000,0.004335590,-0.011832513,-0.966270714,0.000000000,-0.964730238,0.000000000,0.010842383,-0.012276206,-0.598432702,0.000000000,-0.597599862,0.000000000,0.005858543,-0.002403328,-0.585595376,0.000000000,-0.585261014,0.000000000,0.000447340,-0.005836131,-0.028741428,0.000000000,-0.028618348
0.097991168,-0.000794000,-0.000702164,-0.010784060,0.051393673,0.000000000,0.051194826,-0.000432000,-0.007790664,0.007886455,1.917471035,0.000000000,1.913279736,-0.005174000,-0.007933817,0.013332866,0.492035755,0.000000000,0.482888012,0.423828989,0.362528786,0.169821448,2.662670337,0.000000000,2.664936574,-0.400258005,-0.392282889,-0.038652511,-0.694484455,0.000000000,-0.696116031,0.000000000,0.000095182,0.000514106,-0.010991062,0.000000000,-0.011081161,0.000000000,-0.000228250,0.000350482,0.022896443,0.000000000,0.022347632,-0.435999990,-0.392889631,-0.214566570,-7.397533352,0.000000000,-7.400622542,0.000000000,0.004312392,-0.011603004,-0.964730238,0.000000000,-0.963327389,0.000000000,0.010818045,-0.012169208,-0.597599862,0.000000000,-0.596823067,0.000000000,0.005853842,-0.002350532,-0.585261014,0.000000000,-0.584935999,0.000000000,0.000436411,-0.005464721,-0.028618348,0.000000000,-0.028569699
0.099990987,-0.000820000,-0.000723740,-0.010790845,0.051194826,0.000000000,0.050761677,-0.000457000,-0.007775577,0.007543394,1.913279736,0.000000000,1.909644979,-0.005128000,-0.007905866,0.013975561,0.482888012,0.000000000,0.473481189,0.423803002,0.362861440,0.166327059,2.664936574,0.000000000,2.667121084,-0.400328994,-0.392358595,-0.037853331,-0.696116031,0.000000000,-0.697911325,0.000000000,0.000096194,0.000506119,-0.011081161,0.000000000,-0.011160752,0.000000000,-0.000227381,0.000435140,0.022347632,0.000000000,0.021776244,-0.435999990,-0.393307686,-0.209027445,-7.400622542,0.000000000,-7.407082014,0.000000000,0.004289652,-0.011373297,-0.963327389,0.000000000,-0.962059562,0.000000000,0.010793932,-0.012056399,-0.596823067,0.000000000,-0.596101833,0.000000000,0.005849246,-0.002298069,-0.584935999,0.000000000,-0.584620645,0.000000000,0.000426223,-0.005094058,-0.028569699,0.000000000,-0.028593849
0.101990807,-0.000854000,-0.000745324,-0.010794565,0.050761677,0.000000000,0.049459289,-0.000480000,-0.007761183,0.007197385,1.909644979,0.000000000,1.906842074,-0.005084000,-0.007876690,0.014587915,0.473481189,0.000000000,0.463844022,0.423774004,0.363187239,0.162899427,2.667121084,0.000000000,2.669073964,-0.400402993,-0.392433010,-0.037207223,-0.697911325,0.000000000,-0.699706239,0.000000000,0.000097184,0.000495100,-0.011160752,0.000000000,-0.011229499,0.000000000,-0.000226341,0.000520496,0.021776244,0.000000000,0.021182724,-0.435999990,-0.393714650,-0.203481932,-7.407082014,0.000000000,-7.416838515,0.000000000,0.004267372,-0.011143507,-0.962059562,0.000000000,-0.960924253,0.000000000,0.010770056,-0.011937956,-0.596101833,0.000000000,-0.595435598,0.000000000,0.005844754,-0.002245820,-0.584620645,0.000000000,-0.584315242,0.000000000,0.000416774,-0.004724630,-0.028593849,0.000000000,-0.028689159
0.103990627,-0.000900000,-0.000766920,-0.010800151,0.049459289,0.000000000,0.046889570,-0.000504000,-0.007747486,0.006848546,1.906842074,0.000000000,1.904017253,-0.005040000,-0.007846348,0.015170779,0.463844022,0.000000000,0.454542561,0.423741013,0.363506311,0.159536043,2.669073964,0.000000000,2.670742821,-0.400480986,-0.392506435,-0.036712727,-0.699706239,0.000000000,-0.701573677,0.000000000,0.000098148,0.000481871,-0.011229499,0.000000000,-0.011289285,0.000000000,-0.000225129,0.000606443,0.021182724,0.000000000,0.020567551,-0.435999990,-0.394110516,-0.197933367,-7.416838515,0.000000000,-7.429818376,0.000000000,0.004245552,-0.010913739,-0.960924253,0.000000000,-0.959919041,0.000000000,0.010746428,-0.011814068,-0.595435598,0.000000000,-0.594823723,0.000000000,0.005840367,-0.002193688,-0.584315242,0.000000000,-0.584020043,0.000000000,0.000408061,-0.004356892,-0.028689159,0.000000000,-0.028853996
0.105990447,-0.000959000,-0.000788548,-0.010816348,0.046889570,0.000000000,0.042997633,-0.000528000,-0.007734494,0.006495789,1.904017253,0.000000000,1.901481600,-0.004998000,-0.007814894,0.015727205,0.454542561,0.000000000,0.444954399,0.423705995,0.363818772,0.156230648,2.670742821,0.000000000,2.672289056,-0.400563002,-0.392579179,-0.036372068,-0.701573677,0.000000000,-0.703479231,0.000000000,0.000099091,0.000471664,-0.011289285,0.000000000,-0.011355602,0.000000000,-0.000223745,0.000692873,0.020567551,0.000000000,0.019931233,-0.435999990,-0.394495286,-0.192385005,-7.429818376,0.000000000,-7.445947818,0.000000000,0.004224191,-0.010684106,-0.959919041,0.000000000,-0.959041299,0.000000000,0.010723058,-0.011684912,-0.594823723,0.000000000,-0.594265612,0.000000000,0.005836084,-0.002141599,-0.584020043,0.000000000,-0.583735252,0.000000000,0.000400078,-0.003991279,-0.028853996,0.000000000,-0.029086693
0.107990266,-0.001028000,-0.000810246,-0.010851254,0.042997633,0.000000000,0.038153050,-0.000551000,-0.007722217,0.006138350,1.901481600,0.000000000,1.899539282,-0.004956000,-0.007782379,0.016257701,0.444954399,0.000000000,0.435651058,0.423667997,0.364124737,0.152982407,2.672289056,0.000000000,2.673651148,-0.400647014,-0.392651555,-0.036187842,-0.703479231,0.000000000,-0.705179086,0.000000000,0.000100022,0.000465220,-0.011355602,0.000000000,-0.011431315,0.000000000,-0.000222187,0.000779685,0.019931233,0.000000000,0.019274254,-0.435999990,-0.394868966,-0.186840056,-7.445947818,0.000000000,-7.465152319,0.000000000,0.004203288,-0.010454702,-0.959041299,0.000000000,-0.958288763,0.000000000,0.010699957,-0.011550680,-0.594265612,0.000000000,-0.593760534,0.000000000,0.005831905,-0.002089486,-0.583735252,0.000000000,-0.583461062,0.000000000,0.000392822,-0.003628173,-0.029086693,0.000000000,-0.029385657
0.109990086,-0.001107000,-0.000832064,-0.010910865,0.038153050,0.000000000,0.032394976,-0.000575000,-0.007710665,0.005776114,1.899539282,0.000000000,1.897627152,-0.004914000,-0.007748850,0.016764620,0.435651058,0.000000000,0.426592796,0.423628002,0.364424307,0.149784968,2.673651148,0.000000000,2.674929944,-0.400732994,-0.392723841,-0.036143001,-0.705179086,0.000000000,-0.706690523,0.000000000,0.000100944,0.000461242,-0.011431315,0.000000000,-0.011513234,0.000000000,-0.000220455,0.000866779,0.019274254,0.000000000,0.018597132,-0.435999990,-0.395231570,-0.181301659,-7.465152319,0.000000000,-7.487357147,0.000000000,0.004182844,-0.010225638,-0.958288763,0.000000000,-0.957658722,0.000000000,0.010677133,-0.011411539,-0.593760534,0.000000000,-0.593307929,0.000000000,0.005827830,-0.002037306,-0.583461062,0.000000000,-0.583197609,0.000000000,0.000386286,-0.003267931,-0.029385657,0.000000000,-0.029749291
0.111989906,-0.001196000,-0.000854063,-0.011001247,0.032394976,0.000000000,0.025764286,-0.000598000,-0.007699848,0.005408404,1.897627152,0.000000000,1.896332119,-0.004873000,-0.007714350,0.017249855,0.426592796,0.000000000,0.417465010,0.423586011,0.364717574,0.146633583,2.674929944,0.000000000,2.676153370,-0.400821000,-0.392796286,-0.036222547,-0.706690523,0.000000000,-0.708037063,0.000000000,0.000101866,0.000461068,-0.011513234,0.000000000,-0.011605933,0.000000000,-0.000218549,0.000954048,0.018597132,0.000000000,0.017900431,-0.435999990,-0.395583115,-0.175772865,-7.487357147,0.000000000,-7.512487825,0.000000000,0.004162857,-0.009997007,-0.957658722,0.000000000,-0.957148870,0.000000000,0.010654598,-0.011267688,-0.593307929,0.000000000,-0.592906973,0.000000000,0.005823860,-0.001985013,-0.583197609,0.000000000,-0.582945050,0.000000000,0.000380465,-0.002910911,-0.029749291,0.000000000,-0.030175931
0.113989726,-0.001292000,-0.000876314,-0.011127388,0.025764286,0.000000000,0.018616588,-0.000621000,-0.007689778,0.005035136,1.896332119,0.000000000,1.895375022,-0.004833000,-0.007678922,0.017713962,0.417465010,0.000000000,0.408267078,0.423541009,0.365004627,0.143526179,2.676153370,0.000000000,2.677266618,-0.400911003,-0.392869115,-0.036414466,-0.708037063,0.000000000,-0.709227136,0.000000000,0.000102791,0.000462411,-0.011605933,0.000000000,-0.011703215,0.000000000,-0.000216468,0.001041392,0.017900431,0.000000000,0.017184702,-0.435999990,-0.395923629,-0.170256680,-7.512487825,0.000000000,-7.540469197,0.000000000,0.004143326,-0.009768897,-0.957148870,0.000000000,-0.956756855,0.000000000,0.010632359,-0.011119314,-0.592906973,0.000000000,-0.592556912,0.000000000,0.005819995,-0.001932585,-0.582945050,0.000000000,-0.582703469,0.000000000,0.000375350,-0.002557420,-0.030175931,0.000000000,-0.030663986
0.115989545,-0.001396000,-0.000898895,-0.011292371,0.018616588,0.000000000,0.010870968,-0.000644000,-0.007680465,0.004656381,1.895375022,0.000000000,1.894757344,-0.004794000,-0.007642607,0.018157836,0.408267078,0.000000000,0.398990021,0.423494011,0.365285546,0.140459877,2.677266618,0.000000000,2.678348946,-0.401001990,-0.392942528,-0.036706232,-0.709227136,0.000000000,-0.710173763,0.000000000,0.000103720,0.000464553,-0.011703215,0.000000000,-0.011803203,0.000000000,-0.000214213,0.001128705,0.017184702,0.000000000,0.016450545,-0.435999990,-0.396253141,-0.164756026,-7.540469197,0.000000000,-7.571226327,0.000000000,0.004124249,-0.009541408,-0.956756855,0.000000000,-0.956480117,0.000000000,0.010610426,-0.010966597,-0.592556912,0.000000000,-0.592257016,0.000000000,0.005816235,-0.001880013,-0.582703469,0.000000000,-0.582472927,0.000000000,0.000370934,-0.002207760,-0.030663986,0.000000000,-0.031211826
0.117989365,-0.001506000,-0.000921891,-0.011499643,0.010870968,0.000000000,0.002769161,-0.000666000,-0.007671921,0.004272008,1.894757344,0.000000000,1.894769498,-0.004755000,-0.007605443,0.018581978,0.398990021,0.000000000,0.389918277,0.423446000,0.365560411,0.137432326,2.678348946,0.000000000,2.679474303,-0.401093990,-0.393016687,-0.037079946,-0.710173763,0.000000000,-0.710914282,0.000000000,0.000104654,0.000467138,-0.011803203,0.000000000,-0.011904972,0.000000000,-0.000211783,0.001215887,0.016450545,0.000000000,0.015698567,-0.435999990,-0.396571688,-0.159273759,-7.571226327,0.000000000,-7.604684180,0.000000000,0.004105627,-0.009314626,-0.956480117,0.000000000,-0.956316282,0.000000000,0.010588807,-0.010809726,-0.592257016,0.000000000,-0.592006462,0.000000000,0.005812580,-0.001827290,-0.582472927,0.000000000,-0.582253467,0.000000000,0.000367210,-0.001862210,-0.031211826,0.000000000,-0.031817825
0.119989185,-0.001622000,-0.000945390,-0.011751007,0.002769161,0.000000000,-0.005669272,-0.000689000,-0.007664156,0.003882405,1.894769498,0.000000000,1.894837184,-0.004716000,-0.007567469,0.018986945,0.389918277,0.000000000,0.381050049,0.423395991,0.365829294,0.134441656,2.679474303,0.000000000,2.680589200,-0.401185989,-0.393091729,-0.037520818,-0.710914282,0.000000000,-0.711374756,0.000000000,0.000105591,0.000468223,-0.011904972,0.000000000,-0.012002696,0.000000000,-0.000209180,0.001302840,0.015698567,0.000000000,0.014929362,-0.435999990,-0.396879314,-0.153812673,-7.604684180,0.000000000,-7.640767522,0.000000000,0.004087456,-0.009088640,-0.956316282,0.000000000,-0.956262873,0.000000000,0.010567509,-0.010648880,-0.592006462,0.000000000,-0.591804481,0.000000000,0.005809032,-0.001774426,-0.582253467,0.000000000,-0.582045098,0.000000000,0.000364168,-0.001521021,-0.031817825,0.000000000,-0.032480390
0.121989005,-0.001742000,-0.000969484,-0.012048720,-0.005669272,0.000000000,-0.014208486,-0.000711000,-0.007657182,0.003487405,1.894837184,0.000000000,1.895535741,-0.004678000,-0.007528721,0.019373913,0.381050049,0.000000000,0.372084652,0.423345000,0.366092263,0.131484139,2.680589200,0.000000000,2.681779945,-0.401279002,-0.393167744,-0.038007683,-0.711374756,0.000000000,-0.711708472,0.000000000,0.000106529,0.000469310,-0.012002696,0.000000000,-0.012100647,0.000000000,-0.000206404,0.001389461,0.014929362,0.000000000,0.014143592,-0.435999990,-0.397176065,-0.148375474,-7.640767522,0.000000000,-7.679401548,0.000000000,0.004069735,-0.008863534,-0.956262873,0.000000000,-0.956317511,0.000000000,0.010546541,-0.010484252,-0.591804481,0.000000000,-0.591650186,0.000000000,0.005805589,-0.001721425,-0.582045098,0.000000000,-0.581847830,0.000000000,0.000361799,-0.001184440,-0.032480390,0.000000000,-0.033197884
0.123988824,-0.001865000,-0.000994266,-0.012392658,-0.014208486,0.000000000,-0.022732752,-0.000733000,-0.007651006,0.003087575,1.895535741,0.000000000,1.896570848,-0.004641000,-0.007489237,0.019742116,0.372084652,0.000000000,0.363050175,0.423292011,0.366349385,0.128560975,2.681779945,0.000000000,2.682969665,-0.401371002,-0.393244809,-0.038532538,-0.711708472,0.000000000,-0.711725682,0.000000000,0.000107465,0.000467773,-0.012100647,0.000000000,-0.012190827,0.000000000,-0.000203455,0.001475657,0.014143592,0.000000000,0.013341868,-0.435999990,-0.397461994,-0.142964823,-7.679401548,0.000000000,-7.720510990,0.000000000,0.004052462,-0.008639386,-0.956317511,0.000000000,-0.956477886,0.000000000,0.010525909,-0.010316024,-0.591650186,0.000000000,-0.591542727,0.000000000,0.005802252,-0.001668308,-0.581847830,0.000000000,-0.581661628,0.000000000,0.000360094,-0.000852675,-0.033197884,0.000000000,-0.033968745
0.125988644,-0.001991000,-0.001019828,-0.012782374,-0.022732752,0.000000000,-0.031234826,-0.000755000,-0.007645640,0.002683391,1.896570848,0.000000000,1.897934210,-0.004603000,-0.007449054,0.020091768,0.363050175,0.000000000,0.354520867,0.423238993,0.366600725,0.125669987,2.682969665,0.000000000,2.684294014,-0.401463002,-0.393322953,-0.039071959,-0.711725682,0.000000000,-0.711592452,0.000000000,0.000108392,0.000463666,-0.012190827,0.000000000,-0.012272870,0.000000000,-0.000200336,0.001561328,0.013341868,0.000000000,0.012524880,-0.435999990,-0.397737161,-0.137583291,-7.720510990,0.000000000,-7.764021137,0.000000000,0.004035636,-0.008416278,-0.956477886,0.000000000,-0.956741520,0.000000000,0.010505620,-0.010144378,-0.591542727,0.000000000,-0.591481245,0.000000000,0.005799022,-0.001615097,-0.581661628,0.000000000,-0.581486449,0.000000000,0.000359042,-0.000525935,-0.033968745,0.000000000,-0.034791364
0.127988464,-0.002119000,-0.001046260,-0.013217625,-0.031234826,0.000000000,-0.039599796,-0.000776000,-0.007641089,0.002275123,1.897934210,0.000000000,1.899906299,-0.004567000,-0.007408207,0.020423403,0.354520867,0.000000000,0.345641924,0.423184991,0.366846345,0.122810077,2.684294014,0.000000000,2.685696629,-0.401553005,-0.393402185,-0.039615675,-0.711592452,0.000000000,-0.711135306,0.000000000,0.000109306,0.000457059,-0.012272870,0.000000000,-0.012346468,0.000000000,-0.000197046,0.001646382,0.012524880,0.000000000,0.011693271,-0.435999990,-0.398001628,-0.132233388,-7.764021137,0.000000000,-7.809857248,0.000000000,0.004019253,-0.008194290,-0.956741520,0.000000000,-0.957105996,0.000000000,0.010485681,-0.009969492,-0.591481245,0.000000000,-0.591464890,0.000000000,0.005795898,-0.001561820,-0.581486449,0.000000000,-0.581322226,0.000000000,0.000358633,-0.000204409,-0.034791364,0.000000000,-0.035664147
0.129988284,-0.002248000,-0.001073651,-0.013696631,-0.039599796,0.000000000,-0.047721775,-0.000797000,-0.007637362,0.001863636,1.899906299,0.000000000,1.902185124,-0.004530000,-0.007366735,0.020735885,0.345641924,0.000000000,0.337302865,0.423130006,0.367086309,0.119981917,2.685696629,0.000000000,2.687168734,-0.401641995,-0.393482467,-0.040141141,-0.711135306,0.000000000,-0.710521424,0.000000000,0.000110199,0.000446352,-0.012346468,0.000000000,-0.012406249,0.000000000,-0.000193588,0.001730725,0.011693271,0.000000000,0.010847731,-0.435999990,-0.398255463,-0.126917552,-7.809857248,0.000000000,-7.857944770,0.000000000,0.004003312,-0.007973487,-0.957105996,0.000000000,-0.957569174,0.000000000,0.010466098,-0.009791560,-0.591464890,0.000000000,-0.591492660,0.000000000,0.005792881,-0.001508502,-0.581322226,0.000000000,-0.581168896,0.000000000,0.000358857,0.000111734,-0.035664147,0.000000000,-0.036585526
0.131988103,-0.002377000,-0.001102084,-0.014217887,-0.047721775,0.000000000,-0.055493724,-0.000818000,-0.007634463,0.001449400,1.902185124,0.000000000,1.904761617,-0.004494000,-0.007324675,0.021030122,0.337302865,0.000000000,0.328924902,0.423074991,0.367320675,0.117183291,2.687168734,0.000000000,2.688782570,-0.401730001,-0.393563740,-0.040636719,-0.710521424,0.000000000,-0.709792947,0.000000000,0.000111064,0.000432330,-0.012406249,0.000000000,-0.012453770,0.000000000,-0.000189964,0.001814267,0.010847731,0.000000000,0.009988944,-0.435999990,-0.398498739,-0.121638152,-7.857944770,0.000000000,-7.908209456,0.000000000,0.003987810,-0.007753953,-0.957569174,0.000000000,-0.958128409,0.000000000,0.010446876,-0.009610743,-0.591492660,0.000000000,-0.591563782,0.000000000,0.005789971,-0.001455186,-0.581168896,0.000000000,-0.581026340,0.000000000,0.000359701,0.000422332,-0.036585526,0.000000000,-0.037553921
0.133987923,-0.002505000,-0.001131638,-0.014778683,-0.055493724,0.000000000,-0.062815924,-0.000839000,-0.007632397,0.001033057,1.904761617,0.000000000,1.907622442,-0.004458000,-0.007282065,0.021305046,0.328924902,0.000000000,0.320827642,0.423018992,0.367549508,0.114416392,2.688782570,0.000000000,2.690458313,-0.401814997,-0.393645931,-0.041095473,-0.709792947,0.000000000,-0.708772225,0.000000000,0.000111893,0.000414791,-0.012453770,0.000000000,-0.012487746,0.000000000,-0.000186174,0.001896920,0.009988944,0.000000000,0.009117602,-0.435999990,-0.398731534,-0.116397482,-7.908209456,0.000000000,-7.960577348,0.000000000,0.003972744,-0.007535747,-0.958128409,0.000000000,-0.958781626,0.000000000,0.010428022,-0.009427236,-0.591563782,0.000000000,-0.591677213,0.000000000,0.005787167,-0.001401897,-0.581026340,0.000000000,-0.580894476,0.000000000,0.000361156,0.000727237,-0.037553921,0.000000000,-0.038567761
0.135987743,-0.002641000,-0.001162387,-0.015376014,-0.062815924,0.000000000,-0.070656922,-0.000858000,-0.007631167,0.000615257,1.907622442,0.000000000,1.911322234,-0.004423000,-0.007238944,0.021560960,0.320827642,0.000000000,0.312730557,0.422962993,0.367772866,0.111679158,2.690458313,0.000000000,2.692268996,-0.401901007,-0.393728924,-0.041496091,-0.708772225,0.000000000,-0.707938213,0.000000000,0.000112681,0.000393901,-0.012487746,0.000000000,-0.012507973,0.000000000,-0.000182222,0.001978595,0.009117602,0.000000000,0.008234413,-0.435999990,-0.398953930,-0.111197775,-7.960577348,0.000000000,-8.014974713,0.000000000,0.003958112,-0.007318944,-0.958781626,0.000000000,-0.959526334,0.000000000,0.010409539,-0.009241201,-0.591677213,0.000000000,-0.591832104,0.000000000,0.005784470,-0.001348682,-0.580894476,0.000000000,-0.580773160,0.000000000,0.000363209,0.001026320,-0.038567761,0.000000000,-0.039625499
0.137987563,-0.002788000,-0.001194409,-0.016012258,-0.070656922,0.000000000,-0.079314715,-0.000877000,-0.007630774,0.000196318,1.911322234,0.000000000,1.915285972,-0.004387000,-0.007195350,0.021796896,0.312730557,0.000000000,0.305235416,0.422904015,0.367990817,0.108975592,2.692268996,0.000000000,2.693993664,-0.401988000,-0.393812632,-0.041854214,-0.707938213,0.000000000,-0.707252024,0.000000000,0.000113420,0.000369683,-0.012507973,0.000000000,-0.012513844,0.000000000,-0.000178108,0.002059208,0.008234413,0.000000000,0.007340086,-0.435999990,-0.399166012,-0.106041191,-8.014974713,0.000000000,-8.071328130,0.000000000,0.003943910,-0.007103596,-0.959526334,0.000000000,-0.960360521,0.000000000,0.010391434,-0.009052830,-0.591832104,0.000000000,-0.592027402,0.000000000,0.005781879,-0.001295575,-0.580773160,0.000000000,-0.580662271,0.000000000,0.000365847,0.001319462,-0.039625499,0.000000000,-0.040725601
0.139987382,-0.002945000,-0.001227793,-0.016693042,-0.079314715,0.000000000,-0.088641428,-0.000895000,-0.007631222,-0.000224109,1.915285972,0.000000000,1.919806595,-0.004352000,-0.007151320,0.022015254,0.305235416,0.000000000,0.297729564,0.422845006,0.368203422,0.106302189,2.693993664,0.000000000,2.695839779,-0.402076006,-0.393896990,-0.042178909,-0.707252024,0.000000000,-0.706697647,0.000000000,0.000114112,0.000345997,-0.012513844,0.000000000,-0.012516440,0.000000000,-0.000173836,0.002138672,0.007340086,0.000000000,0.006435364,-0.435999990,-0.399367872,-0.100929812,-8.071328130,0.000000000,-8.129564820,0.000000000,0.003930136,-0.006889779,-0.960360521,0.000000000,-0.961281582,0.000000000,0.010373709,-0.008862278,-0.592027402,0.000000000,-0.592262276,0.000000000,0.005779394,-0.001242625,-0.580662271,0.000000000,-0.580561637,0.000000000,0.000369060,0.001606544,-0.040725601,0.000000000,-0.041866497
0.141987202,-0.003109000,-0.001262634,-0.017422012,-0.088641428,0.000000000,-0.098286370,-0.000912000,-0.007632514,-0.000645926,1.919806595,0.000000000,1.924882692,-0.004317000,-0.007106889,0.022215495,0.297729564,0.000000000,0.290519666,0.422782987,0.368410746,0.103661905,2.695839779,0.000000000,2.697593900,-0.402164996,-0.393981953,-0.042481392,-0.706697647,0.000000000,-0.706244672,0.000000000,0.000114757,0.000322508,-0.012516440,0.000000000,-0.012514848,0.000000000,-0.000169408,0.002216913,0.006435364,0.000000000,0.005520935,-0.435999990,-0.399559603,-0.095865664,-8.129564820,0.000000000,-8.189612097,0.000000000,0.003916786,-0.006677546,-0.961281582,0.000000000,-0.962287439,0.000000000,0.010356370,-0.008669722,-0.592262276,0.000000000,-0.592535719,0.000000000,0.005777014,-0.001189869,-0.580561637,0.000000000,-0.580471118,0.000000000,0.000372835,0.001887471,-0.041866497,0.000000000,-0.043046680
0.143987022,-0.003282000,-0.001299033,-0.018201059,-0.098286370,0.000000000,-0.108441394,-0.000929000,-0.007634652,-0.001068769,1.924882692,0.000000000,1.930222414,-0.004282000,-0.007062092,0.022398761,0.290519666,0.000000000,0.283589523,0.422719985,0.368612852,0.101053033,2.697593900,0.000000000,2.699392203,-0.402253002,-0.394067489,-0.042767978,-0.706244672,0.000000000,-0.705679568,0.000000000,0.000115355,0.000298715,-0.012514848,0.000000000,-0.012507582,0.000000000,-0.000164827,0.002293853,0.005520935,0.000000000,0.004597514,-0.435999990,-0.399741304,-0.090850701,-8.189612097,0.000000000,-8.251397832,0.000000000,0.003903857,-0.006466964,-0.962287439,0.000000000,-0.963375648,0.000000000,0.010339419,-0.008475316,-0.592535719,0.000000000,-0.592846869,0.000000000,0.005774739,-0.001137349,-0.580471118,0.000000000,-0.580390541,0.000000000,0.000377160,0.002162159,-0.043046680,0.000000000,-0.044264645
0.145986842,-0.003461000,-0.001337098,-0.019033359,-0.108441394,0.000000000,-0.118757375,-0.000946000,-0.007637637,-0.001492785,1.930222414,0.000000000,1.935829710,-0.004247000,-0.007016960,0.022565966,0.283589523,0.000000000,0.276927637,0.422654986,0.368809799,0.098473720,2.699392203,0.000000000,2.701180120,-0.402341008,-0.394153550,-0.043030490,-0.705679568,0.000000000,-0.705129847,0.000000000,0.000115907,0.000275925,-0.012507582,0.000000000,-0.012498564,0.000000000,-0.000160095,0.002369415,0.004597514,0.000000000,0.003665842,-0.435999990,-0.399913078,-0.085886796,-8.251397832,0.000000000,-8.314850610,0.000000000,0.003891346,-0.006258082,-0.963375648,0.000000000,-0.964544088,0.000000000,0.010322861,-0.008279236,-0.592846869,0.000000000,-0.593194693,0.000000000,0.005772569,-0.001085100,-0.580390541,0.000000000,-0.580319755,0.000000000,0.000382020,0.002430518,-0.044264645,0.000000000,-0.045518862
0.147986661,-0.003645000,-0.001376935,-0.019919899,-0.118757375,0.000000000,-0.129110585,-0.000962000,-0.007641473,-0.001917832,1.935829710,0.000000000,1.941986179,-0.004213000,-0.006971524,0.022717735,0.276927637,0.000000000,0.270244289,0.422589004,0.369001645,0.095923047,2.701180120,0.000000000,2.703024572,-0.402429014,-0.394240089,-0.043269853,-0.705129847,0.000000000,-0.704597555,0.000000000,0.000116414,0.000253754,-0.012498564,0.000000000,-0.012486820,0.000000000,-0.000155216,0.002443532,0.003665842,0.000000000,0.002726618,-0.435999990,-0.400075029,-0.080975769,-8.314850610,0.000000000,-8.379899210,0.000000000,0.003879249,-0.006050958,-0.964544088,0.000000000,-0.965790495,0.000000000,0.010306697,-0.008081636,-0.593194693,0.000000000,-0.593578280,0.000000000,0.005770503,-0.001033168,-0.580319755,0.000000000,-0.580258567,0.000000000,0.000387405,0.002692484,-0.045518862,0.000000000,-0.046807851
0.149986481,-0.003834000,-0.001418653,-0.020860326,-0.129110585,0.000000000,-0.139491545,-0.000979000,-0.007646160,-0.002343318,1.941986179,0.000000000,1.948110231,-0.004180000,-0.006925818,0.022853516,0.270244289,0.000000000,0.263561204,0.422520012,0.369188451,0.093402674,2.703024572,0.000000000,2.704781919,-0.402516007,-0.394327066,-0.043488156,-0.704597555,0.000000000,-0.703978603,0.000000000,0.000116875,0.000230437,-0.012486820,0.000000000,-0.012467107,0.000000000,-0.000150192,0.002516133,0.002726618,0.000000000,0.001780570,-0.435999990,-0.400227268,-0.076119370,-8.379899210,0.000000000,-8.446473012,0.000000000,0.003867562,-0.005845639,-0.965790495,0.000000000,-0.967112764,0.000000000,0.010290932,-0.007882680,-0.593578280,0.000000000,-0.593996641,0.000000000,0.005768539,-0.000981589,-0.580258567,0.000000000,-0.580206798,0.000000000,0.000393301,0.002947999,-0.046807851,0.000000000,-0.048130148
0.151986301,-0.004026000,-0.001462360,-0.021854940,-0.139491545,0.000000000,-0.149673794,-0.000996000,-0.007651698,-0.002769242,1.948110231,0.000000000,1.954486324,-0.004147000,-0.006879870,0.022973914,0.263561204,0.000000000,0.257157641,0.422450006,0.369370272,0.090910684,2.704781919,0.000000000,2.706588325,-0.402601004,-0.394414422,-0.043678042,-0.703978603,0.000000000,-0.703200259,0.000000000,0.000117290,0.000207693,-0.012467107,0.000000000,-0.012444427,0.000000000,-0.000145027,0.002587146,0.001780570,0.000000000,0.000828454,-0.435999990,-0.400369907,-0.071319266,-8.446473012,0.000000000,-8.514502258,0.000000000,0.003856283,-0.005642178,-0.967112764,0.000000000,-0.968508620,0.000000000,0.010275567,-0.007682522,-0.593996641,0.000000000,-0.594448831,0.000000000,0.005766679,-0.000930407,-0.580206798,0.000000000,-0.580164248,0.000000000,0.000399695,0.003196999,-0.048130148,0.000000000,-0.049484254
0.153986121,-0.004221000,-0.001508163,-0.022902347,-0.149673794,0.000000000,-0.159653981,-0.001013000,-0.007658088,-0.003195241,1.954486324,0.000000000,1.961106284,-0.004114000,-0.006833712,0.023079181,0.257157641,0.000000000,0.251036459,0.422376990,0.369547164,0.088445892,2.706588325,0.000000000,2.708322663,-0.402684987,-0.394502078,-0.043828192,-0.703200259,0.000000000,-0.702402127,0.000000000,0.000117659,0.000184468,-0.012444427,0.000000000,-0.012415683,0.000000000,-0.000139725,0.002656514,0.000828454,0.000000000,-0.000129039,-0.435999990,-0.400503061,-0.066577079,-8.514502258,0.000000000,-8.583917395,0.000000000,0.003845406,-0.005440625,-0.968508620,0.000000000,-0.969975873,0.000000000,0.010260604,-0.007481309,-0.594448831,0.000000000,-0.594933940,0.000000000,0.005764919,-0.000879664,-0.580164248,0.000000000,-0.580130708,0.000000000,0.000406574,0.003439445,-0.049484254,0.000000000,-0.050868730
0.155985940,-0.004418000,-0.001556163,-0.024001307,-0.159653981,0.000000000,-0.169321585,-0.001031000,-0.007665330,-0.003620932,1.961106284,0.000000000,1.967677054,-0.004082000,-0.006787372,0.023170078,0.251036459,0.000000000,0.244904481,0.422302991,0.369719177,0.086006421,2.708322663,0.000000000,2.710123070,-0.402767003,-0.394589951,-0.043936271,-0.702402127,0.000000000,-0.701502965,0.000000000,0.000117980,0.000160480,-0.012415683,0.000000000,-0.012379923,0.000000000,-0.000134288,0.002724174,-0.000129039,0.000000000,-0.001091175,-0.435999990,-0.400626850,-0.061894350,-8.583917395,0.000000000,-8.654649723,0.000000000,0.003834928,-0.005241022,-0.969975873,0.000000000,-0.971512464,0.000000000,0.010246046,-0.007279196,-0.594933940,0.000000000,-0.595450973,0.000000000,0.005763261,-0.000829393,-0.580130708,0.000000000,-0.580105984,0.000000000,0.000413924,0.003675298,-0.050868730,0.000000000,-0.052282135
0.157985760,-0.004616000,-0.001606460,-0.025149759,-0.169321585,0.000000000,-0.178571043,-0.001050000,-0.007673422,-0.004046039,1.967677054,0.000000000,1.974192042,-0.004051000,-0.006740880,0.023246144,0.244904481,0.000000000,0.238780388,0.422226995,0.369886363,0.083593016,2.710123070,0.000000000,2.711916965,-0.402846992,-0.394677941,-0.043995416,-0.701502965,0.000000000,-0.700526154,0.000000000,0.000118253,0.000136275,-0.012379923,0.000000000,-0.012338655,0.000000000,-0.000128721,0.002790064,-0.001091175,0.000000000,-0.002057207,-0.435999990,-0.400741395,-0.057272554,-8.654649723,0.000000000,-8.726631252,0.000000000,0.003824845,-0.005043410,-0.971512464,0.000000000,-0.973116305,0.000000000,0.010231893,-0.007076336,-0.595450973,0.000000000,-0.595998952,0.000000000,0.005761701,-0.000779633,-0.580105984,0.000000000,-0.580089869,0.000000000,0.000421733,0.003904524,-0.052282135,0.000000000,-0.053723033
0.159985580,-0.004813000,-0.001659148,-0.026345040,-0.178571043,0.000000000,-0.187194249,-0.001069000,-0.007682363,-0.004470297,1.974192042,0.000000000,1.980928990,-0.004021000,-0.006694266,0.023307091,0.238780388,0.000000000,0.232679327,0.422147989,0.370048774,0.081205727,2.711916965,0.000000000,2.713636687,-0.402925014,-0.394765941,-0.044000011,-0.700526154,0.000000000,-0.699504712,0.000000000,0.000118477,0.000111899,-0.012338655,0.000000000,-0.012291970,0.000000000,-0.000123027,0.002854130,-0.002057207,0.000000000,-0.003026416,-0.435999990,-0.400846821,-0.052713106,-8.726631252,0.000000000,-8.799794516,0.000000000,0.003815154,-0.004847834,-0.973116305,0.000000000,-0.974785241,0.000000000,0.010218148,-0.006872865,-0.595998952,0.000000000,-0.596576973,0.000000000,0.005760241,-0.000730423,-0.580089869,0.000000000,-0.580082134,0.000000000,0.000429987,0.004127101,-0.053723033,0.000000000,-0.055190017
0.161985400,-0.005009000,-0.001714311,-0.027583008,-0.187194249,0.000000000,-0.195205568,-0.001090000,-0.007692149,-0.004892970,1.980928990,0.000000000,1.987301877,-0.003991000,-0.006647561,0.023352720,0.232679327,0.000000000,0.226898931,0.422066987,0.370206462,0.078844178,2.713636687,0.000000000,2.715345651,-0.402999014,-0.394853834,-0.043946295,-0.699504712,0.000000000,-0.698253287,0.000000000,0.000118648,0.000085819,-0.012291970,0.000000000,-0.012235172,0.000000000,-0.000117211,0.002916320,-0.003026416,0.000000000,-0.003998087,-0.435999990,-0.400943256,-0.048217360,-8.799794516,0.000000000,-8.874072721,0.000000000,0.003805849,-0.004654333,-0.974785241,0.000000000,-0.976517209,0.000000000,0.010204810,-0.006668924,-0.596576973,0.000000000,-0.597184105,0.000000000,0.005758877,-0.000681799,-0.580082134,0.000000000,-0.580082563,0.000000000,0.000438673,0.004343016,-0.055190017,0.000000000,-0.056681702
0.163985219,-0.005203000,-0.001772030,-0.028860298,-0.195205568,0.000000000,-0.202508986,-0.001112000,-0.007702777,-0.005313937,1.987301877,0.000000000,1.993591278,-0.003963000,-0.006600793,0.023383807,0.226898931,0.000000000,0.220861166,0.421983987,0.370359473,0.076505413,2.715345651,0.000000000,2.717062008,-0.403070003,-0.394941467,-0.043816592,-0.698253287,0.000000000,-0.696939901,0.000000000,0.000118768,0.000059956,-0.012235172,0.000000000,-0.012173761,0.000000000,-0.000111276,0.002976581,-0.003998087,0.000000000,-0.004971464,-0.435999990,-0.401030829,-0.043786586,-8.874072721,0.000000000,-8.949400154,0.000000000,0.003796927,-0.004462947,-0.976517209,0.000000000,-0.978310112,0.000000000,0.010191880,-0.006464650,-0.597184105,0.000000000,-0.597819399,0.000000000,0.005757609,-0.000633792,-0.580082563,0.000000000,-0.580090942,0.000000000,0.000447778,0.004552246,-0.056681702,0.000000000,-0.058196674
0.165985039,-0.005393000,-0.001832372,-0.030172179,-0.202508986,0.000000000,-0.208910796,-0.001135000,-0.007714242,-0.005732731,1.993591278,0.000000000,1.999785327,-0.003935000,-0.006553995,0.023399001,0.220861166,0.000000000,0.215174391,0.421898991,0.370507856,0.074191537,2.717062008,0.000000000,2.718767633,-0.403138012,-0.395028681,-0.043607135,-0.696939901,0.000000000,-0.695594397,0.000000000,0.000118835,0.000033329,-0.012173761,0.000000000,-0.012104798,0.000000000,-0.000105227,0.003034869,-0.004971464,0.000000000,-0.005945838,-0.435999990,-0.401109673,-0.039422012,-8.949400154,0.000000000,-9.025711445,0.000000000,0.003788383,-0.004273703,-0.978310112,0.000000000,-0.980162103,0.000000000,0.010179360,-0.006260187,-0.597819399,0.000000000,-0.598481875,0.000000000,0.005756437,-0.000586433,-0.580090942,0.000000000,-0.580107049,0.000000000,0.000457287,0.004754793,-0.058196674,0.000000000,-0.059733588
0.167984859,-0.005581000,-0.001895396,-0.031513211,-0.208910796,0.000000000,-0.214648676,-0.001160000,-0.007726540,-0.006148727,1.999785327,0.000000000,2.005584104,-0.003908000,-0.006507199,0.023398530,0.215174391,0.000000000,0.209557879,0.421810001,0.370651660,0.071901771,2.718767633,0.000000000,2.720338904,-0.403203011,-0.395115312,-0.043315027,-0.695594397,0.000000000,-0.694238705,0.000000000,0.000118846,0.000005543,-0.012104798,0.000000000,-0.012026924,0.000000000,-0.000099069,0.003091139,-0.005945838,0.000000000,-0.006920474,-0.435999990,-0.401179922,-0.035124793,-9.025711445,0.000000000,-9.102942126,0.000000000,0.003780214,-0.004086645,-0.980162103,0.000000000,-0.982070970,0.000000000,0.010167249,-0.006055650,-0.598481875,0.000000000,-0.599170713,0.000000000,0.005755357,-0.000539760,-0.580107049,0.000000000,-0.580130641,0.000000000,0.000467188,0.004950660,-0.059733588,0.000000000,-0.061291101
0.169984679,-0.005771000,-0.001961153,-0.032879659,-0.214648676,0.000000000,-0.220164705,-0.001188000,-0.007739663,-0.006561845,2.005584104,0.000000000,2.010699926,-0.003882000,-0.006460433,0.023382711,0.209557879,0.000000000,0.204013282,0.421716988,0.370790929,0.069634678,2.720338904,0.000000000,2.721781281,-0.403266996,-0.395201188,-0.042938242,-0.694238705,0.000000000,-0.693097501,0.000000000,0.000118802,-0.000021837,-0.012026924,0.000000000,-0.011944668,0.000000000,-0.000092806,0.003145349,-0.006920474,0.000000000,-0.007894611,-0.435999990,-0.401241714,-0.030896016,-9.102942126,0.000000000,-9.181028764,0.000000000,0.003772413,-0.003901795,-0.982070970,0.000000000,-0.984034923,0.000000000,0.010155546,-0.005851182,-0.599170713,0.000000000,-0.599884891,0.000000000,0.005754370,-0.000493794,-0.580130641,0.000000000,-0.580161515,0.000000000,0.000477468,0.005139844,-0.061291101,0.000000000,-0.062867854
0.171984498,-0.005962000,-0.002029693,-0.034270847,-0.220164705,0.000000000,-0.225350865,-0.001217000,-0.007753609,-0.006972739,2.010699926,0.000000000,2.015714756,-0.003856000,-0.006413730,0.023351861,0.204013282,0.000000000,0.198826212,0.421618998,0.370925710,0.067390414,2.721781281,0.000000000,2.723030534,-0.403329998,-0.395286171,-0.042491518,-0.693097501,0.000000000,-0.692146033,0.000000000,0.000118710,-0.000045915,-0.011944668,0.000000000,-0.011866935,0.000000000,-0.000086443,0.003197458,-0.007894611,0.000000000,-0.008867485,-0.435999990,-0.401295188,-0.026736709,-9.181028764,0.000000000,-9.259908570,0.000000000,0.003764978,-0.003719183,-0.984034923,0.000000000,-0.986052018,0.000000000,0.010144253,-0.005646907,-0.599884891,0.000000000,-0.600623504,0.000000000,0.005753472,-0.000448569,-0.580161515,0.000000000,-0.580199424,0.000000000,0.000488112,0.005322355,-0.062867854,0.000000000,-0.064462527
0.173984318,-0.006154000,-0.002101061,-0.035685194,-0.225350865,0.000000000,-0.230211051,-0.001248000,-0.007768372,-0.007381331,2.015714756,0.000000000,2.020341328,-0.003831000,-0.006367116,0.023307086,0.198826212,0.000000000,0.193695297,0.421516001,0.371056044,0.065167034,2.723030534,0.000000000,2.724095977,-0.403391987,-0.395370145,-0.041987009,-0.692146033,0.000000000,-0.691358419,0.000000000,0.000118575,-0.000067789,-0.011866935,0.000000000,-0.011791045,0.000000000,-0.000079986,0.003247441,-0.008867485,0.000000000,-0.009838361,-0.435999990,-0.401340484,-0.022647855,-9.259908570,0.000000000,-9.339519285,0.000000000,0.003757904,-0.003538842,-0.986052018,0.000000000,-0.988120251,0.000000000,0.010133367,-0.005442934,-0.600623504,0.000000000,-0.601385741,0.000000000,0.005752664,-0.000404116,-0.580199424,0.000000000,-0.580244124,0.000000000,0.000499109,0.005498223,-0.064462527,0.000000000,-0.066073860
0.175984138,-0.006348000,-0.002175302,-0.037121188,-0.230211051,0.000000000,-0.234855925,-0.001281000,-0.007783947,-0.007787713,2.020341328,0.000000000,2.024580409,-0.003806000,-0.006320618,0.023249017,0.193695297,0.000000000,0.188898107,0.421409994,0.371181971,0.062963521,2.724095977,0.000000000,2.725108437,-0.403452992,-0.395453015,-0.041434981,-0.691358419,0.000000000,-0.690718088,0.000000000,0.000118401,-0.000086864,-0.011791045,0.000000000,-0.011719255,0.000000000,-0.000073442,0.003295263,-0.009838361,0.000000000,-0.010806409,-0.435999990,-0.401377744,-0.018630353,-9.339519285,0.000000000,-9.419799989,0.000000000,0.003751185,-0.003360791,-0.988120251,0.000000000,-0.990237868,0.000000000,0.010122888,-0.005239391,-0.601385741,0.000000000,-0.602170636,0.000000000,0.005751943,-0.000360449,-0.580244124,0.000000000,-0.580295413,0.000000000,0.000510443,0.005667460,-0.066073860,0.000000000,-0.067700550
0.177983957,-0.006543000,-0.002252456,-0.038578043,-0.234855925,0.000000000,-0.239178866,-0.001316000,-0.007800331,-0.008192183,2.024580409,0.000000000,2.028437710,-0.003782000,-0.006274262,0.023178301,0.188898107,0.000000000,0.184142997,0.421299011,0.371303530,0.060779391,2.725108437,0.000000000,2.725944678,-0.403513014,-0.395534706,-0.040845593,-0.690718088,0.000000000,-0.690203711,0.000000000,0.000118196,-0.000102755,-0.011719255,0.000000000,-0.011653309,0.000000000,-0.000066816,0.003340902,-0.010806409,0.000000000,-0.011770784,-0.435999990,-0.401407114,-0.014685053,-9.419799989,0.000000000,-9.500690414,0.000000000,0.003744818,-0.003185054,-0.990237868,0.000000000,-0.992402989,0.000000000,0.010112815,-0.005036386,-0.602170636,0.000000000,-0.602977349,0.000000000,0.005751308,-0.000317597,-0.580295413,0.000000000,-0.580353050,0.000000000,0.000522103,0.005830090,-0.067700550,0.000000000,-0.069341332
0.179983777,-0.006739000,-0.002332563,-0.040054225,-0.239178866,0.000000000,-0.243184323,-0.001351000,-0.007817521,-0.008594865,2.028437710,0.000000000,2.032483486,-0.003758000,-0.006228071,0.023095449,0.184142997,0.000000000,0.179709440,0.421186000,0.371420757,0.058613598,2.725944678,0.000000000,2.726796176,-0.403571993,-0.395615159,-0.040226611,-0.690203711,0.000000000,-0.689793162,0.000000000,0.000117964,-0.000115694,-0.011653309,0.000000000,-0.011593138,0.000000000,-0.000060116,0.003384341,-0.011770784,0.000000000,-0.012730546,-0.435999990,-0.401428740,-0.010812746,-9.500690414,0.000000000,-9.582131198,0.000000000,0.003738797,-0.003011650,-0.992402989,0.000000000,-0.994613910,0.000000000,0.010103147,-0.004834033,-0.602977349,0.000000000,-0.603804989,0.000000000,0.005750757,-0.000275578,-0.580353050,0.000000000,-0.580416811,0.000000000,0.000534076,0.005986145,-0.069341332,0.000000000,-0.070994961
0.181983597,-0.006935000,-0.002415656,-0.041547700,-0.243184323,0.000000000,-0.246773651,-0.001388000,-0.007835512,-0.008995336,2.032483486,0.000000000,2.036138460,-0.003735000,-0.006182070,0.023000573,0.179709440,0.000000000,0.175317527,0.421068996,0.371533690,0.056466692,2.726796176,0.000000000,2.727532393,-0.403629005,-0.395694331,-0.039585800,-0.689793162,0.000000000,-0.689375412,0.000000000,0.000117708,-0.000128193,-0.011593138,0.000000000,-0.011531693,0.000000000,-0.000053353,0.003425573,-0.012730546,0.000000000,-0.013684622,-0.435999990,-0.401442768,-0.007014170,-9.582131198,0.000000000,-9.664063712,0.000000000,0.003733119,-0.002840594,-0.994613910,0.000000000,-0.996868919,0.000000000,0.010093882,-0.004632433,-0.603804989,0.000000000,-0.604652744,0.000000000,0.005750288,-0.000234413,-0.580416811,0.000000000,-0.580486462,0.000000000,0.000546347,0.006135664,-0.070994961,0.000000000,-0.072660234
0.183983417,-0.007133000,-0.002501767,-0.043056314,-0.246773651,0.000000000,-0.250168932,-0.001426000,-0.007854299,-0.009393545,2.036138460,0.000000000,2.039684349,-0.003712000,-0.006136282,0.022894195,0.175317527,0.000000000,0.171246263,0.420949012,0.371642365,0.054337171,2.727532393,0.000000000,2.728225818,-0.403683990,-0.395772174,-0.038921277,-0.689375412,0.000000000,-0.688954581,0.000000000,0.000117429,-0.000139303,-0.011531693,0.000000000,-0.011471951,0.000000000,-0.000046539,0.003464596,-0.013684622,0.000000000,-0.014631608,-0.435999990,-0.401449348,-0.003289985,-9.664063712,0.000000000,-9.746430707,0.000000000,0.003727777,-0.002671896,-0.996868919,0.000000000,-0.999166461,0.000000000,0.010085019,-0.004431697,-0.604652744,0.000000000,-0.605519718,0.000000000,0.005749900,-0.000194117,-0.580486462,0.000000000,-0.580561790,0.000000000,0.000558904,0.006278673,-0.072660234,0.000000000,-0.074335902
0.185983236,-0.007330000,-0.002590924,-0.044579136,-0.250168932,0.000000000,-0.253052599,-0.001465000,-0.007873878,-0.009789578,2.039684349,0.000000000,2.043121957,-0.003689000,-0.006090728,0.022776951,0.171246263,0.000000000,0.167487476,0.420828015,0.371746812,0.052223573,2.728225818,0.000000000,2.729009063,-0.403737992,-0.395848638,-0.038232434,-0.688954581,0.000000000,-0.688642734,0.000000000,0.000117131,-0.000149324,-0.011471951,0.000000000,-0.011413278,0.000000000,-0.000039693,0.003501433,-0.014631608,0.000000000,-0.015569612,-0.435999990,-0.401448630,0.000359183,-9.746430707,0.000000000,-9.829175448,0.000000000,0.003722769,-0.002505559,-0.999166461,0.000000000,-1.001505107,0.000000000,0.010076555,-0.004231920,-0.605519718,0.000000000,-0.606405114,0.000000000,0.005749591,-0.000154711,-0.580561790,0.000000000,-0.580642554,0.000000000,0.000571734,0.006415215,-0.074335902,0.000000000,-0.076020788
0.187983056,-0.007529000,-0.002683148,-0.046113111,-0.253052599,0.000000000,-0.255759359,-0.001505000,-0.007894244,-0.010183047,2.043121957,0.000000000,2.046440969,-0.003667000,-0.006045431,0.022648635,0.167487476,0.000000000,0.163767792,0.420704007,0.371847067,0.050127584,2.729009063,0.000000000,2.729741802,-0.403789014,-0.395923694,-0.037527799,-0.688642734,0.000000000,-0.688217012,0.000000000,0.000116812,-0.000159295,-0.011413278,0.000000000,-0.011352731,0.000000000,-0.000032847,0.003536136,-0.015569612,0.000000000,-0.016495575,-0.435999990,-0.401440764,0.003932774,-9.829175448,0.000000000,-9.912242238,0.000000000,0.003718088,-0.002341575,-1.001505107,0.000000000,-1.003883734,0.000000000,0.010068489,-0.004033198,-0.606405114,0.000000000,-0.607308119,0.000000000,0.005749358,-0.000116206,-0.580642554,0.000000000,-0.580728536,0.000000000,0.000584825,0.006545339,-0.076020788,0.000000000,-0.077713726
0.189982876,-0.007727000,-0.002778461,-0.047657256,-0.255759359,0.000000000,-0.257972846,-0.001545000,-0.007915392,-0.010573933,2.046440969,0.000000000,2.049923796,-0.003646000,-0.006000413,0.022509557,0.163767792,0.000000000,0.160086328,0.420578003,0.371943163,0.048047708,2.729741802,0.000000000,2.730496638,-0.403838009,-0.395997291,-0.036798565,-0.688217012,0.000000000,-0.687803813,0.000000000,0.000116474,-0.000168773,-0.011352731,0.000000000,-0.011291674,0.000000000,-0.000026061,0.003568806,-0.016495575,0.000000000,-0.017403653,-0.435999990,-0.401425904,0.007430284,-9.912242238,0.000000000,-9.995576466,0.000000000,0.003713730,-0.002179907,-1.003883734,0.000000000,-1.006301820,0.000000000,0.010060817,-0.003835632,-0.607308119,0.000000000,-0.608227862,0.000000000,0.005749201,-0.000078615,-0.580728536,0.000000000,-0.580819520,0.000000000,0.000598163,0.006669087,-0.077713726,0.000000000,-0.079413552
0.191982696,-0.007925000,-0.002876876,-0.049208251,-0.257972846,0.000000000,-0.259816944,-0.001586000,-0.007937315,-0.010961602,2.049923796,0.000000000,2.053270007,-0.003624000,-0.005955695,0.022359167,0.160086328,0.000000000,0.157030551,0.420450985,0.372035133,0.045985214,2.730496638,0.000000000,2.731324469,-0.403885007,-0.396069383,-0.036046080,-0.687803813,0.000000000,-0.687407012,0.000000000,0.000116115,-0.000179671,-0.011291674,0.000000000,-0.011224372,0.000000000,-0.000019474,0.003599671,-0.017403653,0.000000000,-0.018280410,-0.435999990,-0.401404201,0.010851252,-9.995576466,0.000000000,-10.079124145,0.000000000,0.003709691,-0.002020481,-1.006301820,0.000000000,-1.008759818,0.000000000,0.010053539,-0.003639307,-0.608227862,0.000000000,-0.609163588,0.000000000,0.005749117,-0.000041952,-0.580819520,0.000000000,-0.580915278,0.000000000,0.000611736,0.006786511,-0.079413552,0.000000000,-0.081119137
0.193982515,-0.008124000,-0.002978403,-0.050764229,-0.259816944,0.000000000,-0.261407767,-0.001626000,-0.007960007,-0.011345919,2.053270007,0.000000000,2.057043095,-0.003603000,-0.005911298,0.022198383,0.157030551,0.000000000,0.154016960,0.420323998,0.372123011,0.043938972,2.731324469,0.000000000,2.732297173,-0.403928995,-0.396139926,-0.035271378,-0.687407012,0.000000000,-0.686925755,0.000000000,0.000115733,-0.000191000,-0.011224372,0.000000000,-0.011153559,0.000000000,-0.000013481,0.003629248,-0.018280410,0.000000000,-0.019086443,-0.435999990,-0.401375811,0.014195277,-10.079124145,0.000000000,-10.162832525,0.000000000,0.003705967,-0.001863097,-1.008759818,0.000000000,-1.011261053,0.000000000,0.010046650,-0.003444326,-0.609163588,0.000000000,-0.610114394,0.000000000,0.005749105,-0.000006214,-0.580915278,0.000000000,-0.581015628,0.000000000,0.000625531,0.006897648,-0.081119137,0.000000000,-0.082829308
0.195982335,-0.008321000,-0.003083048,-0.052323028,-0.261407767,0.000000000,-0.262437085,-0.001667000,-0.007983459,-0.011726193,2.057043095,0.000000000,2.060656696,-0.003583000,-0.005867246,0.022026290,0.154016960,0.000000000,0.151072747,0.420195013,0.372206833,0.041911029,2.732297173,0.000000000,2.733269867,-0.403970987,-0.396208866,-0.034469902,-0.686925755,0.000000000,-0.686480819,0.000000000,0.000115324,-0.000204719,-0.011153559,0.000000000,-0.011073176,0.000000000,-0.000009451,0.003658961,-0.019086443,0.000000000,-0.019684052,-0.435999990,-0.401340887,0.017461986,-10.162832525,0.000000000,-10.246649192,0.000000000,0.003702554,-0.001707166,-1.011261053,0.000000000,-1.013818033,0.000000000,0.010040148,-0.003250860,-0.610114394,0.000000000,-0.611078869,0.000000000,0.005749162,0.000028632,-0.581015628,0.000000000,-0.581120487,0.000000000,0.000639536,0.007002522,-0.082829308,0.000000000,-0.084542874
0.197982155,-0.008519000,-0.003190809,-0.053881282,-0.262437085,0.000000000,-0.263243899,-0.001707000,-0.008007663,-0.012101989,2.060656696,0.000000000,2.064666891,-0.003562000,-0.005823560,0.021842739,0.151072747,0.000000000,0.148776309,0.420065999,0.372286637,0.039902050,2.733269867,0.000000000,2.734359677,-0.404009014,-0.396276154,-0.033644016,-0.686480819,0.000000000,-0.685871624,0.000000000,0.000114884,-0.000219837,-0.011073176,0.000000000,-0.010985763,0.000000000,0.000010231,0.003693463,-0.019684052,0.000000000,-0.021977054,-0.435999990,-0.401299585,0.020651020,-10.246649192,0.000000000,-10.330521840,0.000000000,0.003699454,-0.001550747,-1.013818033,0.000000000,-1.016474948,0.000000000,0.010034030,-0.003059306,-0.611078869,0.000000000,-0.612053948,0.000000000,0.005749288,0.000062748,-0.581120487,0.000000000,-0.581230165,0.000000000,0.000653738,0.007101048,-0.084542874,0.000000000,-0.086258309
0.199981975,-0.008716000,-0.003301683,-0.055437527,-0.263243899,0.000000000,-0.263623687,-0.001748000,-0.008032609,-0.012472887,2.064666891,0.000000000,2.068492880,-0.003542000,-0.005780264,0.021648524,0.148776309,0.000000000,0.146547290,0.419937998,0.372362457,0.037910092,2.734359677,0.000000000,2.735644148,-0.404044986,-0.396341719,-0.032782286,-0.685871624,0.000000000,-0.685330689,0.000000000,0.000114410,-0.000237128,-0.010985763,0.000000000,-0.010888672,0.000000000,0.000015132,0.003689774,-0.021977054,0.000000000,-0.022478667,-0.435999990,-0.401252060,0.023762523,-10.330521840,0.000000000,-10.414409681,0.000000000,0.003696629,-0.001413377,-1.016474948,0.000000000,-1.018779038,0.000000000,0.010028303,-0.002863263,-0.612053948,0.000000000,-0.613085709,0.000000000,0.005749472,0.000091955,-0.581230165,0.000000000,-0.581331791,0.000000000,0.000668129,0.007195414,-0.086258309,0.000000000,-0.087980989
0.201981794,-0.008910000,-0.003415660,-0.056989037,-0.263623687,0.000000000,-0.263379734,-0.001789000,-0.008058286,-0.012838512,2.068492880,0.000000000,2.072407496,-0.003521000,-0.005737379,0.021442588,0.146547290,0.000000000,0.144984677,0.419806987,0.372434335,0.035938893,2.735644148,0.000000000,2.736839960,-0.404076993,-0.396405501,-0.031891327,-0.685330689,0.000000000,-0.684652347,-0.000001000,0.000113899,-0.000255445,-0.010888672,0.000000000,-0.010886031,0.000000000,0.000021512,0.003696549,-0.022478667,0.000000000,-0.023196997,-0.435999990,-0.401198466,0.026796564,-10.414409681,0.000000000,-10.498270236,0.000000000,0.003694088,-0.001270937,-1.018779038,0.000000000,-1.021278751,0.000000000,0.010022953,-0.002675151,-0.613085709,0.000000000,-0.614084859,0.000000000,0.005749723,0.000125815,-0.581331791,0.000000000,-0.581453487,0.000000000,0.000682692,0.007281468,-0.087980989,0.000000000,-0.089697434
0.203981614,-0.009102000,-0.003532723,-0.058532102,-0.263379734,0.000000000,-0.262641339,-0.001833000,-0.008084682,-0.013197987,2.072407496,0.000000000,2.075534586,-0.003500000,-0.005694926,0.021226534,0.144984677,0.000000000,0.143773727,0.419672012,0.372502303,0.033983949,2.736839960,0.000000000,2.737916832,-0.404105991,-0.396467420,-0.030959549,-0.684652347,0.000000000,-0.683974188,-0.000002000,0.000113314,-0.000292275,-0.010886031,0.000000000,-0.010823311,0.000000000,0.000028406,0.003705902,-0.023196997,0.000000000,-0.023984703,-0.435999990,-0.401138962,0.029752146,-10.498270236,0.000000000,-10.582036347,0.000000000,0.003691832,-0.001128533,-1.021278751,0.000000000,-1.023858563,0.000000000,0.010017973,-0.002489994,-0.614084859,0.000000000,-0.615086391,0.000000000,0.005750041,0.000158805,-0.581453487,0.000000000,-0.581579382,0.000000000,0.000697415,0.007362001,-0.089697434,0.000000000,-0.091414461
0.205981434,-0.009292000,-0.003652851,-0.060064760,-0.262641339,0.000000000,-0.261421918,-0.001880000,-0.008111786,-0.013552010,2.075534586,0.000000000,2.077886898,-0.003479000,-0.005652923,0.021001598,0.143773727,0.000000000,0.142891620,0.419533014,0.372566388,0.032042319,2.737916832,0.000000000,2.738890224,-0.404132009,-0.396527391,-0.029985316,-0.683974188,0.000000000,-0.683312452,-0.000004000,0.000112644,-0.000335245,-0.010823311,0.000000000,-0.010835516,0.000000000,0.000035527,0.003715222,-0.023984703,0.000000000,-0.024796482,-0.435999990,-0.401073704,0.032629276,-10.582036347,0.000000000,-10.665663558,0.000000000,0.003689858,-0.000987657,-1.023858563,0.000000000,-1.026483896,0.000000000,0.010013360,-0.002306682,-0.615086391,0.000000000,-0.616097970,0.000000000,0.005750421,0.000190121,-0.581579382,0.000000000,-0.581706846,0.000000000,0.000712289,0.007436929,-0.091414461,0.000000000,-0.093130698
0.207981254,-0.009480000,-0.003776020,-0.061584744,-0.261421918,0.000000000,-0.259736894,-0.001928000,-0.008139588,-0.013900848,2.077886898,0.000000000,2.080035996,-0.003457000,-0.005611386,0.020768619,0.142891620,0.000000000,0.142608064,0.419391990,0.372626611,0.030111916,2.738890224,0.000000000,2.739899666,-0.404155999,-0.396585328,-0.028968797,-0.683312452,0.000000000,-0.682771590,-0.000008000,0.000111854,-0.000395113,-0.010835516,0.000000000,-0.010989709,0.000000000,0.000042770,0.003723425,-0.024796482,0.000000000,-0.025614899,-0.435999990,-0.401002847,0.035428070,-10.665663558,0.000000000,-10.749109991,0.000000000,0.003688161,-0.000848827,-1.026483896,0.000000000,-1.029141809,0.000000000,0.010009110,-0.002125029,-0.616097970,0.000000000,-0.617120705,0.000000000,0.005750861,0.000219865,-0.581706846,0.000000000,-0.581835852,0.000000000,0.000727301,0.007506067,-0.093130698,0.000000000,-0.094844450
0.209981073,-0.009667000,-0.003902197,-0.063089269,-0.259736894,0.000000000,-0.257712022,-0.001977000,-0.008168076,-0.014243910,2.080035996,0.000000000,2.081965249,-0.003434000,-0.005570330,0.020528155,0.142608064,0.000000000,0.142914761,0.419247001,0.372682997,0.028192618,2.739899666,0.000000000,2.740822281,-0.404177994,-0.396641166,-0.027918892,-0.682771590,0.000000000,-0.682336060,-0.000012000,0.000110861,-0.000496155,-0.010989709,0.000000000,-0.011006422,0.000000000,0.000050086,0.003729959,-0.025614899,0.000000000,-0.026431656,-0.435999990,-0.400926550,0.038148582,-10.749109991,0.000000000,-10.832332321,0.000000000,0.003686738,-0.000712296,-1.029141809,0.000000000,-1.031825317,0.000000000,0.010005219,-0.001945028,-0.617120705,0.000000000,-0.618154435,0.000000000,0.005751357,0.000248185,-0.581835852,0.000000000,-0.581966535,0.000000000,0.000742440,0.007569461,-0.094844450,0.000000000,-0.096554687
0.211980893,-0.009854000,-0.004031351,-0.064577219,-0.257712022,0.000000000,-0.255463674,-0.002027000,-0.008197239,-0.014581718,2.081965249,0.000000000,2.083683395,-0.003413000,-0.005529767,0.020281763,0.142914761,0.000000000,0.142927176,0.419101000,0.372735560,0.026281754,2.740822281,0.000000000,2.741862336,-0.404199004,-0.396694850,-0.026841834,-0.682336060,0.000000000,-0.682096035,-0.000018000,0.000109632,-0.000614747,-0.011006422,0.000000000,-0.011151397,0.000000000,0.000057448,0.003734519,-0.026431656,0.000000000,-0.027242175,-0.435999990,-0.400844969,0.040790865,-10.832332321,0.000000000,-10.915287324,0.000000000,0.003685582,-0.000578200,-1.031825317,0.000000000,-1.034529957,0.000000000,0.010001686,-0.001766740,-0.618154435,0.000000000,-0.619198521,0.000000000,0.005751908,0.000275210,-0.581966535,0.000000000,-0.582098997,0.000000000,0.000757694,0.007627207,-0.096554687,0.000000000,-0.098260535
0.213980713,-0.010042000,-0.004163443,-0.066046674,-0.255463674,0.000000000,-0.253113164,-0.002077000,-0.008227066,-0.014913683,2.083683395,0.000000000,2.085458163,-0.003391000,-0.005489712,0.020027682,0.142927176,0.000000000,0.143542138,0.418951988,0.372784330,0.024384769,2.741862336,0.000000000,2.742853262,-0.404217988,-0.396746357,-0.025753655,-0.682096035,0.000000000,-0.681902767,-0.000024000,0.000108087,-0.000772616,-0.011151397,0.000000000,-0.011152801,0.000000000,0.000064839,0.003736931,-0.027242175,0.000000000,-0.028043679,-0.435999990,-0.400758259,0.043355002,-10.915287324,0.000000000,-10.997932431,0.000000000,0.003684690,-0.000446599,-1.034529957,0.000000000,-1.037252936,0.000000000,0.009998505,-0.001590263,-0.619198521,0.000000000,-0.620252015,0.000000000,0.005752510,0.000301057,-0.582098997,0.000000000,-0.582233337,0.000000000,0.000773053,0.007679397,-0.098260535,0.000000000,-0.099961143
