sainanliu129-hub/model/applications/Body_GravityPara_Iden/data/excitation/0-260116_run_softly_轻跑步_002_leg_500Hz_PD-M1-v0_multi_joint_20260324-091428.csv
time,cmd_leg_l1_joint,pos_leg_l1_joint,vel_leg_l1_joint,torque_leg_l1_joint,acc_leg_l1_joint,cmd_torque_leg_l1_joint,cmd_leg_l2_joint,pos_leg_l2_joint,vel_leg_l2_joint,torque_leg_l2_joint,acc_leg_l2_joint,cmd_torque_leg_l2_joint,cmd_leg_l3_joint,pos_leg_l3_joint,vel_leg_l3_joint,torque_leg_l3_joint,acc_leg_l3_joint,cmd_torque_leg_l3_joint,cmd_leg_l4_joint,pos_leg_l4_joint,vel_leg_l4_joint,torque_leg_l4_joint,acc_leg_l4_joint,cmd_torque_leg_l4_joint,cmd_leg_l5_joint,pos_leg_l5_joint,vel_leg_l5_joint,torque_leg_l5_joint,acc_leg_l5_joint,cmd_torque_leg_l5_joint,cmd_leg_l6_joint,pos_leg_l6_joint,vel_leg_l6_joint,torque_leg_l6_joint,acc_leg_l6_joint,cmd_torque_leg_l6_joint,cmd_leg_r1_joint,pos_leg_r1_joint,vel_leg_r1_joint,torque_leg_r1_joint,acc_leg_r1_joint,cmd_torque_leg_r1_joint,cmd_leg_r2_joint,pos_leg_r2_joint,vel_leg_r2_joint,torque_leg_r2_joint,acc_leg_r2_joint,cmd_torque_leg_r2_joint,cmd_leg_r3_joint,pos_leg_r3_joint,vel_leg_r3_joint,torque_leg_r3_joint,acc_leg_r3_joint,cmd_torque_leg_r3_joint,cmd_leg_r4_joint,pos_leg_r4_joint,vel_leg_r4_joint,torque_leg_r4_joint,acc_leg_r4_joint,cmd_torque_leg_r4_joint,cmd_leg_r5_joint,pos_leg_r5_joint,vel_leg_r5_joint,torque_leg_r5_joint,acc_leg_r5_joint,cmd_torque_leg_r5_joint,cmd_leg_r6_joint,pos_leg_r6_joint,vel_leg_r6_joint,torque_leg_r6_joint,acc_leg_r6_joint,cmd_torque_leg_r6_joint
0.000000000,0.000000000,-0.000145853,-0.000343971,0.019701642,0.000000000,0.017491931,0.000000000,-0.000925603,0.002576646,0.205541084,0.000000000,0.204816802,-0.006823000,-0.009428170,-0.026072478,1.324489214,0.000000000,1.330239835,0.424885005,0.348244430,0.365810215,2.235172895,0.000000000,2.240823022,-0.396259993,-0.378104088,-0.411430261,-0.665304214,0.000000000,-0.665230391,0.000000000,0.000010251,-0.000106416,-0.000928159,0.000000000,-0.000733485,0.000000000,0.000010665,-0.000109044,-0.000515844,0.000000000,-0.000520180,0.000000000,0.000899096,-0.002496162,-0.198928660,0.000000000,-0.199102973,0.065402001,0.053705265,0.042624954,2.353444701,0.000000000,2.360604984,0.276596010,0.224050838,0.227522515,1.696825206,0.000000000,1.701785812,-0.291951001,-0.276886689,-0.307196541,-0.649089106,0.000000000,-0.649114979,0.000000000,0.000003864,0.000004611,-0.000401881,0.000000000,-0.000403653
0.001999820,-0.000031000,-0.000145808,0.000029980,0.017491931,0.000000000,0.012068086,0.000016000,-0.000920457,0.002599897,0.204816802,0.000000000,0.207376119,-0.006821000,-0.009480303,-0.026067713,1.330239835,0.000000000,1.345519278,0.424870014,0.348976212,0.365890780,2.240823022,0.000000000,2.193080507,-0.396315992,-0.378926965,-0.411438384,-0.665230391,0.000000000,-0.587702753,0.000000000,0.000010120,-0.000066573,-0.000733485,0.000000000,-0.000833466,-0.000017000,0.000010508,-0.000110822,-0.000520180,0.000000000,-0.002305424,-0.000004000,0.000894107,-0.002494848,-0.199102973,0.000000000,-0.198851573,0.065428004,0.053790555,0.042645432,2.360604984,0.000000000,2.343289463,0.276553988,0.224505939,0.227550376,1.701785812,0.000000000,1.670187064,-0.291940987,-0.277501077,-0.307194310,-0.649114979,0.000000000,-0.586016114,0.000004000,0.000003873,0.000005031,-0.000403653,0.000000000,-0.000001441
0.003999639,-0.000061000,-0.000145594,0.000056939,0.012068086,0.000000000,0.008695023,0.000031000,-0.000915202,0.002642542,0.207376119,0.000000000,0.209181457,-0.006816000,-0.009530658,-0.025178708,1.345519278,0.000000000,1.341145209,0.424854010,0.349702234,0.363011002,2.193080507,0.000000000,2.166679901,-0.396375000,-0.379733464,-0.403249389,-0.587702753,0.000000000,-0.535438973,0.000000000,0.000010021,-0.000049602,-0.000833466,0.000000000,-0.000871774,-0.000034000,0.000010517,0.000010005,-0.002305424,0.000000000,-0.004801754,-0.000010000,0.000889190,-0.002458955,-0.198851573,0.000000000,-0.199971178,0.065458000,0.053877040,0.043242745,2.343289463,0.000000000,2.313722110,0.276510000,0.224956850,0.225455345,1.670187064,0.000000000,1.653818250,-0.291929990,-0.278101997,-0.300459660,-0.586016114,0.000000000,-0.543319393,0.000007000,0.000004006,0.000077456,-0.000001441,0.000000000,0.000082331
0.005999459,-0.000091000,-0.000145324,-0.000110295,0.008695023,0.000000000,0.006414265,0.000045000,-0.000909925,0.002649183,0.209181457,0.000000000,0.211510831,-0.006810000,-0.009578441,-0.023892745,1.341145209,0.000000000,1.327345560,0.424836993,0.350419411,0.358588781,2.166679901,0.000000000,2.151737642,-0.396436006,-0.380513226,-0.389881230,-0.535438973,0.000000000,-0.500803462,0.000000000,0.000009913,-0.000054621,-0.000871774,0.000000000,-0.000846553,-0.000051000,0.000010722,0.000147159,-0.004801754,0.000000000,-0.007411239,-0.000016000,0.000884297,-0.002447064,-0.199971178,0.000000000,-0.200554643,0.065490000,0.053965180,0.044070014,2.313722110,0.000000000,2.279052774,0.276464999,0.225401455,0.222302789,1.653818250,0.000000000,1.645300585,-0.291918993,-0.278680881,-0.289442312,-0.543319393,0.000000000,-0.515025323,0.000010000,0.000004302,0.000168100,0.000082331,0.000000000,0.000097917
0.007999279,-0.000120000,-0.000145098,-0.000385286,0.006414265,0.000000000,0.004854062,0.000057000,-0.000904694,0.002628943,0.211510831,0.000000000,0.213892685,-0.006802000,-0.009623254,-0.022407224,1.327345560,0.000000000,1.308756168,0.424820006,0.351126001,0.353294614,2.151737642,0.000000000,2.143663866,-0.396499991,-0.381259555,-0.373164288,-0.500803462,0.000000000,-0.479368732,0.000000000,0.000009777,-0.000068825,-0.000846553,0.000000000,-0.000792399,-0.000069000,0.000011083,0.000249335,-0.007411239,0.000000000,-0.009946242,-0.000024000,0.000879386,-0.002455783,-0.200554643,0.000000000,-0.201235492,0.065523997,0.054055110,0.044965188,2.279052774,0.000000000,2.242906137,0.276419014,0.225838755,0.218649955,1.645300585,0.000000000,1.640738242,-0.291909009,-0.279232270,-0.275694557,-0.515025323,0.000000000,-0.497375036,0.000013000,0.000004777,0.000263272,0.000097917,0.000000000,0.000082559
0.009999099,-0.000148000,-0.000144958,-0.000717460,0.004854062,0.000000000,0.003733009,0.000069000,-0.000899532,0.002599228,0.213892685,0.000000000,0.216508464,-0.006792000,-0.009664906,-0.020827110,1.308756168,0.000000000,1.287697503,0.424802989,0.351821046,0.347522613,2.143663866,0.000000000,2.139713834,-0.396566004,-0.381968317,-0.354381145,-0.479368732,0.000000000,-0.467809664,0.000000000,0.000009614,-0.000082497,-0.000792399,0.000000000,-0.000737058,-0.000088000,0.000011520,0.000290027,-0.009946242,0.000000000,-0.012248159,-0.000033000,0.000874437,-0.002474831,-0.201235492,0.000000000,-0.201956169,0.065560997,0.054146796,0.045843148,2.242906137,0.000000000,2.207503195,0.276371002,0.226268391,0.214817909,1.640738242,0.000000000,1.637805823,-0.291898012,-0.279752857,-0.260293435,-0.497375036,0.000000000,-0.487435896,0.000015000,0.000005444,0.000360910,0.000082559,0.000000000,-0.000060273
0.011998918,-0.000176000,-0.000144924,-0.001075357,0.003733009,0.000000000,0.002768649,0.000079000,-0.000894437,0.002570417,0.216508464,0.000000000,0.218554350,-0.006781000,-0.009703349,-0.019222427,1.287697503,0.000000000,1.265455156,0.424784988,0.352504126,0.341540116,2.139713834,0.000000000,2.137953650,-0.396634012,-0.382637282,-0.334482606,-0.467809664,0.000000000,-0.463645560,0.000000000,0.000009426,-0.000095112,-0.000737058,0.000000000,-0.000682229,-0.000106000,0.000011925,0.000260393,-0.012248159,0.000000000,-0.014042438,-0.000043000,0.000869443,-0.002497600,-0.201956169,0.000000000,-0.202864003,0.065600999,0.054240117,0.046660278,2.207503195,0.000000000,2.173865101,0.276322007,0.226690368,0.210988494,1.637805823,0.000000000,1.635276361,-0.291887999,-0.280240840,-0.243991581,-0.487435896,0.000000000,-0.483452024,0.000017000,0.000006270,0.000438148,-0.000060273,0.000000000,-0.000161208
0.013998738,-0.000202000,-0.000145015,-0.001442411,0.002768649,0.000000000,0.002082732,0.000089000,-0.000889400,0.002545046,0.218554350,0.000000000,0.220539047,-0.006769000,-0.009738630,-0.017641177,1.265455156,0.000000000,1.243128301,0.424766988,0.353175186,0.335529924,2.137953650,0.000000000,2.137149594,-0.396703988,-0.383265641,-0.314179614,-0.463645560,0.000000000,-0.464933951,0.000000000,0.000009222,-0.000103631,-0.000682229,0.000000000,-0.000637376,-0.000125000,0.000012189,0.000164178,-0.014042438,0.000000000,-0.015551696,-0.000055000,0.000864398,-0.002523016,-0.202864003,0.000000000,-0.204266049,0.065641999,0.054334902,0.047393009,2.173865101,0.000000000,2.142003238,0.276271999,0.227104911,0.207271707,1.635276361,0.000000000,1.632351873,-0.291877002,-0.280695557,-0.227358281,-0.483452024,0.000000000,-0.483673148,0.000018000,0.000007234,0.000503526,-0.000161208,0.000000000,-0.000343434
0.015998558,-0.000228000,-0.000145266,-0.001805212,0.002082732,0.000000000,0.001389735,0.000097000,-0.000884413,0.002523869,0.220539047,0.000000000,0.221874261,-0.006755000,-0.009770856,-0.016113088,1.243128301,0.000000000,1.221703761,0.424748003,0.353834404,0.329609214,2.137149594,0.000000000,2.136395334,-0.396777004,-0.383853625,-0.293991722,-0.464933951,0.000000000,-0.470282910,0.000000000,0.000009003,-0.000111133,-0.000637376,0.000000000,-0.000593950,-0.000145000,0.000012204,0.000004266,-0.015551696,0.000000000,-0.016780803,-0.000067000,0.000859294,-0.002552124,-0.204266049,0.000000000,-0.205568038,0.065686002,0.054430966,0.048031950,2.142003238,0.000000000,2.112753041,0.276219994,0.227512358,0.203723408,1.632351873,0.000000000,1.628551908,-0.291866988,-0.281117126,-0.210784340,-0.483673148,0.000000000,-0.487175002,0.000019000,0.000008286,0.000543590,-0.000343434,0.000000000,-0.000462612
0.017998378,-0.000252000,-0.000145719,-0.002161470,0.001389735,0.000000000,0.000894455,0.000104000,-0.000879466,0.002505922,0.221874261,0.000000000,0.222863823,-0.006740000,-0.009800155,-0.014650213,1.221703761,0.000000000,1.201206931,0.424728990,0.354482080,0.323837968,2.136395334,0.000000000,2.135305893,-0.396851003,-0.384402208,-0.274291546,-0.470282910,0.000000000,-0.478326686,0.000000000,0.000008778,-0.000114700,-0.000593950,0.000000000,-0.000561027,-0.000164000,0.000011883,-0.000211552,-0.016780803,0.000000000,-0.017551388,-0.000080000,0.000854126,-0.002584674,-0.205568038,0.000000000,-0.207057947,0.065732002,0.054528128,0.048581099,2.112753041,0.000000000,2.085789227,0.276167989,0.227913073,0.200357529,1.628551908,0.000000000,1.623880507,-0.291855991,-0.281506240,-0.194556968,-0.487175002,0.000000000,-0.492872200,0.000020000,0.000009396,0.000568838,-0.000462612,0.000000000,-0.000545475
0.019998197,-0.000276000,-0.000146426,-0.002506973,0.000894455,0.000000000,0.000365351,0.000111000,-0.000874554,0.002490895,0.222863823,0.000000000,0.223797132,-0.006724000,-0.009826668,-0.013256665,1.201206931,0.000000000,1.181770315,0.424708992,0.355118569,0.318244697,2.135305893,0.000000000,2.133595874,-0.396926999,-0.384912849,-0.255320796,-0.478326686,0.000000000,-0.488333064,0.000000000,0.000008550,-0.000115788,-0.000561027,0.000000000,-0.000534963,-0.000184000,0.000011181,-0.000471157,-0.017551388,0.000000000,-0.018140372,-0.000093000,0.000848886,-0.002620565,-0.207057947,0.000000000,-0.208451904,0.065779001,0.054626225,0.049048132,2.085789227,0.000000000,2.060701058,0.276113987,0.228307413,0.197169794,1.623880507,0.000000000,1.618219447,-0.291846007,-0.281863961,-0.178860868,-0.492872200,0.000000000,-0.500334054,0.000021000,0.000010545,0.000586164,-0.000545475,0.000000000,-0.000609862
0.021998017,-0.000298000,-0.000147443,-0.002843300,0.000365351,0.000000000,0.000030742,0.000116000,-0.000869670,0.002478300,0.223797132,0.000000000,0.224115101,-0.006707000,-0.009850528,-0.011930347,1.181770315,0.000000000,1.163384634,0.424688995,0.355744242,0.312836275,2.133595874,0.000000000,2.131255195,-0.397004992,-0.385387346,-0.237248290,-0.488333064,0.000000000,-0.499640530,0.000000000,0.000008324,-0.000115521,-0.000534963,0.000000000,-0.000512832,-0.000205000,0.000010116,-0.000767563,-0.018140372,0.000000000,-0.018589033,-0.000108000,0.000843568,-0.002659733,-0.208451904,0.000000000,-0.210317950,0.065828003,0.054725109,0.049441995,2.060701058,0.000000000,2.037613716,0.276059002,0.228695710,0.194148510,1.618219447,0.000000000,1.611694799,-0.291835994,-0.282191640,-0.163839268,-0.500334054,0.000000000,-0.508911609,0.000022000,0.000011723,0.000598217,-0.000609862,0.000000000,-0.000662117
0.023997837,-0.000319000,-0.000148833,-0.003168631,0.000030742,0.000000000,-0.000219807,0.000121000,-0.000864811,0.002467564,0.224115101,0.000000000,0.224397959,-0.006690000,-0.009871861,-0.010666485,1.163384634,0.000000000,1.145693173,0.424668998,0.356359458,0.307608214,2.131255195,0.000000000,2.128292979,-0.397085011,-0.385827707,-0.220180691,-0.499640530,0.000000000,-0.511745734,0.000000000,0.000008105,-0.000111991,-0.000512832,0.000000000,-0.000500710,-0.000225000,0.000008832,-0.001095435,-0.018589033,0.000000000,-0.018729903,-0.000123000,0.000838164,-0.002702447,-0.210317950,0.000000000,-0.212079550,0.065879002,0.054824657,0.049774424,2.037613716,0.000000000,2.016294528,0.276003003,0.229078252,0.191270931,1.611694799,0.000000000,1.604448230,-0.291826010,-0.282490787,-0.149573777,-0.508911609,0.000000000,-0.518226042,0.000022000,0.000012927,0.000609350,-0.000662117,0.000000000,-0.000815390
0.025997657,-0.000339000,-0.000150657,-0.003482810,-0.000219807,0.000000000,-0.000380522,0.000124000,-0.000859972,0.002458415,0.224397959,0.000000000,0.224082286,-0.006671000,-0.009890782,-0.009460558,1.145693173,0.000000000,1.129195250,0.424647987,0.356964564,0.302552684,2.128292979,0.000000000,2.124679066,-0.397166014,-0.386236070,-0.204181593,-0.511745734,0.000000000,-0.524146483,0.000000000,0.000007895,-0.000107427,-0.000500710,0.000000000,-0.000492455,-0.000246000,0.000007780,-0.001444031,-0.018729903,0.000000000,-0.018884892,-0.000138000,0.000832671,-0.002747153,-0.212079550,0.000000000,-0.213770659,0.065931000,0.054924771,0.050056659,2.016294528,0.000000000,1.996233998,0.275945991,0.229455278,0.188512941,1.604448230,0.000000000,1.596636026,-0.291815996,-0.282763014,-0.136113489,-0.518226042,0.000000000,-0.527968995,0.000022000,0.000014111,0.000598535,-0.000815390,0.000000000,-0.000904364
0.027997476,-0.000357000,-0.000152976,-0.003787351,-0.000380522,0.000000000,-0.000329880,0.000127000,-0.000855152,0.002450286,0.224082286,0.000000000,0.223748678,-0.006653000,-0.009907387,-0.008302897,1.129195250,0.000000000,1.112846519,0.424627006,0.357559856,0.297646172,2.124679066,0.000000000,2.120627657,-0.397249013,-0.386614597,-0.189263461,-0.524146483,0.000000000,-0.536691250,0.000000000,0.000007700,-0.000099720,-0.000492455,0.000000000,-0.000494688,-0.000267000,-0.000007882,-0.001811124,-0.018884892,0.000000000,-0.017377994,-0.000154000,0.000827084,-0.002794327,-0.213770659,0.000000000,-0.215663403,0.065985002,0.055025365,0.050297058,1.996233998,0.000000000,1.977552777,0.275887996,0.229826988,0.185855352,1.596636026,0.000000000,1.588383788,-0.291806012,-0.283009983,-0.123484495,-0.527968995,0.000000000,-0.537904293,0.000022000,0.000015257,0.000577826,-0.000904364,0.000000000,-0.000961255
0.029997296,-0.000374000,-0.000155844,-0.004078966,-0.000329880,0.000000000,-0.000187104,0.000129000,-0.000850347,0.002442906,0.223748678,0.000000000,0.223118495,-0.006634000,-0.009921770,-0.007191299,1.112846519,0.000000000,1.097192073,0.424605995,0.358145620,0.292882019,2.120627657,0.000000000,2.116164330,-0.397332996,-0.386965470,-0.175436226,-0.536691250,0.000000000,-0.549028894,0.000000000,0.000007521,-0.000091622,-0.000494688,0.000000000,-0.000499653,-0.000289000,-0.000009911,-0.002157425,-0.017377994,0.000000000,-0.017548368,-0.000170000,0.000821405,-0.002840282,-0.215663403,0.000000000,-0.217557591,0.066040002,0.055126378,0.050506813,1.977552777,0.000000000,1.959729235,0.275828987,0.230193531,0.183271405,1.588383788,0.000000000,1.579870528,-0.291795999,-0.283233361,-0.111689016,-0.537904293,0.000000000,-0.547851118,0.000023000,0.000016350,0.000550856,-0.000961255,0.000000000,-0.000894015
0.031997116,-0.000390000,-0.000159310,-0.004357972,-0.000187104,0.000000000,0.000054634,0.000130000,-0.000845558,0.002436033,0.223118495,0.000000000,0.222196839,-0.006614000,-0.009934007,-0.006118607,1.097192073,0.000000000,1.082092187,0.424584001,0.358722100,0.288240074,2.116164330,0.000000000,2.111356653,-0.397419006,-0.387290814,-0.162672084,-0.549028894,0.000000000,-0.561128990,0.000000000,0.000007361,-0.000082141,-0.000499653,0.000000000,-0.000510440,-0.000311000,-0.000013693,-0.002519281,-0.017548368,0.000000000,-0.017444059,-0.000187000,0.000815626,-0.002889988,-0.217557591,0.000000000,-0.219622934,0.066096000,0.055227758,0.050689592,1.959729235,0.000000000,1.942695752,0.275768995,0.230555033,0.180751225,1.579870528,0.000000000,1.571160269,-0.291785985,-0.283434807,-0.100723051,-0.547851118,0.000000000,-0.557656183,0.000023000,0.000017434,0.000545598,-0.000894015,0.000000000,-0.000988614
0.033996936,-0.000404000,-0.000163411,-0.004624243,0.000054634,0.000000000,0.000505258,0.000130000,-0.000840783,0.002429319,0.222196839,0.000000000,0.220991399,-0.006594000,-0.009944166,-0.005079287,1.082092187,0.000000000,1.067156314,0.424562007,0.359289508,0.283703979,2.111356653,0.000000000,2.106369636,-0.397507012,-0.387592701,-0.150943375,-0.561128990,0.000000000,-0.572857878,0.000000000,0.000007223,-0.000071154,-0.000510440,0.000000000,-0.000527687,-0.000333000,-0.000018769,-0.002888607,-0.017444059,0.000000000,-0.017159461,-0.000204000,0.000809744,-0.002941933,-0.219622934,0.000000000,-0.221608111,0.066152997,0.055329460,0.050851365,1.942695752,0.000000000,1.926329227,0.275707990,0.230911591,0.178278667,1.571160269,0.000000000,1.562359859,-0.291776001,-0.283615940,-0.090566295,-0.557656183,0.000000000,-0.567216665,0.000022000,0.000018488,0.000530125,-0.000988614,0.000000000,-0.001152215
0.035996755,-0.000416000,-0.000168172,-0.004874726,0.000505258,0.000000000,0.001150127,0.000128000,-0.000836022,0.002422554,0.220991399,0.000000000,0.219222691,-0.006572000,-0.009952308,-0.004070828,1.067156314,0.000000000,1.052913548,0.424539000,0.359848037,0.279264171,2.106369636,0.000000000,2.101195085,-0.397601008,-0.387873130,-0.140214832,-0.572857878,0.000000000,-0.584517261,0.000000000,0.000007108,-0.000059100,-0.000527687,0.000000000,-0.000550354,-0.000356000,-0.000024867,-0.003259648,-0.017159461,0.000000000,-0.016862866,-0.000223000,0.000803755,-0.002995098,-0.221608111,0.000000000,-0.224103956,0.066214003,0.055431454,0.050997061,1.926329227,0.000000000,1.911382885,0.275644988,0.231263271,0.175839924,1.562359859,0.000000000,1.553501059,-0.291765004,-0.283778322,-0.081191159,-0.567216665,0.000000000,-0.576347589,0.000019000,0.000019463,0.000490252,-0.001152215,0.000000000,-0.001440626
0.037996575,-0.000428000,-0.000173603,-0.005107240,0.001150127,0.000000000,0.001764729,0.000125000,-0.000831276,0.002415377,0.219222691,0.000000000,0.217183256,-0.006546000,-0.009958486,-0.003088794,1.052913548,0.000000000,1.039847343,0.424515009,0.360397855,0.274909367,2.101195085,0.000000000,2.095904346,-0.397702008,-0.388134081,-0.130475441,-0.584517261,0.000000000,-0.596040922,0.000000000,0.000007021,-0.000044624,-0.000550354,0.000000000,-0.000582758,-0.000379000,-0.000031856,-0.003630930,-0.016862866,0.000000000,-0.016469915,-0.000244000,0.000797659,-0.003049137,-0.224103956,0.000000000,-0.227117820,0.066279002,0.055533726,0.051135621,1.911382885,0.000000000,1.897654319,0.275579005,0.231610092,0.173410810,1.553501059,0.000000000,1.544692442,-0.291752994,-0.283923419,-0.072548593,-0.576347589,0.000000000,-0.585040333,0.000012000,0.000020270,0.000404981,-0.001440626,0.000000000,-0.001987127
0.039996395,-0.000438000,-0.000179702,-0.005324539,0.001764729,0.000000000,0.002577766,0.000120000,-0.000826546,0.002407412,0.217183256,0.000000000,0.214597721,-0.006518000,-0.009962740,-0.002127149,1.039847343,0.000000000,1.027264149,0.424488991,0.360939104,0.270624521,2.095904346,0.000000000,2.090529642,-0.397810012,-0.388377496,-0.121707565,-0.596040922,0.000000000,-0.607282628,0.000000000,0.000006966,-0.000028492,-0.000582758,0.000000000,-0.000623038,-0.000403000,-0.000039667,-0.003999177,-0.016469915,0.000000000,-0.016113093,-0.000267000,0.000791453,-0.003103518,-0.227117820,0.000000000,-0.230661536,0.066347003,0.055636272,0.051273393,1.897654319,0.000000000,1.884718725,0.275510013,0.231952039,0.170973351,1.544692442,0.000000000,1.536060932,-0.291741014,-0.284052606,-0.064593396,-0.585040333,0.000000000,-0.593389879,0.000002000,0.000020722,0.000227108,-0.001987127,0.000000000,-0.002537792
0.041996215,-0.000448000,-0.000186456,-0.005524300,0.002577766,0.000000000,0.003361464,0.000114000,-0.000821835,0.002398116,0.214597721,0.000000000,0.211763368,-0.006487000,-0.009965107,-0.001183299,1.027264149,0.000000000,1.015399586,0.424463004,0.361471907,0.266401145,2.090529642,0.000000000,2.085253433,-0.397922993,-0.388605265,-0.113884307,-0.607282628,0.000000000,-0.617923100,0.000000000,0.000006946,-0.000010264,-0.000623038,0.000000000,-0.000672858,-0.000427000,-0.000048263,-0.004365556,-0.016113093,0.000000000,-0.015683110,-0.000291000,0.000785136,-0.003159404,-0.230661536,0.000000000,-0.234423695,0.066418998,0.055739098,0.051412851,1.884718725,0.000000000,1.872800854,0.275438994,0.232289079,0.168520162,1.536060932,0.000000000,1.527723138,-0.291729003,-0.284167196,-0.057294726,-0.593389879,0.000000000,-0.601345193,-0.000012000,0.000020639,-0.000041920,-0.002537792,0.000000000,-0.003179438
0.043996034,-0.000457000,-0.000193845,-0.005708561,0.003361464,0.000000000,0.004231687,0.000107000,-0.000817145,0.002387190,0.211763368,0.000000000,0.208687781,-0.006453000,-0.009965614,-0.000253385,1.015399586,0.000000000,1.004174271,0.424436003,0.361996360,0.262226923,2.085253433,0.000000000,2.080091166,-0.398039013,-0.388819166,-0.106950401,-0.617923100,0.000000000,-0.627743918,0.000000000,0.000006964,0.000009243,-0.000672858,0.000000000,-0.000730136,-0.000452000,-0.000057618,-0.004727810,-0.015683110,0.000000000,-0.015302169,-0.000318000,0.000778705,-0.003216132,-0.234423695,0.000000000,-0.238987296,0.066494003,0.055842213,0.051557296,1.872800854,0.000000000,1.861543642,0.275366008,0.232621164,0.166042538,1.527723138,0.000000000,1.519747777,-0.291716009,-0.284268428,-0.050616298,-0.601345193,0.000000000,-0.608787668,-0.000028000,0.000019805,-0.000419136,-0.003179438,0.000000000,-0.003639764
0.045995854,-0.000466000,-0.000201838,-0.005877082,0.004231687,0.000000000,0.005077342,0.000098000,-0.000812481,0.002374485,0.208687781,0.000000000,0.205091084,-0.006417000,-0.009964281,0.000666466,1.004174271,0.000000000,0.993222139,0.424407989,0.362512536,0.258087766,2.080091166,0.000000000,2.075138546,-0.398158014,-0.389020828,-0.100831269,-0.627743918,0.000000000,-0.636786387,0.000000000,0.000007021,0.000029346,-0.000730136,0.000000000,-0.000793056,-0.000477000,-0.000067719,-0.005088939,-0.015302169,0.000000000,-0.014848109,-0.000346000,0.000772155,-0.003275910,-0.238987296,0.000000000,-0.243732188,0.066573001,0.055945628,0.051707811,1.861543642,0.000000000,1.851198724,0.275292009,0.232948237,0.163536170,1.519747777,0.000000000,1.512229362,-0.291703999,-0.284357457,-0.044514530,-0.608787668,0.000000000,-0.615923450,-0.000047000,0.000018082,-0.000866087,-0.003639764,0.000000000,-0.004115244
0.047995674,-0.000474000,-0.000210403,-0.006031429,0.005077342,0.000000000,0.006010352,0.000088000,-0.000807846,0.002359163,0.205091084,0.000000000,0.201277877,-0.006380000,-0.009961127,0.001577516,0.993222139,0.000000000,0.982235470,0.424380004,0.363020489,0.253976372,2.075138546,0.000000000,2.070509865,-0.398279011,-0.389211747,-0.095459310,-0.636786387,0.000000000,-0.644992284,0.000000000,0.000007122,0.000051518,-0.000793056,0.000000000,-0.000866209,-0.000503000,-0.000078553,-0.005447337,-0.014848109,0.000000000,-0.014437928,-0.000375000,0.000765480,-0.003338337,-0.243732188,0.000000000,-0.248665924,0.066653997,0.056049358,0.051865170,1.851198724,0.000000000,1.841177119,0.275216013,0.233270237,0.161000031,1.512229362,0.000000000,1.505116822,-0.291691989,-0.284435388,-0.038965274,-0.615923450,0.000000000,-0.622610108,-0.000069000,0.000015331,-0.001385828,-0.004115244,0.000000000,-0.004582966
0.049995494,-0.000482000,-0.000219500,-0.006170080,0.006010352,0.000000000,0.006911360,0.000077000,-0.000803247,0.002341059,0.201277877,0.000000000,0.197253506,-0.006340000,-0.009956170,0.002478705,0.982235470,0.000000000,0.971812358,0.424351990,0.363520271,0.249891015,2.070509865,0.000000000,2.066210335,-0.398400992,-0.389393277,-0.090764972,-0.644992284,0.000000000,-0.652319962,0.000000000,0.000007266,0.000074123,-0.000866209,0.000000000,-0.000945049,-0.000529000,-0.000090114,-0.005804691,-0.014437928,0.000000000,-0.013956194,-0.000405000,0.000758674,-0.003404052,-0.248665924,0.000000000,-0.253772194,0.066737004,0.056153415,0.052028274,1.841177119,0.000000000,1.831504625,0.275139987,0.233587108,0.158435630,1.505116822,0.000000000,1.498527243,-0.291680008,-0.284503255,-0.033933466,-0.622610108,0.000000000,-0.628845754,-0.000093000,0.000011424,-0.001975967,-0.004582966,0.000000000,-0.004935949
0.051995313,-0.000490000,-0.000229088,-0.006294560,0.006911360,0.000000000,0.007784642,0.000065000,-0.000798690,0.002320100,0.197253506,0.000000000,0.193021192,-0.006300000,-0.009949425,0.003372449,0.971812358,0.000000000,0.961049453,0.424324006,0.364011915,0.245822030,2.066210335,0.000000000,2.062310348,-0.398521990,-0.389566618,-0.086670837,-0.652319962,0.000000000,-0.658669417,0.000000000,0.000007455,0.000097059,-0.000945049,0.000000000,-0.001029360,-0.000555000,-0.000102396,-0.006160594,-0.013956194,0.000000000,-0.013405829,-0.000436000,0.000751728,-0.003473604,-0.253772194,0.000000000,-0.259036394,0.066822998,0.056257806,0.052195405,1.831504625,0.000000000,1.822495279,0.275063008,0.233898802,0.155846808,1.498527243,0.000000000,1.492378055,-0.291667998,-0.284562025,-0.029385211,-0.628845754,0.000000000,-0.634622985,-0.000118000,0.000006343,-0.002613944,-0.004935949,0.000000000,-0.005135292
0.053995133,-0.000498000,-0.000239127,-0.006405195,0.007784642,0.000000000,0.008627638,0.000053000,-0.000794180,0.002295778,0.193021192,0.000000000,0.188878559,-0.006258000,-0.009940913,0.004256172,0.961049453,0.000000000,0.950579290,0.424295992,0.364495455,0.241770359,2.062310348,0.000000000,2.058797263,-0.398642004,-0.389732812,-0.083096641,-0.658669417,0.000000000,-0.664163743,0.000000000,0.000007689,0.000120202,-0.001029360,0.000000000,-0.001118850,-0.000582000,-0.000115391,-0.006514075,-0.013405829,0.000000000,-0.012899669,-0.000469000,0.000744635,-0.003547379,-0.259036394,0.000000000,-0.264731634,0.066910997,0.056362540,0.052367306,1.822495279,0.000000000,1.813850016,0.274984986,0.234205264,0.153231287,1.492378055,0.000000000,1.486683185,-0.291658014,-0.284612590,-0.025282215,-0.634622985,0.000000000,-0.640168499,-0.000146000,-0.000002064,-0.003269899,-0.005135292,0.000000000,-0.005250525
0.055994953,-0.000506000,-0.000249575,-0.006502612,0.008627638,0.000000000,0.009439464,0.000040000,-0.000789725,0.002268340,0.188878559,0.000000000,0.184537527,-0.006215000,-0.009930653,0.005130382,0.950579290,0.000000000,0.940111672,0.424268007,0.364970918,0.237731218,2.058797263,0.000000000,2.055707256,-0.398759007,-0.389892751,-0.079969494,-0.664163743,0.000000000,-0.668714990,0.000000000,0.000007967,0.000141952,-0.001118850,0.000000000,-0.001208710,-0.000608000,-0.000129100,-0.006867969,-0.012899669,0.000000000,-0.012208569,-0.000501000,0.000737384,-0.003626842,-0.264731634,0.000000000,-0.269968832,0.067001000,0.056467623,0.052541422,1.813850016,0.000000000,1.805625357,0.274908006,0.234506456,0.150596127,1.486683185,0.000000000,1.481526689,-0.291648000,-0.284655812,-0.021611215,-0.640168499,0.000000000,-0.645224855,-0.000175000,-0.000008606,-0.003925673,-0.005250525,0.000000000,-0.005655923
0.057994773,-0.000515000,-0.000260391,-0.006587438,0.009439464,0.000000000,0.010112726,0.000026000,-0.000785330,0.002237545,0.184537527,0.000000000,0.180005439,-0.006172000,-0.009918665,0.005994065,0.940111672,0.000000000,0.929391166,0.424239993,0.365438323,0.233702530,2.055707256,0.000000000,2.053050013,-0.398871988,-0.390047171,-0.077210201,-0.668714990,0.000000000,-0.672371545,0.000000000,0.000008286,0.000163375,-0.001208710,0.000000000,-0.001301925,-0.000635000,-0.000143510,-0.007216828,-0.012208569,0.000000000,-0.011577715,-0.000535000,0.000729967,-0.003709227,-0.269968832,0.000000000,-0.275661590,0.067092001,0.056573056,0.052716759,1.805625357,0.000000000,1.797557165,0.274830997,0.234802343,0.147943315,1.481526689,0.000000000,1.476828906,-0.291639000,-0.284692480,-0.018333707,-0.645224855,0.000000000,-0.649927401,-0.000205000,-0.000017763,-0.004639544,-0.005655923,0.000000000,-0.005732922
0.059994592,-0.000524000,-0.000271539,-0.006662186,0.010112726,0.000000000,0.010764386,0.000012000,-0.000781003,0.002202828,0.180005439,0.000000000,0.175581509,-0.006128000,-0.009904976,0.006844921,0.929391166,0.000000000,0.918761281,0.424214005,0.365897694,0.229685624,2.053050013,0.000000000,2.050944488,-0.398979992,-0.390196662,-0.074745455,-0.672371545,0.000000000,-0.675185905,0.000000000,0.000008649,0.000184875,-0.001301925,0.000000000,-0.001399677,-0.000662000,-0.000158620,-0.007564752,-0.011577715,0.000000000,-0.010877613,-0.000568000,0.000722375,-0.003797359,-0.275661590,0.000000000,-0.280890057,0.067184001,0.056678837,0.052890498,1.797557165,0.000000000,1.789710153,0.274753988,0.235092902,0.145279603,1.476828906,0.000000000,1.472545116,-0.291631997,-0.284723331,-0.015425647,-0.649927401,0.000000000,-0.654369216,-0.000236000,-0.000028411,-0.005345638,-0.005732922,0.000000000,-0.005782285
0.061994412,-0.000533000,-0.000282984,-0.006726726,0.010764386,0.000000000,0.011389935,-0.000002000,-0.000776753,0.002164506,0.175581509,0.000000000,0.171260575,-0.006084000,-0.009889615,0.007680887,0.918761281,0.000000000,0.907992970,0.424187988,0.366349059,0.225682640,2.050944488,0.000000000,2.049243821,-0.399082005,-0.390341676,-0.072507163,-0.675185905,0.000000000,-0.677203477,0.000000000,0.000009050,0.000204648,-0.001399677,0.000000000,-0.001496502,-0.000688000,-0.000174422,-0.007909550,-0.010877613,0.000000000,-0.010014805,-0.000602000,0.000714596,-0.003890254,-0.280890057,0.000000000,-0.286242235,0.067276999,0.056784958,0.053060640,1.789710153,0.000000000,1.782131556,0.274679005,0.235378123,0.142610399,1.472545116,0.000000000,1.468765566,-0.291626990,-0.284749070,-0.012869447,-0.654369216,0.000000000,-0.658529180,-0.000267000,-0.000040474,-0.006041549,-0.005782285,0.000000000,-0.005717770
0.063994232,-0.000543000,-0.000294691,-0.006780912,0.011389935,0.000000000,0.011878269,-0.000016000,-0.000772584,0.002122632,0.171260575,0.000000000,0.167043484,-0.006040000,-0.009872616,0.008499929,0.907992970,0.000000000,0.897141985,0.424163014,0.366792449,0.221694877,2.049243821,0.000000000,2.048004619,-0.399177015,-0.390482537,-0.070430072,-0.677203477,0.000000000,-0.678474782,0.000000000,0.000009488,0.000222506,-0.001496502,0.000000000,-0.001591501,-0.000715000,-0.000190905,-0.008249065,-0.010014805,0.000000000,-0.009215836,-0.000636000,0.000706622,-0.003988348,-0.286242235,0.000000000,-0.291421061,0.067371003,0.056891407,0.053224629,1.782131556,0.000000000,1.774884829,0.274603993,0.235658009,0.139942852,1.468765566,0.000000000,1.465309347,-0.291622996,-0.284770364,-0.010647152,-0.658529180,0.000000000,-0.662291452,-0.000300000,-0.000053871,-0.006704761,-0.005717770,0.000000000,-0.005813416
0.065994052,-0.000554000,-0.000306629,-0.006826708,0.011878269,0.000000000,0.012237289,-0.000031000,-0.000768506,0.002077130,0.167043484,0.000000000,0.162649711,-0.005996000,-0.009854017,0.009299854,0.897141985,0.000000000,0.886268527,0.424138993,0.367227899,0.217724828,2.048004619,0.000000000,2.047201282,-0.399264008,-0.390619444,-0.068453789,-0.678474782,0.000000000,-0.679048735,0.000000000,0.000009958,0.000238742,-0.001591501,0.000000000,-0.001685192,-0.000742000,-0.000208061,-0.008584161,-0.009215836,0.000000000,-0.008370224,-0.000670000,0.000698443,-0.004090677,-0.291421061,0.000000000,-0.296445958,0.067465998,0.056998172,0.053382413,1.774884829,0.000000000,1.767970394,0.274531990,0.235932561,0.137276167,1.465309347,0.000000000,1.462374013,-0.291621000,-0.284787815,-0.008725705,-0.662291452,0.000000000,-0.665788595,-0.000332000,-0.000068595,-0.007366337,-0.005813416,0.000000000,-0.005678483
0.067993871,-0.000566000,-0.000318775,-0.006866483,0.012237289,0.000000000,0.012477723,-0.000045000,-0.000764525,0.002027678,0.162649711,0.000000000,0.158657253,-0.005953000,-0.009833860,0.010078928,0.886268527,0.000000000,0.875139643,0.424116999,0.367655447,0.213774146,2.047201282,0.000000000,2.046887388,-0.399342000,-0.390752487,-0.066521350,-0.679048735,0.000000000,-0.678979030,0.000000000,0.000010461,0.000254693,-0.001685192,0.000000000,-0.001781319,-0.000769000,-0.000225879,-0.008914644,-0.008370224,0.000000000,-0.007480072,-0.000703000,0.000690049,-0.004198113,-0.296445958,0.000000000,-0.301010059,0.067561999,0.057105234,0.053531166,1.767970394,0.000000000,1.761461596,0.274461001,0.236201798,0.134618261,1.462374013,0.000000000,1.459776054,-0.291624010,-0.284801994,-0.007089206,-0.665788595,0.000000000,-0.669312430,-0.000366000,-0.000084556,-0.007982884,-0.005678483,0.000000000,-0.005748826
0.069993691,-0.000578000,-0.000331106,-0.006901289,0.012477723,0.000000000,0.012709838,-0.000063000,-0.000760649,0.001974522,0.158657253,0.000000000,0.153641393,-0.005907000,-0.009812194,0.010833173,0.875139643,0.000000000,0.864996277,0.424095988,0.368075148,0.209850322,2.046887388,0.000000000,2.046940395,-0.399416000,-0.390881655,-0.064584049,-0.678979030,0.000000000,-0.678911128,0.000000000,0.000010990,0.000267703,-0.001781319,0.000000000,-0.001871748,-0.000797000,-0.000244346,-0.009238692,-0.007480072,0.000000000,-0.006663689,-0.000738000,0.000681433,-0.004309115,-0.301010059,0.000000000,-0.305998927,0.067662999,0.057212572,0.053668997,1.761461596,0.000000000,1.756542507,0.274392992,0.236465750,0.131976316,1.459776054,0.000000000,1.457586647,-0.291637003,-0.284813485,-0.005745585,-0.669312430,0.000000000,-0.673284209,-0.000407000,-0.000101743,-0.008595626,-0.005748826,0.000000000,-0.006413439
0.071993511,-0.000589000,-0.000343604,-0.006932664,0.012709838,0.000000000,0.013046941,-0.000082000,-0.000756886,0.001916811,0.153641393,0.000000000,0.148476573,-0.005858000,-0.009789067,0.011564050,0.864996277,0.000000000,0.855818785,0.424077004,0.368487054,0.205953097,2.046940395,0.000000000,2.047424686,-0.399484992,-0.391006939,-0.062642218,-0.678911128,0.000000000,-0.678742598,0.000000000,0.000011552,0.000284124,-0.001871748,0.000000000,-0.001975219,-0.000825000,-0.000263454,-0.009558346,-0.006663689,0.000000000,-0.005803883,-0.000775000,0.000672592,-0.004421836,-0.305998927,0.000000000,-0.311453337,0.067768998,0.057320165,0.053796668,1.756542507,0.000000000,1.753201691,0.274327010,0.236724462,0.129355814,1.457586647,0.000000000,1.455703883,-0.291660994,-0.284822961,-0.004738121,-0.673284209,0.000000000,-0.677615352,-0.000453000,-0.000120369,-0.009314622,-0.006413439,0.000000000,-0.007135864
0.073993331,-0.000600000,-0.000356249,-0.006959061,0.013046941,0.000000000,0.013371611,-0.000104000,-0.000753245,0.001854577,0.148476573,0.000000000,0.142596056,-0.005808000,-0.009764525,0.012271002,0.855818785,0.000000000,0.847064748,0.424057990,0.368891226,0.202086173,2.047424686,0.000000000,2.048180226,-0.399549991,-0.391128323,-0.060691857,-0.678742598,0.000000000,-0.678588941,0.000000000,0.000012147,0.000300875,-0.001975219,0.000000000,-0.002083041,-0.000855000,-0.000283192,-0.009873174,-0.005803883,0.000000000,-0.005117336,-0.000812000,0.000663522,-0.004536630,-0.311453337,0.000000000,-0.316795655,0.067878999,0.057427997,0.053915910,1.753201691,0.000000000,1.751121006,0.274262011,0.236977978,0.126758232,1.455703883,0.000000000,1.454048474,-0.291693985,-0.284831162,-0.004100394,-0.677615352,0.000000000,-0.681933848,-0.000505000,-0.000140664,-0.010148585,-0.007135864,0.000000000,-0.007969200
0.075993150,-0.000612000,-0.000369026,-0.006981423,0.013371611,0.000000000,0.013580825,-0.000128000,-0.000749738,0.001786717,0.142596056,0.000000000,0.136312144,-0.005756000,-0.009738621,0.012952436,0.847064748,0.000000000,0.839069012,0.424039990,0.369287737,0.198255200,2.048180226,0.000000000,2.049228193,-0.399612010,-0.391245800,-0.058738364,-0.678588941,0.000000000,-0.678537847,0.000000000,0.000012782,0.000320511,-0.002083041,0.000000000,-0.002203057,-0.000885000,-0.000303556,-0.010185550,-0.005117336,0.000000000,-0.004377975,-0.000851000,0.000654219,-0.004653015,-0.316795655,0.000000000,-0.322604340,0.067992002,0.057536056,0.054029453,1.751121006,0.000000000,1.749958130,0.274199009,0.237226336,0.124179005,1.454048474,0.000000000,1.452714556,-0.291736990,-0.284838823,-0.003830468,-0.681933848,0.000000000,-0.686273272,-0.000562000,-0.000162901,-0.011119322,-0.007969200,0.000000000,-0.008722746
0.077992970,-0.000623000,-0.000381923,-0.007002838,0.013580825,0.000000000,0.013904163,-0.000153000,-0.000746376,0.001712636,0.136312144,0.000000000,0.129925993,-0.005703000,-0.009711406,0.013608262,0.839069012,0.000000000,0.831563978,0.424023002,0.369676664,0.194463594,2.049228193,0.000000000,2.050539337,-0.399672002,-0.391359387,-0.056793602,-0.678537847,0.000000000,-0.678650214,0.000000000,0.000013461,0.000342183,-0.002203057,0.000000000,-0.002333265,-0.000916000,-0.000324541,-0.010495532,-0.004377975,0.000000000,-0.003692584,-0.000890000,0.000644677,-0.004772253,-0.322604340,0.000000000,-0.328280725,0.068108000,0.057644330,0.054137363,1.749958130,0.000000000,1.749712694,0.274136990,0.237469577,0.121620510,1.452714556,0.000000000,1.451618614,-0.291786999,-0.284846691,-0.003933791,-0.686273272,0.000000000,-0.690238476,-0.000623000,-0.000187318,-0.012209383,-0.008722746,0.000000000,-0.009320954
0.079992790,-0.000636000,-0.000394928,-0.007021018,0.013904163,0.000000000,0.014007543,-0.000180000,-0.000743171,0.001632457,0.129925993,0.000000000,0.123154045,-0.005649000,-0.009682933,0.014236718,0.831563978,0.000000000,0.824604965,0.424005985,0.370058101,0.190718710,2.050539337,0.000000000,2.051989594,-0.399729997,-0.391469140,-0.054876409,-0.678650214,0.000000000,-0.678869923,0.000000000,0.000014183,0.000363556,-0.002333265,0.000000000,-0.002466967,-0.000947000,-0.000346141,-0.010803180,-0.003692584,0.000000000,-0.002954743,-0.000930000,0.000634892,-0.004894410,-0.328280725,0.000000000,-0.334105942,0.068226002,0.057752816,0.054242891,1.749712694,0.000000000,1.750030825,0.274073988,0.237707725,0.119074001,1.451618614,0.000000000,1.450697052,-0.291844010,-0.284855440,-0.004374798,-0.690238476,0.000000000,-0.693862316,-0.000688000,-0.000214097,-0.013390121,-0.009320954,0.000000000,-0.009826929
0.081992610,-0.000648000,-0.000408039,-0.007041088,0.014007543,0.000000000,0.014239394,-0.000207000,-0.000740137,0.001545377,0.123154045,0.000000000,0.116586753,-0.005595000,-0.009653257,0.014838549,0.824604965,0.000000000,0.817906053,0.423988998,0.370432143,0.187020979,2.051989594,0.000000000,2.053573699,-0.399785995,-0.391575133,-0.052996432,-0.678869923,0.000000000,-0.679162023,0.000000000,0.000014950,0.000386394,-0.002466967,0.000000000,-0.002609474,-0.000977000,-0.000368351,-0.011107303,-0.002954743,0.000000000,-0.002065352,-0.000970000,0.000624855,-0.005020104,-0.334105942,0.000000000,-0.339779763,0.068346001,0.057861512,0.054347903,1.750030825,0.000000000,1.750868511,0.274010986,0.237940793,0.116533612,1.450697052,0.000000000,1.450052915,-0.291907012,-0.284865685,-0.005122593,-0.693862316,0.000000000,-0.697068213,-0.000756000,-0.000243382,-0.014643243,-0.009826929,0.000000000,-0.010176998
0.083992429,-0.000662000,-0.000421247,-0.007060181,0.014239394,0.000000000,0.014262945,-0.000235000,-0.000737287,0.001451923,0.116586753,0.000000000,0.109931568,-0.005540000,-0.009622433,0.015412539,0.817906053,0.000000000,0.811794901,0.423972011,0.370798893,0.183374984,2.053573699,0.000000000,2.055250662,-0.399841994,-0.391677459,-0.051163047,-0.679162023,0.000000000,-0.679692245,0.000000000,0.000015760,0.000407135,-0.002609474,0.000000000,-0.002750237,-0.001007000,-0.000391154,-0.011403986,-0.002065352,0.000000000,-0.001154733,-0.001011000,0.000614560,-0.005149291,-0.339779763,0.000000000,-0.345585416,0.068466000,0.057970419,0.054453759,1.750868511,0.000000000,1.751626911,0.273948014,0.238168782,0.113994704,1.450052915,0.000000000,1.449720878,-0.291976005,-0.284877966,-0.006140394,-0.697068213,0.000000000,-0.699906164,-0.000825000,-0.000275261,-0.015940073,-0.010176998,0.000000000,-0.010241726
0.085992249,-0.000677000,-0.000434554,-0.007082701,0.014262945,0.000000000,0.014209848,-0.000264000,-0.000734634,0.001351605,0.109931568,0.000000000,0.103203349,-0.005485000,-0.009590515,0.015959535,0.811794901,0.000000000,0.805983209,0.423954993,0.371158456,0.179781647,2.055250662,0.000000000,2.057005396,-0.399897009,-0.391776253,-0.049397083,-0.679692245,0.000000000,-0.680288349,0.000000000,0.000016610,0.000427362,-0.002750237,0.000000000,-0.002893657,-0.001037000,-0.000414538,-0.011694199,-0.001154733,0.000000000,-0.000218791,-0.001053000,0.000603996,-0.005283799,-0.345585416,0.000000000,-0.351478543,0.068585999,0.058079535,0.054558126,1.751626911,0.000000000,1.752359673,0.273882985,0.238391705,0.111461663,1.449720878,0.000000000,1.449537247,-0.292048991,-0.284892768,-0.007400828,-0.699906164,0.000000000,-0.702203138,-0.000896000,-0.000309711,-0.017225292,-0.010241726,0.000000000,-0.010281799
0.087992069,-0.000692000,-0.000447965,-0.007110478,0.014209848,0.000000000,0.014197622,-0.000293000,-0.000732191,0.001244259,0.103203349,0.000000000,0.096694011,-0.005430000,-0.009557556,0.016479580,0.805983209,0.000000000,0.800485662,0.423936993,0.371510941,0.176242275,2.057005396,0.000000000,2.058761560,-0.399953008,-0.391871663,-0.047705139,-0.680288349,0.000000000,-0.681115401,0.000000000,0.000017499,0.000446801,-0.002893657,0.000000000,-0.003038794,-0.001066000,-0.000438489,-0.011977415,-0.000218791,0.000000000,0.000844591,-0.001094000,0.000593153,-0.005423438,-0.351478543,0.000000000,-0.356892057,0.068705998,0.058188859,0.054661955,1.752359673,0.000000000,1.753045561,0.273817003,0.238609563,0.108928976,1.449537247,0.000000000,1.449610810,-0.292126000,-0.284910478,-0.008854958,-0.702203138,0.000000000,-0.704062128,-0.000968000,-0.000346698,-0.018493919,-0.010281799,0.000000000,-0.010213663
0.089991889,-0.000710000,-0.000461486,-0.007142523,0.014197622,0.000000000,0.013901354,-0.000322000,-0.000729972,0.001130225,0.096694011,0.000000000,0.090399558,-0.005376000,-0.009523612,0.016972593,0.800485662,0.000000000,0.795034941,0.423918009,0.371856460,0.172759274,2.058761560,0.000000000,2.060494925,-0.400009006,-0.391963880,-0.046108407,-0.681115401,0.000000000,-0.681994512,0.000000000,0.000018422,0.000463689,-0.003038794,0.000000000,-0.003180118,-0.001094000,-0.000462985,-0.012249931,0.000844591,0.000000000,0.002012194,-0.001135000,0.000582022,-0.005567488,-0.356892057,0.000000000,-0.362123998,0.068824001,0.058298388,0.054764532,1.753045561,0.000000000,1.753133900,0.273748010,0.238822356,0.106396448,1.449610810,0.000000000,1.449813053,-0.292205006,-0.284931410,-0.010466048,-0.704062128,0.000000000,-0.705351036,-0.001041000,-0.000386153,-0.019727906,-0.010213663,0.000000000,-0.010095645
0.091991708,-0.000728000,-0.000475130,-0.007184318,0.013901354,0.000000000,0.013673449,-0.000351000,-0.000727991,0.001009125,0.090399558,0.000000000,0.084332538,-0.005324000,-0.009488736,0.017438669,0.795034941,0.000000000,0.789360082,0.423898011,0.372195125,0.169332942,2.060494925,0.000000000,2.062194323,-0.400068015,-0.392053103,-0.044611394,-0.681994512,0.000000000,-0.683196924,0.000000000,0.000019376,0.000478543,-0.003180118,0.000000000,-0.003318692,-0.001120000,-0.000488001,-0.012509678,0.002012194,0.000000000,0.003376167,-0.001176000,0.000570595,-0.005716041,-0.362123998,0.000000000,-0.367169684,0.068939999,0.058408116,0.054864362,1.753133900,0.000000000,1.752657958,0.273676008,0.239030083,0.103863596,1.449813053,0.000000000,1.450147446,-0.292286992,-0.284955781,-0.012185609,-0.705351036,0.000000000,-0.706285182,-0.001112000,-0.000427989,-0.020918059,-0.010095645,0.000000000,-0.009659535
0.093991528,-0.000748000,-0.000488911,-0.007233630,0.013673449,0.000000000,0.013289356,-0.000379000,-0.000726262,0.000881311,0.084332538,0.000000000,0.078773005,-0.005272000,-0.009452986,0.017875519,0.789360082,0.000000000,0.784097956,0.423877001,0.372527068,0.165971096,2.062194323,0.000000000,2.063796057,-0.400128007,-0.392139593,-0.043245001,-0.683196924,0.000000000,-0.684403565,0.000000000,0.000020353,0.000490556,-0.003318692,0.000000000,-0.003451644,-0.001145000,-0.000513504,-0.012753073,0.003376167,0.000000000,0.004806193,-0.001217000,0.000558860,-0.005869855,-0.367169684,0.000000000,-0.372009019,0.069054000,0.058518035,0.054959331,1.752657958,0.000000000,1.751670384,0.273602009,0.239232750,0.101333340,1.450147446,0.000000000,1.450656906,-0.292369992,-0.284983751,-0.013985148,-0.706285182,0.000000000,-0.706730615,-0.001183000,-0.000471998,-0.022004557,-0.009659535,0.000000000,-0.009298509
0.095991348,-0.000770000,-0.000502845,-0.007293575,0.013289356,0.000000000,0.012768565,-0.000406000,-0.000724795,0.000747393,0.078773005,0.000000000,0.073710552,-0.005222000,-0.009416415,0.018286142,0.784097956,0.000000000,0.778627121,0.423853993,0.372852401,0.162666889,2.063796057,0.000000000,2.065279391,-0.400191009,-0.392223604,-0.042005678,-0.684403565,0.000000000,-0.685803662,0.000000000,0.000021348,0.000498895,-0.003451644,0.000000000,-0.003575865,-0.001169000,-0.000539458,-0.012978621,0.004806193,0.000000000,0.006289982,-0.001257000,0.000546809,-0.006027990,-0.372009019,0.000000000,-0.376376617,0.069164000,0.058628130,0.055047816,1.751670384,0.000000000,1.749641911,0.273523003,0.239430363,0.098806635,1.450656906,0.000000000,1.451144070,-0.292452008,-0.285015398,-0.015823424,-0.706730615,0.000000000,-0.706594954,-0.001252000,-0.000518002,-0.023002531,-0.009298509,0.000000000,-0.008785286
0.097991168,-0.000794000,-0.000516954,-0.007365983,0.012768565,0.000000000,0.012123759,-0.000432000,-0.000723603,0.000607426,0.073710552,0.000000000,0.069147352,-0.005174000,-0.009379077,0.018669401,0.778627121,0.000000000,0.772989010,0.423828989,0.373171249,0.159423782,2.065279391,0.000000000,2.066612001,-0.400258005,-0.392305427,-0.040911361,-0.685803662,0.000000000,-0.687416303,0.000000000,0.000022352,0.000503417,-0.003575865,0.000000000,-0.003690175,-0.001191000,-0.000565825,-0.013184728,0.006289982,0.000000000,0.007920990,-0.001297000,0.000534434,-0.006190457,-0.376376617,0.000000000,-0.380553922,0.069270998,0.058738386,0.055127988,1.749641911,0.000000000,1.746902445,0.273440987,0.239622929,0.096282654,1.451144070,0.000000000,1.451740597,-0.292535007,-0.285050698,-0.017649766,-0.706594954,0.000000000,-0.706223459,-0.001318000,-0.000565772,-0.023884989,-0.008785286,0.000000000,-0.008118911
0.099990987,-0.000820000,-0.000531264,-0.007452515,0.012123759,0.000000000,0.011367043,-0.000457000,-0.000722698,0.000461754,0.069147352,0.000000000,0.065078786,-0.005128000,-0.009341028,0.019025154,0.772989010,0.000000000,0.767202198,0.423803002,0.373483735,0.156243153,2.066612001,0.000000000,2.067840206,-0.400328994,-0.392385387,-0.039979974,-0.687416303,0.000000000,-0.689157602,0.000000000,0.000023357,0.000504152,-0.003690175,0.000000000,-0.003793896,-0.001210000,-0.000592561,-0.013368974,0.007920990,0.000000000,0.009787441,-0.001336000,0.000521725,-0.006357419,-0.380553922,0.000000000,-0.384250571,0.069371998,0.058848779,0.055196805,1.746902445,0.000000000,1.742675849,0.273353994,0.239810463,0.093767377,1.451740597,0.000000000,1.452278643,-0.292614996,-0.285089592,-0.019447192,-0.706223459,0.000000000,-0.705266647,-0.001381000,-0.000615018,-0.024623389,-0.008118911,0.000000000,-0.007409641
0.101990807,-0.000854000,-0.000545804,-0.007554639,0.011367043,0.000000000,0.009870211,-0.000480000,-0.000722089,0.000310830,0.065078786,0.000000000,0.061781845,-0.005084000,-0.009302323,0.019353239,0.767202198,0.000000000,0.761286216,0.423774004,0.373789987,0.153125991,2.067840206,0.000000000,2.068820952,-0.400402993,-0.392463831,-0.039222117,-0.689157602,0.000000000,-0.690862947,0.000000000,0.000024357,0.000501226,-0.003793896,0.000000000,-0.003886638,-0.001228000,-0.000619610,-0.013525936,0.009787441,0.000000000,0.011639678,-0.001375000,0.000508675,-0.006527998,-0.384250571,0.000000000,-0.387768512,0.069471002,0.058959281,0.055251072,1.742675849,0.000000000,1.738179972,0.273259997,0.239992989,0.091262766,1.452278643,0.000000000,1.452614900,-0.292699993,-0.285131924,-0.021165768,-0.705266647,0.000000000,-0.704692644,-0.001442000,-0.000665442,-0.025212013,-0.007409641,0.000000000,-0.006805070
0.103990627,-0.000900000,-0.000560629,-0.007686909,0.009870211,0.000000000,0.007295259,-0.000504000,-0.000721788,0.000154130,0.061781845,0.000000000,0.058418832,-0.005040000,-0.009263012,0.019656126,0.761286216,0.000000000,0.755768032,0.423741013,0.374090118,0.150065257,2.068820952,0.000000000,2.069535014,-0.400480986,-0.392541092,-0.038630710,-0.690862947,0.000000000,-0.692618222,0.000000000,0.000025344,0.000494559,-0.003886638,0.000000000,-0.003967420,-0.001244000,-0.000646920,-0.013655983,0.011639678,0.000000000,0.013580641,-0.001415000,0.000495280,-0.006701391,-0.387768512,0.000000000,-0.391408633,0.069569997,0.059069861,0.055290045,1.738179972,0.000000000,1.734005727,0.273160011,0.240170535,0.088773107,1.452614900,0.000000000,1.452781027,-0.292793989,-0.285177602,-0.022839153,-0.704692644,0.000000000,-0.704818490,-0.001503000,-0.000716784,-0.025670868,-0.006805070,0.000000000,-0.006476678
0.105990447,-0.000959000,-0.000575844,-0.007872954,0.007295259,0.000000000,0.003680163,-0.000528000,-0.000721810,-0.000010267,0.058418832,0.000000000,0.055321624,-0.004998000,-0.009223135,0.019939202,0.755768032,0.000000000,0.749968641,0.423705995,0.374384213,0.147047821,2.069535014,0.000000000,2.070194508,-0.400563002,-0.392617498,-0.038202602,-0.692618222,0.000000000,-0.694402388,0.000000000,0.000026318,0.000488203,-0.003967420,0.000000000,-0.004047824,-0.001259000,-0.000674433,-0.013757253,0.013580641,0.000000000,0.015487064,-0.001455000,0.000481535,-0.006876314,-0.391408633,0.000000000,-0.394914914,0.069669001,0.059180488,0.055313528,1.734005727,0.000000000,1.730170639,0.273054004,0.240343143,0.086304162,1.452781027,0.000000000,1.452731556,-0.292896003,-0.285226661,-0.024529315,-0.704818490,0.000000000,-0.705365228,-0.001565000,-0.000768887,-0.026051707,-0.006476678,0.000000000,-0.006394171
0.107990266,-0.001028000,-0.000591593,-0.008134502,0.003680163,0.000000000,-0.000516859,-0.000551000,-0.000722173,-0.000184095,0.055321624,0.000000000,0.052818985,-0.004956000,-0.009182732,0.020201858,0.749968641,0.000000000,0.744481721,0.423667997,0.374672364,0.144075128,2.070194508,0.000000000,2.070723255,-0.400647014,-0.392693381,-0.037941786,-0.694402388,0.000000000,-0.695965464,0.000000000,0.000027278,0.000480617,-0.004047824,0.000000000,-0.004123212,-0.001272000,-0.000702090,-0.013829347,0.015487064,0.000000000,0.017457069,-0.001496000,0.000467440,-0.007051397,-0.394914914,0.000000000,-0.398602452,0.069766998,0.059291134,0.055323007,1.730170639,0.000000000,1.726360996,0.272942007,0.240510853,0.083855056,1.452731556,0.000000000,1.452472096,-0.293006003,-0.285279202,-0.026270624,-0.705365228,0.000000000,-0.706221796,-0.001626000,-0.000821690,-0.026401841,-0.006394171,0.000000000,-0.006227118
0.109990086,-0.001107000,-0.000608049,-0.008484379,-0.000516859,0.000000000,-0.005204977,-0.000575000,-0.000722895,-0.000367337,0.052818985,0.000000000,0.050347262,-0.004914000,-0.009141838,0.020447937,0.744481721,0.000000000,0.739229844,0.423628002,0.374954636,0.141136420,2.070723255,0.000000000,2.071255559,-0.400732994,-0.392769030,-0.037824414,-0.695965464,0.000000000,-0.697343243,0.000000000,0.000028214,0.000469015,-0.004123212,0.000000000,-0.004184855,-0.001285000,-0.000729831,-0.013871331,0.017457069,0.000000000,0.019265768,-0.001537000,0.000452994,-0.007227363,-0.398602452,0.000000000,-0.402170192,0.069863997,0.059401771,0.055318799,1.726360996,0.000000000,1.722579567,0.272825003,0.240673707,0.081426535,1.452472096,0.000000000,1.452056851,-0.293121994,-0.285335380,-0.028089335,-0.706221796,0.000000000,-0.707096096,-0.001687000,-0.000875099,-0.026704161,-0.006227118,0.000000000,-0.006134890
0.111989906,-0.001196000,-0.000625406,-0.008933198,-0.005204977,0.000000000,-0.010303555,-0.000598000,-0.000723998,-0.000560919,0.050347262,0.000000000,0.048501640,-0.004873000,-0.009100481,0.020679278,0.739229844,0.000000000,0.733895645,0.423586011,0.375231089,0.138226346,2.071255559,0.000000000,2.071825836,-0.400821000,-0.392844695,-0.037832369,-0.697343243,0.000000000,-0.698567921,0.000000000,0.000029125,0.000456412,-0.004184855,0.000000000,-0.004241122,-0.001298000,-0.000757601,-0.013885909,0.019265768,0.000000000,0.020922604,-0.001578000,0.000438196,-0.007403826,-0.402170192,0.000000000,-0.405626626,0.069959998,0.059512375,0.055302183,1.722579567,0.000000000,1.718804426,0.272702992,0.240831737,0.079015110,1.452056851,0.000000000,1.451508474,-0.293242991,-0.285395349,-0.029984168,-0.707096096,0.000000000,-0.707876991,-0.001748000,-0.000929045,-0.026973438,-0.006134890,0.000000000,-0.006082174
0.113989726,-0.001292000,-0.000643872,-0.009488551,-0.010303555,0.000000000,-0.015427539,-0.000621000,-0.000725501,-0.000765093,0.048501640,0.000000000,0.047009509,-0.004833000,-0.009058692,0.020895344,0.733895645,0.000000000,0.728499955,0.423541009,0.375501780,0.135345476,2.071825836,0.000000000,2.072362348,-0.400911003,-0.392920603,-0.037954024,-0.698567921,0.000000000,-0.699646564,0.000000000,0.000030006,0.000440929,-0.004241122,0.000000000,-0.004286086,-0.001309000,-0.000785351,-0.013875659,0.020922604,0.000000000,0.022650050,-0.001619000,0.000423046,-0.007580731,-0.405626626,0.000000000,-0.408972736,0.070054002,0.059622924,0.055274543,1.718804426,0.000000000,1.714726813,0.272576988,0.240984969,0.076616190,1.451508474,0.000000000,1.450922022,-0.293368995,-0.285459237,-0.031944026,-0.707876991,0.000000000,-0.708582887,-0.001808000,-0.000983480,-0.027217486,-0.006082174,0.000000000,-0.005950788
0.115989545,-0.001396000,-0.000663658,-0.010150491,-0.015427539,0.000000000,-0.020660806,-0.000644000,-0.000727425,-0.000979476,0.047009509,0.000000000,0.045867976,-0.004794000,-0.009016500,0.021096500,0.728499955,0.000000000,0.723042715,0.423494011,0.375766764,0.132491892,2.072362348,0.000000000,2.072939279,-0.401001990,-0.392996954,-0.038175794,-0.699646564,0.000000000,-0.700495150,0.000000000,0.000030851,0.000423135,-0.004286086,0.000000000,-0.004320895,-0.001321000,-0.000813028,-0.013839060,0.022650050,0.000000000,0.024114098,-0.001660000,0.000407541,-0.007758327,-0.408972736,0.000000000,-0.412202574,0.070147000,0.059733394,0.055234892,1.714726813,0.000000000,1.710657503,0.272446990,0.241133432,0.074231281,1.450922022,0.000000000,1.450285006,-0.293498009,-0.285527163,-0.033963263,-0.708582887,0.000000000,-0.709016025,-0.001869000,-0.001038324,-0.027421951,-0.005950788,0.000000000,-0.005991669
0.117989365,-0.001506000,-0.000684978,-0.010920499,-0.020660806,0.000000000,-0.025758906,-0.000666000,-0.000729790,-0.001203911,0.045867976,0.000000000,0.045363342,-0.004755000,-0.008973936,0.021282864,0.723042715,0.000000000,0.717814274,0.423446000,0.376026092,0.129664119,2.072939279,0.000000000,2.073625968,-0.401093990,-0.393073909,-0.038477453,-0.700495150,0.000000000,-0.701158041,0.000000000,0.000031657,0.000403917,-0.004320895,0.000000000,-0.004347784,-0.001332000,-0.000840589,-0.013781064,0.024114098,0.000000000,0.025551395,-0.001700000,0.000391682,-0.007936049,-0.412202574,0.000000000,-0.415044665,0.070238002,0.059843763,0.055184799,1.710657503,0.000000000,1.706285281,0.272312999,0.241277141,0.071854484,1.450285006,0.000000000,1.449638346,-0.293628991,-0.285599193,-0.036014712,-0.709016025,0.000000000,-0.709141719,-0.001930000,-0.001093563,-0.027619586,-0.005991669,0.000000000,-0.006012021
0.119989185,-0.001622000,-0.000708042,-0.011794792,-0.025758906,0.000000000,-0.030721100,-0.000689000,-0.000732614,-0.001437367,0.045363342,0.000000000,0.044908897,-0.004716000,-0.008931028,0.021454568,0.717814274,0.000000000,0.712819787,0.423395991,0.376279815,0.126861476,2.073625968,0.000000000,2.074361967,-0.401185989,-0.393151596,-0.038843504,-0.701158041,0.000000000,-0.701563877,0.000000000,0.000032420,0.000381714,-0.004347784,0.000000000,-0.004361711,-0.001344000,-0.000867990,-0.013701264,0.025551395,0.000000000,0.026741794,-0.001739000,0.000375469,-0.008113609,-0.415044665,0.000000000,-0.417505601,0.070326999,0.059954011,0.055124059,1.706285281,0.000000000,1.701618742,0.272177011,0.241416108,0.069483666,1.449638346,0.000000000,1.449122570,-0.293761998,-0.285675334,-0.038070849,-0.709141719,0.000000000,-0.709043290,-0.001990000,-0.001149180,-0.027808278,-0.006012021,0.000000000,-0.005918591
0.121989005,-0.001742000,-0.000733050,-0.012770390,-0.030721100,0.000000000,-0.035329428,-0.000711000,-0.000735914,-0.001679622,0.044908897,0.000000000,0.045073044,-0.004678000,-0.008887804,0.021612767,0.712819787,0.000000000,0.707756566,0.423345000,0.376527975,0.124079908,2.074361967,0.000000000,2.075237445,-0.401279002,-0.393230097,-0.039250107,-0.701563877,0.000000000,-0.701874646,0.000000000,0.000033138,0.000359445,-0.004361711,0.000000000,-0.004370960,-0.001356000,-0.000895199,-0.013604958,0.026741794,0.000000000,0.027818331,-0.001777000,0.000358902,-0.008291746,-0.417505601,0.000000000,-0.419568467,0.070413999,0.060064112,0.055050598,1.701618742,0.000000000,1.696714137,0.272038013,0.241550354,0.067122773,1.449122570,0.000000000,1.448644367,-0.293895990,-0.285755564,-0.040114987,-0.709043290,0.000000000,-0.708665189,-0.002050000,-0.001205114,-0.027967411,-0.005918591,0.000000000,-0.005877032
0.123988824,-0.001865000,-0.000760190,-0.013838425,-0.035329428,0.000000000,-0.039507607,-0.000733000,-0.000739705,-0.001929545,0.045073044,0.000000000,0.045550313,-0.004641000,-0.008844296,0.021754977,0.707756566,0.000000000,0.702689956,0.423292011,0.376770626,0.121325468,2.075237445,0.000000000,2.076141937,-0.401371002,-0.393309483,-0.039693245,-0.701874646,0.000000000,-0.701889565,0.000000000,0.000033806,0.000334684,-0.004370960,0.000000000,-0.004368130,-0.001368000,-0.000922185,-0.013493713,0.027818331,0.000000000,0.028786664,-0.001814000,0.000341980,-0.008469882,-0.419568467,0.000000000,-0.421246380,0.070497997,0.060174040,0.054964094,1.696714137,0.000000000,1.691300257,0.271896988,0.241679895,0.064770670,1.448644367,0.000000000,1.448272817,-0.294028014,-0.285839809,-0.042122414,-0.708665189,0.000000000,-0.707786908,-0.002110000,-0.001261331,-0.028108418,-0.005877032,0.000000000,-0.005858500
0.125988644,-0.001991000,-0.000789629,-0.014989197,-0.039507607,0.000000000,-0.043292650,-0.000755000,-0.000744001,-0.002185969,0.045550313,0.000000000,0.046318009,-0.004603000,-0.008800535,0.021881390,0.702689956,0.000000000,0.698193126,0.423238993,0.377007818,0.118595852,2.076141937,0.000000000,2.077212932,-0.401463002,-0.393389776,-0.040146352,-0.701889565,0.000000000,-0.701784557,0.000000000,0.000034423,0.000308638,-0.004368130,0.000000000,-0.004356392,-0.001382000,-0.000948923,-0.013369319,0.028786664,0.000000000,0.029440957,-0.001850000,0.000324705,-0.008647767,-0.421246380,0.000000000,-0.422545277,0.070579000,0.060283767,0.054863237,1.691300257,0.000000000,1.685416985,0.271755010,0.241804749,0.062426914,1.448272817,0.000000000,1.448077785,-0.294160008,-0.285927910,-0.044050211,-0.707786908,0.000000000,-0.706742332,-0.002170000,-0.001317805,-0.028237028,-0.005858500,0.000000000,-0.005849217
0.127988464,-0.002119000,-0.000821517,-0.016213903,-0.043292650,0.000000000,-0.046611728,-0.000776000,-0.000748812,-0.002447812,0.046318009,0.000000000,0.047639010,-0.004567000,-0.008756551,0.021992811,0.698193126,0.000000000,0.693403441,0.423184991,0.377239597,0.115889794,2.077212932,0.000000000,2.078396208,-0.401553005,-0.393470974,-0.040599141,-0.701784557,0.000000000,-0.701387127,0.000000000,0.000034986,0.000282019,-0.004356392,0.000000000,-0.004337650,-0.001396000,-0.000975400,-0.013238834,0.029440957,0.000000000,0.030032996,-0.001884000,0.000307077,-0.008825924,-0.422545277,0.000000000,-0.423169070,0.070657000,0.060393255,0.054744356,1.685416985,0.000000000,1.679155531,0.271611989,0.241924949,0.060099905,1.448077785,0.000000000,1.447991797,-0.294288993,-0.286019688,-0.045889172,-0.706742332,0.000000000,-0.705274403,-0.002229000,-0.001374517,-0.028355921,-0.005849217,0.000000000,-0.005742463
0.129988284,-0.002248000,-0.000855982,-0.017501279,-0.046611728,0.000000000,-0.049408262,-0.000797000,-0.000754147,-0.002713882,0.047639010,0.000000000,0.049204560,-0.004530000,-0.008712379,0.022086548,0.693403441,0.000000000,0.689244782,0.423130006,0.377466021,0.113211927,2.078396208,0.000000000,2.079655281,-0.401641995,-0.393553034,-0.041029845,-0.701387127,0.000000000,-0.700863022,0.000000000,0.000035493,0.000253582,-0.004337650,0.000000000,-0.004308005,-0.001412000,-0.001001604,-0.013102272,0.030032996,0.000000000,0.030348376,-0.001917000,0.000289096,-0.009003671,-0.423169070,0.000000000,-0.423417784,0.070731997,0.060502468,0.054606727,1.679155531,0.000000000,1.672542924,0.271468997,0.242040526,0.057788693,1.447991797,0.000000000,1.448087388,-0.294414014,-0.286114893,-0.047602337,-0.705274403,0.000000000,-0.703417234,-0.002288000,-0.001431416,-0.028449601,-0.005742463,0.000000000,-0.005688453
0.131988103,-0.002377000,-0.000893130,-0.018840178,-0.049408262,0.000000000,-0.051627448,-0.000818000,-0.000760012,-0.002982758,0.049204560,0.000000000,0.050984181,-0.004494000,-0.008668052,0.022164698,0.689244782,0.000000000,0.685109943,0.423074991,0.377687136,0.110557499,2.079655281,0.000000000,2.081081196,-0.401730001,-0.393635884,-0.041425320,-0.700863022,0.000000000,-0.700259738,0.000000000,0.000035941,0.000224579,-0.004308005,0.000000000,-0.004270892,-0.001429000,-0.001027534,-0.012965418,0.030348376,0.000000000,0.030526341,-0.001947000,0.000270765,-0.009181138,-0.423417784,0.000000000,-0.422720406,0.070803002,0.060611365,0.054448330,1.672542924,0.000000000,1.665354954,0.271324992,0.242151518,0.055495980,1.448087388,0.000000000,1.448277114,-0.294535011,-0.286213209,-0.049158303,-0.703417234,0.000000000,-0.701285861,-0.002347000,-0.001488474,-0.028528889,-0.005688453,0.000000000,-0.005659331
0.133987923,-0.002505000,-0.000933041,-0.020217488,-0.051627448,0.000000000,-0.053228316,-0.000839000,-0.000766410,-0.003253394,0.050984181,0.000000000,0.052955310,-0.004458000,-0.008623604,0.022224716,0.685109943,0.000000000,0.681351265,0.423018992,0.377903002,0.107932829,2.081081196,0.000000000,2.082565044,-0.401814997,-0.393719450,-0.041782624,-0.700259738,0.000000000,-0.699388546,0.000000000,0.000036332,0.000195498,-0.004270892,0.000000000,-0.004227688,-0.001447000,-0.001053192,-0.012829506,0.030526341,0.000000000,0.030574084,-0.001976000,0.000252086,-0.009357390,-0.422720406,0.000000000,-0.421667508,0.070871003,0.060719898,0.054266618,1.665354954,0.000000000,1.657944187,0.271180987,0.242257970,0.053226060,1.448277114,0.000000000,1.448591598,-0.294651002,-0.286314281,-0.050536092,-0.701285861,0.000000000,-0.698876541,-0.002406000,-0.001545679,-0.028602671,-0.005659331,0.000000000,-0.005630950
0.135987743,-0.002641000,-0.000975769,-0.021620132,-0.053228316,0.000000000,-0.055238453,-0.000858000,-0.000773344,-0.003524324,0.052955310,0.000000000,0.055653540,-0.004423000,-0.008579070,0.022267925,0.681351265,0.000000000,0.677663911,0.422962993,0.378113669,0.105333632,2.082565044,0.000000000,2.084196187,-0.401901007,-0.393803604,-0.042077045,-0.699388546,0.000000000,-0.698739025,0.000000000,0.000036665,0.000166568,-0.004227688,0.000000000,-0.004179072,-0.001467000,-0.001078586,-0.012697104,0.030574084,0.000000000,0.030400255,-0.002003000,0.000233064,-0.009532350,-0.421667508,0.000000000,-0.419977784,0.070935003,0.060828019,0.054060543,1.657944187,0.000000000,1.650064390,0.271032989,0.242359930,0.050980110,1.448591598,0.000000000,1.448767172,-0.294766992,-0.286417707,-0.051712702,-0.698876541,0.000000000,-0.696801346,-0.002464000,-0.001603022,-0.028671718,-0.005630950,0.000000000,-0.005501008
0.137987563,-0.002788000,-0.001021379,-0.023054362,-0.055238453,0.000000000,-0.057935272,-0.000877000,-0.000780814,-0.003796034,0.055653540,0.000000000,0.058521975,-0.004387000,-0.008534488,0.022291898,0.677663911,0.000000000,0.674682199,0.422904015,0.378319205,0.102768231,2.084196187,0.000000000,2.085722953,-0.401988000,-0.393888269,-0.042332780,-0.698739025,0.000000000,-0.698247191,0.000000000,0.000036939,0.000137060,-0.004179072,0.000000000,-0.004122856,-0.001488000,-0.001103730,-0.012572375,0.030400255,0.000000000,0.030136640,-0.002030000,0.000213702,-0.009706593,-0.419977784,0.000000000,-0.418207761,0.070995003,0.060935673,0.053827162,1.650064390,0.000000000,1.641797634,0.270877987,0.242457464,0.048767048,1.448767172,0.000000000,1.448546186,-0.294885993,-0.286523149,-0.052721129,-0.696801346,0.000000000,-0.695304670,-0.002521000,-0.001660460,-0.028719069,-0.005501008,0.000000000,-0.005322134
0.139987382,-0.002945000,-0.001069965,-0.024535032,-0.057935272,0.000000000,-0.061118169,-0.000895000,-0.000788824,-0.004069315,0.058521975,0.000000000,0.061863729,-0.004352000,-0.008489887,0.022301206,0.674682199,0.000000000,0.671742744,0.422845006,0.378519660,0.100227308,2.085722953,0.000000000,2.087394838,-0.402076006,-0.393973385,-0.042558033,-0.698247191,0.000000000,-0.697898894,0.000000000,0.000037156,0.000108708,-0.004122856,0.000000000,-0.004064203,-0.001511000,-0.001128644,-0.012457446,0.030136640,0.000000000,0.029690774,-0.002056000,0.000194004,-0.009880601,-0.418207761,0.000000000,-0.416063064,0.071053997,0.061042804,0.053565711,1.641797634,0.000000000,1.634028525,0.270716995,0.242550647,0.046591318,1.448546186,0.000000000,1.447956321,-0.295004994,-0.286630372,-0.053611444,-0.695304670,0.000000000,-0.693963824,-0.002577000,-0.001717931,-0.028735311,-0.005322134,0.000000000,-0.005127327
0.141987202,-0.003109000,-0.001121639,-0.026071561,-0.061118169,0.000000000,-0.064402056,-0.000912000,-0.000797378,-0.004344496,0.061863729,0.000000000,0.065687485,-0.004317000,-0.008445301,0.022294005,0.671742744,0.000000000,0.669180822,0.422782987,0.378715095,0.097717346,2.087394838,0.000000000,2.088973611,-0.402164996,-0.394058924,-0.042769176,-0.697898894,0.000000000,-0.697647428,0.000000000,0.000037314,0.000079171,-0.004064203,0.000000000,-0.003996216,-0.001534000,-0.001153351,-0.012353824,0.029690774,0.000000000,0.029286748,-0.002081000,0.000173976,-0.010053223,-0.416063064,0.000000000,-0.413571803,0.071108997,0.061149368,0.053281706,1.634028525,0.000000000,1.625795889,0.270552009,0.242639526,0.044439753,1.447956321,0.000000000,1.447214252,-0.295125991,-0.286739147,-0.054387360,-0.693963824,0.000000000,-0.692993183,-0.002633000,-0.001775369,-0.028719128,-0.005127327,0.000000000,-0.005027980
0.143987022,-0.003282000,-0.001176520,-0.027666178,-0.064402056,0.000000000,-0.067975110,-0.000929000,-0.000806480,-0.004620901,0.065687485,0.000000000,0.069694505,-0.004282000,-0.008400758,0.022272461,0.669180822,0.000000000,0.666955560,0.422719985,0.378905563,0.095233957,2.088973611,0.000000000,2.090615105,-0.402253002,-0.394144868,-0.042972044,-0.697647428,0.000000000,-0.697279087,0.000000000,0.000037409,0.000047350,-0.003996216,0.000000000,-0.003915311,-0.001559000,-0.001177871,-0.012260144,0.029286748,0.000000000,0.028705801,-0.002105000,0.000153628,-0.010224248,-0.413571803,0.000000000,-0.410741565,0.071162999,0.061255312,0.052972094,1.625795889,0.000000000,1.618034684,0.270384014,0.242724169,0.042321481,1.447214252,0.000000000,1.446313005,-0.295246005,-0.286849318,-0.055085420,-0.692993183,0.000000000,-0.692003393,-0.002688000,-0.001832750,-0.028690366,-0.005027980,0.000000000,-0.004869141
0.145986842,-0.003461000,-0.001234734,-0.029324712,-0.067975110,0.000000000,-0.071470877,-0.000946000,-0.000816133,-0.004898865,0.069694505,0.000000000,0.073893306,-0.004247000,-0.008356284,0.022238047,0.666955560,0.000000000,0.665040960,0.422654986,0.379091110,0.092773618,2.090615105,0.000000000,2.092277443,-0.402341008,-0.394231178,-0.043155222,-0.697279087,0.000000000,-0.696929701,0.000000000,0.000037440,0.000015676,-0.003915311,0.000000000,-0.003828425,-0.001586000,-0.001202228,-0.012178635,0.028705801,0.000000000,0.027963126,-0.002128000,0.000132976,-0.010393152,-0.410741565,0.000000000,-0.407588515,0.071214996,0.061360593,0.052640934,1.618034684,0.000000000,1.610379442,0.270213008,0.242804623,0.040226589,1.446313005,0.000000000,1.445320101,-0.295365989,-0.286960712,-0.055697385,-0.692003393,0.000000000,-0.691131664,-0.002743000,-0.001890027,-0.028638646,-0.004869141,0.000000000,-0.004786026
0.147986661,-0.003645000,-0.001296407,-0.031045505,-0.071470877,0.000000000,-0.074778871,-0.000962000,-0.000826339,-0.005178045,0.073893306,0.000000000,0.078561235,-0.004213000,-0.008311903,0.022191325,0.665040960,0.000000000,0.663147040,0.422589004,0.379271781,0.090335643,2.092277443,0.000000000,2.094026693,-0.402429014,-0.394317819,-0.043320488,-0.696929701,0.000000000,-0.696597830,0.000000000,0.000037408,-0.000015937,-0.003828425,0.000000000,-0.003735333,-0.001613000,-0.001226451,-0.012111736,0.027963126,0.000000000,0.027288804,-0.002151000,0.000112044,-0.010559917,-0.407588515,0.000000000,-0.404404183,0.071266003,0.061465170,0.052288349,1.610379442,0.000000000,1.603127606,0.270040989,0.242880933,0.038155321,1.445320101,0.000000000,1.444356929,-0.295484990,-0.287073180,-0.056233594,-0.691131664,0.000000000,-0.690267529,-0.002799000,-0.001947186,-0.028579513,-0.004786026,0.000000000,-0.004837001
0.149986481,-0.003834000,-0.001361654,-0.032823546,-0.074778871,0.000000000,-0.077915199,-0.000979000,-0.000837100,-0.005457705,0.078561235,0.000000000,0.083113560,-0.004180000,-0.008267644,0.022130667,0.663147040,0.000000000,0.661318626,0.422520012,0.379447630,0.087924637,2.094026693,0.000000000,2.095698705,-0.402516007,-0.394404764,-0.043472248,-0.696597830,0.000000000,-0.696171277,0.000000000,0.000037311,-0.000048602,-0.003735333,0.000000000,-0.003632652,-0.001642000,-0.001250565,-0.012057324,0.027288804,0.000000000,0.026460308,-0.002174000,0.000090875,-0.010723709,-0.404404183,0.000000000,-0.401219941,0.071315996,0.061569001,0.051915756,1.603127606,0.000000000,1.596252111,0.269867003,0.242953143,0.036105030,1.444356929,0.000000000,1.443379427,-0.295601994,-0.287186567,-0.056693573,-0.690267529,0.000000000,-0.689325337,-0.002854000,-0.002004263,-0.028538593,-0.004837001,0.000000000,-0.004743429
0.151986301,-0.004026000,-0.001430581,-0.034655366,-0.077915199,0.000000000,-0.080674797,-0.000996000,-0.000848418,-0.005737620,0.083113560,0.000000000,0.087829719,-0.004147000,-0.008223531,0.022057352,0.661318626,0.000000000,0.659818183,0.422450006,0.379618704,0.085536728,2.095698705,0.000000000,2.097444195,-0.402601004,-0.394491963,-0.043599762,-0.696171277,0.000000000,-0.695586078,0.000000000,0.000037152,-0.000079317,-0.003632652,0.000000000,-0.003529311,-0.001672000,-0.001274601,-0.012018469,0.026460308,0.000000000,0.025604923,-0.002195000,0.000069563,-0.010885512,-0.401219941,0.000000000,-0.397471158,0.071364999,0.061672051,0.051524895,1.596252111,0.000000000,1.589730347,0.269694000,0.243021286,0.034071224,1.443379427,0.000000000,1.442603802,-0.295717001,-0.287300704,-0.057068440,-0.689325337,0.000000000,-0.688347543,-0.002909000,-0.002061239,-0.028488014,-0.004743429,0.000000000,-0.004687516
0.153986121,-0.004221000,-0.001503281,-0.036533083,-0.080674797,0.000000000,-0.083092486,-0.001013000,-0.000860290,-0.006016754,0.087829719,0.000000000,0.092685916,-0.004114000,-0.008179589,0.021972048,0.659818183,0.000000000,0.658637416,0.422376990,0.379785044,0.083170009,2.097444195,0.000000000,2.099147930,-0.402684987,-0.394579341,-0.043689103,-0.695586078,0.000000000,-0.694988941,0.000000000,0.000036934,-0.000109202,-0.003529311,0.000000000,-0.003422298,-0.001704000,-0.001298589,-0.011994155,0.025604923,0.000000000,0.024613397,-0.002216000,0.000048357,-0.011044325,-0.397471158,0.000000000,-0.393820719,0.071414001,0.061774281,0.051115239,1.589730347,0.000000000,1.583866605,0.269522011,0.243085398,0.032056367,1.442603802,0.000000000,1.442012024,-0.295830011,-0.287415419,-0.057357509,-0.688347543,0.000000000,-0.687353445,-0.002965000,-0.002118115,-0.028438014,-0.004687516,0.000000000,-0.004741129
0.155985940,-0.004418000,-0.001579831,-0.038449496,-0.083092486,0.000000000,-0.085094218,-0.001031000,-0.000872715,-0.006294471,0.092685916,0.000000000,0.097382839,-0.004082000,-0.008135839,0.021875701,0.658637416,0.000000000,0.657477027,0.422302991,0.379946688,0.080822261,2.099147930,0.000000000,2.100951289,-0.402767003,-0.394666818,-0.043738499,-0.694988941,0.000000000,-0.694296590,0.000000000,0.000036658,-0.000138135,-0.003422298,0.000000000,-0.003312149,-0.001737000,-0.001322564,-0.011987426,0.024613397,0.000000000,0.023613306,-0.002237000,0.000028270,-0.011200256,-0.393820719,0.000000000,-0.390553160,0.071462996,0.061875656,0.050687677,1.583866605,0.000000000,1.578648829,0.269351006,0.243145518,0.030059895,1.442012024,0.000000000,1.441603900,-0.295938998,-0.287530539,-0.057560132,-0.687353445,0.000000000,-0.686157539,-0.003021000,-0.002174932,-0.028408193,-0.004741129,0.000000000,-0.004743402
0.157985760,-0.004616000,-0.001660290,-0.040395689,-0.085094218,0.000000000,-0.086617403,-0.001050000,-0.000885689,-0.006570317,0.097382839,0.000000000,0.101909357,-0.004051000,-0.008092307,0.021766995,0.657477027,0.000000000,0.656373688,0.422226995,0.380103681,0.078496510,2.100951289,0.000000000,2.102765981,-0.402846992,-0.394754301,-0.043741552,-0.694296590,0.000000000,-0.693530563,0.000000000,0.000036329,-0.000164648,-0.003312149,0.000000000,-0.003203528,-0.001772000,-0.001346561,-0.011998997,0.023613306,0.000000000,0.022505967,-0.002257000,0.000016222,-0.011354069,-0.390553160,0.000000000,-0.389334280,0.071512997,0.061976144,0.050243873,1.578648829,0.000000000,1.574336614,0.269183993,0.243201674,0.028077729,1.441603900,0.000000000,1.441596748,-0.296043009,-0.287645855,-0.057658000,-0.686157539,0.000000000,-0.684736670,-0.003078000,-0.002231706,-0.028386985,-0.004743402,0.000000000,-0.004826539
0.159985580,-0.004813000,-0.001744698,-0.042361784,-0.086617403,0.000000000,-0.087500516,-0.001069000,-0.000899207,-0.006843604,0.101909357,0.000000000,0.106532745,-0.004021000,-0.008049018,0.021645696,0.656373688,0.000000000,0.655339816,0.422147989,0.380256068,0.076193110,2.102765981,0.000000000,2.104522659,-0.402925014,-0.394841686,-0.043692109,-0.693530563,0.000000000,-0.692724985,0.000000000,0.000035953,-0.000188495,-0.003203528,0.000000000,-0.003097672,-0.001808000,-0.001370633,-0.012036292,0.022505967,0.000000000,0.021445460,-0.002277000,-0.000027790,-0.011508838,-0.389334280,0.000000000,-0.379008346,0.071562998,0.062075712,0.049784199,1.574336614,0.000000000,1.570644688,0.269019991,0.243253894,0.026110030,1.441596748,0.000000000,1.441925474,-0.296144009,-0.287761123,-0.057634263,-0.684736670,0.000000000,-0.683362114,-0.003135000,-0.002288466,-0.028380141,-0.004826539,0.000000000,-0.004870221
0.161985400,-0.005009000,-0.001833068,-0.044334461,-0.087500516,0.000000000,-0.087817550,-0.001090000,-0.000913262,-0.007112648,0.106532745,0.000000000,0.110644193,-0.003991000,-0.008005996,0.021511650,0.655339816,0.000000000,0.654670625,0.422066987,0.380403892,0.073911988,2.104522659,0.000000000,2.106283040,-0.402999014,-0.394928859,-0.043586867,-0.692724985,0.000000000,-0.691692701,0.000000000,0.000035530,-0.000211558,-0.003097672,0.000000000,-0.002989387,-0.001845000,-0.001394779,-0.012072689,0.021445460,0.000000000,0.020281051,-0.002296000,-0.000048647,-0.011648611,-0.379008346,0.000000000,-0.375318801,0.071615003,0.062174331,0.049309314,1.570644688,0.000000000,1.568136486,0.268860996,0.243302210,0.024158121,1.441925474,0.000000000,1.442704806,-0.296238989,-0.287876111,-0.057493622,-0.683362114,0.000000000,-0.681739922,-0.003194000,-0.002345321,-0.028427481,-0.004870221,0.000000000,-0.004952445
0.163985219,-0.005203000,-0.001925391,-0.046302809,-0.087817550,0.000000000,-0.087524516,-0.001112000,-0.000927846,-0.007377395,0.110644193,0.000000000,0.114524398,-0.003963000,-0.007963265,0.021366855,0.654670625,0.000000000,0.653758236,0.421983987,0.380547186,0.071647239,2.106283040,0.000000000,2.108087020,-0.403070003,-0.395015666,-0.043403146,-0.691692701,0.000000000,-0.690616459,0.000000000,0.000035070,-0.000230428,-0.002989387,0.000000000,-0.002889215,-0.001884000,-0.001419041,-0.012131652,0.020281051,0.000000000,0.019043631,-0.002315000,-0.000071310,-0.011788264,-0.375318801,0.000000000,-0.371118962,0.071667999,0.062271969,0.048819397,1.568136486,0.000000000,1.566528475,0.268707991,0.243346656,0.022223073,1.442704806,0.000000000,1.443987118,-0.296328992,-0.287990552,-0.057220680,-0.681739922,0.000000000,-0.680046035,-0.003253000,-0.002402308,-0.028493509,-0.004952445,0.000000000,-0.004968171
0.165985039,-0.005393000,-0.002021631,-0.048253813,-0.087524516,0.000000000,-0.086485671,-0.001135000,-0.000942948,-0.007637091,0.114524398,0.000000000,0.118153515,-0.003935000,-0.007920849,0.021208521,0.653758236,0.000000000,0.653242260,0.421898991,0.380685996,0.069405162,2.108087020,0.000000000,2.109886960,-0.403138012,-0.395101947,-0.043140894,-0.690616459,0.000000000,-0.689515292,0.000000000,0.000034578,-0.000246049,-0.002889215,0.000000000,-0.002795127,-0.001924000,-0.001443464,-0.012211580,0.019043631,0.000000000,0.017835220,-0.002333000,-0.000094691,-0.011925588,-0.371118962,0.000000000,-0.366483200,0.071722999,0.062368596,0.048313234,1.566528475,0.000000000,1.566145339,0.268561006,0.243387277,0.020310278,1.443987118,0.000000000,1.445733153,-0.296411991,-0.288104180,-0.056813922,-0.680046035,0.000000000,-0.678106990,-0.003314000,-0.002459455,-0.028573766,-0.004968171,0.000000000,-0.005129351
0.167984859,-0.005581000,-0.002121723,-0.050172619,-0.086485671,0.000000000,-0.085005065,-0.001160000,-0.000958556,-0.007890324,0.118153515,0.000000000,0.121211869,-0.003908000,-0.007878776,0.021037783,0.653242260,0.000000000,0.652819565,0.421810001,0.380820363,0.067183452,2.109886960,0.000000000,2.111570552,-0.403203011,-0.395187541,-0.042796725,-0.689515292,0.000000000,-0.688412374,0.000000000,0.000034061,-0.000259143,-0.002795127,0.000000000,-0.002705582,-0.001966000,-0.001468083,-0.012309399,0.017835220,0.000000000,0.016535643,-0.002352000,-0.000118523,-0.012058061,-0.366483200,0.000000000,-0.362113404,0.071778998,0.062464182,0.047793157,1.566145339,0.000000000,1.566656402,0.268418014,0.243424108,0.018415888,1.445733153,0.000000000,1.447839938,-0.296489000,-0.288216684,-0.056252167,-0.678106990,0.000000000,-0.676116744,-0.003376000,-0.002516855,-0.028699814,-0.005129351,0.000000000,-0.005235938
0.169984679,-0.005771000,-0.002225587,-0.052050898,-0.085005065,0.000000000,-0.083564870,-0.001188000,-0.000974658,-0.008137128,0.121211869,0.000000000,0.123412367,-0.003882000,-0.007837067,0.020855338,0.652819565,0.000000000,0.652481155,0.421716988,0.380950323,0.064979909,2.111570552,0.000000000,2.113149249,-0.403266996,-0.395272279,-0.042369019,-0.688412374,0.000000000,-0.687530995,0.000000000,0.000033526,-0.000267689,-0.002705582,0.000000000,-0.002627244,-0.002013000,-0.001492938,-0.012428030,0.016535643,0.000000000,0.014846108,-0.002371000,-0.000142707,-0.012187150,-0.362113404,0.000000000,-0.357720023,0.071836002,0.062558700,0.047259090,1.566656402,0.000000000,1.568073392,0.268270999,0.243457193,0.016542251,1.447839938,0.000000000,1.449781777,-0.296564013,-0.288327754,-0.055534887,-0.676116744,0.000000000,-0.674511837,-0.003440000,-0.002574573,-0.028859080,-0.005235938,0.000000000,-0.005417998
0.171984498,-0.005962000,-0.002333143,-0.053890689,-0.083564870,0.000000000,-0.082055257,-0.001217000,-0.000991244,-0.008378727,0.123412367,0.000000000,0.125348370,-0.003856000,-0.007795746,0.020661637,0.652481155,0.000000000,0.652507457,0.421618998,0.381075913,0.062794824,2.113149249,0.000000000,2.114558428,-0.403329998,-0.395356032,-0.041876404,-0.687530995,0.000000000,-0.686834327,0.000000000,0.000032987,-0.000269536,-0.002627244,0.000000000,-0.002567579,-0.002063000,-0.001518088,-0.012574949,0.014846108,0.000000000,0.013028065,-0.002391000,-0.000167198,-0.012313625,-0.357720023,0.000000000,-0.353582818,0.071893997,0.062652128,0.046714022,1.568073392,0.000000000,1.570330755,0.268119991,0.243486563,0.014685055,1.449781777,0.000000000,1.451589119,-0.296636999,-0.288437140,-0.054692988,-0.674511837,0.000000000,-0.673226582,-0.003504000,-0.002632704,-0.029065301,-0.005417998,0.000000000,-0.005424906
0.173984318,-0.006154000,-0.002444316,-0.055692040,-0.082055257,0.000000000,-0.080484127,-0.001248000,-0.001008303,-0.008615078,0.125348370,0.000000000,0.126731717,-0.003831000,-0.007754830,0.020458818,0.652507457,0.000000000,0.652571047,0.421516001,0.381197161,0.060624122,2.114558428,0.000000000,2.115823332,-0.403391987,-0.395438697,-0.041332675,-0.686834327,0.000000000,-0.686290478,0.000000000,0.000032451,-0.000268385,-0.002567579,0.000000000,-0.002516674,-0.002117000,-0.001543593,-0.012752801,0.013028065,0.000000000,0.010996514,-0.002412000,-0.000191973,-0.012438831,-0.353582818,0.000000000,-0.349677645,0.071951002,0.062744450,0.046160998,1.570330755,0.000000000,1.572800808,0.267967999,0.243512242,0.012839415,1.451589119,0.000000000,1.453485358,-0.296707004,-0.288544642,-0.053751180,-0.673226582,0.000000000,-0.672114538,-0.003571000,-0.002691271,-0.029283877,-0.005424906,0.000000000,-0.005655706
0.175984138,-0.006348000,-0.002559027,-0.057454932,-0.080484127,0.000000000,-0.078966567,-0.001281000,-0.001025826,-0.008846709,0.126731717,0.000000000,0.127571791,-0.003806000,-0.007714337,0.020247415,0.652571047,0.000000000,0.652948979,0.421409994,0.381314095,0.058466962,2.115823332,0.000000000,2.117074374,-0.403452992,-0.395520197,-0.040749966,-0.686290478,0.000000000,-0.685875834,0.000000000,0.000031924,-0.000263789,-0.002516674,0.000000000,-0.002476492,-0.002175000,-0.001569526,-0.012966655,0.010996514,0.000000000,0.008787771,-0.002433000,-0.000217019,-0.012562839,-0.349677645,0.000000000,-0.345722597,0.072008997,0.062835647,0.045598597,1.572800808,0.000000000,1.576084333,0.267814010,0.243534264,0.011010843,1.453485358,0.000000000,1.455365156,-0.296775997,-0.288650098,-0.052727921,-0.672114538,0.000000000,-0.671338484,-0.003638000,-0.002750384,-0.029556438,-0.005655706,0.000000000,-0.005677934
0.177983957,-0.006543000,-0.002677203,-0.059181625,-0.078966567,0.000000000,-0.077390982,-0.001316000,-0.001043805,-0.009074193,0.127571791,0.000000000,0.127879242,-0.003782000,-0.007674282,0.020028598,0.652948979,0.000000000,0.653334821,0.421299011,0.381426739,0.056322043,2.117074374,0.000000000,2.118195001,-0.403513014,-0.395600474,-0.040138599,-0.685875834,0.000000000,-0.685566847,0.000000000,0.000031414,-0.000255549,-0.002476492,0.000000000,-0.002448334,-0.002235000,-0.001595966,-0.013219893,0.008787771,0.000000000,0.006642547,-0.002453000,-0.000242328,-0.012686297,-0.345722597,0.000000000,-0.341421135,0.072067000,0.062925705,0.045029046,1.576084333,0.000000000,1.579855502,0.267661005,0.243552659,0.009197559,1.455365156,0.000000000,1.457427482,-0.296842009,-0.288753400,-0.051650811,-0.671338484,0.000000000,-0.670632046,-0.003705000,-0.002810071,-0.029843479,-0.005677934,0.000000000,-0.005600976
0.179983777,-0.006739000,-0.002798771,-0.060872152,-0.077390982,0.000000000,-0.075764863,-0.001351000,-0.001062234,-0.009298001,0.127879242,0.000000000,0.128231190,-0.003758000,-0.007634678,0.019802862,0.653334821,0.000000000,0.654005426,0.421186000,0.381535116,0.054188441,2.118195001,0.000000000,2.119376715,-0.403571993,-0.395679488,-0.039506905,-0.685566847,0.000000000,-0.685337915,0.000000000,0.000030926,-0.000244178,-0.002448334,0.000000000,-0.002431378,-0.002300000,-0.001622986,-0.013510135,0.006642547,0.000000000,0.004235493,-0.002474000,-0.000267894,-0.012808833,-0.341421135,0.000000000,-0.337351725,0.072126001,0.063014609,0.044452266,1.579855502,0.000000000,1.584401855,0.267509997,0.243567462,0.007401779,1.457427482,0.000000000,1.459718379,-0.296905994,-0.288854456,-0.050527934,-0.670632046,0.000000000,-0.670077876,-0.003774000,-0.002870327,-0.030128109,-0.005600976,0.000000000,-0.005675471
0.181983597,-0.006935000,-0.002923656,-0.062525629,-0.075764863,0.000000000,-0.073994708,-0.001388000,-0.001081104,-0.009517889,0.128231190,0.000000000,0.128051499,-0.003735000,-0.007595539,0.019570244,0.654005426,0.000000000,0.654679679,0.421068996,0.381639251,0.052067487,2.119376715,0.000000000,2.120484215,-0.403629005,-0.395757214,-0.038862993,-0.685337915,0.000000000,-0.685075081,0.000000000,0.000030462,-0.000232640,-0.002431378,0.000000000,-0.002417224,-0.002367000,-0.001650673,-0.013843685,0.004235493,0.000000000,0.001931267,-0.002493000,-0.000293712,-0.012930943,-0.337351725,0.000000000,-0.332651592,0.072186001,0.063102345,0.043868288,1.584401855,0.000000000,1.589726774,0.267363012,0.243578716,0.005626659,1.459718379,0.000000000,1.462340802,-0.296968013,-0.288953206,-0.049375323,-0.670077876,0.000000000,-0.669642430,-0.003843000,-0.002931202,-0.030437054,-0.005675471,0.000000000,-0.005618366
0.183983417,-0.007133000,-0.003051780,-0.064139974,-0.073994708,0.000000000,-0.072313845,-0.001426000,-0.001100408,-0.009734138,0.128051499,0.000000000,0.127628697,-0.003712000,-0.007556879,0.019331395,0.654679679,0.000000000,0.655630656,0.420949012,0.381739165,0.049957129,2.120484215,0.000000000,2.121594759,-0.403683990,-0.395833619,-0.038202395,-0.685075081,0.000000000,-0.684788398,0.000000000,0.000030025,-0.000218884,-0.002417224,0.000000000,-0.002412155,-0.002437000,-0.001679106,-0.014216679,0.001931267,0.000000000,-0.000390141,-0.002512000,-0.000319779,-0.013051801,-0.332651592,0.000000000,-0.327909213,0.072245002,0.063188899,0.043276728,1.589726774,0.000000000,1.595275715,0.267221004,0.243586469,0.003876585,1.462340802,0.000000000,1.465320656,-0.297028005,-0.289049621,-0.048207141,-0.669642430,0.000000000,-0.669282559,-0.003913000,-0.002992699,-0.030748732,-0.005618366,0.000000000,-0.005591608
0.185983236,-0.007330000,-0.003183068,-0.065717686,-0.072313845,0.000000000,-0.070396209,-0.001465000,-0.001120141,-0.009947157,0.127628697,0.000000000,0.126970288,-0.003689000,-0.007518705,0.019087536,0.655630656,0.000000000,0.656833630,0.420828015,0.381834875,0.047854786,2.121594759,0.000000000,2.122849915,-0.403737992,-0.395908663,-0.037522182,-0.684788398,0.000000000,-0.684595578,0.000000000,0.000029618,-0.000203542,-0.002412155,0.000000000,-0.002414693,-0.002509000,-0.001708366,-0.014630386,-0.000390141,0.000000000,-0.002606329,-0.002530000,-0.000346091,-0.013171935,-0.327909213,0.000000000,-0.322829139,0.072305001,0.063274247,0.042674216,1.595275715,0.000000000,1.601698694,0.267084986,0.243590794,0.002162492,1.465320656,0.000000000,1.468639676,-0.297086000,-0.289143696,-0.047037822,-0.669282559,0.000000000,-0.668960474,-0.003982000,-0.003054836,-0.031068383,-0.005591608,0.000000000,-0.005376457
0.187983056,-0.007529000,-0.003317438,-0.067254168,-0.070396209,0.000000000,-0.068596450,-0.001505000,-0.001140295,-0.010156702,0.126970288,0.000000000,0.126068744,-0.003667000,-0.007481032,0.018837537,0.656833630,0.000000000,0.658033316,0.420704007,0.381926405,0.045765012,2.122849915,0.000000000,2.124089602,-0.403789014,-0.395982330,-0.036833243,-0.684595578,0.000000000,-0.684265624,0.000000000,0.000029243,-0.000187720,-0.002414693,0.000000000,-0.002421792,-0.002585000,-0.001738529,-0.015081741,-0.002606329,0.000000000,-0.004939747,-0.002546000,-0.000372646,-0.013290896,-0.322829139,0.000000000,-0.317138325,0.072365999,0.063358370,0.042061524,1.601698694,0.000000000,1.608984019,0.266957998,0.243591765,0.000485703,1.468639676,0.000000000,1.472475755,-0.297141999,-0.289235441,-0.045872576,-0.668960474,0.000000000,-0.668660539,-0.004052000,-0.003117559,-0.031361776,-0.005376457,0.000000000,-0.005277743
0.189982876,-0.007727000,-0.003454812,-0.068752261,-0.068596450,0.000000000,-0.066586987,-0.001545000,-0.001160864,-0.010363305,0.126068744,0.000000000,0.125218793,-0.003646000,-0.007443870,0.018581940,0.658033316,0.000000000,0.659220648,0.420578003,0.382013776,0.043685619,2.124089602,0.000000000,2.125392060,-0.403838009,-0.396054576,-0.036122971,-0.684265624,0.000000000,-0.683935074,0.000000000,0.000028902,-0.000170821,-0.002421792,0.000000000,-0.002435362,-0.002662000,-0.001769673,-0.015571965,-0.004939747,0.000000000,-0.007055467,-0.002560000,-0.000399437,-0.013407628,-0.317138325,0.000000000,-0.310862032,0.072428003,0.063441244,0.041437018,1.608984019,0.000000000,1.617177491,0.266840011,0.243589473,-0.001146120,1.472475755,0.000000000,1.476766870,-0.297196001,-0.289324881,-0.044719816,-0.668660539,0.000000000,-0.668356313,-0.004122000,-0.003180866,-0.031653531,-0.005277743,0.000000000,-0.005124713
0.191982696,-0.007925000,-0.003595104,-0.070207474,-0.066586987,0.000000000,-0.064508991,-0.001586000,-0.001181842,-0.010566422,0.125218793,0.000000000,0.124121915,-0.003624000,-0.007407233,0.018319601,0.659220648,0.000000000,0.660993950,0.420450985,0.382097016,0.041619924,2.125392060,0.000000000,2.126794121,-0.403885007,-0.396125362,-0.035393377,-0.683935074,0.000000000,-0.683605125,0.000000000,0.000028593,-0.000155057,-0.002435362,0.000000000,-0.002448889,-0.002742000,-0.001801863,-0.016094994,-0.007055467,0.000000000,-0.009193931,-0.002572000,-0.000426458,-0.013521101,-0.310862032,0.000000000,-0.304025719,0.072489999,0.063522844,0.040800378,1.617177491,0.000000000,1.626005220,0.266732991,0.243584015,-0.002728952,1.476766870,0.000000000,1.481602465,-0.297248006,-0.289412049,-0.043583781,-0.668356313,0.000000000,-0.668032362,-0.004191000,-0.003244738,-0.031935864,-0.005124713,0.000000000,-0.004840312
0.193982515,-0.008124000,-0.003738226,-0.071618983,-0.064508991,0.000000000,-0.062483105,-0.001626000,-0.001203221,-0.010766023,0.124121915,0.000000000,0.123343893,-0.003603000,-0.007371130,0.018052277,0.660993950,0.000000000,0.662747633,0.420323998,0.382176146,0.039564951,2.126794121,0.000000000,2.128381448,-0.403928995,-0.396194649,-0.034643140,-0.683605125,0.000000000,-0.683181299,0.000000000,0.000028315,-0.000138943,-0.002448889,0.000000000,-0.002466663,-0.002823000,-0.001835164,-0.016650929,-0.009193931,0.000000000,-0.011134408,-0.002583000,-0.000453703,-0.013631595,-0.304025719,0.000000000,-0.296909052,0.072552003,0.063603142,0.040148788,1.626005220,0.000000000,1.635543664,0.266638011,0.243575510,-0.004252682,1.481602465,0.000000000,1.486970966,-0.297298014,-0.289496991,-0.042471055,-0.668032362,0.000000000,-0.667665255,-0.004260000,-0.003309109,-0.032185603,-0.004840312,0.000000000,-0.004598096
0.195982335,-0.008321000,-0.003884090,-0.072986920,-0.062483105,0.000000000,-0.060198058,-0.001667000,-0.001224995,-0.010962027,0.123343893,0.000000000,0.122312465,-0.003583000,-0.007335576,0.017777821,0.662747633,0.000000000,0.664534425,0.420195013,0.382251198,0.037526214,2.128381448,0.000000000,2.129984797,-0.403970987,-0.396262385,-0.033868319,-0.683181299,0.000000000,-0.682782183,0.000000000,0.000028066,-0.000124786,-0.002466663,0.000000000,-0.002481732,-0.002906000,-0.001869634,-0.017235232,-0.011134408,0.000000000,-0.013003059,-0.002590000,-0.000481162,-0.013738155,-0.296909052,0.000000000,-0.288683200,0.072616003,0.063682102,0.039480523,1.635543664,0.000000000,1.646406742,0.266557992,0.243564090,-0.005709834,1.486970966,0.000000000,1.492995311,-0.297347009,-0.289579760,-0.041384514,-0.667665255,0.000000000,-0.667340920,-0.004328000,-0.003373933,-0.032411954,-0.004598096,0.000000000,-0.004275581
0.197982155,-0.008519000,-0.004032599,-0.074306149,-0.060198058,0.000000000,-0.058013178,-0.001707000,-0.001247156,-0.011154081,0.122312465,0.000000000,0.121585875,-0.003562000,-0.007300586,0.017496009,0.664534425,0.000000000,0.666932052,0.420065999,0.382322208,0.035504836,2.129984797,0.000000000,2.131718244,-0.404009014,-0.396328528,-0.033071161,-0.682782183,0.000000000,-0.682207105,0.000000000,0.000027844,-0.000111015,-0.002481732,0.000000000,-0.002498482,-0.002991000,-0.001905321,-0.017843667,-0.013003059,0.000000000,-0.014818728,-0.002595000,-0.000508825,-0.013838875,-0.288683200,0.000000000,-0.279963254,0.072679996,0.063759693,0.038795172,1.646406742,0.000000000,1.658043773,0.266492993,0.243549901,-0.007094285,1.492995311,0.000000000,1.499626552,-0.297394007,-0.289660427,-0.040333818,-0.667340920,0.000000000,-0.666925255,-0.004395000,-0.003439143,-0.032604775,-0.004275581,0.000000000,-0.003908371
0.199981975,-0.008716000,-0.004183659,-0.075578689,-0.058013178,0.000000000,-0.055713816,-0.001748000,-0.001269695,-0.011341861,0.121585875,0.000000000,0.120585842,-0.003542000,-0.007266170,0.017208951,0.666932052,0.000000000,0.669327338,0.419937998,0.382389200,0.033495932,2.131718244,0.000000000,2.133680811,-0.404044986,-0.396392998,-0.032235237,-0.682207105,0.000000000,-0.681703377,0.000000000,0.000027646,-0.000099141,-0.002498482,0.000000000,-0.002512235,-0.003078000,-0.001942270,-0.018474702,-0.014818728,0.000000000,-0.016585249,-0.002596000,-0.000536679,-0.013933790,-0.279963254,0.000000000,-0.270183263,0.072743997,0.063835873,0.038090234,1.658043773,0.000000000,1.670526721,0.266443998,0.243533108,-0.008396918,1.499626552,0.000000000,1.506851683,-0.297439009,-0.289739066,-0.039319406,-0.666925255,0.000000000,-0.666409674,-0.004462000,-0.003504656,-0.032756889,-0.003908371,0.000000000,-0.003626098
0.201981794,-0.008910000,-0.004337170,-0.076801823,-0.055713816,0.000000000,-0.053112765,-0.001789000,-0.001292605,-0.011525653,0.120585842,0.000000000,0.119600918,-0.003521000,-0.007232344,0.016913667,0.669327338,0.000000000,0.672360720,0.419806987,0.382452216,0.031508359,2.133680811,0.000000000,2.135552716,-0.404076993,-0.396455741,-0.031371660,-0.681703377,0.000000000,-0.681052230,-0.000001000,0.000027472,-0.000087232,-0.002512235,0.000000000,-0.002629556,-0.003168000,-0.001980520,-0.019124823,-0.016585249,0.000000000,-0.018425020,-0.002596000,-0.000564709,-0.014020901,-0.270183263,0.000000000,-0.260245648,0.072811998,0.063910601,0.037364180,1.670526721,0.000000000,1.685037325,0.266406000,0.243513886,-0.009610820,1.506851683,0.000000000,1.514294089,-0.297482014,-0.289815745,-0.038339241,-0.666409674,0.000000000,-0.665793048,-0.004528000,-0.003570435,-0.032889148,-0.003626098,0.000000000,-0.003272498
0.203981614,-0.009102000,-0.004493024,-0.077970374,-0.053112765,0.000000000,-0.050357502,-0.001833000,-0.001315874,-0.011704132,0.119600918,0.000000000,0.117745286,-0.003500000,-0.007199117,0.016614215,0.672360720,0.000000000,0.675658621,0.419672012,0.382511280,0.029531873,2.135552716,0.000000000,2.137345139,-0.404105991,-0.396516667,-0.030463025,-0.681052230,0.000000000,-0.680408637,-0.000002000,0.000027281,-0.000095756,-0.002629556,0.000000000,-0.002687064,-0.003265000,-0.002020107,-0.019793615,-0.018425020,0.000000000,-0.020762783,-0.002595000,-0.000592897,-0.014099894,-0.260245648,0.000000000,-0.250162217,0.072881997,0.063983850,0.036624642,1.685037325,0.000000000,1.700840868,0.266368002,0.243492381,-0.010752336,1.514294089,0.000000000,1.521366188,-0.297520995,-0.289890499,-0.037377307,-0.665793048,0.000000000,-0.664912408,-0.004595000,-0.003636410,-0.032987505,-0.003272498,0.000000000,-0.003096441
0.205981434,-0.009292000,-0.004651107,-0.079082641,-0.050357502,0.000000000,-0.047469772,-0.001880000,-0.001339495,-0.011878528,0.117745286,0.000000000,0.115044455,-0.003479000,-0.007166495,0.016311932,0.675658621,0.000000000,0.679192454,0.419533014,0.382566406,0.027563021,2.137345139,0.000000000,2.139077890,-0.404132009,-0.396575684,-0.029508150,-0.680408637,0.000000000,-0.679788315,-0.000004000,0.000027064,-0.000108786,-0.002687064,0.000000000,-0.002830200,-0.003368000,-0.002061083,-0.020488403,-0.020762783,0.000000000,-0.023444978,-0.002592000,-0.000621229,-0.014171200,-0.250162217,0.000000000,-0.239643350,0.072956003,0.064055612,0.035880955,1.700840868,0.000000000,1.718300452,0.266330987,0.243468686,-0.011847650,1.521366188,0.000000000,1.528310374,-0.297558993,-0.289963293,-0.036397146,-0.664912408,0.000000000,-0.664182316,-0.004662000,-0.003702581,-0.033085664,-0.003096441,0.000000000,-0.002901152
0.207981254,-0.009480000,-0.004811304,-0.080137675,-0.047469772,0.000000000,-0.044467085,-0.001928000,-0.001363459,-0.012049315,0.115044455,0.000000000,0.112075558,-0.003457000,-0.007134481,0.016007901,0.679192454,0.000000000,0.683222844,0.419391990,0.382617605,0.025599465,2.139077890,0.000000000,2.140893046,-0.404155999,-0.396632700,-0.028508255,-0.679788315,0.000000000,-0.679293279,-0.000008000,0.000026786,-0.000139453,-0.002830200,0.000000000,-0.003119139,-0.003476000,-0.002103509,-0.021213206,-0.023444978,0.000000000,-0.026335860,-0.002589000,-0.000649690,-0.014234960,-0.239643350,0.000000000,-0.229258683,0.073032998,0.064125892,0.035140145,1.718300452,0.000000000,1.736965308,0.266297013,0.243442861,-0.012912318,1.528310374,0.000000000,1.535363233,-0.297594011,-0.290034102,-0.035404237,-0.664182316,0.000000000,-0.663387963,-0.004729000,-0.003768945,-0.033181992,-0.002901152,0.000000000,-0.002691554
0.209981073,-0.009667000,-0.004973497,-0.081134006,-0.044467085,0.000000000,-0.041477005,-0.001977000,-0.001387760,-0.012216051,0.112075558,0.000000000,0.108826351,-0.003434000,-0.007103078,0.015702443,0.683222844,0.000000000,0.687743380,0.419247001,0.382664890,0.023642330,2.140893046,0.000000000,2.142659444,-0.404177994,-0.396687652,-0.027475694,-0.679293279,0.000000000,-0.678898024,-0.000012000,0.000026356,-0.000215296,-0.003119139,0.000000000,-0.003264341,-0.003590000,-0.002147452,-0.021971653,-0.026335860,0.000000000,-0.029514378,-0.002586000,-0.000678265,-0.014292167,-0.229258683,0.000000000,-0.218989517,0.073110998,0.064194704,0.034405969,1.736965308,0.000000000,1.756183402,0.266263992,0.243414952,-0.013954740,1.535363233,0.000000000,1.542449902,-0.297627002,-0.290102882,-0.034390257,-0.663387963,0.000000000,-0.662653658,-0.004796000,-0.003835491,-0.033272809,-0.002691554,0.000000000,-0.002479312
0.211980893,-0.009854000,-0.005137573,-0.082072845,-0.041477005,0.000000000,-0.038611491,-0.002027000,-0.001412391,-0.012379719,0.108826351,0.000000000,0.105317190,-0.003413000,-0.007072284,0.015397496,0.687743380,0.000000000,0.691857282,0.419101000,0.382708266,0.021687944,2.142659444,0.000000000,2.144589185,-0.404199004,-0.396740487,-0.026417453,-0.678898024,0.000000000,-0.678690283,-0.000018000,0.000025742,-0.000307673,-0.003264341,0.000000000,-0.003546038,-0.003707000,-0.002192991,-0.022769796,-0.029514378,0.000000000,-0.032618019,-0.002581000,-0.000706945,-0.014343990,-0.218989517,0.000000000,-0.208244040,0.073190004,0.064262062,0.033679430,1.756183402,0.000000000,1.775927683,0.266232014,0.243384999,-0.014976406,1.542449902,0.000000000,1.549583991,-0.297659010,-0.290169604,-0.033360627,-0.662653658,0.000000000,-0.662072570,-0.004863000,-0.003902204,-0.033356884,-0.002479312,0.000000000,-0.002269197
0.213980713,-0.010042000,-0.005303418,-0.082956180,-0.038611491,0.000000000,-0.035977664,-0.002077000,-0.001437346,-0.012540557,0.105317190,0.000000000,0.101836317,-0.003391000,-0.007042108,0.015088714,0.691857282,0.000000000,0.696517654,0.418951988,0.382747763,0.019748712,2.144589185,0.000000000,2.146466079,-0.404217988,-0.396791199,-0.025356052,-0.678690283,0.000000000,-0.678501252,-0.000024000,0.000024861,-0.000441345,-0.003546038,0.000000000,-0.003683377,-0.003828000,-0.002240199,-0.023604102,-0.032618019,0.000000000,-0.035765665,-0.002576000,-0.000735716,-0.014389131,-0.208244040,0.000000000,-0.197623805,0.073269002,0.064327986,0.032961901,1.775927683,0.000000000,1.795873957,0.266202986,0.243353042,-0.015978525,1.549583991,0.000000000,1.556892103,-0.297690004,-0.290234260,-0.032328152,-0.662072570,0.000000000,-0.661605859,-0.004929000,-0.003969079,-0.033437529,-0.002269197,0.000000000,-0.001951490
