sainanliu129-hub/model/applications/Body_GravityPara_Iden/data/excitation/0-260116_run_softly_轻跑步_002_leg_500Hz_PD-M1-v0_multi_joint_20260325-035526_stillleg_zero_PD-M1-v0_multi_joint_20260325-053516.csv
time,cmd_leg_l1_joint,pos_leg_l1_joint,vel_leg_l1_joint,torque_leg_l1_joint,acc_leg_l1_joint,cmd_torque_leg_l1_joint,cmd_leg_l2_joint,pos_leg_l2_joint,vel_leg_l2_joint,torque_leg_l2_joint,acc_leg_l2_joint,cmd_torque_leg_l2_joint,cmd_leg_l3_joint,pos_leg_l3_joint,vel_leg_l3_joint,torque_leg_l3_joint,acc_leg_l3_joint,cmd_torque_leg_l3_joint,cmd_leg_l4_joint,pos_leg_l4_joint,vel_leg_l4_joint,torque_leg_l4_joint,acc_leg_l4_joint,cmd_torque_leg_l4_joint,cmd_leg_l5_joint,pos_leg_l5_joint,vel_leg_l5_joint,torque_leg_l5_joint,acc_leg_l5_joint,cmd_torque_leg_l5_joint,cmd_leg_l6_joint,pos_leg_l6_joint,vel_leg_l6_joint,torque_leg_l6_joint,acc_leg_l6_joint,cmd_torque_leg_l6_joint,cmd_leg_r1_joint,pos_leg_r1_joint,vel_leg_r1_joint,torque_leg_r1_joint,acc_leg_r1_joint,cmd_torque_leg_r1_joint,cmd_leg_r2_joint,pos_leg_r2_joint,vel_leg_r2_joint,torque_leg_r2_joint,acc_leg_r2_joint,cmd_torque_leg_r2_joint,cmd_leg_r3_joint,pos_leg_r3_joint,vel_leg_r3_joint,torque_leg_r3_joint,acc_leg_r3_joint,cmd_torque_leg_r3_joint,cmd_leg_r4_joint,pos_leg_r4_joint,vel_leg_r4_joint,torque_leg_r4_joint,acc_leg_r4_joint,cmd_torque_leg_r4_joint,cmd_leg_r5_joint,pos_leg_r5_joint,vel_leg_r5_joint,torque_leg_r5_joint,acc_leg_r5_joint,cmd_torque_leg_r5_joint,cmd_leg_r6_joint,pos_leg_r6_joint,vel_leg_r6_joint,torque_leg_r6_joint,acc_leg_r6_joint,cmd_torque_leg_r6_joint
0.000000000,0.000000000,0.000031598,-0.001434018,0.004671828,0.000000000,0.004741265,0.000000000,-0.010566417,0.037688380,2.148816308,0.000000000,2.150977719,-0.006823000,-0.007185840,-0.034747024,0.884989796,0.000000000,0.889078254,0.424885005,0.335904779,0.381483672,2.903205727,0.000000000,2.908850199,-0.396259993,-0.378056866,-0.411977896,-0.668406575,0.000000000,-0.668445928,0.000000000,0.000041473,0.000222711,-0.004846354,0.000000000,-0.004824644,0.000000000,-0.000019169,0.000363389,-0.000006676,0.000000000,-0.000011699,0.000000000,0.000961908,-0.003348491,-0.197480443,0.000000000,-0.197678052,0.000000000,0.006990764,-0.034107146,-1.213881406,0.000000000,-1.215620217,0.000000000,0.012661613,-0.013617035,-0.702385956,0.000000000,-0.702980906,0.000000000,0.006787196,-0.016955778,-0.637722775,0.000000000,-0.637742732,0.000000000,0.000005030,-0.000037041,-0.000401006,0.000000000,-0.000403013
0.001999820,-0.000031000,0.000029164,-0.001429630,0.004741265,0.000000000,0.001671544,0.000016000,-0.010491037,0.037690217,2.150977719,0.000000000,2.134057576,-0.006821000,-0.007255264,-0.034712129,0.889078254,0.000000000,0.908590880,0.424870014,0.336667848,0.381534802,2.908850199,0.000000000,2.859340603,-0.396315992,-0.378880815,-0.411974079,-0.668445928,0.000000000,-0.590843955,0.000000000,0.000041918,0.000222324,-0.004824644,0.000000000,-0.004868474,0.000000000,-0.000018512,0.000363735,-0.000011699,0.000000000,-0.000083710,0.000000000,0.000955212,-0.003348397,-0.197678052,0.000000000,-0.195776945,0.000000000,0.006922567,-0.034104609,-1.215620217,0.000000000,-1.196292916,0.000000000,0.012634367,-0.013623004,-0.702980906,0.000000000,-0.701217489,0.000000000,0.006753288,-0.016954060,-0.637742732,0.000000000,-0.634320694,0.000000000,0.000004961,-0.000037035,-0.000403013,0.000000000,-0.000396130
0.003999639,-0.000061000,0.000026624,-0.001539012,0.001671544,0.000000000,-0.000636860,0.000031000,-0.010415720,0.037658078,2.134057576,0.000000000,2.117639969,-0.006816000,-0.007323756,-0.034246492,0.908590880,0.000000000,0.918948471,0.424854010,0.337427726,0.379938695,2.859340603,0.000000000,2.821677193,-0.396375000,-0.379692113,-0.405649143,-0.590843955,0.000000000,-0.532795591,0.000000000,0.000042667,0.000374547,-0.004868474,0.000000000,-0.005376938,0.000000000,-0.000017815,0.000388188,-0.000083710,0.000000000,-0.000296285,0.000000000,0.000948547,-0.003333349,-0.195776945,0.000000000,-0.194222627,0.000000000,0.006854581,-0.033999086,-1.196292916,0.000000000,-1.179354935,0.000000000,0.012606606,-0.013880544,-0.701217489,0.000000000,-0.697633362,0.000000000,0.006720323,-0.016482551,-0.634320694,0.000000000,-0.632329576,0.000000000,0.000004877,-0.000045559,-0.000396130,0.000000000,-0.000363414
0.005999459,-0.000091000,0.000023919,-0.001729403,-0.000636860,0.000000000,-0.002469695,0.000045000,-0.010340559,0.037580973,2.117639969,0.000000000,2.101999023,-0.006810000,-0.007390731,-0.033487432,0.918948471,0.000000000,0.922521937,0.424836993,0.338182002,0.377138048,2.821677193,0.000000000,2.792865455,-0.396436006,-0.380481384,-0.394635752,-0.532795591,0.000000000,-0.490504444,0.000000000,0.000043772,0.000552644,-0.005376938,0.000000000,-0.005994956,0.000000000,-0.000017060,0.000424271,-0.000296285,0.000000000,-0.000580757,0.000000000,0.000941905,-0.003321138,-0.194222627,0.000000000,-0.192611065,0.000000000,0.006786906,-0.033843154,-1.179354935,0.000000000,-1.163645790,0.000000000,0.012578105,-0.014250596,-0.697633362,0.000000000,-0.693202755,0.000000000,0.006688744,-0.015789458,-0.632329576,0.000000000,-0.631108517,0.000000000,0.000004779,-0.000053382,-0.000363414,0.000000000,-0.000331255
0.007999279,-0.000120000,0.000021094,-0.001983323,-0.002469695,0.000000000,-0.003823838,0.000057000,-0.010265615,0.037471678,2.101999023,0.000000000,2.086579836,-0.006802000,-0.007455744,-0.032506709,0.922521937,0.000000000,0.921092581,0.424820006,0.338928870,0.373434436,2.792865455,0.000000000,2.770941752,-0.396499991,-0.381241741,-0.380178300,-0.490504444,0.000000000,-0.461228243,0.000000000,0.000045230,0.000729062,-0.005994956,0.000000000,-0.006643858,0.000000000,-0.000016247,0.000463404,-0.000580757,0.000000000,-0.000888773,0.000000000,0.000935282,-0.003312182,-0.192611065,0.000000000,-0.190930963,0.000000000,0.006719605,-0.033656368,-1.163645790,0.000000000,-1.148740698,0.000000000,0.012548759,-0.014672999,-0.693202755,0.000000000,-0.688346676,0.000000000,0.006658762,-0.014990825,-0.631108517,0.000000000,-0.630348934,0.000000000,0.000004668,-0.000060762,-0.000331255,0.000000000,-0.000299033
0.009999099,-0.000148000,0.000018375,-0.002285733,-0.003823838,0.000000000,-0.004808437,0.000069000,-0.010190945,0.037335229,2.086579836,0.000000000,2.071852416,-0.006792000,-0.007518477,-0.031366808,0.921092581,0.000000000,0.915983237,0.424802989,0.339667022,0.369075709,2.770941752,0.000000000,2.754223361,-0.396566004,-0.381968365,-0.363312065,-0.461228243,0.000000000,-0.442414197,0.000000000,0.000047005,0.000887635,-0.006643858,0.000000000,-0.007274073,0.000000000,-0.000015381,0.000501585,-0.000888773,0.000000000,-0.001196990,0.000000000,0.000928675,-0.003304103,-0.190930963,0.000000000,-0.189235619,0.000000000,0.006652719,-0.033448563,-1.148740698,0.000000000,-1.134429179,0.000000000,0.012518528,-0.015115180,-0.688346676,0.000000000,-0.683294152,0.000000000,0.006630464,-0.014149330,-0.630348934,0.000000000,-0.629881300,0.000000000,0.000004544,-0.000068311,-0.000299033,0.000000000,-0.000264999
0.011998918,-0.000176000,0.000016314,-0.002624820,-0.004808437,0.000000000,-0.005655815,0.000079000,-0.010116594,0.037175144,2.071852416,0.000000000,2.057182143,-0.006781000,-0.007578711,-0.030116995,0.915983237,0.000000000,0.907961478,0.424784988,0.340395535,0.364256349,2.754223361,0.000000000,2.741325858,-0.396634012,-0.382658101,-0.344868235,-0.442414197,0.000000000,-0.432015110,0.000000000,0.000049044,0.001019604,-0.007274073,0.000000000,-0.007855331,0.000000000,-0.000014474,0.000536829,-0.001196990,0.000000000,-0.001492974,0.000000000,0.000922085,-0.003295167,-0.189235619,0.000000000,-0.187564737,0.000000000,0.006586280,-0.033225429,-1.134429179,0.000000000,-1.120591291,0.000000000,0.012487412,-0.015558078,-0.683294152,0.000000000,-0.678180580,0.000000000,0.006603859,-0.013302594,-0.629881300,0.000000000,-0.629599717,0.000000000,0.000004406,-0.000075895,-0.000264999,0.000000000,-0.000229556
0.013998738,-0.000202000,-0.000015878,-0.002993113,-0.005655815,0.000000000,-0.002913077,0.000089000,-0.010042607,0.036993528,2.057182143,0.000000000,2.043102104,-0.006769000,-0.007636299,-0.028794520,0.907961478,0.000000000,0.897828704,0.424766988,0.341113787,0.359126276,2.741325858,0.000000000,2.731284992,-0.396703988,-0.383309123,-0.325511025,-0.432015110,0.000000000,-0.428324223,0.000000000,0.000051297,0.001126673,-0.007855331,0.000000000,-0.008387437,0.000000000,-0.000013541,0.000568200,-0.001492974,0.000000000,-0.001769848,0.000000000,0.000915517,-0.003284711,-0.187564737,0.000000000,-0.185934192,0.000000000,0.006520311,-0.032990609,-1.120591291,0.000000000,-1.107151266,0.000000000,0.012455432,-0.015990202,-0.678180580,0.000000000,-0.673089002,0.000000000,0.006578910,-0.012474313,-0.629599717,0.000000000,-0.629433088,0.000000000,0.000004257,-0.000083187,-0.000229556,0.000000000,-0.000193728
0.015998558,-0.000228000,-0.000017944,-0.003362366,-0.002913077,0.000000000,-0.003376136,0.000097000,-0.009969017,0.036795409,2.043102104,0.000000000,2.028939507,-0.006755000,-0.007691160,-0.027430422,0.897828704,0.000000000,0.886547463,0.424748003,0.341821398,0.353805544,2.731284992,0.000000000,2.723209364,-0.396777004,-0.383920659,-0.305767989,-0.428324223,0.000000000,-0.430028122,0.000000000,0.000053698,0.001200645,-0.008387437,0.000000000,-0.008840403,0.000000000,-0.000012599,0.000595444,-0.001769848,0.000000000,-0.002024314,0.000000000,0.000908972,-0.003272693,-0.185934192,0.000000000,-0.184345800,0.000000000,0.006454830,-0.032746444,-1.107151266,0.000000000,-1.094061445,0.000000000,0.012422622,-0.016404878,-0.673089002,0.000000000,-0.668069058,0.000000000,0.006555552,-0.011678877,-0.629433088,0.000000000,-0.629333861,0.000000000,0.000004097,-0.000089952,-0.000193728,0.000000000,-0.000158320
0.017998378,-0.000252000,-0.000022511,-0.003749883,-0.003376136,0.000000000,-0.003256074,0.000104000,-0.009895860,0.036578214,2.028939507,0.000000000,2.015047597,-0.006740000,-0.007743245,-0.026042535,0.886547463,0.000000000,0.874223336,0.424728990,0.342518150,0.348376015,2.723209364,0.000000000,2.716591105,-0.396851003,-0.384492779,-0.286059955,-0.430028122,0.000000000,-0.435715489,0.000000000,0.000056220,0.001261079,-0.008840403,0.000000000,-0.009267097,0.000000000,-0.000011669,0.000618643,-0.002024314,0.000000000,-0.002254644,0.000000000,0.000902455,-0.003259120,-0.184345800,0.000000000,-0.182800313,0.000000000,0.006389854,-0.032494216,-1.094061445,0.000000000,-1.081297426,0.000000000,0.012389024,-0.016798796,-0.668069058,0.000000000,-0.663146896,0.000000000,0.006533704,-0.010924148,-0.629333861,0.000000000,-0.629271455,0.000000000,0.000003928,-0.000096190,-0.000158320,0.000000000,-0.000123484
0.019998197,-0.000276000,-0.000029026,-0.004149592,-0.003256074,0.000000000,-0.002859523,0.000111000,-0.009823172,0.036344063,2.015047597,0.000000000,2.001672340,-0.006724000,-0.007792537,-0.024646192,0.874223336,0.000000000,0.861198451,0.424708992,0.343203955,0.342902479,2.716591105,0.000000000,2.710914994,-0.396926999,-0.385026174,-0.266697313,-0.435715489,0.000000000,-0.444536479,0.000000000,0.000058833,0.001306726,-0.009267097,0.000000000,-0.009660979,0.000000000,-0.000010774,0.000638173,-0.002254644,0.000000000,-0.002460412,0.000000000,0.000895968,-0.003244092,-0.182800313,0.000000000,-0.181296280,0.000000000,0.006325397,-0.032234714,-1.081297426,0.000000000,-1.068845502,0.000000000,0.012354684,-0.017170419,-0.663146896,0.000000000,-0.658336262,0.000000000,0.006513276,-0.010213824,-0.629271455,0.000000000,-0.629226386,0.000000000,0.000003751,-0.000101863,-0.000123484,0.000000000,-0.000089494
0.021998017,-0.000298000,-0.000037015,-0.004557623,-0.002859523,0.000000000,-0.002045517,0.000116000,-0.009750984,0.036093974,2.001672340,0.000000000,1.988231278,-0.006707000,-0.007839042,-0.023252559,0.861198451,0.000000000,0.847726777,0.424688995,0.343878820,0.337432474,2.710914994,0.000000000,2.705904814,-0.397004992,-0.385522019,-0.247922756,-0.444536479,0.000000000,-0.455682250,0.000000000,0.000061511,0.001338917,-0.009660979,0.000000000,-0.010023111,0.000000000,-0.000009944,0.000654471,-0.002460412,0.000000000,-0.002641044,0.000000000,0.000889514,-0.003227610,-0.181296280,0.000000000,-0.179834484,0.000000000,0.006261473,-0.031968290,-1.068845502,0.000000000,-1.056701659,0.000000000,0.012319645,-0.017519452,-0.658336262,0.000000000,-0.653642103,0.000000000,0.006494178,-0.009548926,-0.629226386,0.000000000,-0.629186569,0.000000000,0.000003568,-0.000106989,-0.000089494,0.000000000,-0.000056475
0.023997837,-0.000319000,-0.000046207,-0.004970305,-0.002045517,0.000000000,-0.000970483,0.000121000,-0.009679327,0.035828578,1.988231278,0.000000000,1.975287314,-0.006690000,-0.007882780,-0.021869480,0.847726777,0.000000000,0.833707572,0.424668998,0.344542821,0.332000433,2.705904814,0.000000000,2.701311015,-0.397085011,-0.385981851,-0.229915604,-0.455682250,0.000000000,-0.468490885,0.000000000,0.000064233,0.001361113,-0.010023111,0.000000000,-0.010361320,0.000000000,-0.000009213,0.000668041,-0.002641044,0.000000000,-0.002795761,0.000000000,0.000883095,-0.003209675,-0.179834484,0.000000000,-0.178415777,0.000000000,0.006198095,-0.031695149,-1.056701659,0.000000000,-1.044865058,0.000000000,0.012283952,-0.017846123,-0.653642103,0.000000000,-0.649065625,0.000000000,0.006476320,-0.008928998,-0.629186569,0.000000000,-0.629144205,0.000000000,0.000003382,-0.000111624,-0.000056475,0.000000000,-0.000024457
0.025997657,-0.000339000,-0.000056453,-0.005384651,-0.000970483,0.000000000,0.000332943,0.000124000,-0.009608230,0.035548726,1.975287314,0.000000000,1.962260913,-0.006671000,-0.007923787,-0.020503220,0.833707572,0.000000000,0.819860728,0.424647987,0.345196084,0.326631769,2.701311015,0.000000000,2.696880950,-0.397166014,-0.386407460,-0.212804592,-0.468490885,0.000000000,-0.482309839,0.000000000,0.000066980,0.001373707,-0.010361320,0.000000000,-0.010674774,0.000000000,-0.000008619,0.000679431,-0.002795761,0.000000000,-0.002923462,0.000000000,0.000876716,-0.003190310,-0.178415777,0.000000000,-0.177040412,0.000000000,0.006135277,-0.031415426,-1.044865058,0.000000000,-1.033336380,0.000000000,0.012247651,-0.018150921,-0.649065625,0.000000000,-0.644606117,0.000000000,0.006459615,-0.008352719,-0.629144205,0.000000000,-0.629094231,0.000000000,0.000003194,-0.000115808,-0.000024457,0.000000000,0.000006479
0.027997476,-0.000357000,-0.000067670,-0.005799249,0.000332943,0.000000000,0.001954534,0.000127000,-0.009537720,0.035254634,1.962260913,0.000000000,1.949723822,-0.006653000,-0.007962098,-0.019155698,0.819860728,0.000000000,0.805387218,0.424627006,0.345838760,0.321338031,2.696880950,0.000000000,2.692588946,-0.397249013,-0.386800792,-0.196666043,-0.482309839,0.000000000,-0.496827969,0.000000000,0.000069741,0.001380558,-0.010674774,0.000000000,-0.010973288,0.000000000,-0.000008205,0.000689215,-0.002923462,0.000000000,-0.003022917,0.000000000,0.000870378,-0.003169536,-0.177040412,0.000000000,-0.175708744,0.000000000,0.006073032,-0.031129248,-1.033336380,0.000000000,-1.022116461,0.000000000,0.012210782,-0.018434435,-0.644606117,0.000000000,-0.640262076,0.000000000,0.006443979,-0.007818250,-0.629094231,0.000000000,-0.629033425,0.000000000,0.000003005,-0.000119606,0.000006479,0.000000000,0.000036301
0.029997296,-0.000374000,-0.000079806,-0.006211002,0.001954534,0.000000000,0.003764463,0.000129000,-0.009467826,0.034947125,1.949723822,0.000000000,1.937380760,-0.006634000,-0.007997759,-0.017830772,0.805387218,0.000000000,0.790955926,0.424605995,0.346471024,0.316132061,2.692588946,0.000000000,2.688328883,-0.397332996,-0.387163902,-0.181554882,-0.496827969,0.000000000,-0.511579046,0.000000000,0.000072502,0.001380716,-0.010973288,0.000000000,-0.011252809,0.000000000,-0.000008009,0.000698003,-0.003022917,0.000000000,-0.003093494,0.000000000,0.000864084,-0.003147395,-0.175708744,0.000000000,-0.174420572,0.000000000,0.006011372,-0.030836720,-1.022116461,0.000000000,-1.011206518,0.000000000,0.012173387,-0.018697309,-0.640262076,0.000000000,-0.636031534,0.000000000,0.006429332,-0.007323448,-0.629033425,0.000000000,-0.628959857,0.000000000,0.000002820,-0.000123074,0.000036301,0.000000000,0.000064917
0.031997116,-0.000390000,-0.000092821,-0.006618550,0.003764463,0.000000000,0.005751019,0.000130000,-0.009398573,0.034626601,1.937380760,0.000000000,1.925230073,-0.006614000,-0.008030817,-0.016529047,0.790955926,0.000000000,0.776593704,0.424584001,0.347093058,0.311016985,2.688328883,0.000000000,2.684006812,-0.397419006,-0.387498879,-0.167488950,-0.511579046,0.000000000,-0.526406500,0.000000000,0.000075255,0.001376284,-0.011252809,0.000000000,-0.011518382,0.000000000,0.000008056,0.000706409,-0.003093494,0.000000000,-0.004853482,0.000000000,0.000857837,-0.003123923,-0.174420572,0.000000000,-0.173175857,0.000000000,0.005950309,-0.030537980,-1.011206518,0.000000000,-1.000606956,0.000000000,0.012135507,-0.018940151,-0.636031534,0.000000000,-0.631912707,0.000000000,0.006415600,-0.006866027,-0.628959857,0.000000000,-0.628872474,0.000000000,0.000002640,-0.000126294,0.000064917,0.000000000,0.000092269
0.033996936,-0.000404000,-0.000106687,-0.007020716,0.005751019,0.000000000,0.008010999,0.000130000,-0.009329986,0.034293324,1.925230073,0.000000000,1.913273053,-0.006594000,-0.008061318,-0.015250551,0.776593704,0.000000000,0.762030096,0.424562007,0.347705045,0.305993189,2.684006812,0.000000000,2.679670573,-0.397507012,-0.387807827,-0.154473924,-0.526406500,0.000000000,-0.541078757,0.000000000,0.000077991,0.001368450,-0.011518382,0.000000000,-0.011772706,0.000000000,0.000008328,0.000676144,-0.004853482,0.000000000,-0.004711340,0.000000000,0.000851641,-0.003098650,-0.173175857,0.000000000,-0.171986251,0.000000000,0.005889851,-0.030235394,-1.000606956,0.000000000,-0.990266428,0.000000000,0.012097190,-0.019158275,-0.631912707,0.000000000,-0.627942019,0.000000000,0.006402706,-0.006446909,-0.628872474,0.000000000,-0.628760912,0.000000000,0.000002471,-0.000127625,0.000092269,0.000000000,0.000113137
0.035996755,-0.000416000,-0.000121377,-0.007415418,0.008010999,0.000000000,0.010529737,0.000128000,-0.009262091,0.033947788,1.913273053,0.000000000,1.901221277,-0.006572000,-0.008089310,-0.013995977,0.762030096,0.000000000,0.747862721,0.424539000,0.348307167,0.301061043,2.679670573,0.000000000,2.675241963,-0.397601008,-0.388092826,-0.142499135,-0.541078757,0.000000000,-0.555819491,0.000000000,0.000080706,0.001357548,-0.011772706,0.000000000,-0.012016100,0.000000000,0.000008781,0.000650670,-0.004711340,0.000000000,-0.004615521,0.000000000,0.000845498,-0.003071867,-0.171986251,0.000000000,-0.170846038,0.000000000,0.005830013,-0.029926096,-0.990266428,0.000000000,-0.980253621,0.000000000,0.012058471,-0.019359844,-0.627942019,0.000000000,-0.624063536,0.000000000,0.006390590,-0.006057782,-0.628760912,0.000000000,-0.628642743,0.000000000,0.000002314,-0.000131023,0.000113137,0.000000000,0.000138663
0.037996575,-0.000428000,-0.000136864,-0.007801461,0.010529737,0.000000000,0.013084540,0.000125000,-0.009194911,0.033589984,1.901221277,0.000000000,1.889366153,-0.006546000,-0.008114839,-0.012764345,0.747862721,0.000000000,0.734651245,0.424515009,0.348899604,0.296218811,2.675241963,0.000000000,2.670723840,-0.397702008,-0.388355963,-0.131568767,-0.555819491,0.000000000,-0.570508105,0.000000000,0.000083397,0.001345423,-0.012016100,0.000000000,-0.012253568,0.000000000,0.000009370,0.000628569,-0.004615521,0.000000000,-0.004553351,0.000000000,0.000839411,-0.003043905,-0.170846038,0.000000000,-0.169748373,0.000000000,0.005770805,-0.029610535,-0.980253621,0.000000000,-0.970561902,0.000000000,0.012019382,-0.019544418,-0.624063536,0.000000000,-0.620282538,0.000000000,0.006379195,-0.005697770,-0.628642743,0.000000000,-0.628514565,0.000000000,0.000002174,-0.000134358,0.000138663,0.000000000,0.000162275
0.039996395,-0.000438000,-0.000153127,-0.008179225,0.013084540,0.000000000,0.015888340,0.000120000,-0.009128471,0.033219926,1.889366153,0.000000000,1.877430062,-0.006518000,-0.008137945,-0.011553160,0.734651245,0.000000000,0.721782185,0.424488991,0.349482526,0.291461015,2.670723840,0.000000000,2.666078596,-0.397810012,-0.388599318,-0.121677559,-0.570508105,0.000000000,-0.584949511,0.000000000,0.000086062,0.001332725,-0.012253568,0.000000000,-0.012486845,0.000000000,0.000010059,0.000608947,-0.004553351,0.000000000,-0.004515772,0.000000000,0.000833383,-0.003014879,-0.169748373,0.000000000,-0.168691305,0.000000000,0.005712241,-0.029289174,-0.970561902,0.000000000,-0.961184084,0.000000000,0.011979958,-0.019711725,-0.620282538,0.000000000,-0.616603135,0.000000000,0.006368464,-0.005365495,-0.628514565,0.000000000,-0.628374697,0.000000000,0.000002057,-0.000137545,0.000162275,0.000000000,0.000183099
0.041996215,-0.000448000,-0.000170142,-0.008547581,0.015888340,0.000000000,0.018719103,0.000114000,-0.009062795,0.032837761,1.877430062,0.000000000,1.865700842,-0.006487000,-0.008158667,-0.010360903,0.721782185,0.000000000,0.709516159,0.424463004,0.350056092,0.286782690,2.666078596,0.000000000,2.661461365,-0.397922993,-0.388824930,-0.112805927,-0.584949511,0.000000000,-0.598788483,0.000000000,0.000088703,0.001320184,-0.012486845,0.000000000,-0.012718028,0.000000000,0.000010817,0.000591182,-0.004515772,0.000000000,-0.004496108,0.000000000,0.000827414,-0.002984773,-0.168691305,0.000000000,-0.167675762,0.000000000,0.005654330,-0.028962360,-0.961184084,0.000000000,-0.952115470,0.000000000,0.011940235,-0.019861801,-0.616603135,0.000000000,-0.613027254,0.000000000,0.006358345,-0.005059190,-0.628374697,0.000000000,-0.628222906,0.000000000,0.000001971,-0.000141006,0.000183099,0.000000000,0.000201661
0.043996034,-0.000457000,-0.000187887,-0.008906531,0.018719103,0.000000000,0.021681096,0.000107000,-0.008997908,0.032443588,1.865700842,0.000000000,1.854183089,-0.006453000,-0.008177038,-0.009185740,0.709516159,0.000000000,0.697821402,0.424436003,0.350620445,0.282176719,2.661461365,0.000000000,2.656847705,-0.398039013,-0.389034749,-0.104909455,-0.598788483,0.000000000,-0.611758412,0.000000000,0.000091318,0.001307614,-0.012718028,0.000000000,-0.012946591,0.000000000,0.000011622,0.000574823,-0.004496108,0.000000000,-0.004489420,0.000000000,0.000821508,-0.002953583,-0.167675762,0.000000000,-0.166702455,0.000000000,0.005597084,-0.028630389,-0.952115470,0.000000000,-0.943352245,0.000000000,0.011900245,-0.019994814,-0.613027254,0.000000000,-0.609555852,0.000000000,0.006348791,-0.004776977,-0.628222906,0.000000000,-0.628059667,0.000000000,0.000001922,-0.000145082,0.000201661,0.000000000,0.000218224
0.045995854,-0.000466000,-0.000206339,-0.009255452,0.021681096,0.000000000,0.024661803,0.000098000,-0.008933833,0.032037700,1.854183089,0.000000000,1.842592545,-0.006417000,-0.008193089,-0.008025394,0.697821402,0.000000000,0.686370628,0.424407989,0.351175712,0.277633326,2.656847705,0.000000000,2.652299209,-0.398158014,-0.389230596,-0.097923595,-0.611758412,0.000000000,-0.623852718,0.000000000,0.000093907,0.001294719,-0.012946591,0.000000000,-0.013171625,0.000000000,0.000012458,0.000559528,-0.004489420,0.000000000,-0.004492008,0.000000000,0.000815666,-0.002921326,-0.166702455,0.000000000,-0.165771641,0.000000000,0.005540511,-0.028293528,-0.943352245,0.000000000,-0.934891179,0.000000000,0.011860023,-0.020111014,-0.609555852,0.000000000,-0.606189279,0.000000000,0.006339757,-0.004516961,-0.628059667,0.000000000,-0.627885880,0.000000000,-0.000001917,-0.000150017,0.000218224,0.000000000,0.000620195
0.047995674,-0.000474000,-0.000225477,-0.009594330,0.024661803,0.000000000,0.027765411,0.000088000,-0.008870593,0.031619995,1.842592545,0.000000000,1.831222525,-0.006380000,-0.008206846,-0.006878574,0.686370628,0.000000000,0.674858168,0.424380004,0.351722002,0.273144953,2.652299209,0.000000000,2.647928531,-0.398279011,-0.389414165,-0.091784333,-0.623852718,0.000000000,-0.634982879,0.000000000,0.000096472,0.001282567,-0.013171625,0.000000000,-0.013396316,0.000000000,0.000013311,0.000544800,-0.004492008,0.000000000,-0.004499727,0.000000000,0.000809888,-0.002889577,-0.165771641,0.000000000,-0.164847392,0.000000000,0.005484621,-0.027952020,-0.934891179,0.000000000,-0.926729391,0.000000000,0.011819602,-0.020210697,-0.606189279,0.000000000,-0.602927517,0.000000000,0.006331203,-0.004277299,-0.627885880,0.000000000,-0.627702669,0.000000000,-0.000001933,-0.000082291,0.000620195,0.000000000,0.000429327
0.049995494,-0.000482000,-0.000245277,-0.009921869,0.027765411,0.000000000,0.030875416,0.000077000,-0.008808211,0.031190853,1.831222525,0.000000000,1.820070896,-0.006340000,-0.008218336,-0.005745375,0.674858168,0.000000000,0.663862411,0.424351990,0.352259415,0.268706698,2.647928531,0.000000000,2.643760413,-0.398400992,-0.389587010,-0.086422771,-0.634982879,0.000000000,-0.645085164,0.000000000,0.000099012,0.001269889,-0.013396316,0.000000000,-0.013616949,0.000000000,0.000014174,0.000530871,-0.004499727,0.000000000,-0.004512957,0.000000000,0.000804178,-0.002855855,-0.164847392,0.000000000,-0.163986944,0.000000000,0.005429424,-0.027606097,-0.926729391,0.000000000,-0.918864169,0.000000000,0.011779013,-0.020294162,-0.602927517,0.000000000,-0.599770482,0.000000000,0.006323090,-0.004056232,-0.627702669,0.000000000,-0.627511276,0.000000000,-0.000001952,-0.000055051,0.000429327,0.000000000,0.000353760
0.051995313,-0.000490000,-0.000265715,-0.010237936,0.030875416,0.000000000,0.033988514,0.000065000,-0.008746710,0.030750457,1.820070896,0.000000000,1.809139966,-0.006300000,-0.008227585,-0.004624323,0.663862411,0.000000000,0.652503936,0.424324006,0.352788036,0.264310422,2.643760413,0.000000000,2.639851174,-0.398521990,-0.389750539,-0.081764501,-0.645085164,0.000000000,-0.654030175,0.000000000,0.000101526,0.001256821,-0.013616949,0.000000000,-0.013833831,0.000000000,0.000015040,0.000517432,-0.004512957,0.000000000,-0.004529244,0.000000000,0.000798537,-0.002820854,-0.163986944,0.000000000,-0.163175310,0.000000000,0.005374926,-0.027256002,-0.918864169,0.000000000,-0.911292361,0.000000000,0.011738290,-0.020361708,-0.599770482,0.000000000,-0.596718074,0.000000000,0.006315386,-0.003852135,-0.627511276,0.000000000,-0.627312890,0.000000000,-0.000001972,-0.000045614,0.000353760,0.000000000,0.000328932
0.053995133,-0.000498000,-0.000286764,-0.010541698,0.033988514,0.000000000,0.037097278,0.000053000,-0.008686112,0.030299176,1.809139966,0.000000000,1.798711779,-0.006258000,-0.008234617,-0.003516199,0.652503936,0.000000000,0.641376441,0.424295992,0.353307940,0.259951833,2.639851174,0.000000000,2.636222791,-0.398642004,-0.389905994,-0.077727289,-0.654030175,0.000000000,-0.661926160,0.000000000,0.000104011,0.001242887,-0.013833831,0.000000000,-0.014045436,0.000000000,0.000015903,0.000504338,-0.004529244,0.000000000,-0.004547217,0.000000000,0.000792969,-0.002784818,-0.163175310,0.000000000,-0.162407578,0.000000000,0.005321137,-0.026901944,-0.911292361,0.000000000,-0.904011511,0.000000000,0.011697463,-0.020413667,-0.596718074,0.000000000,-0.593769892,0.000000000,0.006308059,-0.003663458,-0.627312890,0.000000000,-0.627108805,0.000000000,-0.000001994,-0.000044140,0.000328932,0.000000000,0.000327062
0.055994953,-0.000506000,-0.000308400,-0.010832539,0.037097278,0.000000000,0.040195384,0.000040000,-0.008626437,0.029837526,1.798711779,0.000000000,1.788496307,-0.006215000,-0.008239459,-0.002420706,0.641376441,0.000000000,0.630196184,0.424268007,0.353819190,0.255625313,2.636222791,0.000000000,2.632914918,-0.398759007,-0.390054467,-0.074236449,-0.661926160,0.000000000,-0.668670208,0.000000000,0.000106465,0.001227028,-0.014045436,0.000000000,-0.014248362,0.000000000,0.000016760,0.000491511,-0.004547217,0.000000000,-0.004566030,0.000000000,0.000787474,-0.002747855,-0.162407578,0.000000000,-0.161681829,0.000000000,0.005268064,-0.026544153,-0.904011511,0.000000000,-0.897018545,0.000000000,0.011656562,-0.020450329,-0.593769892,0.000000000,-0.590925808,0.000000000,0.006301082,-0.003488785,-0.627108805,0.000000000,-0.626900213,0.000000000,-0.000002022,-0.000046184,0.000327062,0.000000000,0.000335697
0.057994773,-0.000515000,-0.000330593,-0.011109901,0.040195384,0.000000000,0.043170162,0.000026000,-0.008567705,0.029365872,1.788496307,0.000000000,1.778491021,-0.006172000,-0.008242135,-0.001338069,0.630196184,0.000000000,0.618691257,0.424239993,0.354321842,0.251325933,2.632914918,0.000000000,2.629955383,-0.398871988,-0.390196887,-0.071210067,-0.668670208,0.000000000,-0.674298905,0.000000000,0.000108885,0.001209858,-0.014248362,0.000000000,-0.014444091,0.000000000,0.000017608,0.000478887,-0.004566030,0.000000000,-0.004584994,0.000000000,0.000782055,-0.002710024,-0.161681829,0.000000000,-0.160997238,0.000000000,0.005215713,-0.026182837,-0.897018545,0.000000000,-0.890310751,0.000000000,0.011615618,-0.020472010,-0.590925808,0.000000000,-0.588185472,0.000000000,0.006294428,-0.003326795,-0.626900213,0.000000000,-0.626688304,0.000000000,-0.000002057,-0.000049641,0.000335697,0.000000000,0.000348989
0.059994592,-0.000524000,-0.000353316,-0.011373674,0.043170162,0.000000000,0.046124628,0.000012000,-0.008509936,0.028884421,1.778491021,0.000000000,1.768981038,-0.006128000,-0.008242674,-0.000269429,0.618691257,0.000000000,0.607179579,0.424214005,0.354815944,0.247050853,2.629955383,0.000000000,2.627491208,-0.398979992,-0.390334027,-0.068569830,-0.674298905,0.000000000,-0.678860466,0.000000000,0.000111268,0.001191759,-0.014444091,0.000000000,-0.014633521,0.000000000,0.000018444,0.000466417,-0.004584994,0.000000000,-0.004603584,0.000000000,0.000776713,-0.002671381,-0.160997238,0.000000000,-0.160352963,0.000000000,0.005164092,-0.025818204,-0.890310751,0.000000000,-0.883885280,0.000000000,0.011574660,-0.020479012,-0.588185472,0.000000000,-0.585548586,0.000000000,0.006288075,-0.003176288,-0.626688304,0.000000000,-0.626474174,0.000000000,-0.000002098,-0.000053473,0.000348989,0.000000000,0.000364092
0.061994412,-0.000533000,-0.000376541,-0.011622925,0.046124628,0.000000000,0.049050364,-0.000002000,-0.008453149,0.028393786,1.768981038,0.000000000,1.759957697,-0.006084000,-0.008241106,0.000783963,0.607179579,0.000000000,0.595413965,0.424187988,0.355301541,0.242798559,2.627491208,0.000000000,2.625400385,-0.399082005,-0.390466510,-0.066241923,-0.678860466,0.000000000,-0.682399206,0.000000000,0.000113612,0.001171582,-0.014633521,0.000000000,-0.014812965,0.000000000,0.000019266,0.000454069,-0.004603584,0.000000000,-0.004621413,0.000000000,0.000771451,-0.002631983,-0.160352963,0.000000000,-0.159748157,0.000000000,0.005113206,-0.025450468,-0.883885280,0.000000000,-0.877739100,0.000000000,0.011533717,-0.020471627,-0.585548586,0.000000000,-0.583014896,0.000000000,0.006282003,-0.003036163,-0.626474174,0.000000000,-0.626258848,0.000000000,-0.000002148,-0.000057171,0.000364092,0.000000000,0.000379612
0.063994232,-0.000543000,-0.000400235,-0.011856759,0.049050364,0.000000000,0.051832405,-0.000016000,-0.008397360,0.027894622,1.759957697,0.000000000,1.751411044,-0.006040000,-0.008237464,0.001820865,0.595413965,0.000000000,0.583431998,0.424163014,0.355778675,0.238567169,2.625400385,0.000000000,2.623761405,-0.399177015,-0.390594820,-0.064154822,-0.682399206,0.000000000,-0.684967385,0.000000000,0.000115909,0.001148932,-0.014812965,0.000000000,-0.014980800,0.000000000,0.000020074,0.000441814,-0.004621413,0.000000000,-0.004638159,0.000000000,0.000766268,-0.002591871,-0.159748157,0.000000000,-0.159182312,0.000000000,0.005063062,-0.025079825,-0.877739100,0.000000000,-0.871869403,0.000000000,0.011492816,-0.020450163,-0.583014896,0.000000000,-0.580583995,0.000000000,0.006276192,-0.002905408,-0.626258848,0.000000000,-0.626043315,0.000000000,-0.000002206,-0.000060495,0.000379612,0.000000000,0.000394899
0.065994052,-0.000554000,-0.000424368,-0.012074955,0.051832405,0.000000000,0.054466130,-0.000031000,-0.008342585,0.027387450,1.751411044,0.000000000,1.743049606,-0.005996000,-0.008231784,0.002839730,0.583431998,0.000000000,0.571278680,0.424138993,0.356247388,0.234356180,2.623761405,0.000000000,2.622569638,-0.399264008,-0.390719303,-0.062241607,-0.684967385,0.000000000,-0.686617704,0.000000000,0.000118157,0.001123932,-0.014980800,0.000000000,-0.015136901,0.000000000,0.000020865,0.000429635,-0.004638159,0.000000000,-0.004653598,0.000000000,0.000761167,-0.002551084,-0.159182312,0.000000000,-0.158654925,0.000000000,0.005013664,-0.024706472,-0.871869403,0.000000000,-0.866273253,0.000000000,0.011451986,-0.020414917,-0.580583995,0.000000000,-0.578255507,0.000000000,0.006270626,-0.002783103,-0.626043315,0.000000000,-0.625828479,0.000000000,-0.000002271,-0.000063339,0.000394899,0.000000000,0.000409639
0.067993871,-0.000566000,-0.000448907,-0.012277614,0.054466130,0.000000000,0.056948781,-0.000045000,-0.008288840,0.026872510,1.743049606,0.000000000,1.735440851,-0.005953000,-0.008224106,0.003839182,0.571278680,0.000000000,0.558712087,0.424116999,0.356707718,0.230165123,2.622569638,0.000000000,2.621893651,-0.399342000,-0.390840181,-0.060439000,-0.686617704,0.000000000,-0.687408311,0.000000000,0.000120353,0.001097906,-0.015136901,0.000000000,-0.015284824,0.000000000,0.000021638,0.000417522,-0.004653598,0.000000000,-0.004667565,0.000000000,0.000756149,-0.002509657,-0.158654925,0.000000000,-0.158165576,0.000000000,0.004965018,-0.024330605,-0.866273253,0.000000000,-0.860947695,0.000000000,0.011411254,-0.020366188,-0.578255507,0.000000000,-0.576029013,0.000000000,0.006265289,-0.002668411,-0.625828479,0.000000000,-0.625615182,0.000000000,-0.000002345,-0.000065661,0.000409639,0.000000000,0.000423674
0.069993691,-0.000578000,-0.000473821,-0.012464084,0.056948781,0.000000000,0.059379792,-0.000063000,-0.008236138,0.026350619,1.735440851,0.000000000,1.727149045,-0.005907000,-0.008214473,0.004816570,0.558712087,0.000000000,0.546941617,0.424095988,0.357159711,0.225996622,2.621893651,0.000000000,2.621646065,-0.399416000,-0.390957560,-0.058689383,-0.687408311,0.000000000,-0.687998313,0.000000000,0.000122491,0.001069013,-0.015284824,0.000000000,-0.015418758,0.000000000,0.000022394,0.000405472,-0.004667565,0.000000000,-0.004679959,0.000000000,0.000751215,-0.002467634,-0.158165576,0.000000000,-0.157713575,0.000000000,0.004917129,-0.023952408,-0.860947695,0.000000000,-0.855889857,0.000000000,0.011370645,-0.020304276,-0.576029013,0.000000000,-0.573904043,0.000000000,0.006260168,-0.002560574,-0.625615182,0.000000000,-0.625404195,0.000000000,-0.000002426,-0.000067438,0.000423674,0.000000000,0.000436879
0.071993511,-0.000589000,-0.000499079,-0.012635360,0.059379792,0.000000000,0.061868119,-0.000082000,-0.008184496,0.025821116,1.727149045,0.000000000,1.719046179,-0.005858000,-0.008202928,0.005772283,0.546941617,0.000000000,0.535970901,0.424077004,0.357603414,0.221851506,2.621646065,0.000000000,2.621883918,-0.399484992,-0.391071521,-0.056980511,-0.687998313,0.000000000,-0.688311880,0.000000000,0.000124576,0.001042654,-0.015418758,0.000000000,-0.015554568,0.000000000,0.000023131,0.000393482,-0.004679959,0.000000000,-0.004690694,0.000000000,0.000746366,-0.002425037,-0.157713575,0.000000000,-0.157298784,0.000000000,0.004870001,-0.023572076,-0.855889857,0.000000000,-0.851096532,0.000000000,0.011330187,-0.020229470,-0.573904043,0.000000000,-0.571880172,0.000000000,0.006255250,-0.002458898,-0.625404195,0.000000000,-0.625196242,0.000000000,-0.000002513,-0.000068697,0.000436879,0.000000000,0.000449247
0.073993331,-0.000600000,-0.000524649,-0.012790848,0.061868119,0.000000000,0.064300422,-0.000104000,-0.008133928,0.025284164,1.719046179,0.000000000,1.710564307,-0.005808000,-0.008189517,0.006705799,0.535970901,0.000000000,0.525255757,0.424057990,0.358038878,0.217731814,2.621883918,0.000000000,2.622459613,-0.399549991,-0.391182113,-0.055296157,-0.688311880,0.000000000,-0.688492597,0.000000000,0.000126611,0.001017271,-0.015554568,0.000000000,-0.015688023,0.000000000,0.000023848,0.000381560,-0.004690694,0.000000000,-0.004699761,0.000000000,0.000741603,-0.002381915,-0.157298784,0.000000000,-0.156920395,0.000000000,0.004823637,-0.023189782,-0.851096532,0.000000000,-0.846564962,0.000000000,0.011289902,-0.020142081,-0.571880172,0.000000000,-0.569956789,0.000000000,0.006250525,-0.002362758,-0.625196242,0.000000000,-0.624991983,0.000000000,-0.000002605,-0.000069442,0.000449247,0.000000000,0.000460699
0.075993150,-0.000612000,-0.000550500,-0.012930979,0.064300422,0.000000000,0.066569280,-0.000128000,-0.008084449,0.024739494,1.710564307,0.000000000,1.701998178,-0.005756000,-0.008174284,0.007616372,0.525255757,0.000000000,0.515110396,0.424039990,0.358466159,0.213640424,2.622459613,0.000000000,2.623415012,-0.399612010,-0.391289372,-0.053629199,-0.688492597,0.000000000,-0.688659603,0.000000000,0.000128600,0.000994813,-0.015688023,0.000000000,-0.015825253,0.000000000,0.000024546,0.000369700,-0.004699761,0.000000000,-0.004707081,0.000000000,0.000736927,-0.002338292,-0.156920395,0.000000000,-0.156578109,0.000000000,0.004778041,-0.022805691,-0.846564962,0.000000000,-0.842292378,0.000000000,0.011249818,-0.020042421,-0.569956789,0.000000000,-0.568133214,0.000000000,0.006245982,-0.002271590,-0.624991983,0.000000000,-0.624792019,0.000000000,-0.000002702,-0.000069707,0.000460699,0.000000000,0.000471228
0.077992970,-0.000623000,-0.000576604,-0.013056761,0.066569280,0.000000000,0.068890492,-0.000153000,-0.008036075,0.024186872,1.701998178,0.000000000,1.693641811,-0.005703000,-0.008157277,0.008503428,0.515110396,0.000000000,0.505277011,0.424023002,0.358885320,0.209580743,2.623415012,0.000000000,2.624721883,-0.399672002,-0.391393335,-0.051981838,-0.688659603,0.000000000,-0.688899061,0.000000000,0.000130551,0.000975155,-0.015825253,0.000000000,-0.015966469,0.000000000,0.000025224,0.000357913,-0.004707081,0.000000000,-0.004712679,0.000000000,0.000732340,-0.002294213,-0.156578109,0.000000000,-0.156271203,0.000000000,0.004733217,-0.022419983,-0.842292378,0.000000000,-0.838275668,0.000000000,0.011209956,-0.019930780,-0.568133214,0.000000000,-0.566408901,0.000000000,0.006241612,-0.002184897,-0.624792019,0.000000000,-0.624596853,0.000000000,-0.000002802,-0.000069523,0.000471228,0.000000000,0.000480819
0.079992790,-0.000636000,-0.000602929,-0.013167457,0.068890492,0.000000000,0.070936893,-0.000180000,-0.007988822,0.023626719,1.693641811,0.000000000,1.685205741,-0.005649000,-0.008138546,0.009365686,0.505277011,0.000000000,0.495798515,0.424005985,0.359296436,0.205557958,2.624721883,0.000000000,2.626272815,-0.399729997,-0.391494060,-0.050362531,-0.688899061,0.000000000,-0.689184270,0.000000000,0.000132463,0.000956385,-0.015966469,0.000000000,-0.016106417,0.000000000,0.000025882,0.000346204,-0.004712679,0.000000000,-0.004716568,0.000000000,0.000727842,-0.002249716,-0.156271203,0.000000000,-0.155999055,0.000000000,0.004689167,-0.022032822,-0.838275668,0.000000000,-0.834511943,0.000000000,0.011170341,-0.019807465,-0.566408901,0.000000000,-0.564783145,0.000000000,0.006237407,-0.002102222,-0.624596853,0.000000000,-0.624406977,0.000000000,-0.000002904,-0.000068924,0.000480819,0.000000000,0.000489464
0.081992610,-0.000648000,-0.000629450,-0.013264824,0.070936893,0.000000000,0.073035344,-0.000207000,-0.007942704,0.023058819,1.685205741,0.000000000,1.677267749,-0.005595000,-0.008118140,0.010202905,0.495798515,0.000000000,0.486410417,0.423988998,0.359699585,0.201574608,2.626272815,0.000000000,2.628048545,-0.399785995,-0.391591613,-0.048776501,-0.689184270,0.000000000,-0.689493653,0.000000000,0.000134343,0.000939735,-0.016106417,0.000000000,-0.016249027,0.000000000,0.000026519,0.000334577,-0.004716568,0.000000000,-0.004718745,0.000000000,0.000723433,-0.002204826,-0.155999055,0.000000000,-0.155761309,0.000000000,0.004645894,-0.021644368,-0.834511943,0.000000000,-0.830998286,0.000000000,0.011130995,-0.019672785,-0.564783145,0.000000000,-0.563255191,0.000000000,0.006233361,-0.002023152,-0.624406977,0.000000000,-0.624222831,0.000000000,-0.000003008,-0.000067959,0.000489464,0.000000000,0.000497206
0.083992429,-0.000662000,-0.000656138,-0.013347859,0.073035344,0.000000000,0.074857337,-0.000235000,-0.007897736,0.022483856,1.677267749,0.000000000,1.669532136,-0.005540000,-0.008096112,0.011013800,0.486410417,0.000000000,0.477441096,0.423972011,0.360094855,0.197634795,2.628048545,0.000000000,2.630012524,-0.399841994,-0.391686069,-0.047227969,-0.689493653,0.000000000,-0.690009436,0.000000000,0.000136187,0.000922301,-0.016249027,0.000000000,-0.016385886,0.000000000,0.000027136,0.000323045,-0.004718745,0.000000000,-0.004719271,0.000000000,0.000719115,-0.002159587,-0.155761309,0.000000000,-0.155557171,0.000000000,0.004603401,-0.021254783,-0.830998286,0.000000000,-0.827731701,0.000000000,0.011091941,-0.019527038,-0.563255191,0.000000000,-0.561824308,0.000000000,0.006229466,-0.001947327,-0.624222831,0.000000000,-0.624044790,0.000000000,-0.000003112,-0.000066660,0.000497206,0.000000000,0.000504039
0.085992249,-0.000677000,-0.000682967,-0.013418224,0.074857337,0.000000000,0.076516148,-0.000264000,-0.007853933,0.021901881,1.669532136,0.000000000,1.662001735,-0.005485000,-0.008072516,0.011798292,0.477441096,0.000000000,0.468622870,0.423954993,0.360482338,0.193741457,2.630012524,0.000000000,2.632136123,-0.399897009,-0.391777536,-0.045733450,-0.690009436,0.000000000,-0.690574351,0.000000000,0.000137998,0.000905048,-0.016385886,0.000000000,-0.016519769,0.000000000,0.000027732,0.000311611,-0.004719271,0.000000000,-0.004718163,0.000000000,0.000714888,-0.002114025,-0.155557171,0.000000000,-0.155386259,0.000000000,0.004561688,-0.020864221,-0.827731701,0.000000000,-0.824709238,0.000000000,0.011053200,-0.019370533,-0.561824308,0.000000000,-0.560489664,0.000000000,0.006225718,-0.001874413,-0.624044790,0.000000000,-0.623873207,0.000000000,-0.000003216,-0.000065070,0.000504039,0.000000000,0.000510007
0.087992069,-0.000692000,-0.000709914,-0.013476695,0.076516148,0.000000000,0.078120222,-0.000293000,-0.007811306,0.021313104,1.662001735,0.000000000,1.654959899,-0.005430000,-0.008047404,0.012555868,0.468622870,0.000000000,0.459982909,0.423936993,0.360862132,0.189897153,2.632136123,0.000000000,2.634334721,-0.399953008,-0.391866132,-0.044298048,-0.690574351,0.000000000,-0.691360729,0.000000000,0.000139773,0.000887913,-0.016519769,0.000000000,-0.016650527,0.000000000,0.000028308,0.000300284,-0.004718163,0.000000000,-0.004715469,0.000000000,0.000710753,-0.002068170,-0.155386259,0.000000000,-0.155248007,0.000000000,0.004520759,-0.020472834,-0.824709238,0.000000000,-0.821927960,0.000000000,0.011014793,-0.019203578,-0.560489664,0.000000000,-0.559250396,0.000000000,0.006222109,-0.001804119,-0.623873207,0.000000000,-0.623708388,0.000000000,-0.000003319,-0.000063226,0.000510007,0.000000000,0.000515138
0.089991889,-0.000710000,-0.000736954,-0.013523212,0.078120222,0.000000000,0.079346881,-0.000322000,-0.007769870,0.020718034,1.654959899,0.000000000,1.648398689,-0.005376000,-0.008020832,0.013286029,0.459982909,0.000000000,0.451263649,0.423918009,0.361234342,0.186104939,2.634334721,0.000000000,2.636580011,-0.400009006,-0.391952010,-0.042938976,-0.691360729,0.000000000,-0.692204810,0.000000000,0.000141512,0.000869514,-0.016650527,0.000000000,-0.016773971,0.000000000,0.000028863,0.000289075,-0.004715469,0.000000000,-0.004711252,0.000000000,0.000706710,-0.002022062,-0.155248007,0.000000000,-0.155141706,0.000000000,0.004480613,-0.020080771,-0.821927960,0.000000000,-0.819384847,0.000000000,0.010976740,-0.019026473,-0.559250396,0.000000000,-0.558105642,0.000000000,0.006218637,-0.001736185,-0.623708388,0.000000000,-0.623550589,0.000000000,-0.000003419,-0.000061156,0.000515138,0.000000000,0.000519436
0.091991708,-0.000728000,-0.000764068,-0.013559644,0.079346881,0.000000000,0.080524327,-0.000351000,-0.007729636,0.020116978,1.648398689,0.000000000,1.642314567,-0.005324000,-0.007992856,0.013988368,0.451263649,0.000000000,0.442205929,0.423898011,0.361599075,0.182366628,2.636580011,0.000000000,2.638850418,-0.400068015,-0.392035333,-0.041661199,-0.692204810,0.000000000,-0.693380255,0.000000000,0.000143212,0.000850091,-0.016773971,0.000000000,-0.016890577,0.000000000,0.000029397,0.000277986,-0.004711252,0.000000000,-0.004705533,0.000000000,0.000702759,-0.001975726,-0.155141706,0.000000000,-0.155066891,0.000000000,0.004441252,-0.019688172,-0.819384847,0.000000000,-0.817077035,0.000000000,0.010939061,-0.018839533,-0.558105642,0.000000000,-0.557054414,0.000000000,0.006215296,-0.001670378,-0.623550589,0.000000000,-0.623400046,0.000000000,-0.000003518,-0.000058892,0.000519436,0.000000000,0.000522941
0.093991528,-0.000748000,-0.000791234,-0.013585610,0.080524327,0.000000000,0.081434985,-0.000379000,-0.007690615,0.019510564,1.642314567,0.000000000,1.636980620,-0.005272000,-0.007963533,0.014661297,0.442205929,0.000000000,0.433430884,0.423877001,0.361956451,0.178687863,2.638850418,0.000000000,2.641098301,-0.400128007,-0.392116313,-0.040490128,-0.693380255,0.000000000,-0.694588439,0.000000000,0.000144870,0.000828710,-0.016890577,0.000000000,-0.016997296,0.000000000,0.000029912,0.000267027,-0.004705533,0.000000000,-0.004698382,0.000000000,0.000698902,-0.001929198,-0.155066891,0.000000000,-0.155022877,0.000000000,0.004402678,-0.019295184,-0.817077035,0.000000000,-0.815001450,0.000000000,0.010901775,-0.018643056,-0.557054414,0.000000000,-0.556095796,0.000000000,0.006212083,-0.001606494,-0.623400046,0.000000000,-0.623256946,0.000000000,-0.000003613,-0.000056462,0.000522941,0.000000000,0.000525670
0.095991348,-0.000770000,-0.000818433,-0.013602394,0.081434985,0.000000000,0.082084149,-0.000406000,-0.007652817,0.018899364,1.636980620,0.000000000,1.632386645,-0.005222000,-0.007932922,0.015305485,0.433430884,0.000000000,0.424371233,0.423853993,0.362306586,0.175067750,2.641098301,0.000000000,2.643260495,-0.400191009,-0.392195169,-0.039427871,-0.694588439,0.000000000,-0.696006189,0.000000000,0.000146480,0.000804931,-0.016997296,0.000000000,-0.017092391,0.000000000,0.000030406,0.000256205,-0.004698382,0.000000000,-0.004689855,0.000000000,0.000695138,-0.001882508,-0.155022877,0.000000000,-0.155009059,0.000000000,0.004364890,-0.018901949,-0.815001450,0.000000000,-0.813154972,0.000000000,0.010864900,-0.018437341,-0.556095796,0.000000000,-0.555228829,0.000000000,0.006208995,-0.001544355,-0.623256946,0.000000000,-0.623121447,0.000000000,-0.000003705,-0.000053890,0.000525670,0.000000000,0.000527653
0.097991168,-0.000794000,-0.000845650,-0.013610929,0.082084149,0.000000000,0.082475337,-0.000432000,-0.007616248,0.018284063,1.632386645,0.000000000,1.628519460,-0.005174000,-0.007901082,0.015920293,0.424371233,0.000000000,0.415058240,0.423828989,0.362649604,0.171508731,2.643260495,0.000000000,2.645311915,-0.400258005,-0.392272148,-0.038489755,-0.696006189,0.000000000,-0.697664231,0.000000000,0.000148036,0.000778308,-0.017092391,0.000000000,-0.017174020,0.000000000,0.000030880,0.000245525,-0.004689855,0.000000000,-0.004679991,0.000000000,0.000691468,-0.001835684,-0.155009059,0.000000000,-0.155024888,0.000000000,0.004327889,-0.018508595,-0.813154972,0.000000000,-0.811534786,0.000000000,0.010828455,-0.018222704,-0.555228829,0.000000000,-0.554452391,0.000000000,0.006206027,-0.001483792,-0.623121447,0.000000000,-0.622993709,0.000000000,-0.000003793,-0.000051201,0.000527653,0.000000000,0.000528917
0.099990987,-0.000820000,-0.000872870,-0.013612190,0.082475337,0.000000000,0.082612499,-0.000457000,-0.007580918,0.017665310,1.628519460,0.000000000,1.625366361,-0.005128000,-0.007868071,0.016505265,0.415058240,0.000000000,0.405518948,0.423803002,0.362985630,0.168012961,2.645311915,0.000000000,2.647293260,-0.400328994,-0.392347534,-0.037693049,-0.697664231,0.000000000,-0.699484887,0.000000000,0.000149534,0.000748839,-0.017174020,0.000000000,-0.017241601,0.000000000,0.000031334,0.000234992,-0.004679991,0.000000000,-0.004668844,0.000000000,0.000687891,-0.001788757,-0.155024888,0.000000000,-0.155069738,0.000000000,0.004291674,-0.018115261,-0.811534786,0.000000000,-0.810137761,0.000000000,0.010792456,-0.017999442,-0.554452391,0.000000000,-0.553765470,0.000000000,0.006203178,-0.001424669,-0.622993709,0.000000000,-0.622873827,0.000000000,-0.000003877,-0.000048415,0.000528917,0.000000000,0.000529486
0.101990807,-0.000854000,-0.000900081,-0.013607106,0.082612499,0.000000000,0.081860001,-0.000480000,-0.007546830,0.017043745,1.625366361,0.000000000,1.623198714,-0.005084000,-0.007833951,0.017059919,0.405518948,0.000000000,0.395781589,0.423774004,0.363314794,0.164582359,2.647293260,0.000000000,2.649054655,-0.400402993,-0.392421634,-0.037049617,-0.699484887,0.000000000,-0.701304051,0.000000000,0.000150967,0.000716637,-0.017241601,0.000000000,-0.017294902,0.000000000,0.000031769,0.000224611,-0.004668844,0.000000000,-0.004656464,0.000000000,0.000684409,-0.001741754,-0.155069738,0.000000000,-0.155143016,0.000000000,0.004256246,-0.017722077,-0.810137761,0.000000000,-0.808960838,0.000000000,0.010756920,-0.017767855,-0.553765470,0.000000000,-0.553166977,0.000000000,0.006200444,-0.001366862,-0.622873827,0.000000000,-0.622761890,0.000000000,-0.000003957,-0.000045551,0.000529486,0.000000000,0.000529384
0.103990627,-0.000900000,-0.000927278,-0.013600616,0.081860001,0.000000000,0.079819093,-0.000504000,-0.007513991,0.016419650,1.623198714,0.000000000,1.621158824,-0.005040000,-0.007798781,0.017585128,0.395781589,0.000000000,0.386411688,0.423741013,0.363637223,0.161214439,2.649054655,0.000000000,2.650543722,-0.400480986,-0.392494750,-0.036557986,-0.701304051,0.000000000,-0.703194623,0.000000000,0.000152332,0.000682534,-0.017294902,0.000000000,-0.017335908,0.000000000,0.000032184,0.000214384,-0.004656464,0.000000000,-0.004642890,0.000000000,0.000681020,-0.001694702,-0.155143016,0.000000000,-0.155244123,0.000000000,0.004221603,-0.017329168,-0.808960838,0.000000000,-0.808001034,0.000000000,0.010721864,-0.017528248,-0.553166977,0.000000000,-0.552655760,0.000000000,0.006197823,-0.001310262,-0.622761890,0.000000000,-0.622657959,0.000000000,-0.000004032,-0.000042626,0.000529384,0.000000000,0.000528637
0.105990447,-0.000959000,-0.000954477,-0.013601480,0.079819093,0.000000000,0.076434273,-0.000528000,-0.007482407,0.015792099,1.621158824,0.000000000,1.619553871,-0.004998000,-0.007762613,0.018083969,0.386411688,0.000000000,0.376786272,0.423705995,0.363953029,0.157902971,2.650543722,0.000000000,2.651921861,-0.400563002,-0.392567190,-0.036220371,-0.703194623,0.000000000,-0.705122186,0.000000000,0.000153636,0.000651778,-0.017335908,0.000000000,-0.017380210,0.000000000,0.000032580,0.000204314,-0.004642890,0.000000000,-0.004628160,0.000000000,0.000677726,-0.001647621,-0.155244123,0.000000000,-0.155372681,0.000000000,0.004187745,-0.016936666,-0.808001034,0.000000000,-0.807255149,0.000000000,0.010687302,-0.017280914,-0.552655760,0.000000000,-0.552230715,0.000000000,0.006195314,-0.001254775,-0.622657959,0.000000000,-0.622562081,0.000000000,-0.000004102,-0.000039664,0.000528637,0.000000000,0.000527298
0.107990266,-0.001028000,-0.000981709,-0.013617815,0.076434273,0.000000000,0.072074531,-0.000551000,-0.007452086,0.015160485,1.619553871,0.000000000,1.618684133,-0.004956000,-0.007725500,0.018556970,0.376786272,0.000000000,0.367476285,0.423667997,0.364262323,0.154647146,2.651921861,0.000000000,2.653127543,-0.400647014,-0.392639269,-0.036039356,-0.705122186,0.000000000,-0.706842924,0.000000000,0.000154886,0.000625119,-0.017380210,0.000000000,-0.017430773,0.000000000,0.000032957,0.000194408,-0.004628160,0.000000000,-0.004612334,0.000000000,0.000674526,-0.001600543,-0.155372681,0.000000000,-0.155527895,0.000000000,0.004154671,-0.016544686,-0.807255149,0.000000000,-0.806720259,0.000000000,0.010653250,-0.017026156,-0.552230715,0.000000000,-0.551890619,0.000000000,0.006192913,-0.001200316,-0.622562081,0.000000000,-0.622474287,0.000000000,-0.000004167,-0.000036666,0.000527298,0.000000000,0.000525350
0.109990086,-0.001107000,-0.001009017,-0.013655641,0.072074531,0.000000000,0.066778488,-0.000575000,-0.007423036,0.014524844,1.618684133,0.000000000,1.617982590,-0.004914000,-0.007687487,0.019006510,0.367476285,0.000000000,0.358441397,0.423628002,0.364565205,0.151440645,2.653127543,0.000000000,2.654261592,-0.400732994,-0.392711265,-0.035997884,-0.706842924,0.000000000,-0.708374114,0.000000000,0.000156089,0.000601270,-0.017430773,0.000000000,-0.017484505,0.000000000,0.000033316,0.000184669,-0.004612334,0.000000000,-0.004595476,0.000000000,0.000671420,-0.001553506,-0.155527895,0.000000000,-0.155708941,0.000000000,0.004122380,-0.016153362,-0.806720259,0.000000000,-0.806392954,0.000000000,0.010619721,-0.016764251,-0.551890619,0.000000000,-0.551634411,0.000000000,0.006190620,-0.001146822,-0.622474287,0.000000000,-0.622394565,0.000000000,-0.000004227,-0.000033631,0.000525350,0.000000000,0.000522777
0.111989906,-0.001196000,-0.001036456,-0.013721059,0.066778488,0.000000000,0.060586520,-0.000598000,-0.007395267,0.013884647,1.617982590,0.000000000,1.618032303,-0.004873000,-0.007648618,0.019434503,0.358441397,0.000000000,0.349366405,0.423586011,0.364861762,0.148278749,2.654261592,0.000000000,2.655351900,-0.400821000,-0.392783427,-0.036080948,-0.708374114,0.000000000,-0.709739275,0.000000000,0.000157252,0.000581579,-0.017484505,0.000000000,-0.017546077,0.000000000,0.000033656,0.000175098,-0.004595476,0.000000000,-0.004577601,0.000000000,0.000668408,-0.001506524,-0.155708941,0.000000000,-0.155915442,0.000000000,0.004090870,-0.015762807,-0.806392954,0.000000000,-0.806270265,0.000000000,0.010586730,-0.016495504,-0.551634411,0.000000000,-0.551460785,0.000000000,0.006188431,-0.001094217,-0.622394565,0.000000000,-0.622322945,0.000000000,-0.000004281,-0.000030581,0.000522777,0.000000000,0.000519632
0.113989726,-0.001292000,-0.001064092,-0.013819093,0.060586520,0.000000000,0.053853775,-0.000621000,-0.007368787,0.013239950,1.618032303,0.000000000,1.618550275,-0.004833000,-0.007608935,0.019841530,0.349366405,0.000000000,0.340250083,0.423541009,0.365152081,0.145159416,2.655351900,0.000000000,2.656343611,-0.400911003,-0.392855980,-0.036276523,-0.709739275,0.000000000,-0.710946837,0.000000000,0.000158379,0.000563766,-0.017546077,0.000000000,-0.017609388,0.000000000,0.000033978,0.000165697,-0.004577601,0.000000000,-0.004558768,0.000000000,0.000665489,-0.001459633,-0.155915442,0.000000000,-0.156146539,0.000000000,0.004060138,-0.015373134,-0.806270265,0.000000000,-0.806349110,0.000000000,0.010554290,-0.016220206,-0.551460785,0.000000000,-0.551368506,0.000000000,0.006186346,-0.001042454,-0.622322945,0.000000000,-0.622259397,0.000000000,-0.000004331,-0.000027519,0.000519632,0.000000000,0.000515913
0.115989545,-0.001396000,-0.001091995,-0.013952867,0.053853775,0.000000000,0.046498920,-0.000644000,-0.007343605,0.012590966,1.618550275,0.000000000,1.619534176,-0.004794000,-0.007568478,0.020228506,0.340250083,0.000000000,0.331082853,0.423494011,0.365436241,0.142079800,2.656343611,0.000000000,2.657315931,-0.401001990,-0.392929124,-0.036572074,-0.710946837,0.000000000,-0.711909822,0.000000000,0.000159473,0.000547121,-0.017609388,0.000000000,-0.017672654,0.000000000,0.000034282,0.000156466,-0.004558768,0.000000000,-0.004539003,0.000000000,0.000662664,-0.001412855,-0.156146539,0.000000000,-0.156401660,0.000000000,0.004030185,-0.014984463,-0.806349110,0.000000000,-0.806626214,0.000000000,0.010522413,-0.015938638,-0.551368506,0.000000000,-0.551356364,0.000000000,0.006184363,-0.000991489,-0.622259397,0.000000000,-0.622203881,0.000000000,-0.000004375,-0.000024454,0.000515913,0.000000000,0.000511643
0.117989365,-0.001506000,-0.001120244,-0.014125877,0.046498920,0.000000000,0.038763304,-0.000666000,-0.007319730,0.011937697,1.619534176,0.000000000,1.621270628,-0.004755000,-0.007527286,0.020595954,0.331082853,0.000000000,0.322148547,0.423446000,0.365714316,0.139037583,2.657315931,0.000000000,2.658342741,-0.401093990,-0.393003023,-0.036949691,-0.711909822,0.000000000,-0.712665571,0.000000000,0.000160536,0.000531293,-0.017672654,0.000000000,-0.017735044,0.000000000,0.000034569,0.000147406,-0.004539003,0.000000000,-0.004518339,0.000000000,0.000659933,-0.001366214,-0.156401660,0.000000000,-0.156680210,0.000000000,0.004001006,-0.014596903,-0.806626214,0.000000000,-0.807098456,0.000000000,0.010491110,-0.015651088,-0.551356364,0.000000000,-0.551423068,0.000000000,0.006182481,-0.000941281,-0.622203881,0.000000000,-0.622156361,0.000000000,-0.000004413,-0.000021399,0.000511643,0.000000000,0.000506855
0.119989185,-0.001622000,-0.001148921,-0.014339979,0.038763304,0.000000000,0.030666150,-0.000689000,-0.007297168,0.011280660,1.621270628,0.000000000,1.623181564,-0.004716000,-0.007485397,0.020944453,0.322148547,0.000000000,0.313444765,0.423395991,0.365986378,0.136030929,2.658342741,0.000000000,2.659370482,-0.401185989,-0.393077812,-0.037394577,-0.712665571,0.000000000,-0.713140153,0.000000000,0.000161565,0.000514345,-0.017735044,0.000000000,-0.017790824,0.000000000,0.000034838,0.000138520,-0.004518339,0.000000000,-0.004496830,0.000000000,0.000657294,-0.001319739,-0.156680210,0.000000000,-0.156981409,0.000000000,0.003972599,-0.014210570,-0.807098456,0.000000000,-0.807762542,0.000000000,0.010460395,-0.015357831,-0.551423068,0.000000000,-0.551567385,0.000000000,0.006180697,-0.000891802,-0.622156361,0.000000000,-0.622116771,0.000000000,-0.000004446,-0.000018354,0.000506855,0.000000000,0.000501548
0.121989005,-0.001742000,-0.001178114,-0.014597487,0.030666150,0.000000000,0.022443002,-0.000711000,-0.007275929,0.010619815,1.623181564,0.000000000,1.625838583,-0.004678000,-0.007442847,0.021275197,0.313444765,0.000000000,0.304670219,0.423345000,0.366252490,0.133056143,2.659370482,0.000000000,2.660485378,-0.401279002,-0.393153583,-0.037885556,-0.713140153,0.000000000,-0.713486857,0.000000000,0.000162560,0.000497784,-0.017790824,0.000000000,-0.017844357,0.000000000,0.000035091,0.000129802,-0.004496830,0.000000000,-0.004474476,0.000000000,0.000654748,-0.001273443,-0.156981409,0.000000000,-0.157304866,0.000000000,0.003944963,-0.013825569,-0.807762542,0.000000000,-0.808615331,0.000000000,0.010430276,-0.015059153,-0.551567385,0.000000000,-0.551787965,0.000000000,0.006179011,-0.000843017,-0.622116771,0.000000000,-0.622085067,0.000000000,-0.000004474,-0.000015335,0.000501548,0.000000000,0.000495769
0.123988824,-0.001865000,-0.001207908,-0.014898337,0.022443002,0.000000000,0.014209322,-0.000733000,-0.007256017,0.009955849,1.625838583,0.000000000,1.628943643,-0.004641000,-0.007399672,0.021587443,0.304670219,0.000000000,0.295852407,0.423292011,0.366512719,0.130114462,2.660485378,0.000000000,2.661610467,-0.401371002,-0.393230413,-0.038414617,-0.713486857,0.000000000,-0.713515945,0.000000000,0.000163518,0.000478987,-0.017844357,0.000000000,-0.017887735,0.000000000,0.000035327,0.000121257,-0.004474476,0.000000000,-0.004451334,0.000000000,0.000652294,-0.001227361,-0.157304866,0.000000000,-0.157649682,0.000000000,0.003918093,-0.013442003,-0.808615331,0.000000000,-0.809653635,0.000000000,0.010400766,-0.014755328,-0.551787965,0.000000000,-0.552083509,0.000000000,0.006177421,-0.000794908,-0.622085067,0.000000000,-0.622061165,0.000000000,-0.000004496,-0.000012336,0.000495769,0.000000000,0.000489500
0.125988644,-0.001991000,-0.001238390,-0.015242151,0.014209322,0.000000000,0.005972125,-0.000755000,-0.007237438,0.009289356,1.628943643,0.000000000,1.632484750,-0.004603000,-0.007355910,0.021881421,0.295852407,0.000000000,0.287564997,0.423238993,0.366767126,0.127203743,2.661610467,0.000000000,2.662881307,-0.401463002,-0.393308329,-0.038958327,-0.713515945,0.000000000,-0.713393489,0.000000000,0.000164434,0.000458012,-0.017887735,0.000000000,-0.017920681,0.000000000,0.000035547,0.000112879,-0.004451334,0.000000000,-0.004427404,0.000000000,0.000649932,-0.001181508,-0.157649682,0.000000000,-0.158015360,0.000000000,0.003891987,-0.013059981,-0.809653635,0.000000000,-0.810874152,0.000000000,0.010371873,-0.014446628,-0.552083509,0.000000000,-0.552452706,0.000000000,0.006175926,-0.000747458,-0.622061165,0.000000000,-0.622044982,0.000000000,-0.000004513,-0.000009365,0.000489500,0.000000000,0.000482771
0.127988464,-0.002119000,-0.001269645,-0.015628755,0.005972125,0.000000000,-0.002153857,-0.000776000,-0.007220197,0.008620719,1.632484750,0.000000000,1.636738722,-0.004567000,-0.007311595,0.022157683,0.287564997,0.000000000,0.278952599,0.423184991,0.367015772,0.124322923,2.662881307,0.000000000,2.664241431,-0.401553005,-0.393387342,-0.039506406,-0.713393489,0.000000000,-0.712946024,0.000000000,0.000165304,0.000434932,-0.017920681,0.000000000,-0.017942976,0.000000000,0.000035752,0.000104669,-0.004427404,0.000000000,-0.004402733,0.000000000,0.000647661,-0.001135909,-0.158015360,0.000000000,-0.158401229,0.000000000,0.003866642,-0.012679609,-0.810874152,0.000000000,-0.812273545,0.000000000,0.010343606,-0.014133317,-0.552452706,0.000000000,-0.552894262,0.000000000,0.006174525,-0.000700652,-0.622044982,0.000000000,-0.622036429,0.000000000,-0.000004525,-0.000006430,0.000482771,0.000000000,0.000475604
0.129988284,-0.002248000,-0.001301756,-0.016056442,-0.002153857,0.000000000,-0.010062896,-0.000797000,-0.007204295,0.007950912,1.636738722,0.000000000,1.641399919,-0.004530000,-0.007266764,0.022415113,0.278952599,0.000000000,0.270904165,0.423130006,0.367258718,0.121472710,2.664241431,0.000000000,2.665681953,-0.401641995,-0.393467415,-0.040036302,-0.712946024,0.000000000,-0.712340740,0.000000000,0.000166120,0.000408150,-0.017942976,0.000000000,-0.017949332,0.000000000,0.000035940,0.000096624,-0.004402733,0.000000000,-0.004377325,0.000000000,0.000645480,-0.001090585,-0.158401229,0.000000000,-0.158806636,0.000000000,0.003842054,-0.012300975,-0.812273545,0.000000000,-0.813848779,0.000000000,0.010315975,-0.013815674,-0.552894262,0.000000000,-0.553406735,0.000000000,0.006173216,-0.000654473,-0.622036429,0.000000000,-0.622035427,0.000000000,-0.000004531,-0.000003528,0.000475604,0.000000000,0.000468002
0.131988103,-0.002377000,-0.001334801,-0.016523786,-0.010062896,0.000000000,-0.017648062,-0.000818000,-0.007189734,0.007280511,1.641399919,0.000000000,1.646455674,-0.004494000,-0.007221455,0.022654633,0.270904165,0.000000000,0.262840339,0.423074991,0.367496020,0.118650925,2.665681953,0.000000000,2.667275000,-0.401730001,-0.393548487,-0.040536368,-0.712340740,0.000000000,-0.711619789,0.000000000,0.000166877,0.000378451,-0.017949332,0.000000000,-0.017941395,0.000000000,0.000036113,0.000088743,-0.004377325,0.000000000,-0.004351213,0.000000000,0.000643390,-0.001045556,-0.158806636,0.000000000,-0.159230962,0.000000000,0.003818219,-0.011924194,-0.813848779,0.000000000,-0.815596261,0.000000000,0.010288987,-0.013493943,-0.553406735,0.000000000,-0.553988906,0.000000000,0.006171998,-0.000608921,-0.622035427,0.000000000,-0.622041852,0.000000000,-0.000004533,-0.000000666,0.000468002,0.000000000,0.000459990
0.133987923,-0.002505000,-0.001368855,-0.017028158,-0.017648062,0.000000000,-0.024809716,-0.000839000,-0.007176514,0.006610261,1.646455674,0.000000000,1.651889069,-0.004458000,-0.007175705,0.022875191,0.262840339,0.000000000,0.255080170,0.423018992,0.367727739,0.115859796,2.667275000,0.000000000,2.668940630,-0.401814997,-0.393630487,-0.040999659,-0.711619789,0.000000000,-0.710605534,0.000000000,0.000167569,0.000345635,-0.017941395,0.000000000,-0.017917962,0.000000000,0.000036271,0.000081023,-0.004351213,0.000000000,-0.004324407,0.000000000,0.000641389,-0.001000839,-0.159230962,0.000000000,-0.159673633,0.000000000,0.003795133,-0.011549350,-0.815596261,0.000000000,-0.817512952,0.000000000,0.010262650,-0.013168400,-0.553988906,0.000000000,-0.554639303,0.000000000,0.006170870,-0.000563977,-0.622041852,0.000000000,-0.622055630,0.000000000,-0.000004529,0.000002153,0.000459990,0.000000000,0.000451584
0.135987743,-0.002641000,-0.001403986,-0.017566637,-0.024809716,0.000000000,-0.032516442,-0.000858000,-0.007164632,0.005940906,1.651889069,0.000000000,1.658251196,-0.004423000,-0.007129551,0.023077106,0.255080170,0.000000000,0.247342588,0.422962993,0.367953934,0.113097296,2.668940630,0.000000000,2.670751750,-0.401901007,-0.393713297,-0.041404857,-0.710605534,0.000000000,-0.709776943,0.000000000,0.000168188,0.000309871,-0.017917962,0.000000000,-0.017878918,0.000000000,0.000036415,0.000073460,-0.004324407,0.000000000,-0.004296929,0.000000000,0.000639477,-0.000956457,-0.159673633,0.000000000,-0.160133985,0.000000000,0.003772793,-0.011176546,-0.817512952,0.000000000,-0.819595374,0.000000000,0.010236971,-0.012839289,-0.554639303,0.000000000,-0.555356635,0.000000000,0.006169831,-0.000519645,-0.622055630,0.000000000,-0.622076629,0.000000000,-0.000004520,0.000004927,0.000451584,0.000000000,0.000442795
0.137987563,-0.002788000,-0.001440268,-0.018141687,-0.032516442,0.000000000,-0.041066254,-0.000877000,-0.007154086,0.005272859,1.658251196,0.000000000,1.664963538,-0.004387000,-0.007083032,0.023259426,0.247342588,0.000000000,0.240228760,0.422904015,0.368174669,0.110367464,2.670751750,0.000000000,2.672487275,-0.401988000,-0.393796832,-0.041767595,-0.709776943,0.000000000,-0.709095142,0.000000000,0.000168731,0.000271178,-0.017878918,0.000000000,-0.017823726,0.000000000,0.000036544,0.000066052,-0.004296929,0.000000000,-0.004268786,0.000000000,0.000637653,-0.000912429,-0.160133985,0.000000000,-0.160611328,0.000000000,0.003751195,-0.010805861,-0.819595374,0.000000000,-0.821840512,0.000000000,0.010211958,-0.012506878,-0.555356635,0.000000000,-0.556139422,0.000000000,0.006168879,-0.000475919,-0.622076629,0.000000000,-0.622104745,0.000000000,-0.000004506,0.000007659,0.000442795,0.000000000,0.000433627
0.139987382,-0.002945000,-0.001477784,-0.018759025,-0.041066254,0.000000000,-0.050311245,-0.000895000,-0.007144874,0.004605860,1.664963538,0.000000000,1.672315589,-0.004352000,-0.007036184,0.023424569,0.240228760,0.000000000,0.233125387,0.422845006,0.368390002,0.107666833,2.672487275,0.000000000,2.674354533,-0.402076006,-0.393881026,-0.042096933,-0.709095142,0.000000000,-0.708544132,0.000000000,0.000169198,0.000233416,-0.017823726,0.000000000,-0.017763550,0.000000000,0.000036658,0.000058794,-0.004268786,0.000000000,-0.004239983,0.000000000,0.000635916,-0.000868767,-0.160611328,0.000000000,-0.161105211,0.000000000,0.003730332,-0.010437400,-0.821840512,0.000000000,-0.824244749,0.000000000,0.010187615,-0.012171398,-0.556139422,0.000000000,-0.556986400,0.000000000,0.006168014,-0.000432804,-0.622104745,0.000000000,-0.622139840,0.000000000,-0.000004487,0.000010336,0.000433627,0.000000000,0.000424126
0.141987202,-0.003109000,-0.001516626,-0.019422387,-0.050311245,0.000000000,-0.059900674,-0.000912000,-0.007136994,0.003940092,1.672315589,0.000000000,1.680302525,-0.004317000,-0.006989040,0.023572014,0.233125387,0.000000000,0.226338520,0.422782987,0.368599999,0.104998394,2.674354533,0.000000000,2.676139940,-0.402164996,-0.393965834,-0.042404082,-0.708544132,0.000000000,-0.708093519,0.000000000,0.000169590,0.000196249,-0.017763550,0.000000000,-0.017697551,0.000000000,0.000036759,0.000051686,-0.004239983,0.000000000,-0.004210548,0.000000000,0.000634265,-0.000825493,-0.161105211,0.000000000,-0.161614891,0.000000000,0.003710202,-0.010071245,-0.824244749,0.000000000,-0.826804901,0.000000000,0.010163949,-0.011833101,-0.556986400,0.000000000,-0.557896135,0.000000000,0.006167233,-0.000390292,-0.622139840,0.000000000,-0.622181811,0.000000000,-0.000004464,0.000012966,0.000424126,0.000000000,0.000414280
0.143987022,-0.003282000,-0.001556892,-0.020133760,-0.059900674,0.000000000,-0.070026305,-0.000929000,-0.007130442,0.003275999,1.680302525,0.000000000,1.688629115,-0.004282000,-0.006941634,0.023702919,0.226338520,0.000000000,0.219851361,0.422719985,0.368804720,0.102360478,2.676139940,0.000000000,2.677979521,-0.402253002,-0.394051224,-0.042695351,-0.708093519,0.000000000,-0.707529783,0.000000000,0.000169908,0.000159175,-0.017697551,0.000000000,-0.017624323,0.000000000,0.000036847,0.000044725,-0.004210548,0.000000000,-0.004180505,0.000000000,0.000632701,-0.000782628,-0.161614891,0.000000000,-0.162139699,0.000000000,0.003690799,-0.009707492,-0.826804901,0.000000000,-0.829517409,0.000000000,0.010140964,-0.011492217,-0.557896135,0.000000000,-0.558867331,0.000000000,0.006166536,-0.000348387,-0.622181811,0.000000000,-0.622230528,0.000000000,-0.000004436,0.000015552,0.000414280,0.000000000,0.000404091
0.145986842,-0.003461000,-0.001598683,-0.020896412,-0.070026305,0.000000000,-0.080338892,-0.000946000,-0.007125215,0.002613513,1.688629115,0.000000000,1.697295973,-0.004247000,-0.006893998,0.023818211,0.219851361,0.000000000,0.213651803,0.422654986,0.369004223,0.099751268,2.677979521,0.000000000,2.679818550,-0.402341008,-0.394137150,-0.042962556,-0.707529783,0.000000000,-0.706980451,0.000000000,0.000170155,0.000123502,-0.017624323,0.000000000,-0.017547868,0.000000000,0.000036921,0.000037906,-0.004180505,0.000000000,-0.004149843,0.000000000,0.000631221,-0.000740180,-0.162139699,0.000000000,-0.162679212,0.000000000,0.003672118,-0.009346223,-0.829517409,0.000000000,-0.832379059,0.000000000,0.010118666,-0.011148992,-0.558867331,0.000000000,-0.559898525,0.000000000,0.006165922,-0.000307081,-0.622230528,0.000000000,-0.622285891,0.000000000,-0.000004403,0.000018085,0.000404091,0.000000000,0.000393597
0.147986661,-0.003645000,-0.001642104,-0.021711432,-0.080338892,0.000000000,-0.090714554,-0.000962000,-0.007121310,0.001952850,1.697295973,0.000000000,1.706581393,-0.004213000,-0.006846161,0.023918531,0.213651803,0.000000000,0.207449543,0.422589004,0.369198562,0.097169883,2.679818550,0.000000000,2.681723788,-0.402429014,-0.394223563,-0.043206617,-0.706980451,0.000000000,-0.706447582,0.000000000,0.000170333,0.000088842,-0.017547868,0.000000000,-0.017467289,0.000000000,0.000036982,0.000031230,-0.004149843,0.000000000,-0.004118599,0.000000000,0.000629825,-0.000698169,-0.162679212,0.000000000,-0.163232705,0.000000000,0.003654155,-0.008987523,-0.832379059,0.000000000,-0.835386408,0.000000000,0.010097059,-0.010803652,-0.559898525,0.000000000,-0.560988375,0.000000000,0.006165389,-0.000266379,-0.622285891,0.000000000,-0.622347763,0.000000000,-0.000004366,0.000020567,0.000393597,0.000000000,0.000382800
0.149986481,-0.003834000,-0.001687259,-0.022578562,-0.090714554,0.000000000,-0.101143635,-0.000979000,-0.007118720,0.001294674,1.706581393,0.000000000,1.715900516,-0.004180000,-0.006798155,0.024003340,0.207449543,0.000000000,0.201265746,0.422520012,0.369387798,0.094618020,2.681723788,0.000000000,2.683551432,-0.402516007,-0.394310422,-0.043429620,-0.706447582,0.000000000,-0.705827103,0.000000000,0.000170440,0.000053432,-0.017467289,0.000000000,-0.017377417,0.000000000,0.000037030,0.000024692,-0.004118599,0.000000000,-0.004086780,0.000000000,0.000628512,-0.000656614,-0.163232705,0.000000000,-0.163799499,0.000000000,0.003636903,-0.008631472,-0.835386408,0.000000000,-0.838536182,0.000000000,0.010076146,-0.010456431,-0.560988375,0.000000000,-0.562135458,0.000000000,0.006164937,-0.000226281,-0.622347763,0.000000000,-0.622416022,0.000000000,-0.000004325,0.000023004,0.000382800,0.000000000,0.000371694
0.151986301,-0.004026000,-0.001734254,-0.023498202,-0.101143635,0.000000000,-0.111399469,-0.000996000,-0.007117442,0.000639052,1.715900516,0.000000000,1.725534569,-0.004147000,-0.006750008,0.024073254,0.201265746,0.000000000,0.195379105,0.422450006,0.369571986,0.092093800,2.683551432,0.000000000,2.685437474,-0.402601004,-0.394397670,-0.043624199,-0.705827103,0.000000000,-0.705046298,0.000000000,0.000170478,0.000018988,-0.017377417,0.000000000,-0.017283331,0.000000000,0.000037066,0.000018286,-0.004086780,0.000000000,-0.004054374,0.000000000,0.000627282,-0.000615521,-0.163799499,0.000000000,-0.164379201,0.000000000,0.003620357,-0.008278152,-0.838536182,0.000000000,-0.841824957,0.000000000,0.010055931,-0.010107553,-0.562135458,0.000000000,-0.563338393,0.000000000,0.006164563,-0.000186790,-0.622416022,0.000000000,-0.622490540,0.000000000,-0.000004279,0.000025386,0.000371694,0.000000000,0.000360326
0.153986121,-0.004221000,-0.001783190,-0.024469061,-0.111399469,0.000000000,-0.121478464,-0.001013000,-0.007117469,-0.000013588,1.725534569,0.000000000,1.735472192,-0.004114000,-0.006701751,0.024128539,0.195379105,0.000000000,0.189791941,0.422376990,0.369751178,0.089596072,2.685437474,0.000000000,2.687260614,-0.402684987,-0.394485228,-0.043779033,-0.705046298,0.000000000,-0.704244785,0.000000000,0.000170447,-0.000015546,-0.017283331,0.000000000,-0.017182008,0.000000000,0.000037090,0.000012015,-0.004054374,0.000000000,-0.004021426,0.000000000,0.000626132,-0.000574912,-0.164379201,0.000000000,-0.164971043,0.000000000,0.003604513,-0.007927644,-0.841824957,0.000000000,-0.845249277,0.000000000,0.010036416,-0.009757233,-0.563338393,0.000000000,-0.564595839,0.000000000,0.006164267,-0.000147911,-0.622490540,0.000000000,-0.622571176,0.000000000,-0.000004230,0.000027718,0.000360326,0.000000000,0.000348693
0.155985940,-0.004418000,-0.001834168,-0.025490002,-0.121478464,0.000000000,-0.131269831,-0.001031000,-0.007118795,-0.000662804,1.735472192,0.000000000,1.745417179,-0.004082000,-0.006653412,0.024169965,0.189791941,0.000000000,0.184210537,0.422302991,0.369925424,0.087122998,2.687260614,0.000000000,2.689158815,-0.402767003,-0.394573012,-0.043891782,-0.704244785,0.000000000,-0.703341341,0.000000000,0.000170346,-0.000050454,-0.017182008,0.000000000,-0.017072569,0.000000000,0.000037101,0.000005874,-0.004021426,0.000000000,-0.003987934,0.000000000,0.000625063,-0.000534798,-0.164971043,0.000000000,-0.165574469,0.000000000,0.003589363,-0.007580022,-0.845249277,0.000000000,-0.848805857,0.000000000,0.010017605,-0.009405694,-0.564595839,0.000000000,-0.565906360,0.000000000,0.006164048,-0.000109642,-0.622571176,0.000000000,-0.622657811,0.000000000,-0.000004176,0.000030001,0.000348693,0.000000000,0.000336803
0.157985760,-0.004616000,-0.001887285,-0.026559067,-0.131269831,0.000000000,-0.140667717,-0.001050000,-0.007121411,-0.001308259,1.745417179,0.000000000,1.755359828,-0.004051000,-0.006605018,0.024197081,0.184210537,0.000000000,0.178653053,0.422226995,0.370094775,0.084675358,2.689158815,0.000000000,2.691059321,-0.402846992,-0.394660923,-0.043955578,-0.703341341,0.000000000,-0.702359360,0.000000000,0.000170176,-0.000085191,-0.017072569,0.000000000,-0.016956591,0.000000000,0.000037101,-0.000000143,-0.003987934,0.000000000,-0.003953894,0.000000000,0.000624073,-0.000495189,-0.165574469,0.000000000,-0.166188988,0.000000000,0.003574902,-0.007235357,-0.848805857,0.000000000,-0.852491382,0.000000000,0.009999499,-0.009053152,-0.565906360,0.000000000,-0.567268540,0.000000000,0.006163904,-0.000071986,-0.622657811,0.000000000,-0.622750317,0.000000000,-0.000004119,0.000032231,0.000336803,0.000000000,0.000324681
0.159985580,-0.004813000,-0.001942630,-0.027673695,-0.140667717,0.000000000,-0.149463698,-0.001069000,-0.007125311,-0.001949635,1.755359828,0.000000000,1.765574810,-0.004021000,-0.006556599,0.024209609,0.178653053,0.000000000,0.173134126,0.422147989,0.370259281,0.082253237,2.691059321,0.000000000,2.692894291,-0.402925014,-0.394748853,-0.043964799,-0.702359360,0.000000000,-0.701331882,0.000000000,0.000169936,-0.000119717,-0.016956591,0.000000000,-0.016834237,0.000000000,0.000037090,-0.000006037,-0.003953894,0.000000000,-0.003919325,0.000000000,0.000623161,-0.000456100,-0.166188988,0.000000000,-0.166813960,0.000000000,0.003561124,-0.006893726,-0.852491382,0.000000000,-0.856302406,0.000000000,0.009982099,-0.008699812,-0.567268540,0.000000000,-0.568681035,0.000000000,0.006163834,-0.000034950,-0.622750317,0.000000000,-0.622848548,0.000000000,-0.000004058,0.000034411,0.000324681,0.000000000,0.000312335
0.161985400,-0.005009000,-0.002000288,-0.028829850,-0.149463698,0.000000000,-0.157671801,-0.001090000,-0.007130483,-0.002586146,1.765574810,0.000000000,1.775473072,-0.003991000,-0.006508184,0.024207357,0.173134126,0.000000000,0.167950906,0.422066987,0.370418994,0.079856297,2.692894291,0.000000000,2.694726961,-0.402999014,-0.394836684,-0.043915682,-0.701331882,0.000000000,-0.700073571,0.000000000,0.000169625,-0.000155564,-0.016834237,0.000000000,-0.016700878,0.000000000,0.000037067,-0.000011808,-0.003919325,0.000000000,-0.003884247,0.000000000,0.000622327,-0.000417548,-0.166813960,0.000000000,-0.167448699,0.000000000,0.003548022,-0.006555200,-0.856302406,0.000000000,-0.860235542,0.000000000,0.009965407,-0.008345877,-0.568681035,0.000000000,-0.570142471,0.000000000,0.006163837,0.000001464,-0.622848548,0.000000000,-0.622952367,0.000000000,-0.000003994,0.000036547,0.000312335,0.000000000,0.000299762
0.163985219,-0.005203000,-0.002060335,-0.030024271,-0.157671801,0.000000000,-0.165195636,-0.001112000,-0.007136918,-0.003217620,1.775473072,0.000000000,1.785332207,-0.003963000,-0.006459802,0.024191109,0.167950906,0.000000000,0.162524869,0.421983987,0.370573957,0.077481613,2.694726961,0.000000000,2.696575298,-0.403070003,-0.394924265,-0.043790546,-0.700073571,0.000000000,-0.698752467,0.000000000,0.000169243,-0.000190816,-0.016700878,0.000000000,-0.016562087,0.000000000,0.000037033,-0.000017463,-0.003884247,0.000000000,-0.003848647,0.000000000,0.000621568,-0.000379534,-0.167448699,0.000000000,-0.168092871,0.000000000,0.003535591,-0.006219849,-0.860235542,0.000000000,-0.864287409,0.000000000,0.009949424,-0.007991550,-0.570142471,0.000000000,-0.571651452,0.000000000,0.006163912,0.000037255,-0.622952367,0.000000000,-0.623061652,0.000000000,-0.000003926,0.000038629,0.000299762,0.000000000,0.000287006
0.165985039,-0.005393000,-0.002122838,-0.031252332,-0.165195636,0.000000000,-0.171841113,-0.001135000,-0.007144605,-0.003843546,1.785332207,0.000000000,1.795137397,-0.003935000,-0.006411484,0.024159521,0.162524869,0.000000000,0.157463911,0.421898991,0.370724220,0.075131328,2.696575298,0.000000000,2.698420999,-0.403138012,-0.395011436,-0.043585619,-0.698752467,0.000000000,-0.697398430,0.000000000,0.000168790,-0.000226457,-0.016562087,0.000000000,-0.016414986,0.000000000,0.000036988,-0.000023003,-0.003848647,0.000000000,-0.003812548,0.000000000,0.000620884,-0.000342075,-0.168092871,0.000000000,-0.168745772,0.000000000,0.003523824,-0.005887733,-0.864287409,0.000000000,-0.868454798,0.000000000,0.009934150,-0.007637036,-0.571651452,0.000000000,-0.573206553,0.000000000,0.006164056,0.000072422,-0.623061652,0.000000000,-0.623176269,0.000000000,-0.000003856,0.000040664,0.000287006,0.000000000,0.000274060
0.167984859,-0.005581000,-0.002187854,-0.032508699,-0.171841113,0.000000000,-0.177845493,-0.001160000,-0.007153532,-0.004463256,1.795137397,0.000000000,1.804585821,-0.003908000,-0.006363258,0.024112828,0.157463911,0.000000000,0.152486846,0.421810001,0.370869829,0.072804694,2.698420999,0.000000000,2.700140260,-0.403203011,-0.395098032,-0.043298002,-0.697398430,0.000000000,-0.696033411,0.000000000,0.000168265,-0.000262886,-0.016414986,0.000000000,-0.016258284,0.000000000,0.000036933,-0.000028429,-0.003812548,0.000000000,-0.003775965,0.000000000,0.000620274,-0.000305185,-0.168745772,0.000000000,-0.169406787,0.000000000,0.003512715,-0.005558928,-0.868454798,0.000000000,-0.872734125,0.000000000,0.009919585,-0.007282513,-0.573206553,0.000000000,-0.574806500,0.000000000,0.006164270,0.000106954,-0.623176269,0.000000000,-0.623296064,0.000000000,-0.000003782,0.000042658,0.000274060,0.000000000,0.000260928
0.169984679,-0.005771000,-0.002255432,-0.033789741,-0.177845493,0.000000000,-0.183650419,-0.001188000,-0.007163685,-0.005076633,1.804585821,0.000000000,1.813386941,-0.003882000,-0.006315156,0.024051351,0.152486846,0.000000000,0.147594860,0.421716988,0.371010830,0.070500308,2.700140260,0.000000000,2.701738358,-0.403266996,-0.395183884,-0.042925665,-0.696033411,0.000000000,-0.694882103,0.000000000,0.000167668,-0.000298540,-0.016258284,0.000000000,-0.016096575,0.000000000,0.000036867,-0.000033748,-0.003775965,0.000000000,-0.003738884,0.000000000,0.000619736,-0.000268864,-0.169406787,0.000000000,-0.170075557,0.000000000,0.003502255,-0.005233488,-0.872734125,0.000000000,-0.877122249,0.000000000,0.009905729,-0.006928186,-0.574806500,0.000000000,-0.576449818,0.000000000,0.006164552,0.000140859,-0.623296064,0.000000000,-0.623420926,0.000000000,-0.000003705,0.000044602,0.000260928,0.000000000,0.000247648
0.171984498,-0.005962000,-0.002325620,-0.035094887,-0.183650419,0.000000000,-0.189147418,-0.001217000,-0.007175054,-0.005684291,1.813386941,0.000000000,1.822119930,-0.003856000,-0.006267205,0.023975418,0.147594860,0.000000000,0.143073052,0.421618998,0.371147266,0.068218360,2.701738358,0.000000000,2.703150882,-0.403329998,-0.395268851,-0.042483344,-0.694882103,0.000000000,-0.693919771,0.000000000,0.000167007,-0.000330530,-0.016096575,0.000000000,-0.015938818,0.000000000,0.000036791,-0.000038962,-0.003738884,0.000000000,-0.003701309,0.000000000,0.000619270,-0.000233120,-0.170075557,0.000000000,-0.170751588,0.000000000,0.003492440,-0.004911473,-0.877122249,0.000000000,-0.881615844,0.000000000,0.009892580,-0.006574240,-0.576449818,0.000000000,-0.578135147,0.000000000,0.006164900,0.000174128,-0.623420926,0.000000000,-0.623550708,0.000000000,-0.000003626,0.000046498,0.000247648,0.000000000,0.000234241
0.173984318,-0.006154000,-0.002398464,-0.036422661,-0.189147418,0.000000000,-0.194339909,-0.001248000,-0.007187626,-0.006286123,1.822119930,0.000000000,1.830494773,-0.003831000,-0.006219433,0.023886141,0.143073052,0.000000000,0.138619559,0.421516001,0.371279180,0.065956934,2.703150882,0.000000000,2.704386959,-0.403391987,-0.395352817,-0.041983189,-0.693919771,0.000000000,-0.693120552,0.000000000,0.000166287,-0.000359958,-0.015938818,0.000000000,-0.015782396,0.000000000,0.000036705,-0.000044069,-0.003701309,0.000000000,-0.003663284,0.000000000,0.000618875,-0.000197975,-0.170751588,0.000000000,-0.171434058,0.000000000,0.003483261,-0.004592951,-0.881615844,0.000000000,-0.886211416,0.000000000,0.009880139,-0.006220842,-0.578135147,0.000000000,-0.579861217,0.000000000,0.006165314,0.000206753,-0.623550708,0.000000000,-0.623685252,0.000000000,-0.000003544,0.000048359,0.000234241,0.000000000,0.000220679
0.175984138,-0.006348000,-0.002474006,-0.037771652,-0.194339909,0.000000000,-0.199338066,-0.001281000,-0.007201390,-0.006882188,1.830494773,0.000000000,1.838509530,-0.003806000,-0.006171865,0.023784157,0.138619559,0.000000000,0.134511465,0.421409994,0.371406610,0.063715049,2.704386959,0.000000000,2.705577233,-0.403452992,-0.395435688,-0.041435463,-0.693120552,0.000000000,-0.692467893,0.000000000,0.000165514,-0.000386235,-0.015782396,0.000000000,-0.015629622,0.000000000,0.000036610,-0.000049075,-0.003663284,0.000000000,-0.003624784,0.000000000,0.000618548,-0.000163428,-0.171434058,0.000000000,-0.172122608,0.000000000,0.003474711,-0.004277973,-0.886211416,0.000000000,-0.890905778,0.000000000,0.009868402,-0.005868182,-0.579861217,0.000000000,-0.581626596,0.000000000,0.006165791,0.000238740,-0.623685252,0.000000000,-0.623824448,0.000000000,-0.000003460,0.000050186,0.000220679,0.000000000,0.000206987
0.177983957,-0.006543000,-0.002552287,-0.039141177,-0.199338066,0.000000000,-0.204034757,-0.001316000,-0.007216336,-0.007472759,1.838509530,0.000000000,1.846167262,-0.003782000,-0.006124525,0.023670121,0.134511465,0.000000000,0.130456630,0.421299011,0.371529595,0.061492250,2.705577233,0.000000000,2.706598278,-0.403513014,-0.395517388,-0.040850324,-0.692467893,0.000000000,-0.691940479,0.000000000,0.000164696,-0.000408979,-0.015629622,0.000000000,-0.015482297,0.000000000,0.000036505,-0.000053982,-0.003624784,0.000000000,-0.003585829,0.000000000,0.000618289,-0.000129490,-0.172122608,0.000000000,-0.172816689,0.000000000,0.003466784,-0.003966598,-0.890905778,0.000000000,-0.895695540,0.000000000,0.009857369,-0.005516428,-0.581626596,0.000000000,-0.583429979,0.000000000,0.006166331,0.000270085,-0.623824448,0.000000000,-0.623968152,0.000000000,-0.000003374,0.000051977,0.000206987,0.000000000,0.000193186
0.179983777,-0.006739000,-0.002633345,-0.040529803,-0.204034757,0.000000000,-0.208433910,-0.001351000,-0.007232452,-0.008057935,1.846167262,0.000000000,1.854035612,-0.003758000,-0.006077436,0.023544549,0.130456630,0.000000000,0.126734052,0.421186000,0.371648170,0.059287523,2.706598278,0.000000000,2.707641381,-0.403571993,-0.395597860,-0.040235536,-0.691940479,0.000000000,-0.691516204,0.000000000,0.000163839,-0.000428427,-0.015482297,0.000000000,-0.015340407,0.000000000,0.000036390,-0.000058791,-0.003585829,0.000000000,-0.003546427,0.000000000,0.000618097,-0.000096168,-0.172816689,0.000000000,-0.173515781,0.000000000,0.003459472,-0.003658878,-0.895695540,0.000000000,-0.900577453,0.000000000,0.009847038,-0.005165750,-0.583429979,0.000000000,-0.585270002,0.000000000,0.006166933,0.000300786,-0.623968152,0.000000000,-0.624116235,0.000000000,-0.000003286,0.000053738,0.000193186,0.000000000,0.000179288
0.181983597,-0.006935000,-0.002717215,-0.041935595,-0.208433910,0.000000000,-0.212436342,-0.001388000,-0.007249726,-0.008637269,1.854035612,0.000000000,1.861532736,-0.003735000,-0.006030622,0.023407559,0.126734052,0.000000000,0.123063357,0.421068996,0.371762373,0.057101450,2.707641381,0.000000000,2.708575812,-0.403629005,-0.395677057,-0.039598860,-0.691516204,0.000000000,-0.691084057,0.000000000,0.000162945,-0.000447096,-0.015340407,0.000000000,-0.015196960,0.000000000,0.000036266,-0.000063502,-0.003546427,0.000000000,-0.003506604,0.000000000,0.000617970,-0.000063476,-0.173515781,0.000000000,-0.174219188,0.000000000,0.003452768,-0.003354868,-0.900577453,0.000000000,-0.905548168,0.000000000,0.009837405,-0.004816311,-0.585270002,0.000000000,-0.587145372,0.000000000,0.006167595,0.000330840,-0.624116235,0.000000000,-0.624268551,0.000000000,-0.000003196,0.000055479,0.000179288,0.000000000,0.000165283
0.183983417,-0.007133000,-0.002803927,-0.043356499,-0.212436342,0.000000000,-0.216263587,-0.001426000,-0.007268148,-0.009210691,1.861532736,0.000000000,1.868937830,-0.003712000,-0.005984102,0.023259678,0.123063357,0.000000000,0.119723095,0.420949012,0.371872238,0.054932557,2.708575812,0.000000000,2.709473868,-0.403683990,-0.395754934,-0.038938413,-0.691084057,0.000000000,-0.690648174,0.000000000,0.000162017,-0.000464043,-0.015196960,0.000000000,-0.015054985,0.000000000,0.000036134,-0.000068123,-0.003506604,0.000000000,-0.003466336,0.000000000,0.000617908,-0.000031410,-0.174219188,0.000000000,-0.174926672,0.000000000,0.003446663,-0.003054616,-0.905548168,0.000000000,-0.910604476,0.000000000,0.009828469,-0.004468279,-0.587145372,0.000000000,-0.589054711,0.000000000,0.006168315,0.000360252,-0.624268551,0.000000000,-0.624424988,0.000000000,-0.000003105,0.000057193,0.000165283,0.000000000,0.000151220
0.185983236,-0.007330000,-0.002893509,-0.044791681,-0.216263587,0.000000000,-0.219597513,-0.001465000,-0.007287704,-0.009778272,1.868937830,0.000000000,1.876249233,-0.003689000,-0.005937900,0.023101547,0.119723095,0.000000000,0.116704625,0.420828015,0.371977797,0.052779416,2.709473868,0.000000000,2.710467967,-0.403737992,-0.395831441,-0.038253584,-0.690648174,0.000000000,-0.690320639,0.000000000,0.000161058,-0.000479573,-0.015054985,0.000000000,-0.014913898,0.000000000,0.000035992,-0.000072650,-0.003466336,0.000000000,-0.003425655,0.000000000,0.000617908,0.000000021,-0.174926672,0.000000000,-0.175637630,0.000000000,0.003441152,-0.002758171,-0.910604476,0.000000000,-0.915743076,0.000000000,0.009820225,-0.004121805,-0.589054711,0.000000000,-0.590996735,0.000000000,0.006169093,0.000389017,-0.624424988,0.000000000,-0.624585397,0.000000000,-0.000003013,0.000058887,0.000151220,0.000000000,0.000137111
0.187983056,-0.007529000,-0.002985984,-0.046238180,-0.219597513,0.000000000,-0.222772246,-0.001505000,-0.007308383,-0.010339606,1.876249233,0.000000000,1.883454201,-0.003667000,-0.005892034,0.022932962,0.116704625,0.000000000,0.113734134,0.420704007,0.372079084,0.050643741,2.710467967,0.000000000,2.711417594,-0.403789014,-0.395906547,-0.037552900,-0.690320639,0.000000000,-0.689878612,0.000000000,0.000160069,-0.000494729,-0.014913898,0.000000000,-0.014770812,0.000000000,0.000035842,-0.000077086,-0.003425655,0.000000000,-0.003384576,0.000000000,0.000617969,0.000030808,-0.175637630,0.000000000,-0.176351533,0.000000000,0.003436225,-0.002465581,-0.915743076,0.000000000,-0.920960716,0.000000000,0.009812671,-0.003777045,-0.590996735,0.000000000,-0.592970139,0.000000000,0.006169927,0.000417136,-0.624585397,0.000000000,-0.624749655,0.000000000,-0.000002921,0.000060572,0.000137111,0.000000000,0.000122955
0.189982876,-0.007727000,-0.003081373,-0.047695108,-0.222772246,0.000000000,-0.225470841,-0.001545000,-0.007330173,-0.010894664,1.883454201,0.000000000,1.890832773,-0.003646000,-0.005846526,0.022754241,0.113734134,0.000000000,0.110810284,0.420578003,0.372176132,0.048524064,2.711417594,0.000000000,2.712395156,-0.403838009,-0.395980202,-0.036827551,-0.689878612,0.000000000,-0.689448506,0.000000000,0.000159050,-0.000509072,-0.014770812,0.000000000,-0.014627135,0.000000000,0.000035684,-0.000081436,-0.003384576,0.000000000,-0.003343080,0.000000000,0.000618091,0.000060951,-0.176351533,0.000000000,-0.177068021,0.000000000,0.003431875,-0.002176885,-0.920960716,0.000000000,-0.926254294,0.000000000,0.009805803,-0.003434155,-0.592970139,0.000000000,-0.594973561,0.000000000,0.006170817,0.000444610,-0.624749655,0.000000000,-0.624917633,0.000000000,-0.000002828,0.000062252,0.000122955,0.000000000,0.000108784
0.191982696,-0.007925000,-0.003179690,-0.049159235,-0.225470841,0.000000000,-0.227816591,-0.001586000,-0.007353058,-0.011442802,1.890832773,0.000000000,1.898082179,-0.003624000,-0.005801396,0.022564834,0.110810284,0.000000000,0.108520122,0.420450985,0.372268976,0.046421684,2.712395156,0.000000000,2.713451357,-0.403885007,-0.396052360,-0.036078885,-0.689448506,0.000000000,-0.689034218,0.000000000,0.000158001,-0.000524525,-0.014627135,0.000000000,-0.014477183,0.000000000,0.000035517,-0.000085698,-0.003343080,0.000000000,-0.003301207,0.000000000,0.000618272,0.000090440,-0.177068021,0.000000000,-0.177786435,0.000000000,0.003428094,-0.001892131,-0.926254294,0.000000000,-0.931620480,0.000000000,0.009799616,-0.003093273,-0.594973561,0.000000000,-0.597005780,0.000000000,0.006171760,0.000471434,-0.624917633,0.000000000,-0.625089185,0.000000000,-0.000002735,0.000063941,0.000108784,0.000000000,0.000094596
0.193982515,-0.008124000,-0.003280947,-0.050628787,-0.227816591,0.000000000,-0.229924995,-0.001626000,-0.007377026,-0.011983876,1.898082179,0.000000000,1.905763640,-0.003603000,-0.005756665,0.022365663,0.108520122,0.000000000,0.106279703,0.420323998,0.372357647,0.044335499,2.713451357,0.000000000,2.714657884,-0.403928995,-0.396122976,-0.035307934,-0.689034218,0.000000000,-0.688534910,0.000000000,0.000156921,-0.000540099,-0.014477183,0.000000000,-0.014323736,0.000000000,0.000035342,-0.000089874,-0.003301207,0.000000000,-0.003258953,0.000000000,0.000618511,0.000119275,-0.177786435,0.000000000,-0.178506472,0.000000000,0.003424874,-0.001611361,-0.931620480,0.000000000,-0.937056038,0.000000000,0.009794107,-0.002754539,-0.597005780,0.000000000,-0.599065515,0.000000000,0.006172755,0.000497612,-0.625089185,0.000000000,-0.625264191,0.000000000,-0.000002642,0.000065641,0.000094596,0.000000000,0.000080433
0.195982335,-0.008321000,-0.003385149,-0.052101689,-0.229924995,0.000000000,-0.231487217,-0.001667000,-0.007402060,-0.012517192,1.905763640,0.000000000,1.913288562,-0.003583000,-0.005712354,0.022155818,0.106279703,0.000000000,0.104115789,0.420195013,0.372442182,0.042267583,2.714657884,0.000000000,2.715869662,-0.403970987,-0.396191996,-0.034510138,-0.688534910,0.000000000,-0.688071379,0.000000000,0.000155806,-0.000557762,-0.014323736,0.000000000,-0.014160782,0.000000000,0.000035159,-0.000093966,-0.003258953,0.000000000,-0.003216332,0.000000000,0.000618806,0.000147449,-0.178506472,0.000000000,-0.179227564,0.000000000,0.003422208,-0.001334606,-0.937056038,0.000000000,-0.942558023,0.000000000,0.009789271,-0.002418105,-0.599065515,0.000000000,-0.601151413,0.000000000,0.006173801,0.000523147,-0.625264191,0.000000000,-0.625442530,0.000000000,-0.000002551,0.000067370,0.000080433,0.000000000,0.000066301
0.197982155,-0.008519000,-0.003492297,-0.053574661,-0.231487217,0.000000000,-0.232841639,-0.001707000,-0.007428145,-0.013042311,1.913288562,0.000000000,1.921210873,-0.003562000,-0.005668484,0.021935151,0.104115789,0.000000000,0.102606347,0.420065999,0.372522619,0.040218627,2.715869662,0.000000000,2.717203632,-0.404009014,-0.396259372,-0.033687859,-0.688071379,0.000000000,-0.687443067,0.000000000,0.000154653,-0.000576524,-0.014160782,0.000000000,-0.013990910,0.000000000,0.000034969,-0.000097978,-0.003216332,0.000000000,-0.003173342,0.000000000,0.000619156,0.000174965,-0.179227564,0.000000000,-0.179949393,0.000000000,0.003420086,-0.001061910,-0.942558023,0.000000000,-0.948123117,0.000000000,0.009785103,-0.002084095,-0.601151413,0.000000000,-0.603262273,0.000000000,0.006174897,0.000548035,-0.625442530,0.000000000,-0.625624062,0.000000000,-0.000002462,0.000069138,0.000066301,0.000000000,0.000052238
0.199981975,-0.008716000,-0.003602389,-0.055046315,-0.232841639,0.000000000,-0.233783159,-0.001748000,-0.007455263,-0.013558789,1.921210873,0.000000000,1.928947057,-0.003542000,-0.005625075,0.021704449,0.102606347,0.000000000,0.101170875,0.419937998,0.372598993,0.038186734,2.717203632,0.000000000,2.718737021,-0.404044986,-0.396325031,-0.032829687,-0.687443067,0.000000000,-0.686882436,0.000000000,0.000153458,-0.000597194,-0.013990910,0.000000000,-0.013811437,0.000000000,0.000034771,-0.000101906,-0.003173342,0.000000000,-0.003130014,0.000000000,0.000619559,0.000201813,-0.179949393,0.000000000,-0.180671393,0.000000000,0.003418502,-0.000793309,-0.948123117,0.000000000,-0.953748176,0.000000000,0.009781597,-0.001752637,-0.603262273,0.000000000,-0.605396861,0.000000000,0.006176042,0.000572276,-0.625624062,0.000000000,-0.625808654,0.000000000,-0.000002375,0.000070963,0.000052238,0.000000000,0.000038263
0.201981794,-0.008910000,-0.003715416,-0.056514033,-0.233783159,0.000000000,-0.234114291,-0.001789000,-0.007483395,-0.014066293,1.928947057,0.000000000,1.936768801,-0.003521000,-0.005582150,0.021462677,0.101170875,0.000000000,0.100407394,0.419806987,0.372671344,0.036175627,2.718737021,0.000000000,2.720186591,-0.404076993,-0.396388916,-0.031942174,-0.686882436,0.000000000,-0.686184019,-0.000001000,0.000152221,-0.000618569,-0.013811437,0.000000000,-0.013726702,0.000000000,0.000034565,-0.000105757,-0.003130014,0.000000000,-0.003086333,0.000000000,0.000620015,0.000228000,-0.180671393,0.000000000,-0.181393321,0.000000000,0.003417446,-0.000528830,-0.953748176,0.000000000,-0.959430269,0.000000000,0.009778750,-0.001423872,-0.605396861,0.000000000,-0.607553848,0.000000000,0.006177233,0.000595880,-0.625808654,0.000000000,-0.625996204,0.000000000,-0.000002291,0.000072864,0.000038263,0.000000000,0.000024420
0.203981614,-0.009102000,-0.003831363,-0.057974160,-0.234114291,0.000000000,-0.233963827,-0.001833000,-0.007512523,-0.014563939,1.936768801,0.000000000,1.943797720,-0.003500000,-0.005539728,0.021211423,0.100407394,0.000000000,0.100001257,0.419672012,0.372739706,0.034180859,2.720186591,0.000000000,2.721521651,-0.404105991,-0.396450943,-0.031013786,-0.686184019,0.000000000,-0.685485259,-0.000002000,0.000150905,-0.000658174,-0.013726702,0.000000000,-0.013582133,0.000000000,0.000034353,-0.000109526,-0.003086333,0.000000000,-0.003042339,0.000000000,0.000620522,0.000253517,-0.181393321,0.000000000,-0.182114581,0.000000000,0.003416910,-0.000268514,-0.959430269,0.000000000,-0.965166052,0.000000000,0.009776554,-0.001097905,-0.607553848,0.000000000,-0.609732126,0.000000000,0.006178471,0.000618837,-0.625996204,0.000000000,-0.626186557,0.000000000,-0.000002212,0.000074869,0.000024420,0.000000000,0.000010725
0.205981434,-0.009292000,-0.003950212,-0.059424823,-0.233963827,0.000000000,-0.233344491,-0.001880000,-0.007542628,-0.015052413,1.943797720,0.000000000,1.950044141,-0.003479000,-0.005497824,0.020951933,0.100001257,0.000000000,0.099928971,0.419533014,0.372804105,0.032199507,2.721521651,0.000000000,2.722757528,-0.404132009,-0.396511029,-0.030042870,-0.685485259,0.000000000,-0.684802459,-0.000004000,0.000149497,-0.000703660,-0.013582133,0.000000000,-0.013512717,0.000000000,0.000034133,-0.000113222,-0.003042339,0.000000000,-0.002998006,0.000000000,0.000621079,0.000278377,-0.182114581,0.000000000,-0.182835108,0.000000000,0.003416886,-0.000012383,-0.965166052,0.000000000,-0.970952712,0.000000000,0.009775004,-0.000774873,-0.609732126,0.000000000,-0.611930346,0.000000000,0.006179753,0.000641162,-0.626186557,0.000000000,-0.626379626,0.000000000,-0.000002139,0.000076996,0.000010725,0.000000000,-0.000002745
0.207981254,-0.009480000,-0.004071939,-0.060863831,-0.233344491,0.000000000,-0.232271051,-0.001928000,-0.007573692,-0.015531994,1.950044141,0.000000000,1.956077801,-0.003457000,-0.005456455,0.020685046,0.099928971,0.000000000,0.100459889,0.419391990,0.372864564,0.030229508,2.722757528,0.000000000,2.724033567,-0.404155999,-0.396569088,-0.029029591,-0.684802459,0.000000000,-0.684240095,-0.000008000,0.000147966,-0.000765775,-0.013512717,0.000000000,-0.013585601,0.000000000,0.000033906,-0.000116841,-0.002998006,0.000000000,-0.002953365,0.000000000,0.000621684,0.000302571,-0.182835108,0.000000000,-0.183554341,0.000000000,0.003417366,0.000239535,-0.970952712,0.000000000,-0.976787173,0.000000000,0.009774094,-0.000454887,-0.611930346,0.000000000,-0.614147342,0.000000000,0.006181079,0.000662849,-0.626379626,0.000000000,-0.626575262,0.000000000,-0.000002072,0.000079288,-0.000002745,0.000000000,-0.000015971
0.209981073,-0.009667000,-0.004196515,-0.062288474,-0.232271051,0.000000000,-0.230868610,-0.001977000,-0.007605696,-0.016002102,1.956077801,0.000000000,1.961880236,-0.003434000,-0.005415632,0.020411320,0.100459889,0.000000000,0.101585370,0.419247001,0.372921105,0.028270764,2.724033567,0.000000000,2.725226691,-0.404177994,-0.396625054,-0.027982852,-0.684240095,0.000000000,-0.683782637,-0.000012000,0.000146228,-0.000868797,-0.013585601,0.000000000,-0.013521361,0.000000000,0.000033672,-0.000120381,-0.002953365,0.000000000,-0.002908446,0.000000000,0.000622336,0.000326089,-0.183554341,0.000000000,-0.184271618,0.000000000,0.003418340,0.000487211,-0.976787173,0.000000000,-0.982666388,0.000000000,0.009773818,-0.000138053,-0.614147342,0.000000000,-0.616381953,0.000000000,0.006182447,0.000683894,-0.626575262,0.000000000,-0.626773331,0.000000000,-0.000002015,0.000081801,-0.000015971,0.000000000,-0.000028946
0.211980893,-0.009854000,-0.004323909,-0.063697707,-0.230868610,0.000000000,-0.229252888,-0.002027000,-0.007638623,-0.016463272,1.961880236,0.000000000,1.967458340,-0.003413000,-0.005375368,0.020132314,0.101585370,0.000000000,0.102420474,0.419101000,0.372973747,0.026320628,2.725226691,0.000000000,2.726540978,-0.404199004,-0.396678871,-0.026908885,-0.683782637,0.000000000,-0.683520272,-0.000018000,0.000144250,-0.000989111,-0.013521361,0.000000000,-0.013585772,0.000000000,0.000033432,-0.000123848,-0.002908446,0.000000000,-0.002863240,0.000000000,0.000623033,0.000348933,-0.184271618,0.000000000,-0.184986665,0.000000000,0.003419802,0.000730623,-0.982666388,0.000000000,-0.988587432,0.000000000,0.009774169,0.000175514,-0.616381953,0.000000000,-0.618632959,0.000000000,0.006183856,0.000704305,-0.626773331,0.000000000,-0.626973719,0.000000000,-0.000001968,0.000084576,-0.000028946,0.000000000,-0.000041593
0.213980713,-0.010042000,-0.004454088,-0.065089676,-0.229252888,0.000000000,-0.227544559,-0.002077000,-0.007672452,-0.016914925,1.967458340,0.000000000,1.973078021,-0.003391000,-0.005335676,0.019846267,0.102420474,0.000000000,0.103861626,0.418951988,0.373022516,0.024384568,2.726540978,0.000000000,2.727809675,-0.404217988,-0.396730519,-0.025823719,-0.683520272,0.000000000,-0.683304276,-0.000024000,0.000141953,-0.001148450,-0.013585772,0.000000000,-0.013507027,0.000000000,0.000033185,-0.000127244,-0.002863240,0.000000000,-0.002817740,0.000000000,0.000623776,0.000371105,-0.184986665,0.000000000,-0.185699092,0.000000000,0.003421741,0.000969757,-0.988587432,0.000000000,-0.994547574,0.000000000,0.009775141,0.000485698,-0.618632959,0.000000000,-0.620899105,0.000000000,0.006185304,0.000724085,-0.626973719,0.000000000,-0.627176314,0.000000000,-0.000001933,0.000087669,-0.000041593,0.000000000,-0.000053858
