sainanliu129-hub/model/applications/Body_GravityPara_Iden/data/excitation/excitation_trajectory_TLBO_E1_PD-M1-v0_multi_joint_20260304-081559.csv
time,cmd_leg_l1_joint,pos_leg_l1_joint,vel_leg_l1_joint,torque_leg_l1_joint,acc_leg_l1_joint,cmd_torque_leg_l1_joint,cmd_leg_l2_joint,pos_leg_l2_joint,vel_leg_l2_joint,torque_leg_l2_joint,acc_leg_l2_joint,cmd_torque_leg_l2_joint,cmd_leg_l3_joint,pos_leg_l3_joint,vel_leg_l3_joint,torque_leg_l3_joint,acc_leg_l3_joint,cmd_torque_leg_l3_joint,cmd_leg_l4_joint,pos_leg_l4_joint,vel_leg_l4_joint,torque_leg_l4_joint,acc_leg_l4_joint,cmd_torque_leg_l4_joint,cmd_leg_l5_joint,pos_leg_l5_joint,vel_leg_l5_joint,torque_leg_l5_joint,acc_leg_l5_joint,cmd_torque_leg_l5_joint,cmd_leg_l6_joint,pos_leg_l6_joint,vel_leg_l6_joint,torque_leg_l6_joint,acc_leg_l6_joint,cmd_torque_leg_l6_joint,cmd_leg_r1_joint,pos_leg_r1_joint,vel_leg_r1_joint,torque_leg_r1_joint,acc_leg_r1_joint,cmd_torque_leg_r1_joint,cmd_leg_r2_joint,pos_leg_r2_joint,vel_leg_r2_joint,torque_leg_r2_joint,acc_leg_r2_joint,cmd_torque_leg_r2_joint,cmd_leg_r3_joint,pos_leg_r3_joint,vel_leg_r3_joint,torque_leg_r3_joint,acc_leg_r3_joint,cmd_torque_leg_r3_joint,cmd_leg_r4_joint,pos_leg_r4_joint,vel_leg_r4_joint,torque_leg_r4_joint,acc_leg_r4_joint,cmd_torque_leg_r4_joint,cmd_leg_r5_joint,pos_leg_r5_joint,vel_leg_r5_joint,torque_leg_r5_joint,acc_leg_r5_joint,cmd_torque_leg_r5_joint,cmd_leg_r6_joint,pos_leg_r6_joint,vel_leg_r6_joint,torque_leg_r6_joint,acc_leg_r6_joint,cmd_torque_leg_r6_joint
0.000000000,0.000000000,-0.000165929,-0.000366119,-0.017800537,0.000000000,0.019757136,0.000000000,-0.000803771,0.000858053,0.209211916,0.000000000,0.209059487,0.000000000,0.005639136,-0.012244283,-1.324406855,0.000000000,-1.325942814,0.000000000,0.012300909,-0.004908521,-0.742084302,0.000000000,-0.742097169,0.000000000,0.006773923,-0.015573192,-0.640221702,0.000000000,-0.640331944,0.000000000,0.000011557,-0.000074952,-0.001026157,0.000000000,-0.000954951,0.000000000,-0.000008162,-0.000015809,-0.000977841,0.000000000,0.000959411,-0.000000000,0.000783878,-0.000867258,-0.203129574,0.000000000,-0.203197020,0.000000000,0.005639959,-0.012272811,-1.324571679,0.000000000,-1.325531507,0.000000000,0.012303800,-0.004834114,-0.742388803,0.000000000,-0.742808681,0.000000000,0.006776886,-0.015629431,-0.640452726,0.000000000,-0.640471527,0.000000000,0.000002499,0.000071472,-0.000450702,0.000000000,-0.000455731
0.002000000,0.000000000,-0.000165934,0.000049175,0.019757136,0.000000000,0.017409122,0.000000000,-0.000802087,0.000859938,0.209059487,0.000000000,0.208538173,0.000000000,0.005614511,-0.012314104,-1.325942814,0.000000000,-1.317363879,0.000000000,0.012291161,-0.004873928,-0.742097169,0.000000000,-0.741727330,0.000000000,0.006742631,-0.015645879,-0.640331944,0.000000000,-0.636962794,0.000000000,0.000011247,-0.000157525,-0.000954951,0.000000000,-0.000688813,0.000000000,-0.000008162,-0.000004737,0.000959411,0.000000000,0.000896826,-0.000000000,0.000782146,-0.000866574,-0.203197020,0.000000000,-0.202719984,0.000000000,0.005615348,-0.012308981,-1.325531507,0.000000000,-1.317717767,0.000000000,0.012294030,-0.004885372,-0.742808681,0.000000000,-0.741827170,0.000000000,0.006745624,-0.015631171,-0.640471527,0.000000000,-0.637307052,0.000000000,0.000002590,0.000070831,-0.000455731,0.000000000,-0.000463165
0.004000000,0.000000000,0.000165925,0.000441607,0.017409122,0.000000000,-0.020183517,0.000000000,-0.000800413,0.000852999,0.208538173,0.000000000,0.208219463,0.000000000,0.005589871,-0.012321080,-1.317363879,0.000000000,-1.310202471,0.000000000,0.012281128,-0.005016620,-0.741727330,0.000000000,-0.740079328,0.000000000,0.006712038,-0.015296503,-0.636962794,0.000000000,-0.634864188,0.000000000,0.000011001,-0.000124791,-0.000688813,0.000000000,-0.000757027,0.000000000,-0.000008161,0.000017053,0.000896826,0.000000000,0.000773423,-0.000000000,0.000780427,-0.000859797,-0.202719984,0.000000000,-0.202384579,0.000000000,0.005590768,-0.012293353,-1.317717767,0.000000000,-1.311084458,0.000000000,0.012283871,-0.005079153,-0.741827170,0.000000000,-0.739808126,0.000000000,0.006715110,-0.015256932,-0.637307052,0.000000000,-0.635287129,0.000000000,0.000002683,0.000068422,-0.000463165,0.000000000,-0.000465657
0.006000000,0.000000000,0.000165905,0.000018486,-0.020183517,0.000000000,-0.017788659,0.000000000,-0.000798741,0.000850999,0.208219463,0.000000000,0.207789292,0.000000000,0.005565371,-0.012251616,-1.310202471,0.000000000,-1.304809521,0.000000000,0.012270426,-0.005351086,-0.740079328,0.000000000,-0.737025944,0.000000000,0.006682737,-0.014650390,-0.634864188,0.000000000,-0.633739805,0.000000000,0.000010935,-0.000033665,-0.000757027,0.000000000,-0.001009394,0.000000000,0.000008158,0.000042638,0.000773423,0.000000000,-0.001110726,-0.000001000,0.000778718,-0.000854447,-0.202384579,0.000000000,-0.202304200,0.000000000,0.005566261,-0.012256700,-1.311084458,0.000000000,-1.304947507,0.000000000,0.012273211,-0.005330256,-0.739808126,0.000000000,-0.737349910,0.000000000,0.006685750,-0.014679952,-0.635287129,0.000000000,-0.633960224,0.000000000,0.000002773,0.000064528,-0.000465657,0.000000000,-0.000463730
0.008000000,0.000000000,0.000165878,-0.000397243,-0.017788659,0.000000000,-0.015434838,0.000000000,-0.000797051,0.000859478,0.207789292,0.000000000,0.207117140,0.000000000,0.005541007,-0.012183326,-1.304809521,0.000000000,-1.299428815,0.000000000,0.012259083,-0.005671410,-0.737025944,0.000000000,-0.734032610,0.000000000,0.006654864,-0.013936698,-0.633739805,0.000000000,-0.632951806,0.000000000,0.000010834,-0.000051259,-0.001009394,0.000000000,-0.000949169,0.000000000,0.000008156,0.000029689,-0.001110726,0.000000000,-0.001037272,-0.000002000,0.000777016,-0.000851011,-0.202304200,0.000000000,-0.202182474,0.000000000,0.005541841,-0.012213117,-1.304947507,0.000000000,-1.298992075,0.000000000,0.012262020,-0.005595307,-0.737349910,0.000000000,-0.734759075,0.000000000,0.006657763,-0.013993577,-0.633960224,0.000000000,-0.633083067,0.000000000,0.000002863,0.000061777,-0.000463730,0.000000000,-0.000464937
0.010000000,0.000000000,-0.000165858,-0.000767823,-0.015434838,0.000000000,0.022021160,0.000000000,-0.000795346,0.000867260,0.207117140,0.000000000,0.206456522,0.000000000,0.005516768,-0.012120520,-1.299428815,0.000000000,-1.293959799,0.000000000,0.012247151,-0.005966018,-0.734032610,0.000000000,-0.731184845,0.000000000,0.006628484,-0.013189716,-0.632951806,0.000000000,-0.632409437,0.000000000,0.000010703,-0.000066508,-0.000949169,0.000000000,-0.000892583,0.000000000,0.000008154,0.000020341,-0.001037272,0.000000000,-0.000984177,-0.000004000,0.000775320,-0.000848288,-0.202182474,0.000000000,-0.202330404,0.000000000,0.005517519,-0.012163936,-1.298992075,0.000000000,-1.293191218,0.000000000,0.012250293,-0.005863796,-0.734759075,0.000000000,-0.732109886,0.000000000,0.006631272,-0.013245132,-0.633083067,0.000000000,-0.632533659,0.000000000,0.000002947,0.000057150,-0.000464937,0.000000000,-0.000460354
0.012000000,0.000000000,-0.000165835,-0.000320606,0.022021160,0.000000000,0.019489731,0.000000000,-0.000793647,0.000864481,0.206456522,0.000000000,0.206036535,0.000000000,0.005492556,-0.012107436,-1.293959799,0.000000000,-1.287373547,0.000000000,0.012234896,-0.006127476,-0.731184845,0.000000000,-0.729263123,0.000000000,0.006603491,-0.012496716,-0.632409437,0.000000000,-0.631853676,0.000000000,0.000010464,-0.000121288,-0.000892583,0.000000000,-0.000712726,0.000000000,0.000008152,0.000013290,-0.000984177,0.000000000,-0.000944082,-0.000007000,0.000773628,-0.000846404,-0.202330404,0.000000000,-0.202744666,0.000000000,0.005493301,-0.012112527,-1.293191218,0.000000000,-1.287469992,0.000000000,0.012238045,-0.006123634,-0.732109886,0.000000000,-0.729489357,0.000000000,0.006606330,-0.012471111,-0.632533659,0.000000000,-0.632213413,0.000000000,0.000003029,0.000053927,-0.000460354,0.000000000,-0.000459456
0.014000000,0.000000000,-0.000165802,0.000111743,0.019489731,0.000000000,0.017041299,0.000000000,-0.000791978,0.000849180,0.206036535,0.000000000,0.205908234,0.000000000,0.005468398,-0.012080482,-1.287373547,0.000000000,-1.281116345,0.000000000,0.012222267,-0.006314526,-0.729263123,0.000000000,-0.727135857,0.000000000,0.006579992,-0.011749621,-0.631853676,0.000000000,-0.631602716,0.000000000,0.000010310,-0.000078549,-0.000712726,0.000000000,-0.000818623,0.000000000,0.000008149,0.000006778,-0.000944082,0.000000000,-0.000906979,-0.000012000,0.000771938,-0.000844808,-0.202744666,0.000000000,-0.203721823,0.000000000,0.005469188,-0.012059675,-1.287469992,0.000000000,-1.281811446,0.000000000,0.012225306,-0.006369618,-0.729489357,0.000000000,-0.726936224,0.000000000,0.006582939,-0.011695632,-0.632213413,0.000000000,-0.632054061,0.000000000,0.000003112,0.000053265,-0.000459456,0.000000000,-0.000465896
0.016000000,0.000000000,-0.000165764,0.000492357,0.017041299,0.000000000,0.014884810,0.000000000,-0.000790339,0.000833822,0.205908234,0.000000000,0.205789661,0.000000000,0.005444317,-0.012041935,-1.281116345,0.000000000,-1.275143278,0.000000000,0.012209238,-0.006514252,-0.727135857,0.000000000,-0.724893256,0.000000000,0.006558017,-0.010987243,-0.631602716,0.000000000,-0.631549306,0.000000000,0.000010217,-0.000047271,-0.000818623,0.000000000,-0.000898153,0.000000000,0.000008146,0.000001589,-0.000906979,0.000000000,-0.000877307,-0.000018000,0.000770250,-0.000844297,-0.203721823,0.000000000,-0.204958980,0.000000000,0.005445181,-0.012006688,-1.281811446,0.000000000,-1.276186086,0.000000000,0.012212110,-0.006598054,-0.726936224,0.000000000,-0.724478972,0.000000000,0.006561070,-0.010934657,-0.632054061,0.000000000,-0.632007291,0.000000000,0.000003198,0.000055161,-0.000465896,0.000000000,-0.000480056
0.018000000,0.000000000,0.000165733,0.000816631,0.014884810,0.000000000,-0.022283840,0.000000000,-0.000788724,0.000821116,0.205789661,0.000000000,0.205618138,0.000000000,0.005420327,-0.011996121,-1.275143278,0.000000000,-1.269360636,0.000000000,0.012195811,-0.006713787,-0.724893256,0.000000000,-0.722626813,0.000000000,0.006537545,-0.010236270,-0.631549306,0.000000000,-0.631615264,0.000000000,0.000010142,-0.000037990,-0.000898153,0.000000000,-0.000916991,0.000000000,0.000008143,-0.000002174,-0.000877307,0.000000000,-0.000855664,-0.000025000,0.000768560,-0.000844965,-0.204958980,0.000000000,-0.206453312,0.000000000,0.005421281,-0.011953290,-1.276186086,0.000000000,-1.270600390,0.000000000,0.012198492,-0.006808746,-0.724478972,0.000000000,-0.722121223,0.000000000,0.006540674,-0.010197780,-0.632007291,0.000000000,-0.632040955,0.000000000,0.000003292,0.000058795,-0.000480056,0.000000000,-0.000499895
0.020000000,0.000000000,0.000165709,0.000329839,-0.022283840,0.000000000,-0.019528537,0.000000000,-0.000787116,0.000817569,0.205618138,0.000000000,0.205241286,0.000000000,0.005396530,-0.011900003,-1.269360636,0.000000000,-1.264770461,0.000000000,0.012181784,-0.007013584,-0.722626813,0.000000000,-0.719609830,0.000000000,0.006518655,-0.009444802,-0.631615264,0.000000000,-0.631956329,0.000000000,0.000010185,0.000021730,-0.000916991,0.000000000,-0.001091082,0.000000000,0.000008139,-0.000004985,-0.000855664,0.000000000,-0.000839343,-0.000034000,0.000766867,-0.000846844,-0.206453312,0.000000000,-0.208487694,0.000000000,0.005397489,-0.011898910,-1.270600390,0.000000000,-1.265067841,0.000000000,0.012184488,-0.007002472,-0.722121223,0.000000000,-0.719859599,0.000000000,0.006521691,-0.009491498,-0.632040955,0.000000000,-0.632130399,0.000000000,0.000003397,0.000064421,-0.000499895,0.000000000,-0.000526478
0.022000000,0.000000000,0.000165680,-0.000133934,-0.019528537,0.000000000,-0.016902739,0.000000000,-0.000785495,0.000824721,0.205241286,0.000000000,0.204618558,0.000000000,0.005372898,-0.011817196,-1.264770461,0.000000000,-1.259926280,0.000000000,0.012167278,-0.007252855,-0.719609830,0.000000000,-0.716992836,0.000000000,0.006501166,-0.008744488,-0.631956329,0.000000000,-0.632179799,0.000000000,0.000010169,-0.000008011,-0.001091082,0.000000000,-0.001004931,0.000000000,0.000008135,-0.000005556,-0.000839343,0.000000000,-0.000835698,-0.000045000,0.000765165,-0.000851104,-0.208487694,0.000000000,-0.211034280,0.000000000,0.005373808,-0.011843900,-1.265067841,0.000000000,-1.259580812,0.000000000,0.012170129,-0.007179292,-0.719859599,0.000000000,-0.717695804,0.000000000,0.006504052,-0.008819562,-0.632130399,0.000000000,-0.632258014,0.000000000,0.000003517,0.000072381,-0.000526478,0.000000000,-0.000561202
0.024000000,0.000000000,0.000165648,-0.000540520,-0.016902739,0.000000000,-0.014600111,0.000000000,-0.000783862,0.000830632,0.204618558,0.000000000,0.204020797,0.000000000,0.005349411,-0.011744952,-1.259926280,0.000000000,-1.254884258,0.000000000,0.012152388,-0.007444837,-0.716992836,0.000000000,-0.714687718,0.000000000,0.006484942,-0.008112060,-0.632179799,0.000000000,-0.632338101,0.000000000,0.000010119,-0.000025160,-0.001004931,0.000000000,-0.000951175,0.000000000,0.000008131,-0.000004539,-0.000835698,0.000000000,-0.000841028,-0.000058000,0.000763450,-0.000857932,-0.211034280,0.000000000,-0.214087415,0.000000000,0.005350240,-0.011787050,-1.259580812,0.000000000,-1.254167714,0.000000000,0.012155446,-0.007341516,-0.717695804,0.000000000,-0.715615258,0.000000000,0.006487684,-0.008183780,-0.632258014,0.000000000,-0.632411356,0.000000000,0.000003658,0.000083818,-0.000561202,0.000000000,-0.000607952
0.026000000,0.000000000,-0.000165629,-0.000887544,-0.014600111,0.000000000,0.022673750,0.000000000,-0.000782225,0.000832979,0.204020797,0.000000000,0.203502398,0.000000000,0.005326057,-0.011678168,-1.254884258,0.000000000,-1.249756686,0.000000000,0.012137180,-0.007604077,-0.714687718,0.000000000,-0.712595222,0.000000000,0.006469881,-0.007530552,-0.632338101,0.000000000,-0.632469178,0.000000000,0.000010076,-0.000022082,-0.000951175,0.000000000,-0.000955535,0.000000000,0.000008127,-0.000001792,-0.000841028,0.000000000,-0.000856136,-0.000074000,0.000761715,-0.000867704,-0.214087415,0.000000000,-0.217921120,0.000000000,0.005326790,-0.011728205,-1.254167714,0.000000000,-1.248833220,0.000000000,0.012140466,-0.007489985,-0.715615258,0.000000000,-0.713613733,0.000000000,0.006472514,-0.007585444,-0.632411356,0.000000000,-0.632579180,0.000000000,0.000003825,0.000098127,-0.000607952,0.000000000,-0.000665578
0.028000000,0.000000000,-0.000165609,-0.000421839,0.022673750,0.000000000,0.020038073,0.000000000,-0.000780604,0.000825297,0.203502398,0.000000000,0.203215346,0.000000000,0.005302742,-0.011658980,-1.249756686,0.000000000,-1.243563464,0.000000000,0.012121915,-0.007632476,-0.712595222,0.000000000,-0.711429153,0.000000000,0.006455766,-0.007057515,-0.632469178,0.000000000,-0.632387486,0.000000000,0.000009936,-0.000071379,-0.000955535,0.000000000,-0.000801217,0.000000000,0.000008123,0.000003415,-0.000856136,0.000000000,-0.000885197,-0.000092000,0.000759952,-0.000881429,-0.217921120,0.000000000,-0.222226101,0.000000000,0.005303462,-0.011667261,-1.248833220,0.000000000,-1.243580849,0.000000000,0.012125215,-0.007625632,-0.713613733,0.000000000,-0.711686210,0.000000000,0.006458465,-0.007024457,-0.632579180,0.000000000,-0.632754211,0.000000000,0.000004027,0.000115993,-0.000665578,0.000000000,-0.000736743
0.030000000,0.000000000,-0.000165578,0.000022572,0.020038073,0.000000000,0.017521603,0.000000000,-0.000779020,0.000806171,0.203215346,0.000000000,0.203197773,0.000000000,0.005279499,-0.011622961,-1.243563464,0.000000000,-1.237771437,0.000000000,0.012106529,-0.007693181,-0.711429153,0.000000000,-0.710025776,0.000000000,0.006442637,-0.006564308,-0.632387486,0.000000000,-0.632462831,0.000000000,0.000009872,-0.000032484,-0.000801217,0.000000000,-0.000905347,0.000000000,0.000008120,0.000010065,-0.000885197,0.000000000,-0.000922406,-0.000113000,0.000758155,-0.000898840,-0.222226101,0.000000000,-0.227290543,0.000000000,0.005280263,-0.011603146,-1.243580849,0.000000000,-1.238436661,0.000000000,0.012109714,-0.007750516,-0.711686210,0.000000000,-0.709819406,0.000000000,0.006445464,-0.006500326,-0.632754211,0.000000000,-0.632930407,0.000000000,0.000004269,0.000137005,-0.000736743,0.000000000,-0.000820949
0.032000000,0.000000000,-0.000165537,0.000411177,0.017521603,0.000000000,0.015319737,0.000000000,-0.000777472,0.000787546,0.203197773,0.000000000,0.203179146,0.000000000,0.005256358,-0.011572096,-1.237771437,0.000000000,-1.232344112,0.000000000,0.012090978,-0.007775382,-0.710025776,0.000000000,-0.708459227,0.000000000,0.006430487,-0.006075174,-0.632462831,0.000000000,-0.632625462,0.000000000,0.000009858,-0.000007040,-0.000905347,0.000000000,-0.000976283,0.000000000,0.000008116,0.000019101,-0.000922406,0.000000000,-0.000973147,-0.000137000,0.000756313,-0.000921005,-0.227290543,0.000000000,-0.233087616,0.000000000,0.005257196,-0.011536382,-1.238436661,0.000000000,-1.233390356,0.000000000,0.012093985,-0.007864562,-0.709819406,0.000000000,-0.708015237,0.000000000,0.006433439,-0.006012401,-0.632930407,0.000000000,-0.633102291,0.000000000,0.000004558,0.000161010,-0.000820949,0.000000000,-0.000918418
0.034000000,0.000000000,-0.000165500,0.000741255,0.015319737,0.000000000,0.013449159,0.000000000,-0.000775956,0.000771775,0.203179146,0.000000000,0.203104744,0.000000000,0.005233339,-0.011510845,-1.232344112,0.000000000,-1.227186518,0.000000000,0.012075245,-0.007866781,-0.708459227,0.000000000,-0.706815757,0.000000000,0.006419274,-0.005606709,-0.632625462,0.000000000,-0.632824026,0.000000000,0.000009853,-0.000002562,-0.000976283,0.000000000,-0.000988498,0.000000000,0.000008114,0.000030658,-0.000973147,0.000000000,-0.001038237,-0.000164000,0.000754416,-0.000948616,-0.233087616,0.000000000,-0.239598521,0.000000000,0.005234270,-0.011466532,-1.233390356,0.000000000,-1.228453577,0.000000000,0.012078046,-0.007969054,-0.708015237,0.000000000,-0.706265784,0.000000000,0.006422321,-0.005559029,-0.633102291,0.000000000,-0.633267579,0.000000000,0.000004902,0.000188375,-0.000918418,0.000000000,-0.001030937
0.036000000,0.000000000,0.000165482,0.001023078,0.013449159,0.000000000,-0.023424556,0.000000000,-0.000774466,0.000757955,0.203104744,0.000000000,0.202993965,0.000000000,0.005210458,-0.011441970,-1.227186518,0.000000000,-1.222240550,0.000000000,0.012059325,-0.007959976,-0.706815757,0.000000000,-0.705147744,0.000000000,0.006408939,-0.005167098,-0.632824026,0.000000000,-0.633029414,0.000000000,0.000009843,-0.000005058,-0.000988498,0.000000000,-0.000980394,0.000000000,0.000008113,0.000044726,-0.001038237,0.000000000,-0.001117691,-0.000194000,0.000752452,-0.000982347,-0.239598521,0.000000000,-0.246804590,0.000000000,0.005211490,-0.011393454,-1.228453577,0.000000000,-1.223631361,0.000000000,0.012061917,-0.008064738,-0.706265784,0.000000000,-0.704566841,0.000000000,0.006412043,-0.005138841,-0.633267579,0.000000000,-0.633423460,0.000000000,0.000005307,0.000219077,-0.001030937,0.000000000,-0.001159179
0.038000000,0.000000000,0.000165471,0.000503379,-0.023424556,0.000000000,-0.020484523,0.000000000,-0.000772987,0.000752578,0.202993965,0.000000000,0.202695113,0.000000000,0.005187817,-0.011321772,-1.222240550,0.000000000,-1.218523781,0.000000000,0.012043008,-0.008158193,-0.705147744,0.000000000,-0.702708191,0.000000000,0.006399554,-0.004692671,-0.633029414,0.000000000,-0.633429681,0.000000000,0.000009945,0.000052146,-0.000980394,0.000000000,-0.001153357,0.000000000,0.000008114,0.000060860,-0.001117691,0.000000000,-0.001209096,-0.000227000,0.000750408,-0.001022555,-0.246804590,0.000000000,-0.254694026,0.000000000,0.005188863,-0.011316855,-1.223631361,0.000000000,-1.218932355,0.000000000,0.012045612,-0.008152470,-0.704566841,0.000000000,-0.702913337,0.000000000,0.006402543,-0.004750440,-0.633423460,0.000000000,-0.633567476,0.000000000,0.000005781,0.000252954,-0.001159179,0.000000000,-0.001303385
0.040000000,0.000000000,0.000165447,0.000011872,-0.020484523,0.000000000,-0.017702485,0.000000000,-0.000771498,0.000757550,0.202695113,0.000000000,0.202159552,0.000000000,0.005165392,-0.011213591,-1.218523781,0.000000000,-1.214596718,0.000000000,0.012026404,-0.008302138,-0.702708191,0.000000000,-0.700636223,0.000000000,0.006390940,-0.004307137,-0.633429681,0.000000000,-0.633655151,0.000000000,0.000009988,0.000021609,-0.001153357,0.000000000,-0.001070821,0.000000000,0.000008121,0.000080252,-0.001209096,0.000000000,-0.001319462,-0.000264000,0.000748267,-0.001070340,-0.254694026,0.000000000,-0.263521906,0.000000000,0.005166395,-0.011237449,-1.218932355,0.000000000,-1.214341980,0.000000000,0.012029148,-0.008231852,-0.702913337,0.000000000,-0.701309162,0.000000000,0.006393759,-0.004391997,-0.633567476,0.000000000,-0.633698777,0.000000000,0.000006328,0.000288719,-0.001303385,0.000000000,-0.001460345
0.042000000,0.000000000,0.000165411,-0.000419219,-0.017702485,0.000000000,-0.015260757,0.000000000,-0.000770003,0.000761277,0.202159552,0.000000000,0.201650255,0.000000000,0.005143166,-0.011114767,-1.214596718,0.000000000,-1.210514180,0.000000000,0.012009593,-0.008405268,-0.700636223,0.000000000,-0.698841332,0.000000000,0.006382975,-0.003982162,-0.633655151,0.000000000,-0.633774140,0.000000000,0.000009993,0.000002753,-0.001070821,0.000000000,-0.001017753,0.000000000,0.000008135,0.000102126,-0.001319462,0.000000000,-0.001444674,-0.000305000,0.000746015,-0.001126433,-0.263521906,0.000000000,-0.273266973,0.000000000,0.005144093,-0.011154463,-1.214341980,0.000000000,-1.209879757,0.000000000,0.012012539,-0.008304427,-0.701309162,0.000000000,-0.699744201,0.000000000,0.006385635,-0.004061573,-0.633698777,0.000000000,-0.633817207,0.000000000,0.000006956,0.000328571,-0.001460345,0.000000000,-0.001637159
0.044000000,0.000000000,0.000165374,-0.000788137,-0.015260757,0.000000000,-0.013170660,0.000000000,-0.000768508,0.000761515,0.201650255,0.000000000,0.201219842,0.000000000,0.005121128,-0.011020441,-1.210514180,0.000000000,-1.206383522,0.000000000,0.011992630,-0.008481799,-0.698841332,0.000000000,-0.697225850,0.000000000,0.006375580,-0.003697473,-0.633774140,0.000000000,-0.633836141,0.000000000,0.000009999,0.000003369,-0.001017753,0.000000000,-0.001020169,0.000000000,0.000008161,0.000126555,-0.001444674,0.000000000,-0.001585562,-0.000349000,0.000743632,-0.001191622,-0.273266973,0.000000000,-0.283621973,0.000000000,0.005121963,-0.011068191,-1.209879757,0.000000000,-1.205540919,0.000000000,0.011995799,-0.008370141,-0.699744201,0.000000000,-0.698219706,0.000000000,0.006378120,-0.003757841,-0.633817207,0.000000000,-0.633921143,0.000000000,0.000007674,0.000372020,-0.001637159,0.000000000,-0.001833188
0.046000000,0.000000000,-0.000165358,-0.001105613,-0.013170660,0.000000000,0.023878131,0.000000000,-0.000767017,0.000759197,0.201219842,0.000000000,0.200848594,0.000000000,0.005099275,-0.010927633,-1.206383522,0.000000000,-1.202271292,0.000000000,0.011975549,-0.008540573,-0.697225850,0.000000000,-0.695729147,0.000000000,0.006368698,-0.003441413,-0.633836141,0.000000000,-0.633868508,0.000000000,0.000010019,0.000010085,-0.001020169,0.000000000,-0.001041255,0.000000000,0.000008204,0.000153614,-0.001585562,0.000000000,-0.001743129,-0.000398000,0.000741101,-0.001266211,-0.283621973,0.000000000,-0.295143197,0.000000000,0.005100012,-0.010978693,-1.205540919,0.000000000,-1.201325956,0.000000000,0.011978941,-0.008429301,-0.698219706,0.000000000,-0.696734326,0.000000000,0.006371162,-0.003478919,-0.633921143,0.000000000,-0.634010927,0.000000000,0.000008483,0.000417134,-0.001833188,0.000000000,-0.002043296
0.048000000,0.000000000,-0.000165350,-0.000619314,0.023878131,0.000000000,0.021127179,0.000000000,-0.000765550,0.000747724,0.200848594,0.000000000,0.200691007,0.000000000,0.005077518,-0.010879909,-1.202271292,0.000000000,-1.197166441,0.000000000,0.011958589,-0.008479585,-0.695729147,0.000000000,-0.695091430,0.000000000,0.006362149,-0.003274226,-0.633868508,0.000000000,-0.633682001,0.000000000,0.000009934,-0.000043502,-0.001041255,0.000000000,-0.000880273,0.000000000,0.000008271,0.000183830,-0.001743129,0.000000000,-0.001921142,-0.000451000,0.000738398,-0.001351776,-0.295143197,0.000000000,-0.307504519,0.000000000,0.005078247,-0.010886246,-1.201325956,0.000000000,-1.197230241,0.000000000,0.011961977,-0.008481976,-0.696734326,0.000000000,-0.695288378,0.000000000,0.006364716,-0.003223010,-0.634010927,0.000000000,-0.634087009,0.000000000,0.000009393,0.000465971,-0.002043296,0.000000000,-0.002274082
0.050000000,0.000000000,-0.000165330,-0.000158669,0.021127179,0.000000000,0.018520105,0.000000000,-0.000764126,0.000725350,0.200691007,0.000000000,0.200792419,0.000000000,0.005055893,-0.010813957,-1.197166441,0.000000000,-1.192511371,0.000000000,0.011941672,-0.008458919,-0.695091430,0.000000000,-0.694169704,0.000000000,0.006356011,-0.003068979,-0.633682001,0.000000000,-0.633645185,0.000000000,0.000009914,-0.000009785,-0.000880273,0.000000000,-0.000974185,0.000000000,0.000008370,0.000216074,-0.001921142,0.000000000,-0.002114065,-0.000508000,0.000735502,-0.001448432,-0.307504519,0.000000000,-0.320697015,0.000000000,0.005056673,-0.010790189,-1.197230241,0.000000000,-1.193270778,0.000000000,0.011944918,-0.008529310,-0.695288378,0.000000000,-0.693874424,0.000000000,0.006358739,-0.002988568,-0.634087009,0.000000000,-0.634149447,0.000000000,0.000010410,0.000518258,-0.002274082,0.000000000,-0.002525461
0.052000000,0.000000000,-0.000165296,0.000243810,0.018520105,0.000000000,0.016240439,0.000000000,-0.000762745,0.000703688,0.200792419,0.000000000,0.200889723,0.000000000,0.005034431,-0.010732480,-1.192511371,0.000000000,-1.188253795,0.000000000,0.011924740,-0.008465876,-0.694169704,0.000000000,-0.693050762,0.000000000,0.006350310,-0.002850727,-0.633645185,0.000000000,-0.633689457,0.000000000,0.000009938,0.000011880,-0.000974185,0.000000000,-0.001038130,0.000000000,0.000008512,0.000251143,-0.002114065,0.000000000,-0.002327543,-0.000570000,0.000732388,-0.001557131,-0.320697015,0.000000000,-0.334976550,0.000000000,0.005035297,-0.010691376,-1.193270778,0.000000000,-1.189429853,0.000000000,0.011927777,-0.008570427,-0.693874424,0.000000000,-0.692499462,0.000000000,0.006353190,-0.002774237,-0.634149447,0.000000000,-0.634198033,0.000000000,0.000011536,0.000572324,-0.002525461,0.000000000,-0.002793034
0.054000000,0.000000000,-0.000165256,0.000586106,0.016240439,0.000000000,0.014300513,0.000000000,-0.000761400,0.000685002,0.200889723,0.000000000,0.200930120,0.000000000,0.005013153,-0.010640427,-1.188253795,0.000000000,-1.184287761,0.000000000,0.011907766,-0.008486867,-0.693050762,0.000000000,-0.691829412,0.000000000,0.006345037,-0.002636543,-0.633689457,0.000000000,-0.633765458,0.000000000,0.000009965,0.000013717,-0.001038130,0.000000000,-0.001046068,0.000000000,0.000008710,0.000289048,-0.002327543,0.000000000,-0.002562948,-0.000636000,0.000729031,-0.001679015,-0.334976550,0.000000000,-0.350025582,0.000000000,0.005014125,-0.010589640,-1.189429853,0.000000000,-1.185712872,0.000000000,0.011910565,-0.008605941,-0.692499462,0.000000000,-0.691159839,0.000000000,0.006348034,-0.002578118,-0.634198033,0.000000000,-0.634234485,0.000000000,0.000012779,0.000629596,-0.002793034,0.000000000,-0.003081492
0.056000000,0.000000000,0.000165225,0.000878697,0.014300513,0.000000000,-0.022580664,0.000000000,-0.000760088,0.000668412,0.200930120,0.000000000,0.200932385,0.000000000,0.004992074,-0.010540911,-1.184287761,0.000000000,-1.180547109,0.000000000,0.011890739,-0.008513563,-0.691829412,0.000000000,-0.690564139,0.000000000,0.006340167,-0.002434989,-0.633765458,0.000000000,-0.633846294,0.000000000,0.000009982,0.000009090,-0.001046068,0.000000000,-0.001034711,0.000000000,0.000008976,0.000329633,-0.002562948,0.000000000,-0.002820822,-0.000707000,0.000725403,-0.001814673,-0.350025582,0.000000000,-0.366107175,0.000000000,0.004993162,-0.010485077,-1.185712872,0.000000000,-1.182119298,0.000000000,0.011893293,-0.008635986,-0.691159839,0.000000000,-0.689855299,0.000000000,0.006343236,-0.002398795,-0.634234485,0.000000000,-0.634259434,0.000000000,0.000014143,0.000688882,-0.003081492,0.000000000,-0.003387835
0.058000000,0.000000000,0.000165207,0.000369670,-0.022580664,0.000000000,-0.019700252,0.000000000,-0.000758791,0.000660611,0.200932385,0.000000000,0.200740086,0.000000000,0.004971295,-0.010390553,-1.180547109,0.000000000,-1.178041946,0.000000000,0.011873442,-0.008648319,-0.690564139,0.000000000,-0.688513750,0.000000000,0.006335801,-0.002182868,-0.633846294,0.000000000,-0.634121850,0.000000000,0.000010109,0.000064502,-0.001034711,0.000000000,-0.001205040,0.000000000,0.000009324,0.000372327,-0.002820822,0.000000000,-0.003099344,-0.000783000,0.000721474,-0.001964908,-0.366107175,0.000000000,-0.383194916,0.000000000,0.004972414,-0.010377577,-1.182119298,0.000000000,-1.178653257,0.000000000,0.011875971,-0.008660920,-0.689855299,0.000000000,-0.688583928,0.000000000,0.006338766,-0.002235132,-0.634259434,0.000000000,-0.634272940,0.000000000,0.000015632,0.000751171,-0.003387835,0.000000000,-0.003715464
0.060000000,0.000000000,0.000165187,-0.000112308,-0.019700252,0.000000000,-0.016972519,0.000000000,-0.000757489,0.000663262,0.200740086,0.000000000,0.200310044,0.000000000,0.004950793,-0.010252807,-1.178041946,0.000000000,-1.175329799,0.000000000,0.011855979,-0.008731526,-0.688513750,0.000000000,-0.686819264,0.000000000,0.006331793,-0.002004156,-0.634121850,0.000000000,-0.634224826,0.000000000,0.000010172,0.000032312,-0.001205040,0.000000000,-0.001119935,0.000000000,0.000009768,0.000418245,-0.003099344,0.000000000,-0.003406413,-0.000864000,0.000717213,-0.002131117,-0.383194916,0.000000000,-0.401248085,0.000000000,0.004951885,-0.010268012,-1.178653257,0.000000000,-1.175296230,0.000000000,0.011858612,-0.008679914,-0.688583928,0.000000000,-0.687352391,0.000000000,0.006334595,-0.002085681,-0.634272940,0.000000000,-0.634276250,0.000000000,0.000017252,0.000815383,-0.003715464,0.000000000,-0.004061685
0.062000000,0.000000000,-0.000165168,-0.000534907,-0.016972519,0.000000000,0.020630453,0.000000000,-0.000756184,0.000664790,0.200310044,0.000000000,0.199904749,0.000000000,0.004930545,-0.010125169,-1.175329799,0.000000000,-1.172461567,0.000000000,0.011838427,-0.008776187,-0.686819264,0.000000000,-0.685393114,0.000000000,0.006328051,-0.001871077,-0.634224826,0.000000000,-0.634224971,0.000000000,0.000010196,0.000011852,-0.001119935,0.000000000,-0.001064114,0.000000000,0.000010322,0.000466453,-0.003406413,0.000000000,-0.003738083,-0.000950000,0.000712586,-0.002313881,-0.401248085,0.000000000,-0.420244175,0.000000000,0.004931580,-0.010155726,-1.175296230,0.000000000,-1.172064577,0.000000000,0.011841223,-0.008694137,-0.687352391,0.000000000,-0.686152958,0.000000000,0.006330697,-0.001948953,-0.634276250,0.000000000,-0.634271026,0.000000000,0.000019006,0.000882359,-0.004061685,0.000000000,-0.004429428
0.064000000,0.000000000,-0.000165148,-0.000134656,0.020630453,0.000000000,0.018364884,0.000000000,-0.000754900,0.000655193,0.199904749,0.000000000,0.199756699,0.000000000,0.004910452,-0.010048202,-1.172461567,0.000000000,-1.168490984,0.000000000,0.011821049,-0.008688941,-0.685393114,0.000000000,-0.684915587,0.000000000,0.006324389,-0.001830874,-0.634224971,0.000000000,-0.633969193,0.000000000,0.000010101,-0.000047943,-0.001064114,0.000000000,-0.000884595,0.000000000,0.000010998,0.000517239,-0.003738083,0.000000000,-0.004097237,-0.001042000,0.000707559,-0.002514244,-0.420244175,0.000000000,-0.440433798,0.000000000,0.004911504,-0.010041350,-1.172064577,0.000000000,-1.168945217,0.000000000,0.011823817,-0.008702953,-0.686152958,0.000000000,-0.684990853,0.000000000,0.006327049,-0.001824122,-0.634271026,0.000000000,-0.634257211,0.000000000,0.000020900,0.000951192,-0.004429428,0.000000000,-0.004816476
0.066000000,0.000000000,-0.000165125,0.000256159,0.018364884,0.000000000,0.016152450,0.000000000,-0.000753658,0.000633337,0.199756699,0.000000000,0.199898054,0.000000000,0.004890541,-0.009956801,-1.168490984,0.000000000,-1.164898841,0.000000000,0.011803779,-0.008635095,-0.684915587,0.000000000,-0.684207449,0.000000000,0.006320890,-0.001749618,-0.633969193,0.000000000,-0.633846552,0.000000000,0.000010079,-0.000011624,-0.000884595,0.000000000,-0.000985541,0.000000000,0.000011801,0.000569433,-0.004097237,0.000000000,-0.004478075,-0.001139000,0.000702095,-0.002732836,-0.440433798,0.000000000,-0.461508111,0.000000000,0.004891663,-0.009924276,-1.168945217,0.000000000,-1.165953461,0.000000000,0.011806403,-0.008707359,-0.684990853,0.000000000,-0.683859531,0.000000000,0.006323628,-0.001710244,-0.634257211,0.000000000,-0.634235273,0.000000000,0.000022939,0.001023542,-0.004816476,0.000000000,-0.005228247
0.068000000,0.000000000,0.000165108,0.000599746,0.016152450,0.000000000,-0.020990746,0.000000000,-0.000752458,0.000611706,0.199898054,0.000000000,0.200046257,0.000000000,0.004870838,-0.009852543,-1.164898841,0.000000000,-1.161656777,0.000000000,0.011786569,-0.008605182,-0.684207449,0.000000000,-0.683332984,0.000000000,0.006317592,-0.001648568,-0.633846552,0.000000000,-0.633800612,0.000000000,0.000010104,0.000012791,-0.000985541,0.000000000,-0.001057486,0.000000000,0.000012741,0.000623804,-0.004478075,0.000000000,-0.004885701,-0.001242000,0.000696156,-0.002970522,-0.461508111,0.000000000,-0.483720935,0.000000000,0.004872059,-0.009805354,-1.165953461,0.000000000,-1.163071088,0.000000000,0.011788990,-0.008706400,-0.683859531,0.000000000,-0.682766470,0.000000000,0.006320415,-0.001606435,-0.634235273,0.000000000,-0.634205696,0.000000000,0.000025125,0.001096832,-0.005228247,0.000000000,-0.005657592
0.070000000,0.000000000,0.000165093,0.000129850,-0.020990746,0.000000000,-0.018331862,0.000000000,-0.000751279,0.000600772,0.200046257,0.000000000,0.199958413,0.000000000,0.004851452,-0.009694405,-1.161656777,0.000000000,-1.159723303,0.000000000,0.011769179,-0.008694640,-0.683332984,0.000000000,-0.681598720,0.000000000,0.006314640,-0.001476119,-0.633800612,0.000000000,-0.633992518,0.000000000,0.000010250,0.000074465,-0.001057486,0.000000000,-0.001247603,0.000000000,0.000013821,0.000679819,-0.004885701,0.000000000,-0.005317563,-0.001351000,0.000689702,-0.003228232,-0.483720935,0.000000000,-0.507039831,0.000000000,0.004852698,-0.009684169,-1.163071088,0.000000000,-1.160308799,0.000000000,0.011771588,-0.008700895,-0.682766470,0.000000000,-0.681706420,0.000000000,0.006317392,-0.001511493,-0.634205696,0.000000000,-0.634170096,0.000000000,0.000027464,0.001172617,-0.005657592,0.000000000,-0.006109428
0.072000000,0.000000000,0.000165073,-0.000322948,-0.018331862,0.000000000,-0.015769169,0.000000000,-0.000750098,0.000601678,0.199958413,0.000000000,0.199602380,0.000000000,0.004832361,-0.009547289,-1.159723303,0.000000000,-1.157624170,0.000000000,0.011751700,-0.008739475,-0.681598720,0.000000000,-0.680175975,0.000000000,0.006311914,-0.001363115,-0.633992518,0.000000000,-0.634038262,0.000000000,0.000010326,0.000038675,-0.001247603,0.000000000,-0.001153532,0.000000000,0.000015046,0.000738492,-0.005317563,0.000000000,-0.005779929,-0.001465000,0.000682689,-0.003507547,-0.507039831,0.000000000,-0.531132554,0.000000000,0.004833581,-0.009561565,-1.160308799,0.000000000,-1.157648310,0.000000000,0.011754208,-0.008689989,-0.681706420,0.000000000,-0.680686127,0.000000000,0.006314543,-0.001424523,-0.634170096,0.000000000,-0.634129414,0.000000000,0.000029959,0.001250233,-0.006109428,0.000000000,-0.006582225
0.074000000,0.000000000,-0.000165058,-0.000721709,-0.015769169,0.000000000,0.021675127,0.000000000,-0.000748918,0.000601968,0.199602380,0.000000000,0.199260324,0.000000000,0.004813544,-0.009409601,-1.157624170,0.000000000,-1.155390057,0.000000000,0.011734200,-0.008749925,-0.680175975,0.000000000,-0.678996317,0.000000000,0.006309342,-0.001286081,-0.634038262,0.000000000,-0.633997314,0.000000000,0.000010354,0.000014230,-0.001153532,0.000000000,-0.001086858,0.000000000,0.000016418,0.000798778,-0.005779929,0.000000000,-0.006267087,-0.001586000,0.000675074,-0.003808734,-0.531132554,0.000000000,-0.556549122,0.000000000,0.004814715,-0.009436915,-1.157648310,0.000000000,-1.155104954,0.000000000,0.011736859,-0.008674753,-0.680686127,0.000000000,-0.679698543,0.000000000,0.006311854,-0.001344540,-0.634129414,0.000000000,-0.634085035,0.000000000,0.000032612,0.001329111,-0.006582225,0.000000000,-0.007074613
0.076000000,0.000000000,-0.000165044,-0.000301161,0.021675127,0.000000000,0.019295446,0.000000000,-0.000747760,0.000591100,0.199260324,0.000000000,0.199176952,0.000000000,0.004794902,-0.009322414,-1.155390057,0.000000000,-1.152063211,0.000000000,0.011716938,-0.008631101,-0.678996317,0.000000000,-0.678750550,0.000000000,0.006306752,-0.001294845,-0.633997314,0.000000000,-0.633710672,0.000000000,0.000010260,-0.000047708,-0.001086858,0.000000000,-0.000901288,0.000000000,0.000017939,0.000861022,-0.006267087,0.000000000,-0.006781214,-0.001712000,0.000666810,-0.004133456,-0.556549122,0.000000000,-0.582670056,0.000000000,0.004796100,-0.009310844,-1.155104954,0.000000000,-1.152665430,0.000000000,0.011719550,-0.008654550,-0.679698543,0.000000000,-0.678748823,0.000000000,0.006309312,-0.001271258,-0.634085035,0.000000000,-0.634036416,0.000000000,0.000035429,0.001410715,-0.007074613,0.000000000,-0.007591301
0.078000000,0.000000000,-0.000165025,0.000107653,0.019295446,0.000000000,0.016981528,0.000000000,-0.000746647,0.000568052,0.199176952,0.000000000,0.199381864,0.000000000,0.004776463,-0.009220961,-1.152063211,0.000000000,-1.149116729,0.000000000,0.011699844,-0.008547319,-0.678750550,0.000000000,-0.678266289,0.000000000,0.006304238,-0.001257143,-0.633710672,0.000000000,-0.633563751,0.000000000,0.000010236,-0.000012317,-0.000901288,0.000000000,-0.000999454,0.000000000,0.000019608,0.000924026,-0.006781214,0.000000000,-0.007315462,-0.001845000,0.000657850,-0.004481451,-0.582670056,0.000000000,-0.610056558,0.000000000,0.004777741,-0.009182731,-1.152665430,0.000000000,-1.150344895,0.000000000,0.011702289,-0.008630334,-0.678748823,0.000000000,-0.677830676,0.000000000,0.006306904,-0.001203984,-0.634036416,0.000000000,-0.633984313,0.000000000,0.000038411,0.001492984,-0.007591301,0.000000000,-0.008126554
0.080000000,0.000000000,-0.000165003,0.000467139,0.016981528,0.000000000,0.014946356,0.000000000,-0.000745578,0.000545311,0.199381864,0.000000000,0.199592370,0.000000000,0.004758252,-0.009106969,-1.149116729,0.000000000,-1.146518658,0.000000000,0.011682866,-0.008488633,-0.678266289,0.000000000,-0.677611060,0.000000000,0.006301847,-0.001195183,-0.633563751,0.000000000,-0.633498321,0.000000000,0.000010258,0.000011605,-0.000999454,0.000000000,-0.001069767,0.000000000,0.000021427,0.000988604,-0.007315462,0.000000000,-0.007874525,-0.001984000,0.000648144,-0.004854336,-0.610056558,0.000000000,-0.638373644,0.000000000,0.004759642,-0.009053395,-1.150344895,0.000000000,-1.148125565,0.000000000,0.011685086,-0.008601206,-0.677830676,0.000000000,-0.676951131,0.000000000,0.006304619,-0.001142355,-0.633984313,0.000000000,-0.633928621,0.000000000,0.000041561,0.001576812,-0.008126554,0.000000000,-0.008683224
0.082000000,0.000000000,0.000164992,0.000772522,0.014946356,0.000000000,-0.021955413,0.000000000,-0.000744547,0.000525580,0.199592370,0.000000000,0.199745781,0.000000000,0.004740285,-0.008984794,-1.146518658,0.000000000,-1.144175146,0.000000000,0.011665980,-0.008443032,-0.677611060,0.000000000,-0.676868583,0.000000000,0.006299598,-0.001124891,-0.633498321,0.000000000,-0.633470788,0.000000000,0.000010286,0.000013946,-0.001069767,0.000000000,-0.001079188,0.000000000,0.000023396,0.001054739,-0.007874525,0.000000000,-0.008458404,-0.002130000,0.000637643,-0.005252847,-0.638373644,0.000000000,-0.667874368,0.000000000,0.004741803,-0.008922661,-1.148125565,0.000000000,-1.146012152,0.000000000,0.011667951,-0.008567673,-0.676951131,0.000000000,-0.676107127,0.000000000,0.006302448,-0.001085343,-0.633928621,0.000000000,-0.633871327,0.000000000,0.000044880,0.001661472,-0.008683224,0.000000000,-0.009259408
0.084000000,0.000000000,0.000164984,0.000272478,-0.021955413,0.000000000,-0.019126836,0.000000000,-0.000743535,0.000515953,0.199745781,0.000000000,0.199675845,0.000000000,0.004722664,-0.008811931,-1.144175146,0.000000000,-1.143076412,0.000000000,0.011648960,-0.008510138,-0.676868583,0.000000000,-0.675316509,0.000000000,0.006297622,-0.000987850,-0.633470788,0.000000000,-0.633660721,0.000000000,0.000010419,0.000067752,-0.001079188,0.000000000,-0.001245614,0.000000000,0.000025515,0.001121859,-0.008458404,0.000000000,-0.009063846,-0.002283000,0.000626291,-0.005677971,-0.667874368,0.000000000,-0.698521328,0.000000000,0.004724229,-0.008790353,-1.146012152,0.000000000,-1.144009582,0.000000000,0.011650891,-0.008530119,-0.676107127,0.000000000,-0.675296452,0.000000000,0.006300383,-0.001032697,-0.633871327,0.000000000,-0.633812261,0.000000000,0.000048374,0.001748361,-0.009259408,0.000000000,-0.009859525
0.086000000,0.000000000,0.000164968,-0.000202828,-0.019126836,0.000000000,-0.016437263,0.000000000,-0.000742521,0.000517222,0.199675845,0.000000000,0.199358898,0.000000000,0.004705362,-0.008652250,-1.143076412,0.000000000,-1.141770253,0.000000000,0.011631902,-0.008528955,-0.675316509,0.000000000,-0.674105300,0.000000000,0.006295800,-0.000911019,-0.633660721,0.000000000,-0.633695008,0.000000000,0.000010483,0.000032585,-0.001245614,0.000000000,-0.001152108,0.000000000,0.000027787,0.001191114,-0.009063846,0.000000000,-0.009697608,-0.002442000,0.000614033,-0.006131234,-0.698521328,0.000000000,-0.729979756,0.000000000,0.004706922,-0.008657334,-1.144009582,0.000000000,-1.142098691,0.000000000,0.011633916,-0.008487644,-0.675296452,0.000000000,-0.674526118,0.000000000,0.006298415,-0.000983894,-0.633812261,0.000000000,-0.633752133,0.000000000,0.000052044,0.001836448,-0.009859525,0.000000000,-0.010480884
0.088000000,0.000000000,0.000164950,-0.000619485,-0.016437263,0.000000000,-0.014079171,0.000000000,-0.000741507,0.000517493,0.199358898,0.000000000,0.199064558,0.000000000,0.004688357,-0.008503550,-1.141770253,0.000000000,-1.140300282,0.000000000,0.011614879,-0.008511501,-0.674105300,0.000000000,-0.673154101,0.000000000,0.006294062,-0.000868850,-0.633695008,0.000000000,-0.633639273,0.000000000,0.000010503,0.000010163,-0.001152108,0.000000000,-0.001090379,0.000000000,0.000030211,0.001261569,-0.009697608,0.000000000,-0.010354475,-0.002608000,0.000600813,-0.006612898,-0.729979756,0.000000000,-0.762511857,0.000000000,0.004689883,-0.008522929,-1.142098691,0.000000000,-1.140295553,0.000000000,0.011617033,-0.008441378,-0.674526118,0.000000000,-0.673788579,0.000000000,0.006296539,-0.000938232,-0.633752133,0.000000000,-0.633692306,0.000000000,0.000055892,0.001925142,-0.010480884,0.000000000,-0.011121920
0.090000000,0.000000000,-0.000164948,-0.000975209,-0.014079171,0.000000000,0.023096910,0.000000000,-0.000740500,0.000514440,0.199064558,0.000000000,0.198847173,0.000000000,0.004671637,-0.008361240,-1.140300282,0.000000000,-1.138766654,0.000000000,0.011597937,-0.008471087,-0.673154101,0.000000000,-0.672371214,0.000000000,0.006292376,-0.000843229,-0.633639273,0.000000000,-0.633541673,0.000000000,0.000010519,0.000008181,-0.001090379,0.000000000,-0.001086368,0.000000000,0.000032790,0.001333114,-0.010354475,0.000000000,-0.011033899,-0.002781000,0.000586571,-0.007124012,-0.762511857,0.000000000,-0.796077144,0.000000000,0.004673115,-0.008387486,-1.140295553,0.000000000,-1.138592887,0.000000000,0.011600251,-0.008390969,-0.673788579,0.000000000,-0.673086856,0.000000000,0.006294747,-0.000895826,-0.633692306,0.000000000,-0.633631791,0.000000000,0.000059920,0.002014873,-0.011121920,0.000000000,-0.011784065
0.092000000,0.000000000,-0.000164948,-0.000520075,0.023096910,0.000000000,0.020523160,0.000000000,-0.000739519,0.000501003,0.198847173,0.000000000,0.198872345,0.000000000,0.004655104,-0.008267746,-1.138766654,0.000000000,-1.136182007,0.000000000,0.011581319,-0.008308918,-0.672371214,0.000000000,-0.672474243,0.000000000,0.006290594,-0.000891113,-0.633541673,0.000000000,-0.633225415,0.000000000,0.000010428,-0.000046292,-0.001086368,0.000000000,-0.000922298,0.000000000,0.000035524,0.001406253,-0.011033899,0.000000000,-0.011738931,-0.002961000,0.000571246,-0.007665682,-0.796077144,0.000000000,-0.830633310,0.000000000,0.004656619,-0.008251355,-1.138592887,0.000000000,-1.136983164,0.000000000,0.011583579,-0.008336204,-0.673086856,0.000000000,-0.672423013,0.000000000,0.006293035,-0.000856155,-0.633631791,0.000000000,-0.633571523,0.000000000,0.000064128,0.002105078,-0.011784065,0.000000000,-0.012465811
0.094000000,0.000000000,-0.000164937,-0.000084622,0.020523160,0.000000000,0.018059507,0.000000000,-0.000738586,0.000476488,0.198872345,0.000000000,0.199161668,0.000000000,0.004638789,-0.008159241,-1.136182007,0.000000000,-1.133998570,0.000000000,0.011564946,-0.008186457,-0.672474243,0.000000000,-0.672310500,0.000000000,0.006288824,-0.000884596,-0.633225415,0.000000000,-0.633065142,0.000000000,0.000010404,-0.000012168,-0.000922298,0.000000000,-0.001016891,0.000000000,0.000038413,0.001479805,-0.011738931,0.000000000,-0.012462854,-0.003148000,0.000554778,-0.008238233,-0.830633310,0.000000000,-0.866155476,0.000000000,0.004640398,-0.008113838,-1.136983164,0.000000000,-1.135482964,0.000000000,0.011567022,-0.008278146,-0.672423013,0.000000000,-0.671789907,0.000000000,0.006291397,-0.000818976,-0.633571523,0.000000000,-0.633511682,0.000000000,0.000068519,0.002196409,-0.012465811,0.000000000,-0.013169235
0.096000000,0.000000000,-0.000164914,0.000296702,0.018059507,0.000000000,0.015900678,0.000000000,-0.000737699,0.000452808,0.199161668,0.000000000,0.199445169,0.000000000,0.004622715,-0.008038004,-1.133998570,0.000000000,-1.132172028,0.000000000,0.011548762,-0.008092063,-0.672310500,0.000000000,-0.671959181,0.000000000,0.006287127,-0.000848493,-0.633065142,0.000000000,-0.632996275,0.000000000,0.000010422,0.000009133,-0.001016891,0.000000000,-0.001079263,0.000000000,0.000041459,0.001554559,-0.012462854,0.000000000,-0.013210278,-0.003342000,0.000537101,-0.008842754,-0.866155476,0.000000000,-0.902600891,0.000000000,0.004624453,-0.007975766,-1.135482964,0.000000000,-1.134073798,0.000000000,0.011550591,-0.008215825,-0.671789907,0.000000000,-0.671194986,0.000000000,0.006289828,-0.000784256,-0.633511682,0.000000000,-0.633451872,0.000000000,0.000073092,0.002287518,-0.013169235,0.000000000,-0.013890462
0.098000000,0.000000000,-0.000164889,0.000621069,0.015900678,0.000000000,0.014063660,0.000000000,-0.000736852,0.000432300,0.199445169,0.000000000,0.199668309,0.000000000,0.004606900,-0.007908720,-1.132172028,0.000000000,-1.130601000,0.000000000,0.011532737,-0.008012732,-0.671959181,0.000000000,-0.671510820,0.000000000,0.006285527,-0.000800345,-0.632996275,0.000000000,-0.632971386,0.000000000,0.000010442,0.000009979,-0.001079263,0.000000000,-0.001083650,0.000000000,0.000044664,0.001630463,-0.013210278,0.000000000,-0.013981062,-0.003544000,0.000518151,-0.009480070,-0.902600891,0.000000000,-0.940216495,0.000000000,0.004608786,-0.007836946,-1.134073798,0.000000000,-1.132760459,0.000000000,0.011534291,-0.008149762,-0.671194986,0.000000000,-0.670635000,0.000000000,0.006288326,-0.000751331,-0.633451872,0.000000000,-0.633393610,0.000000000,0.000077848,0.002378573,-0.013890462,0.000000000,-0.014629954
0.100000000,0.000000000,0.000164875,0.000898588,0.014063660,0.000000000,-0.022655832,0.000000000,-0.000736041,0.000414042,0.199668309,0.000000000,0.199850737,0.000000000,0.004591354,-0.007774328,-1.130601000,0.000000000,-1.129221895,0.000000000,0.011516856,-0.007940447,-0.671510820,0.000000000,-0.671021501,0.000000000,0.006284028,-0.000749553,-0.632971386,0.000000000,-0.632964281,0.000000000,0.000010450,0.000004229,-0.001083650,0.000000000,-0.001068141,0.000000000,0.000048027,0.001707419,-0.013981062,0.000000000,-0.014774794,-0.003753000,0.000497860,-0.010151405,-0.940216495,0.000000000,-0.978671180,0.000000000,0.004593398,-0.007697433,-1.132760459,0.000000000,-1.131542109,0.000000000,0.011518131,-0.008080069,-0.670635000,0.000000000,-0.670109619,0.000000000,0.006286885,-0.000720123,-0.633393610,0.000000000,-0.633336776,0.000000000,0.000082788,0.002470944,-0.014629954,0.000000000,-0.015391873
0.102000000,0.000000000,0.000164871,0.000378685,-0.022655832,0.000000000,-0.019715417,0.000000000,-0.000735247,0.000405108,0.199850737,0.000000000,0.199827092,0.000000000,0.004576174,-0.007591408,-1.129221895,0.000000000,-1.129044419,0.000000000,0.011500901,-0.007977513,-0.671021501,0.000000000,-0.669750243,0.000000000,0.006282759,-0.000634066,-0.632964281,0.000000000,-0.633164447,0.000000000,0.000010566,0.000058882,-0.001068141,0.000000000,-0.001235221,0.000000000,0.000051551,0.001784899,-0.014774794,0.000000000,-0.015588535,-0.003970000,0.000476160,-0.010857070,-0.978671180,0.000000000,-1.018222691,0.000000000,0.004578290,-0.007557080,-1.131542109,0.000000000,-1.130422515,0.000000000,0.011502117,-0.008007052,-0.670109619,0.000000000,-0.669617098,0.000000000,0.006285504,-0.000690576,-0.633336776,0.000000000,-0.633281194,0.000000000,0.000087914,0.002563365,-0.015391873,0.000000000,-0.016172627
0.104000000,0.000000000,0.000164862,-0.000112158,-0.019715417,0.000000000,-0.016938707,0.000000000,-0.000734450,0.000406686,0.199827092,0.000000000,0.199564939,0.000000000,0.004561330,-0.007423200,-1.129044419,0.000000000,-1.128629814,0.000000000,0.011484971,-0.007964779,-0.669750243,0.000000000,-0.668834567,0.000000000,0.006281602,-0.000578685,-0.633164447,0.000000000,-0.633204927,0.000000000,0.000010617,0.000025997,-0.001235221,0.000000000,-0.001146893,0.000000000,0.000055237,0.001864043,-0.015588535,0.000000000,-0.016429021,-0.004195000,0.000452979,-0.011598628,-1.018222691,0.000000000,-1.058815444,0.000000000,0.004563464,-0.007416695,-1.130422515,0.000000000,-1.129383460,0.000000000,0.011486257,-0.007929893,-0.669617098,0.000000000,-0.669163760,0.000000000,0.006284179,-0.000662396,-0.633281194,0.000000000,-0.633227418,0.000000000,0.000093224,0.002655759,-0.016172627,0.000000000,-0.016971987
0.106000000,0.000000000,0.000164850,-0.000541972,-0.016938707,0.000000000,-0.014506882,0.000000000,-0.000733653,0.000407224,0.199564939,0.000000000,0.199326164,0.000000000,0.004546798,-0.007267124,-1.128629814,0.000000000,-1.128029484,0.000000000,0.011469141,-0.007915288,-0.668834567,0.000000000,-0.668186406,0.000000000,0.006280489,-0.000556765,-0.633204927,0.000000000,-0.633154707,0.000000000,0.000010626,0.000004770,-0.001146893,0.000000000,-0.001087492,0.000000000,0.000059087,0.001944009,-0.016429021,0.000000000,-0.017291620,-0.004427000,0.000428245,-0.012376727,-1.058815444,0.000000000,-1.100129880,0.000000000,0.004548919,-0.007275578,-1.129383460,0.000000000,-1.128441165,0.000000000,0.011470558,-0.007849756,-0.669163760,0.000000000,-0.668741713,0.000000000,0.006282909,-0.000635174,-0.633227418,0.000000000,-0.633176422,0.000000000,0.000098721,0.002749229,-0.016971987,0.000000000,-0.017793312
0.108000000,0.000000000,-0.000164852,-0.000909137,-0.014506882,0.000000000,0.022713071,0.000000000,-0.000732861,0.000404501,0.199326164,0.000000000,0.199162743,0.000000000,0.004532564,-0.007118378,-1.128029484,0.000000000,-1.127347924,0.000000000,0.011453455,-0.007842913,-0.668186406,0.000000000,-0.667710052,0.000000000,0.006279389,-0.000549709,-0.633154707,0.000000000,-0.633063653,0.000000000,0.000010632,0.000003052,-0.001087492,0.000000000,-0.001083215,0.000000000,0.000063102,0.002024672,-0.017291620,0.000000000,-0.018175718,-0.004667000,0.000401885,-0.013191777,-1.100129880,0.000000000,-1.142420229,0.000000000,0.004534657,-0.007134059,-1.128441165,0.000000000,-1.127588418,0.000000000,0.011455025,-0.007766280,-0.668741713,0.000000000,-0.668353948,0.000000000,0.006281691,-0.000609148,-0.633176422,0.000000000,-0.633127288,0.000000000,0.000104404,0.002841789,-0.017793312,0.000000000,-0.018630767
0.110000000,0.000000000,-0.000164854,-0.000464355,0.022713071,0.000000000,0.020198097,0.000000000,-0.000732096,0.000391292,0.199162743,0.000000000,0.199244057,0.000000000,0.004518527,-0.007019234,-1.127347924,0.000000000,-1.125600765,0.000000000,0.011438156,-0.007649238,-0.667710052,0.000000000,-0.668120367,0.000000000,0.006278161,-0.000614299,-0.633063653,0.000000000,-0.632755856,0.000000000,0.000010531,-0.000051598,-0.001083215,0.000000000,-0.000917584,0.000000000,0.000067284,0.002106468,-0.018175718,0.000000000,-0.019083991,-0.004915000,0.000373823,-0.014044942,-1.142420229,0.000000000,-1.185638865,0.000000000,0.004520679,-0.006992460,-1.127588418,0.000000000,-1.126817945,0.000000000,0.011439666,-0.007679276,-0.668353948,0.000000000,-0.668002251,0.000000000,0.006280523,-0.000584057,-0.633127288,0.000000000,-0.633080566,0.000000000,0.000110270,0.002933864,-0.018630767,0.000000000,-0.019485462
0.112000000,0.000000000,-0.000164846,-0.000037782,0.020198097,0.000000000,0.017784937,0.000000000,-0.000731378,0.000367046,0.199244057,0.000000000,0.199588423,0.000000000,0.004504718,-0.006905815,-1.125600765,0.000000000,-1.124240977,0.000000000,0.011423165,-0.007495815,-0.668120367,0.000000000,-0.668263948,0.000000000,0.006276915,-0.000622719,-0.632755856,0.000000000,-0.632606046,0.000000000,0.000010496,-0.000017630,-0.000917584,0.000000000,-0.001010649,0.000000000,0.000071632,0.002188209,-0.019083991,0.000000000,-0.020009669,-0.005172000,0.000343985,-0.014936512,-1.185638865,0.000000000,-1.230042092,0.000000000,0.004506985,-0.006850079,-1.126817945,0.000000000,-1.126146101,0.000000000,0.011424487,-0.007589800,-0.668002251,0.000000000,-0.667679422,0.000000000,0.006279403,-0.000559880,-0.633080566,0.000000000,-0.633036135,0.000000000,0.000116322,0.003026354,-0.019485462,0.000000000,-0.020360041
0.114000000,0.000000000,-0.000164827,0.000335992,0.017784937,0.000000000,0.015669252,0.000000000,-0.000730706,0.000343657,0.199588423,0.000000000,0.199926276,0.000000000,0.004491160,-0.006780337,-1.124240977,0.000000000,-1.123225273,0.000000000,0.011408422,-0.007371132,-0.668263948,0.000000000,-0.668219000,0.000000000,0.006275715,-0.000599880,-0.632606046,0.000000000,-0.632549725,0.000000000,0.000010503,0.000003621,-0.001010649,0.000000000,-0.001071783,0.000000000,0.000076147,0.002270771,-0.020009669,0.000000000,-0.020957855,-0.005436000,0.000312294,-0.015867894,-1.230042092,0.000000000,-1.275007827,0.000000000,0.004493576,-0.006707726,-1.126146101,0.000000000,-1.125554539,0.000000000,0.011409493,-0.007496914,-0.667679422,0.000000000,-0.667392571,0.000000000,0.006278329,-0.000536781,-0.633036135,0.000000000,-0.632993306,0.000000000,0.000122560,0.003119306,-0.020360041,0.000000000,-0.021254726
0.116000000,0.000000000,-0.000164808,0.000653954,0.015669252,0.000000000,0.013869137,0.000000000,-0.000730072,0.000323487,0.199926276,0.000000000,0.200202492,0.000000000,0.004477867,-0.006647439,-1.123225273,0.000000000,-1.122452926,0.000000000,0.011393898,-0.007262268,-0.668219000,0.000000000,-0.668075369,0.000000000,0.006274588,-0.000563463,-0.632549725,0.000000000,-0.632539366,0.000000000,0.000010512,0.000004460,-0.001071783,0.000000000,-0.001075054,0.000000000,0.000080831,0.002354079,-0.020957855,0.000000000,-0.021928249,-0.005708000,0.000278674,-0.016839249,-1.275007827,0.000000000,-1.320795101,0.000000000,0.004480452,-0.006565189,-1.125554539,0.000000000,-1.125048139,0.000000000,0.011394691,-0.007401130,-0.667392571,0.000000000,-0.667138417,0.000000000,0.006277301,-0.000514138,-0.632993306,0.000000000,-0.632953757,0.000000000,0.000128980,0.003210399,-0.021254726,0.000000000,-0.022162545
0.118000000,0.000000000,0.000164803,0.000926045,0.013869137,0.000000000,-0.022803494,0.000000000,-0.000729474,0.000305620,0.200202492,0.000000000,0.200436597,0.000000000,0.004464849,-0.006510026,-1.122452926,0.000000000,-1.121860842,0.000000000,0.011379575,-0.007161260,-0.668075369,0.000000000,-0.667888649,0.000000000,0.006273542,-0.000523026,-0.632539366,0.000000000,-0.632548607,0.000000000,0.000010509,-0.000001299,-0.001075054,0.000000000,-0.001058423,0.000000000,0.000085685,0.002437880,-0.021928249,0.000000000,-0.022919505,-0.005989000,0.000243050,-0.017851446,-1.320795101,0.000000000,-1.367647342,0.000000000,0.004467614,-0.006422502,-1.125048139,0.000000000,-1.124626244,0.000000000,0.011380086,-0.007302563,-0.667138417,0.000000000,-0.666916502,0.000000000,0.006276317,-0.000492025,-0.632953757,0.000000000,-0.632917172,0.000000000,0.000135581,0.003300641,-0.022162545,0.000000000,-0.023086189
0.120000000,0.000000000,0.000164807,0.000401914,-0.022803494,0.000000000,-0.019839886,0.000000000,-0.000728892,0.000297232,0.200436597,0.000000000,0.200460820,0.000000000,0.004452202,-0.006324661,-1.121860842,0.000000000,-1.122458725,0.000000000,0.011365234,-0.007170399,-0.667888649,0.000000000,-0.666917851,0.000000000,0.006272709,-0.000416691,-0.632548607,0.000000000,-0.632766693,0.000000000,0.000010614,0.000053475,-0.001058423,0.000000000,-0.001224773,0.000000000,0.000090708,0.002521662,-0.022919505,0.000000000,-0.023928707,-0.006278000,0.000205354,-0.018905331,-1.367647342,0.000000000,-1.415241259,0.000000000,0.004455061,-0.006279516,-1.124626244,0.000000000,-1.124292391,0.000000000,0.011365683,-0.007201529,-0.666916502,0.000000000,-0.666724880,0.000000000,0.006275376,-0.000470649,-0.632917172,0.000000000,-0.632882812,0.000000000,0.000142363,0.003391542,-0.023086189,0.000000000,-0.024030088
0.122000000,0.000000000,0.000164801,-0.000092480,-0.019839886,0.000000000,-0.017043495,0.000000000,-0.000728306,0.000299377,0.200460820,0.000000000,0.200245714,0.000000000,0.004439895,-0.006154540,-1.122458725,0.000000000,-1.122808518,0.000000000,0.011350973,-0.007130633,-0.666917851,0.000000000,-0.666299697,0.000000000,0.006271970,-0.000369361,-0.632766693,0.000000000,-0.632826592,0.000000000,0.000010655,0.000020670,-0.001224773,0.000000000,-0.001135618,0.000000000,0.000095902,0.002606560,-0.023928707,0.000000000,-0.024962485,-0.006576000,0.000165528,-0.020001839,-1.415241259,0.000000000,-1.463824043,0.000000000,0.004442793,-0.006137030,-1.124292391,0.000000000,-1.124028199,0.000000000,0.011351488,-0.007097193,-0.666724880,0.000000000,-0.666569917,0.000000000,0.006274476,-0.000449725,-0.632882812,0.000000000,-0.632851395,0.000000000,0.000149324,0.003480773,-0.024030088,0.000000000,-0.024987276
0.124000000,0.000000000,0.000164790,-0.000525274,-0.017043495,0.000000000,-0.014594871,0.000000000,-0.000727718,0.000300503,0.200245714,0.000000000,0.200053201,0.000000000,0.004427903,-0.005997066,-1.122808518,0.000000000,-1.122961766,0.000000000,0.011336863,-0.007055010,-0.666299697,0.000000000,-0.665945962,0.000000000,0.006271261,-0.000354543,-0.632826592,0.000000000,-0.632797057,0.000000000,0.000010654,-0.000000525,-0.001135618,0.000000000,-0.001075255,0.000000000,0.000101268,0.002691696,-0.024962485,0.000000000,-0.026015920,-0.006882000,0.000123558,-0.021141659,-1.463824043,0.000000000,-1.513091616,0.000000000,0.004430811,-0.005994318,-1.124028199,0.000000000,-1.123850240,0.000000000,0.011337507,-0.006990750,-0.666569917,0.000000000,-0.666443371,0.000000000,0.006273618,-0.000428970,-0.632851395,0.000000000,-0.632823695,0.000000000,0.000156464,0.003570450,-0.024987276,0.000000000,-0.025963868
0.126000000,0.000000000,-0.000164789,-0.000894921,-0.014594871,0.000000000,0.022625960,0.000000000,-0.000727135,0.000298388,0.200053201,0.000000000,0.199935219,0.000000000,0.004416211,-0.005847420,-1.122961766,0.000000000,-1.123022996,0.000000000,0.011322948,-0.006957405,-0.665945962,0.000000000,-0.665760813,0.000000000,0.006270554,-0.000353770,-0.632797057,0.000000000,-0.632727747,0.000000000,0.000010650,-0.000002234,-0.001075255,0.000000000,-0.001069952,0.000000000,0.000106806,0.002776967,-0.026015920,0.000000000,-0.027088435,-0.007196000,0.000079599,-0.022325179,-1.513091616,0.000000000,-1.563079330,0.000000000,0.004419113,-0.005851702,-1.123850240,0.000000000,-1.123751166,0.000000000,0.011323743,-0.006881837,-0.666443371,0.000000000,-0.666348138,0.000000000,0.006272801,-0.000408726,-0.632823695,0.000000000,-0.632798635,0.000000000,0.000163782,0.003658951,-0.025963868,0.000000000,-0.026955006
0.128000000,0.000000000,-0.000164792,-0.000452489,0.022625960,0.000000000,0.020124291,0.000000000,-0.000726577,0.000285702,0.199935219,0.000000000,0.200063605,0.000000000,0.004404717,-0.005747850,-1.123022996,0.000000000,-1.122008176,0.000000000,0.011309470,-0.006739445,-0.665760813,0.000000000,-0.666458680,0.000000000,0.006269706,-0.000423919,-0.632727747,0.000000000,-0.632442626,0.000000000,0.000010537,-0.000056994,-0.001069952,0.000000000,-0.000902936,0.000000000,0.000112517,0.002862781,-0.027088435,0.000000000,-0.028182443,-0.007520000,0.000035163,-0.023553185,-1.563079330,0.000000000,-1.614767868,0.000000000,0.004407700,-0.005709492,-1.123751166,0.000000000,-1.123723745,0.000000000,0.011310202,-0.006770262,-0.666348138,0.000000000,-0.666285926,0.000000000,0.006272023,-0.000388768,-0.632798635,0.000000000,-0.632776792,0.000000000,0.000171273,0.003745744,-0.026955006,0.000000000,-0.027958836
0.130000000,0.000000000,-0.000164787,-0.000027852,0.020124291,0.000000000,0.017722433,0.000000000,-0.000726065,0.000262002,0.200063605,0.000000000,0.200454191,0.000000000,0.004393450,-0.005634478,-1.122008176,0.000000000,-1.121369969,0.000000000,0.011296344,-0.006562625,-0.666458680,0.000000000,-0.666886455,0.000000000,0.006268831,-0.000437302,-0.632442626,0.000000000,-0.632316188,0.000000000,0.000010492,-0.000023061,-0.000902936,0.000000000,-0.000994825,0.000000000,0.000118400,0.002948176,-0.028182443,0.000000000,-0.029292400,-0.007852000,-0.000025801,-0.024827168,-1.614767868,0.000000000,-1.662992346,0.000000000,0.004396572,-0.005566962,-1.123723745,0.000000000,-1.123784553,0.000000000,0.011296888,-0.006657146,-0.666285926,0.000000000,-0.666248962,0.000000000,0.006271285,-0.000369301,-0.632776792,0.000000000,-0.632757491,0.000000000,0.000178945,0.003836499,-0.027958836,0.000000000,-0.028992275
0.132000000,0.000000000,-0.000164774,0.000344279,0.017722433,0.000000000,0.015616711,0.000000000,-0.000725597,0.000239375,0.200454191,0.000000000,0.200832959,0.000000000,0.004382433,-0.005509525,-1.121369969,0.000000000,-1.121064728,0.000000000,0.011283513,-0.006415432,-0.666886455,0.000000000,-0.667122247,0.000000000,0.006267993,-0.000418953,-0.632316188,0.000000000,-0.632283672,0.000000000,0.000010488,-0.000001919,-0.000994825,0.000000000,-0.001054549,0.000000000,0.000124453,0.003032869,-0.029292400,0.000000000,-0.030416551,-0.008193000,-0.000073446,-0.026141489,-1.662992346,0.000000000,-1.716648461,0.000000000,0.004385728,-0.005424952,-1.123784553,0.000000000,-1.123914322,0.000000000,0.011283806,-0.006541230,-0.666248962,0.000000000,-0.666246536,0.000000000,0.006270585,-0.000349728,-0.632757491,0.000000000,-0.632742447,0.000000000,0.000186757,0.003906300,-0.028992275,0.000000000,-0.029980256
0.134000000,0.000000000,-0.000164764,0.000660976,0.015616711,0.000000000,0.013824715,0.000000000,-0.000725167,0.000219827,0.200832959,0.000000000,0.201152939,0.000000000,0.004371680,-0.005377579,-1.121064728,0.000000000,-1.120992672,0.000000000,0.011270943,-0.006284964,-0.667122247,0.000000000,-0.667255630,0.000000000,0.006267220,-0.000386538,-0.632283672,0.000000000,-0.632297695,0.000000000,0.000010486,-0.000001002,-0.001054549,0.000000000,-0.001056956,0.000000000,0.000130676,0.003117301,-0.030416551,0.000000000,-0.031557324,-0.008542000,-0.000127562,-0.027505643,-1.716648461,0.000000000,-1.769611965,0.000000000,0.004375168,-0.005283187,-1.123914322,0.000000000,-1.124119096,0.000000000,0.011270959,-0.006423464,-0.666246536,0.000000000,-0.666272143,0.000000000,0.006269923,-0.000331175,-0.632742447,0.000000000,-0.632728253,0.000000000,0.000194745,0.003993775,-0.029980256,0.000000000,-0.031036169
0.136000000,0.000000000,0.000164770,0.000932145,0.013824715,0.000000000,-0.022834496,0.000000000,-0.000724771,0.000202651,0.201152939,0.000000000,0.201428814,0.000000000,0.004361199,-0.005241572,-1.120992672,0.000000000,-1.121089796,0.000000000,0.011258617,-0.006163238,-0.667255630,0.000000000,-0.667342255,0.000000000,0.006266521,-0.000349725,-0.632297695,0.000000000,-0.632331663,0.000000000,0.000010473,-0.000006627,-0.001056956,0.000000000,-0.001039645,0.000000000,0.000137069,0.003201968,-0.031557324,0.000000000,-0.032717557,-0.008901000,-0.000185023,-0.028916179,-1.769611965,0.000000000,-1.823417792,0.000000000,0.004364890,-0.005141823,-1.124119096,0.000000000,-1.124395172,0.000000000,0.011258352,-0.006303645,-0.666272143,0.000000000,-0.666327474,0.000000000,0.006269298,-0.000312648,-0.632728253,0.000000000,-0.632717730,0.000000000,0.000202899,0.004077279,-0.031036169,0.000000000,-0.032097672
0.138000000,0.000000000,0.000164781,0.000407497,-0.022834496,0.000000000,-0.019868732,0.000000000,-0.000724389,0.000195135,0.201428814,0.000000000,0.201490201,0.000000000,0.004351084,-0.005058043,-1.121089796,0.000000000,-1.122366102,0.000000000,0.011246312,-0.006152533,-0.667342255,0.000000000,-0.666641096,0.000000000,0.006266027,-0.000246705,-0.632331663,0.000000000,-0.632574686,0.000000000,0.000010568,0.000048338,-0.001039645,0.000000000,-0.001205519,0.000000000,0.000143631,0.003286152,-0.032717557,0.000000000,-0.033893091,-0.009269000,-0.000245568,-0.030373694,-1.823417792,0.000000000,-1.877842700,0.000000000,0.004354894,-0.005000504,-1.124395172,0.000000000,-1.124750538,0.000000000,0.011245987,-0.006182374,-0.666327474,0.000000000,-0.666408451,0.000000000,0.006268709,-0.000294228,-0.632717730,0.000000000,-0.632710627,0.000000000,0.000211218,0.004159577,-0.032097672,0.000000000,-0.033172384
0.140000000,0.000000000,0.000164778,-0.000087269,-0.019868732,0.000000000,-0.017070553,0.000000000,-0.000724001,0.000198184,0.201490201,0.000000000,0.201311069,0.000000000,0.004341306,-0.004890170,-1.122366102,0.000000000,-1.123383751,0.000000000,0.011234124,-0.006093830,-0.666641096,0.000000000,-0.666288524,0.000000000,0.006265622,-0.000202411,-0.632574686,0.000000000,-0.632659698,0.000000000,0.000010599,0.000015643,-0.001205519,0.000000000,-0.001115677,0.000000000,0.000150363,0.003370861,-0.033893091,0.000000000,-0.035089720,-0.009645000,-0.000309200,-0.031879262,-1.877842700,0.000000000,-1.932577413,0.000000000,0.004345180,-0.004860077,-1.124750538,0.000000000,-1.125165545,0.000000000,0.011233869,-0.006058701,-0.666408451,0.000000000,-0.666522122,0.000000000,0.006268157,-0.000275911,-0.632710627,0.000000000,-0.632706931,0.000000000,0.000219697,0.004239783,-0.033172384,0.000000000,-0.034257362
0.142000000,0.000000000,0.000164766,-0.000520310,-0.017070553,0.000000000,-0.014620433,0.000000000,-0.000723610,0.000200253,0.201311069,0.000000000,0.201153082,0.000000000,0.004331837,-0.004735350,-1.123383751,0.000000000,-1.124194119,0.000000000,0.011222124,-0.006000164,-0.666288524,0.000000000,-0.666196307,0.000000000,0.006265242,-0.000190405,-0.632659698,0.000000000,-0.632655344,0.000000000,0.000010588,-0.000005497,-0.001115677,0.000000000,-0.001054484,0.000000000,0.000157264,0.003455023,-0.035089720,0.000000000,-0.036301272,-0.010031000,-0.000375979,-0.033432741,-1.932577413,0.000000000,-1.988176241,0.000000000,0.004335746,-0.004719843,-1.125165545,0.000000000,-1.125655884,0.000000000,0.011222002,-0.005933731,-0.666522122,0.000000000,-0.666660799,0.000000000,0.006267643,-0.000257468,-0.632706931,0.000000000,-0.632707325,0.000000000,0.000228332,0.004317636,-0.034257362,0.000000000,-0.035351391
0.144000000,0.000000000,-0.000164761,-0.000890071,-0.014620433,0.000000000,0.022595553,0.000000000,-0.000723222,0.000199090,0.201153082,0.000000000,0.201068931,0.000000000,0.004322661,-0.004588756,-1.124194119,0.000000000,-1.124901768,0.000000000,0.011210353,-0.005885399,-0.666196307,0.000000000,-0.666268549,0.000000000,0.006264857,-0.000192250,-0.632655344,0.000000000,-0.632611241,0.000000000,0.000010574,-0.000007146,-0.001054484,0.000000000,-0.001048376,0.000000000,0.000164333,0.003538524,-0.036301272,0.000000000,-0.037526948,-0.010426000,-0.000445986,-0.035035120,-1.988176241,0.000000000,-2.044309622,0.000000000,0.004326591,-0.004580117,-1.125655884,0.000000000,-1.126214135,0.000000000,0.011210388,-0.005807127,-0.666660799,0.000000000,-0.666827090,0.000000000,0.006267164,-0.000239439,-0.632707325,0.000000000,-0.632710185,0.000000000,0.000237122,0.004395058,-0.035351391,0.000000000,-0.036459842
0.146000000,0.000000000,-0.000164763,-0.000447764,0.022595553,0.000000000,0.020094522,0.000000000,-0.000722857,0.000187277,0.201068931,0.000000000,0.201232410,0.000000000,0.004313678,-0.004492622,-1.124901768,0.000000000,-1.124522689,0.000000000,0.011199051,-0.005651175,-0.666268549,0.000000000,-0.667219499,0.000000000,0.006264327,-0.000264848,-0.632611241,0.000000000,-0.632351311,0.000000000,0.000010452,-0.000061934,-0.001048376,0.000000000,-0.000880301,0.000000000,0.000171569,0.003621860,-0.037526948,0.000000000,-0.038769517,-0.010830000,-0.000519312,-0.036686829,-2.044309622,0.000000000,-2.100942162,0.000000000,0.004317714,-0.004441211,-1.126214135,0.000000000,-1.126832794,0.000000000,0.011199030,-0.005678677,-0.666827090,0.000000000,-0.667022726,0.000000000,0.006266721,-0.000221549,-0.632710185,0.000000000,-0.632716264,0.000000000,0.000246062,0.004470409,-0.036459842,0.000000000,-0.037577641
0.148000000,0.000000000,-0.000164761,-0.000023164,0.020094522,0.000000000,0.017693203,0.000000000,-0.000722536,0.000164534,0.201232410,0.000000000,0.201655653,0.000000000,0.004304913,-0.004383074,-1.124522689,0.000000000,-1.124509313,0.000000000,0.011188133,-0.005458954,-0.667219499,0.000000000,-0.667896183,0.000000000,0.006263766,-0.000280563,-0.632351311,0.000000000,-0.632249923,0.000000000,0.000010397,-0.000028001,-0.000880301,0.000000000,-0.000971209,0.000000000,0.000178969,0.003703789,-0.038769517,0.000000000,-0.040021644,-0.011244000,-0.000596050,-0.038387647,-2.100942162,0.000000000,-2.158336407,0.000000000,0.004309114,-0.004302380,-1.126832794,0.000000000,-1.127528650,0.000000000,0.011187931,-0.005549461,-0.667022726,0.000000000,-0.667240131,0.000000000,0.006266313,-0.000203822,-0.632716264,0.000000000,-0.632725463,0.000000000,0.000255150,0.004544258,-0.037577641,0.000000000,-0.038706097
0.150000000,0.000000000,-0.000164755,0.000349105,0.017693203,0.000000000,0.015587383,0.000000000,-0.000722257,0.000142751,0.201655653,0.000000000,0.202069184,0.000000000,0.004296390,-0.004262305,-1.124509313,0.000000000,-1.124818376,0.000000000,0.011177538,-0.005297219,-0.667896183,0.000000000,-0.668376597,0.000000000,0.006263238,-0.000264400,-0.632249923,0.000000000,-0.632242430,0.000000000,0.000010384,-0.000006690,-0.000971209,0.000000000,-0.001030468,0.000000000,0.000186533,0.003785117,-0.040021644,0.000000000,-0.041287758,-0.011667000,-0.000676297,-0.040138568,-2.158336407,0.000000000,-2.216158187,0.000000000,0.004300791,-0.004164418,-1.127528650,0.000000000,-1.128283248,0.000000000,0.011177094,-0.005418522,-0.667240131,0.000000000,-0.667486321,0.000000000,0.006265940,-0.000186533,-0.632725463,0.000000000,-0.632736911,0.000000000,0.000264384,0.004616775,-0.038706097,0.000000000,-0.039845427
0.152000000,0.000000000,0.000164754,0.000665997,0.015587383,0.000000000,-0.021327715,0.000000000,-0.000722015,0.000124270,0.202069184,0.000000000,0.202418239,0.000000000,0.004288122,-0.004134933,-1.124818376,0.000000000,-1.125349173,0.000000000,0.011167232,-0.005153044,-0.668376597,0.000000000,-0.668750408,0.000000000,0.006262769,-0.000234131,-0.632242430,0.000000000,-0.632281160,0.000000000,0.000010373,-0.000005718,-0.001030468,0.000000000,-0.001032093,0.000000000,0.000194258,0.003865796,-0.041287758,0.000000000,-0.042567450,-0.012099000,-0.000760152,-0.041939751,-2.216158187,0.000000000,-2.274375619,0.000000000,0.004292742,-0.004027100,-1.128283248,0.000000000,-1.129101316,0.000000000,0.011166522,-0.005286372,-0.667486321,0.000000000,-0.667757813,0.000000000,0.006265601,-0.000169197,-0.632736911,0.000000000,-0.632751998,0.000000000,0.000273758,0.004687132,-0.039845427,0.000000000,-0.040992836
0.154000000,0.000000000,0.000164758,0.000177792,-0.021327715,0.000000000,-0.018567347,0.000000000,-0.000721787,0.000116569,0.202418239,0.000000000,0.202527580,0.000000000,0.004280206,-0.003958632,-1.125349173,0.000000000,-1.127086924,0.000000000,0.011156982,-0.005125394,-0.668750408,0.000000000,-0.668299452,0.000000000,0.006262504,-0.000132620,-0.632281160,0.000000000,-0.632542951,0.000000000,0.000010468,0.000048125,-0.001032093,0.000000000,-0.001194734,0.000000000,0.000202143,0.003945149,-0.042567450,0.000000000,-0.043856601,-0.012541000,-0.000847714,-0.043791233,-2.274375619,0.000000000,-2.333244226,0.000000000,0.004284966,-0.003890199,-1.129101316,0.000000000,-1.129987782,0.000000000,0.011156215,-0.005153384,-0.667757813,0.000000000,-0.668052068,0.000000000,0.006265297,-0.000152010,-0.632751998,0.000000000,-0.632770137,0.000000000,0.000283268,0.004755484,-0.040992836,0.000000000,-0.042148364
0.156000000,0.000000000,0.000164758,-0.000286599,-0.018567347,0.000000000,-0.015941212,0.000000000,-0.000721552,0.000119885,0.202527580,0.000000000,0.202386008,0.000000000,0.004272613,-0.003797242,-1.127086924,0.000000000,-1.128579127,0.000000000,0.011146875,-0.005053245,-0.668299452,0.000000000,-0.668173910,0.000000000,0.006262329,-0.000087482,-0.632542951,0.000000000,-0.632653594,0.000000000,0.000010494,0.000013194,-0.001194734,0.000000000,-0.001098046,0.000000000,0.000210186,0.004024252,-0.043856601,0.000000000,-0.045161244,-0.012992000,-0.000939085,-0.045694169,-2.333244226,0.000000000,-2.392424585,0.000000000,0.004277462,-0.003754525,-1.129987782,0.000000000,-1.130923582,0.000000000,0.011146177,-0.005018673,-0.668052068,0.000000000,-0.668375585,0.000000000,0.006265028,-0.000134955,-0.632770137,0.000000000,-0.632791346,0.000000000,0.000292912,0.004822133,-0.042148364,0.000000000,-0.043312525
0.158000000,0.000000000,-0.000164763,-0.000693308,-0.015941212,0.000000000,0.021483066,0.000000000,-0.000721314,0.000122352,0.202386008,0.000000000,0.202262422,0.000000000,0.004265318,-0.003648576,-1.128579127,0.000000000,-1.129868055,0.000000000,0.011136978,-0.004948436,-0.668173910,0.000000000,-0.668293756,0.000000000,0.006262182,-0.000073798,-0.632653594,0.000000000,-0.632677582,0.000000000,0.000010476,-0.000009107,-0.001098046,0.000000000,-0.001032835,0.000000000,0.000218385,0.004102176,-0.045161244,0.000000000,-0.046475864,-0.013452000,-0.001034366,-0.047648308,-2.392424585,0.000000000,-2.451893169,0.000000000,0.004270228,-0.003619362,-1.130923582,0.000000000,-1.131924626,0.000000000,0.011136411,-0.004883366,-0.668375585,0.000000000,-0.668720429,0.000000000,0.006264792,-0.000117736,-0.632791346,0.000000000,-0.632816503,0.000000000,0.000302686,0.004886875,-0.043312525,0.000000000,-0.044484349
0.160000000,0.000000000,-0.000164767,-0.000280344,0.021483066,0.000000000,0.019148220,0.000000000,-0.000721094,0.000113251,0.202262422,0.000000000,0.202405773,0.000000000,0.004258213,-0.003553255,-1.129868055,0.000000000,-1.130004538,0.000000000,0.011127544,-0.004717220,-0.668293756,0.000000000,-0.669341313,0.000000000,0.006261900,-0.000140702,-0.632677582,0.000000000,-0.632458932,0.000000000,0.000010337,-0.000070539,-0.001032835,0.000000000,-0.000844169,0.000000000,0.000226738,0.004179193,-0.046475864,0.000000000,-0.047801808,-0.013923000,-0.001133661,-0.049653974,-2.451893169,0.000000000,-2.512182154,0.000000000,0.004263262,-0.003485252,-1.131924626,0.000000000,-1.132978080,0.000000000,0.011126917,-0.004746834,-0.668720429,0.000000000,-0.669091235,0.000000000,0.006264591,-0.000100648,-0.632816503,0.000000000,-0.632844741,0.000000000,0.000312583,0.004948745,-0.044484349,0.000000000,-0.045660514
0.162000000,0.000000000,-0.000164766,0.000122309,0.019148220,0.000000000,0.016871034,0.000000000,-0.000720915,0.000092264,0.202405773,0.000000000,0.202829579,0.000000000,0.004251321,-0.003446354,-1.130004538,0.000000000,-1.130463705,0.000000000,0.011118495,-0.004524136,-0.669341313,0.000000000,-0.670142223,0.000000000,0.006261588,-0.000156036,-0.632458932,0.000000000,-0.632383800,0.000000000,0.000010268,-0.000035297,-0.000844169,0.000000000,-0.000937351,0.000000000,0.000235242,0.004254231,-0.047801808,0.000000000,-0.049132591,-0.014403000,-0.001237073,-0.051711517,-2.512182154,0.000000000,-2.572685854,0.000000000,0.004256564,-0.003351505,-1.132978080,0.000000000,-1.134099338,0.000000000,0.011117697,-0.004610094,-0.669091235,0.000000000,-0.669480785,0.000000000,0.006264423,-0.000083850,-0.632844741,0.000000000,-0.632875548,0.000000000,0.000322605,0.005010964,-0.045660514,0.000000000,-0.046850250
0.164000000,0.000000000,-0.000164762,0.000477000,0.016871034,0.000000000,0.014864869,0.000000000,-0.000720775,0.000071875,0.202829579,0.000000000,0.203251028,0.000000000,0.004244664,-0.003329433,-1.130463705,0.000000000,-1.131215959,0.000000000,0.011109776,-0.004359551,-0.670142223,0.000000000,-0.670761346,0.000000000,0.006261304,-0.000142175,-0.632383800,0.000000000,-0.632394468,0.000000000,0.000010245,-0.000011559,-0.000937351,0.000000000,-0.001002544,0.000000000,0.000243894,0.004328140,-0.049132591,0.000000000,-0.050472769,-0.014892000,-0.001344705,-0.053820938,-2.572685854,0.000000000,-2.633374840,0.000000000,0.004250131,-0.003218889,-1.134099338,0.000000000,-1.135270368,0.000000000,0.011108753,-0.004472194,-0.669480785,0.000000000,-0.669896010,0.000000000,0.006264288,-0.000067380,-0.632875548,0.000000000,-0.632908755,0.000000000,0.000332745,0.005070027,-0.046850250,0.000000000,-0.048042953
0.166000000,0.000000000,0.000164768,0.000778852,0.014864869,0.000000000,-0.021967382,0.000000000,-0.000720669,0.000054743,0.203251028,0.000000000,0.203608283,0.000000000,0.004238252,-0.003206717,-1.131215959,0.000000000,-1.132169064,0.000000000,0.011101353,-0.004211647,-0.670761346,0.000000000,-0.671280592,0.000000000,0.006261073,-0.000115378,-0.632394468,0.000000000,-0.632447331,0.000000000,0.000010227,-0.000009245,-0.001002544,0.000000000,-0.001007287,0.000000000,0.000252691,0.004400780,-0.050472769,0.000000000,-0.051821288,-0.015391000,-0.001456661,-0.055982268,-2.633374840,0.000000000,-2.694503041,0.000000000,0.004243961,-0.003087149,-1.135270368,0.000000000,-1.136496455,0.000000000,0.011100085,-0.004333672,-0.669896010,0.000000000,-0.670333151,0.000000000,0.006264187,-0.000050781,-0.632908755,0.000000000,-0.632945682,0.000000000,0.000342997,0.005125929,-0.048042953,0.000000000,-0.049237972
0.168000000,0.000000000,0.000164778,0.000277474,-0.021967382,0.000000000,-0.019133124,0.000000000,-0.000720574,0.000048451,0.203608283,0.000000000,0.203723662,0.000000000,0.004232181,-0.003035647,-1.132169064,0.000000000,-1.134313103,0.000000000,0.011092993,-0.004180003,-0.671280592,0.000000000,-0.670977455,0.000000000,0.006261038,-0.000017690,-0.632447331,0.000000000,-0.632721481,0.000000000,0.000010316,0.000045156,-0.001007287,0.000000000,-0.001170919,0.000000000,0.000261631,0.004471515,-0.051821288,0.000000000,-0.053174137,-0.015900001,-0.001573045,-0.058195778,-2.694503041,0.000000000,-2.756035206,0.000000000,0.004238053,-0.002956066,-1.136496455,0.000000000,-1.137782156,0.000000000,0.011091695,-0.004194882,-0.670333151,0.000000000,-0.670789731,0.000000000,0.006264118,-0.000034349,-0.632945682,0.000000000,-0.632985456,0.000000000,0.000353357,0.005180479,-0.049237972,0.000000000,-0.050440171
0.170000000,0.000000000,0.000164779,-0.000198391,-0.019133124,0.000000000,-0.016442203,0.000000000,-0.000720471,0.000053162,0.203723662,0.000000000,0.203587695,0.000000000,0.004226423,-0.002879942,-1.134313103,0.000000000,-1.136198104,0.000000000,0.011084785,-0.004103922,-0.670977455,0.000000000,-0.670999794,0.000000000,0.006261085,0.000023658,-0.632721481,0.000000000,-0.632843815,0.000000000,0.000010336,0.000010436,-0.001170919,0.000000000,-0.001074282,0.000000000,0.000270710,0.004541460,-0.053174137,0.000000000,-0.054537455,-0.016419001,-0.001693963,-0.060462231,-2.756035206,0.000000000,-2.817923244,0.000000000,0.004232405,-0.002826452,-1.137782156,0.000000000,-1.139108300,0.000000000,0.011083586,-0.004054919,-0.670789731,0.000000000,-0.671272328,0.000000000,0.006264082,-0.000018016,-0.632985456,0.000000000,-0.633028250,0.000000000,0.000363823,0.005232862,-0.050440171,0.000000000,-0.051646798
0.172000000,0.000000000,0.000164778,-0.000615017,-0.016442203,0.000000000,-0.014086043,0.000000000,-0.000720360,0.000056981,0.203587695,0.000000000,0.203469905,0.000000000,0.004220949,-0.002737334,-1.136198104,0.000000000,-1.137867926,0.000000000,0.011076794,-0.003995432,-0.670999794,0.000000000,-0.671266197,0.000000000,0.006261152,0.000033772,-0.632843815,0.000000000,-0.632879395,0.000000000,0.000010313,-0.000011711,-0.001074282,0.000000000,-0.001008992,0.000000000,0.000279926,0.004609749,-0.054537455,0.000000000,-0.055905987,-0.016946999,-0.001819520,-0.062781508,-2.817923244,0.000000000,-2.879855527,0.000000000,0.004227014,-0.002697575,-1.139108300,0.000000000,-1.140491032,0.000000000,0.011075756,-0.003914931,-0.671272328,0.000000000,-0.671772794,0.000000000,0.006264079,-0.000001509,-0.633028250,0.000000000,-0.633074873,0.000000000,0.000374391,0.005284028,-0.051646798,0.000000000,-0.052860309
0.174000000,0.000000000,-0.000164791,-0.000970237,-0.014086043,0.000000000,0.023052094,0.000000000,-0.000720249,0.000057615,0.203469905,0.000000000,0.203423880,0.000000000,0.004215744,-0.002603180,-1.137867926,0.000000000,-1.139422784,0.000000000,0.011069059,-0.003867839,-0.671266197,0.000000000,-0.671684501,0.000000000,0.006261213,0.000030366,-0.632879395,0.000000000,-0.632875851,0.000000000,0.000010286,-0.000013524,-0.001008992,0.000000000,-0.001001153,0.000000000,0.000289275,0.004676237,-0.055905987,0.000000000,-0.057278527,-0.017485000,-0.001949821,-0.065153299,-2.879855527,0.000000000,-2.942094607,0.000000000,0.004221878,-0.002569727,-1.140491032,0.000000000,-1.141923117,0.000000000,0.011068207,-0.003774539,-0.671772794,0.000000000,-0.672293857,0.000000000,0.006264109,0.000014808,-0.633074873,0.000000000,-0.633124255,0.000000000,0.000385055,0.005332108,-0.052860309,0.000000000,-0.054074765
0.176000000,0.000000000,-0.000164807,-0.000514978,0.023052094,0.000000000,0.020479324,0.000000000,-0.000720158,0.000047527,0.203423880,0.000000000,0.203626150,0.000000000,0.004210705,-0.002519817,-1.139422784,0.000000000,-1.139876181,0.000000000,0.011061814,-0.003622454,-0.671684501,0.000000000,-0.672971075,0.000000000,0.006261125,-0.000043828,-0.632875851,0.000000000,-0.632656058,0.000000000,0.000010152,-0.000068328,-0.001001153,0.000000000,-0.000831779,0.000000000,0.000298755,0.004741357,-0.057278527,0.000000000,-0.058657237,-0.018033000,-0.002084972,-0.067578069,-2.942094607,0.000000000,-3.004598837,0.000000000,0.004216996,-0.002443198,-1.141923117,0.000000000,-1.143397261,0.000000000,0.011060940,-0.003633538,-0.672293857,0.000000000,-0.672837067,0.000000000,0.006264171,0.000031078,-0.633124255,0.000000000,-0.633176795,0.000000000,0.000395810,0.005377719,-0.054074765,0.000000000,-0.055291424
0.178000000,0.000000000,-0.000164812,-0.000078922,0.020479324,0.000000000,0.018013957,0.000000000,-0.000720107,0.000026594,0.203626150,0.000000000,0.204085286,0.000000000,0.004205860,-0.002423416,-1.139876181,0.000000000,-1.140679298,0.000000000,0.011054973,-0.003420560,-0.672971075,0.000000000,-0.673974019,0.000000000,0.006261003,-0.000061308,-0.632656058,0.000000000,-0.632593971,0.000000000,0.000010085,-0.000034281,-0.000831779,0.000000000,-0.000921772,0.000000000,0.000308360,0.004803932,-0.058657237,0.000000000,-0.060034913,-0.018591000,-0.002225078,-0.070055411,-3.004598837,0.000000000,-3.067348075,0.000000000,0.004212365,-0.002317256,-1.143397261,0.000000000,-1.144929722,0.000000000,0.011053954,-0.003492963,-0.672837067,0.000000000,-0.673395013,0.000000000,0.006264265,0.000047222,-0.633176795,0.000000000,-0.633232239,0.000000000,0.000406654,0.005421946,-0.055291424,0.000000000,-0.056513084
0.180000000,0.000000000,-0.000164805,0.000303463,0.018013957,0.000000000,0.015850839,0.000000000,-0.000720095,0.000006715,0.204085286,0.000000000,0.204531445,0.000000000,0.004201228,-0.002316197,-1.140679298,0.000000000,-1.141788021,0.000000000,0.011048472,-0.003250523,-0.673974019,0.000000000,-0.674772007,0.000000000,0.006260909,-0.000047142,-0.632593971,0.000000000,-0.632624715,0.000000000,0.000010060,-0.000012824,-0.000921772,0.000000000,-0.000980230,0.000000000,0.000318086,0.004864775,-0.060034913,0.000000000,-0.061415780,-0.019159000,-0.002370245,-0.072585635,-3.067348075,0.000000000,-3.130305233,0.000000000,0.004207984,-0.002192679,-1.144929722,0.000000000,-1.146502085,0.000000000,0.011047250,-0.003351832,-0.673395013,0.000000000,-0.673974734,0.000000000,0.006264391,0.000063022,-0.633232239,0.000000000,-0.633289896,0.000000000,0.000417581,0.005463651,-0.056513084,0.000000000,-0.057736010
0.182000000,0.000000000,-0.000164796,0.000629288,0.015850839,0.000000000,0.014007308,0.000000000,-0.000720115,-0.000009781,0.204531445,0.000000000,0.204910243,0.000000000,0.004196823,-0.002202793,-1.141788021,0.000000000,-1.143101105,0.000000000,0.011042273,-0.003099332,-0.674772007,0.000000000,-0.675455134,0.000000000,0.006260870,-0.000019116,-0.632624715,0.000000000,-0.632700530,0.000000000,0.000010037,-0.000011681,-0.000980230,0.000000000,-0.000981161,0.000000000,0.000327932,0.004923869,-0.061415780,0.000000000,-0.062799366,-0.019737000,-0.002520579,-0.075168788,-3.130305233,0.000000000,-3.193438682,0.000000000,0.004203849,-0.002069225,-1.146502085,0.000000000,-1.148119206,0.000000000,0.011040829,-0.003210658,-0.673974734,0.000000000,-0.674572599,0.000000000,0.006264549,0.000078912,-0.633289896,0.000000000,-0.633351023,0.000000000,0.000428588,0.005503197,-0.057736010,0.000000000,-0.058960789
0.184000000,0.000000000,0.000164799,0.000908593,0.014007308,0.000000000,-0.022704324,0.000000000,-0.000720162,-0.000023819,0.204910243,0.000000000,0.205241245,0.000000000,0.004192652,-0.002086097,-1.143101105,0.000000000,-1.144554977,0.000000000,0.011036355,-0.002958955,-0.675455134,0.000000000,-0.676079124,0.000000000,0.006260897,0.000013138,-0.632700530,0.000000000,-0.632794882,0.000000000,0.000010003,-0.000017076,-0.000981161,0.000000000,-0.000962435,0.000000000,0.000337891,0.004981070,-0.062799366,0.000000000,-0.064184462,-0.020324999,-0.002676185,-0.077804917,-3.193438682,0.000000000,-3.256717777,0.000000000,0.004199959,-0.001946903,-1.148119206,0.000000000,-1.149780226,0.000000000,0.011034690,-0.003069516,-0.674572599,0.000000000,-0.675188065,0.000000000,0.006264739,0.000094808,-0.633351023,0.000000000,-0.633415378,0.000000000,0.000439669,0.005540800,-0.058960789,0.000000000,-0.060187645
0.186000000,0.000000000,0.000164811,0.000391153,-0.022704324,0.000000000,-0.019779541,0.000000000,-0.000720217,-0.000027930,0.205241245,0.000000000,0.205349823,0.000000000,0.004188808,-0.001922654,-1.144554977,0.000000000,-1.147159123,0.000000000,0.011030492,-0.002931620,-0.676079124,0.000000000,-0.675903074,0.000000000,0.006261120,0.000111459,-0.632794882,0.000000000,-0.633096941,0.000000000,0.000010079,0.000038415,-0.000962435,0.000000000,-0.001127821,0.000000000,0.000347961,0.005035841,-0.064184462,0.000000000,-0.065567503,-0.020923000,-0.002837169,-0.080493739,-3.256717777,0.000000000,-3.320118959,0.000000000,0.004196311,-0.001825525,-1.149780226,0.000000000,-1.151488864,0.000000000,0.011028832,-0.002928694,-0.675188065,0.000000000,-0.675819042,0.000000000,0.006264960,0.000110512,-0.633415378,0.000000000,-0.633482363,0.000000000,0.000450822,0.005576556,-0.060187645,0.000000000,-0.061416478
0.188000000,0.000000000,0.000164817,-0.000097103,-0.019779541,0.000000000,-0.017019055,0.000000000,-0.000720260,-0.000021436,0.205349823,0.000000000,0.205215036,0.000000000,0.004185257,-0.001775639,-1.147159123,0.000000000,-1.149475244,0.000000000,0.011024775,-0.002858240,-0.675903074,0.000000000,-0.676063576,0.000000000,0.006261421,0.000150898,-0.633096941,0.000000000,-0.633239565,0.000000000,0.000010091,0.000006143,-0.001127821,0.000000000,-0.001037294,0.000000000,0.000358137,0.005089302,-0.065567503,0.000000000,-0.066954552,-0.021530000,-0.003003638,-0.083235686,-3.320118959,0.000000000,-3.383317959,0.000000000,0.004192903,-0.001705863,-1.151488864,0.000000000,-1.153226714,0.000000000,0.011023258,-0.002787328,-0.675819042,0.000000000,-0.676471749,0.000000000,0.006265212,0.000126177,-0.633482363,0.000000000,-0.633552404,0.000000000,0.000462041,0.005609431,-0.061416478,0.000000000,-0.062643765
0.190000000,0.000000000,0.000164819,-0.000524264,-0.017019055,0.000000000,-0.014603669,0.000000000,-0.000720292,-0.000015880,0.205215036,0.000000000,0.205098529,0.000000000,0.004181973,-0.001642439,-1.149475244,0.000000000,-1.151554594,0.000000000,0.011019272,-0.002751814,-0.676063576,0.000000000,-0.676472411,0.000000000,0.006261737,0.000157913,-0.633239565,0.000000000,-0.633291428,0.000000000,0.000010062,-0.000014637,-0.001037294,0.000000000,-0.000975312,0.000000000,0.000368416,0.005140476,-0.066954552,0.000000000,-0.068339584,-0.022148000,-0.003175695,-0.086029997,-3.383317959,0.000000000,-3.446870306,0.000000000,0.004189732,-0.001587177,-1.153226714,0.000000000,-1.155009897,0.000000000,0.011017965,-0.002646532,-0.676471749,0.000000000,-0.677138188,0.000000000,0.006265496,0.000142101,-0.633552404,0.000000000,-0.633626400,0.000000000,0.000473319,0.005639161,-0.062643765,0.000000000,-0.063868120
0.192000000,0.000000000,-0.000164832,-0.000888717,-0.014603669,0.000000000,0.022595481,0.000000000,-0.000720320,-0.000013516,0.205098529,0.000000000,0.205052961,0.000000000,0.004178937,-0.001518210,-1.151554594,0.000000000,-1.153501644,0.000000000,0.011014019,-0.002626176,-0.676472411,0.000000000,-0.677033683,0.000000000,0.006262039,0.000150964,-0.633291428,0.000000000,-0.633302187,0.000000000,0.000010031,-0.000015965,-0.000975312,0.000000000,-0.000968372,0.000000000,0.000378793,0.005189311,-0.068339584,0.000000000,-0.069721808,-0.022776000,-0.003353447,-0.088877100,-3.446870306,0.000000000,-3.510452559,0.000000000,0.004186795,-0.001469759,-1.155009897,0.000000000,-1.156831131,0.000000000,0.011012953,-0.002505950,-0.677138188,0.000000000,-0.677820870,0.000000000,0.006265812,0.000157751,-0.633626400,0.000000000,-0.633702780,0.000000000,0.000484655,0.005667834,-0.063868120,0.000000000,-0.065095267
0.194000000,0.000000000,-0.000164847,-0.000441310,0.022595481,0.000000000,0.020066957,0.000000000,-0.000720364,-0.000021923,0.205052961,0.000000000,0.205255865,0.000000000,0.004176048,-0.001445192,-1.153501644,0.000000000,-1.154331849,0.000000000,0.011009254,-0.002382887,-0.677033683,0.000000000,-0.678461954,0.000000000,0.006262185,0.000073130,-0.633302187,0.000000000,-0.633095687,0.000000000,0.000009892,-0.000070663,-0.000968372,0.000000000,-0.000798848,0.000000000,0.000389263,0.005236358,-0.069721808,0.000000000,-0.071103968,-0.023414001,-0.003536998,-0.091776895,-3.510452559,0.000000000,-3.574037018,0.000000000,0.004184091,-0.001353901,-1.156831131,0.000000000,-1.158682914,0.000000000,0.011008222,-0.002365339,-0.677820870,0.000000000,-0.678521521,0.000000000,0.006266159,0.000173385,-0.633702780,0.000000000,-0.633782273,0.000000000,0.000496042,0.005693984,-0.065095267,0.000000000,-0.066320531
0.196000000,0.000000000,-0.000164852,-0.000012017,0.020066957,0.000000000,0.017639816,0.000000000,-0.000720447,-0.000041187,0.205255865,0.000000000,0.205714955,0.000000000,0.004173329,-0.001359470,-1.154331849,0.000000000,-1.155498121,0.000000000,0.011004887,-0.002183428,-0.678461954,0.000000000,-0.679603877,0.000000000,0.006262290,0.000052125,-0.633095687,0.000000000,-0.633046506,0.000000000,0.000009820,-0.000036495,-0.000798848,0.000000000,-0.000888750,0.000000000,0.000399822,0.005280434,-0.071103968,0.000000000,-0.072478731,-0.024062000,-0.003726453,-0.094728636,-3.574037018,0.000000000,-3.637610514,0.000000000,0.004181616,-0.001238845,-1.158682914,0.000000000,-1.160581949,0.000000000,0.011003770,-0.002225746,-0.678521521,0.000000000,-0.679232568,0.000000000,0.006266537,0.000188963,-0.633782273,0.000000000,-0.633864758,0.000000000,0.000507479,0.005718307,-0.066320531,0.000000000,-0.067545511
0.198000000,0.000000000,-0.000164848,0.000364563,0.017639816,0.000000000,0.015509826,0.000000000,-0.000720564,-0.000059410,0.205714955,0.000000000,0.206160475,0.000000000,0.004170803,-0.001263222,-1.155498121,0.000000000,-1.156957198,0.000000000,0.011000854,-0.002016252,-0.679603877,0.000000000,-0.680537448,0.000000000,0.006262415,0.000062950,-0.633046506,0.000000000,-0.633090003,0.000000000,0.000009791,-0.000014890,-0.000888750,0.000000000,-0.000947223,0.000000000,0.000410465,0.005322324,-0.072478731,0.000000000,-0.073850074,-0.024720000,-0.003921916,-0.097732391,-3.637610514,0.000000000,-3.701142449,0.000000000,0.004179368,-0.001125368,-1.160581949,0.000000000,-1.162509736,0.000000000,0.010999598,-0.002086165,-0.679232568,0.000000000,-0.679961163,0.000000000,0.006266945,0.000204238,-0.633864758,0.000000000,-0.633949469,0.000000000,0.000518958,0.005739706,-0.067545511,0.000000000,-0.068766509
0.200000000,0.000000000,-0.000164845,0.000685414,0.015509826,0.000000000,0.013695158,0.000000000,-0.000720710,-0.000074265,0.206160475,0.000000000,0.206538030,0.000000000,0.004168482,-0.001161048,-1.156957198,0.000000000,-1.158608372,0.000000000,0.010997117,-0.001868398,-0.680537448,0.000000000,-0.681352360,0.000000000,0.006262591,0.000087839,-0.633090003,0.000000000,-0.633178519,0.000000000,0.000009765,-0.000013594,-0.000947223,0.000000000,-0.000948215,0.000000000,0.000421188,0.005361995,-0.073850074,0.000000000,-0.075217330,-0.025388001,-0.004123490,-0.100787974,-3.701142449,0.000000000,-3.764607580,0.000000000,0.004177344,-0.001013229,-1.162509736,0.000000000,-1.164470990,0.000000000,0.010995704,-0.001947085,-0.679961163,0.000000000,-0.680703774,0.000000000,0.006267384,0.000219624,-0.633949469,0.000000000,-0.634037603,0.000000000,0.000530475,0.005758602,-0.068766509,0.000000000,-0.069984207
0.202000000,0.000000000,0.000164859,0.000960466,0.013695158,0.000000000,-0.023004129,0.000000000,-0.000720881,-0.000086673,0.206538030,0.000000000,0.206867148,0.000000000,0.004166371,-0.001055820,-1.158608372,0.000000000,-1.160388442,0.000000000,0.010993654,-0.001731858,-0.681352360,0.000000000,-0.682104098,0.000000000,0.006262825,0.000117154,-0.633178519,0.000000000,-0.633285541,0.000000000,0.000009728,-0.000018845,-0.000948215,0.000000000,-0.000929552,0.000000000,0.000431985,0.005399301,-0.075217330,0.000000000,-0.076579179,-0.026066000,-0.004331279,-0.103895192,-3.764607580,0.000000000,-3.827980402,0.000000000,0.004175542,-0.000902433,-1.164470990,0.000000000,-1.166464811,0.000000000,0.010992087,-0.001808565,-0.680703774,0.000000000,-0.681459899,0.000000000,0.006267854,0.000235027,-0.634037603,0.000000000,-0.634128902,0.000000000,0.000542026,0.005775238,-0.069984207,0.000000000,-0.071198846
0.204000000,0.000000000,0.000164880,0.000439130,-0.023004129,0.000000000,-0.020058122,0.000000000,-0.000721055,-0.000089131,0.206867148,0.000000000,0.206972395,0.000000000,0.004164563,-0.000904049,-1.160388442,0.000000000,-1.163307527,0.000000000,0.010990236,-0.001708909,-0.682104098,0.000000000,-0.682051335,0.000000000,0.006263251,0.000212743,-0.633285541,0.000000000,-0.633600303,0.000000000,0.000009800,0.000036838,-0.000929552,0.000000000,-0.001095165,0.000000000,0.000442851,0.005433710,-0.076579179,0.000000000,-0.077931987,-0.026753999,-0.004545384,-0.107053518,-3.827980402,0.000000000,-3.891244322,0.000000000,0.004173959,-0.000792787,-1.166464811,0.000000000,-1.168494923,0.000000000,0.010988745,-0.001670883,-0.681459899,0.000000000,-0.682227454,0.000000000,0.006268355,0.000250256,-0.634128902,0.000000000,-0.634222783,0.000000000,0.000553605,0.005789737,-0.071198846,0.000000000,-0.072410338
0.206000000,0.000000000,0.000164887,-0.000052494,-0.020058122,0.000000000,-0.017278800,0.000000000,-0.000721214,-0.000080999,0.206972395,0.000000000,0.206833722,0.000000000,0.004163026,-0.000768916,-1.163307527,0.000000000,-1.165927105,0.000000000,0.010986955,-0.001640418,-0.682051335,0.000000000,-0.682330935,0.000000000,0.006263750,0.000249588,-0.633600303,0.000000000,-0.633755504,0.000000000,0.000009809,0.000004698,-0.001095165,0.000000000,-0.001004721,0.000000000,0.000453782,0.005466355,-0.077931987,0.000000000,-0.079281787,-0.027451999,-0.004765909,-0.110263143,-3.891244322,0.000000000,-3.954365813,0.000000000,0.004172591,-0.000685054,-1.168494923,0.000000000,-1.170542983,0.000000000,0.010985679,-0.001533166,-0.682227454,0.000000000,-0.683012662,0.000000000,0.006268886,0.000265465,-0.634222783,0.000000000,-0.634319682,0.000000000,0.000565207,0.005801110,-0.072410338,0.000000000,-0.073615242
0.208000000,0.000000000,0.000164885,-0.000482541,-0.017278800,0.000000000,-0.014846650,0.000000000,-0.000721360,-0.000073834,0.206833722,0.000000000,0.206713069,0.000000000,0.004161730,-0.000647794,-1.165927105,0.000000000,-1.168298587,0.000000000,0.010983876,-0.001539382,-0.682330935,0.000000000,-0.682854629,0.000000000,0.006264258,0.000254133,-0.633755504,0.000000000,-0.633819792,0.000000000,0.000009778,-0.000015964,-0.001004721,0.000000000,-0.000942817,0.000000000,0.000464774,0.005496357,-0.079281787,0.000000000,-0.080623043,-0.028161000,-0.004992954,-0.113523482,-3.954365813,0.000000000,-4.017613656,0.000000000,0.004171437,-0.000578488,-1.170542983,0.000000000,-1.172625207,0.000000000,0.010982886,-0.001396538,-0.683012662,0.000000000,-0.683807394,0.000000000,0.006269448,0.000280917,-0.634319682,0.000000000,-0.634420392,0.000000000,0.000576828,0.005810506,-0.073615242,0.000000000,-0.074816427
0.210000000,0.000000000,-0.000164887,-0.000849443,-0.014846650,0.000000000,0.022379281,0.000000000,-0.000721498,-0.000069876,0.206713069,0.000000000,0.206662812,0.000000000,0.004160659,-0.000535831,-1.168298587,0.000000000,-1.170526559,0.000000000,0.010981037,-0.001419629,-0.682854629,0.000000000,-0.683526492,0.000000000,0.006264748,0.000244816,-0.633819792,0.000000000,-0.633842789,0.000000000,0.000009744,-0.000017183,-0.000942817,0.000000000,-0.000935949,0.000000000,0.000475820,0.005523737,-0.080623043,0.000000000,-0.081955315,-0.028879000,-0.005226622,-0.116834565,-4.017613656,0.000000000,-4.080389106,0.000000000,0.004170492,-0.000473371,-1.172625207,0.000000000,-1.174734382,0.000000000,0.010980364,-0.001260624,-0.683807394,0.000000000,-0.684614213,0.000000000,0.006270040,0.000296144,-0.634420392,0.000000000,-0.634523544,0.000000000,0.000588466,0.005818910,-0.074816427,0.000000000,-0.076016490
0.212000000,0.000000000,-0.000164897,-0.000403853,0.022379281,0.000000000,0.019860461,0.000000000,-0.000721650,-0.000076716,0.206662812,0.000000000,0.206860756,0.000000000,0.004159709,-0.000475270,-1.170526559,0.000000000,-1.171626273,0.000000000,0.010978672,-0.001182679,-0.683526492,0.000000000,-0.685061324,0.000000000,0.006265077,0.000164672,-0.633842789,0.000000000,-0.633648225,0.000000000,0.000009603,-0.000071841,-0.000935949,0.000000000,-0.000766323,0.000000000,0.000486916,0.005548964,-0.081955315,0.000000000,-0.083280795,-0.029608000,-0.005467012,-0.120195637,-4.080389106,0.000000000,-4.143250042,0.000000000,0.004169754,-0.000369985,-1.174734382,0.000000000,-1.176863159,0.000000000,0.010978114,-0.001125160,-0.684614213,0.000000000,-0.685434954,0.000000000,0.006270663,0.000311450,-0.634523544,0.000000000,-0.634630014,0.000000000,0.000600113,0.005823331,-0.076016490,0.000000000,-0.077206124
0.214000000,0.000000000,-0.000164903,0.000023905,0.019860461,0.000000000,0.017442109,0.000000000,-0.000721837,-0.000094430,0.206860756,0.000000000,0.207314420,0.000000000,0.004158905,-0.000402164,-1.171626273,0.000000000,-1.173051319,0.000000000,0.010976692,-0.000990065,-0.685061324,0.000000000,-0.686305351,0.000000000,0.006265360,0.000141453,-0.633648225,0.000000000,-0.633610804,0.000000000,0.000009530,-0.000037578,-0.000766323,0.000000000,-0.000856291,0.000000000,0.000498057,0.005570878,-0.083280795,0.000000000,-0.084592223,-0.030346001,-0.005714223,-0.123606321,-4.143250042,0.000000000,-4.205608127,0.000000000,0.004169221,-0.000267568,-1.176863159,0.000000000,-1.179028200,0.000000000,0.010976132,-0.000991194,-0.685434954,0.000000000,-0.686261966,0.000000000,0.006271316,0.000326670,-0.634630014,0.000000000,-0.634739315,0.000000000,0.000611767,0.005827025,-0.077206124,0.000000000,-0.078394435
