sainanliu129-hub/model/applications/Body_GravityPara_Iden/data/excitation/excitation_trajectory_TLBO_E1_PD-M1-v0_multi_joint_20260324-083344.csv
time,cmd_leg_l1_joint,pos_leg_l1_joint,vel_leg_l1_joint,torque_leg_l1_joint,acc_leg_l1_joint,cmd_torque_leg_l1_joint,cmd_leg_l2_joint,pos_leg_l2_joint,vel_leg_l2_joint,torque_leg_l2_joint,acc_leg_l2_joint,cmd_torque_leg_l2_joint,cmd_leg_l3_joint,pos_leg_l3_joint,vel_leg_l3_joint,torque_leg_l3_joint,acc_leg_l3_joint,cmd_torque_leg_l3_joint,cmd_leg_l4_joint,pos_leg_l4_joint,vel_leg_l4_joint,torque_leg_l4_joint,acc_leg_l4_joint,cmd_torque_leg_l4_joint,cmd_leg_l5_joint,pos_leg_l5_joint,vel_leg_l5_joint,torque_leg_l5_joint,acc_leg_l5_joint,cmd_torque_leg_l5_joint,cmd_leg_l6_joint,pos_leg_l6_joint,vel_leg_l6_joint,torque_leg_l6_joint,acc_leg_l6_joint,cmd_torque_leg_l6_joint,cmd_leg_r1_joint,pos_leg_r1_joint,vel_leg_r1_joint,torque_leg_r1_joint,acc_leg_r1_joint,cmd_torque_leg_r1_joint,cmd_leg_r2_joint,pos_leg_r2_joint,vel_leg_r2_joint,torque_leg_r2_joint,acc_leg_r2_joint,cmd_torque_leg_r2_joint,cmd_leg_r3_joint,pos_leg_r3_joint,vel_leg_r3_joint,torque_leg_r3_joint,acc_leg_r3_joint,cmd_torque_leg_r3_joint,cmd_leg_r4_joint,pos_leg_r4_joint,vel_leg_r4_joint,torque_leg_r4_joint,acc_leg_r4_joint,cmd_torque_leg_r4_joint,cmd_leg_r5_joint,pos_leg_r5_joint,vel_leg_r5_joint,torque_leg_r5_joint,acc_leg_r5_joint,cmd_torque_leg_r5_joint,cmd_leg_r6_joint,pos_leg_r6_joint,vel_leg_r6_joint,torque_leg_r6_joint,acc_leg_r6_joint,cmd_torque_leg_r6_joint
0.000000000,0.000000000,-0.000165789,-0.000081101,-0.019373668,0.000000000,0.018130369,0.000000000,-0.000877700,0.001998174,0.203969945,0.000000000,0.204285278,0.000000000,0.005427695,-0.010721789,-1.299447222,0.000000000,-1.300278931,0.000000000,0.012369055,-0.006987191,-0.732141755,0.000000000,-0.731626413,0.000000000,0.006760299,-0.015489732,-0.638997598,0.000000000,-0.639192318,0.000000000,0.000011484,-0.000017140,-0.000868361,0.000000000,-0.001111870,0.000000000,-0.000011787,0.000164881,0.000320862,0.000000000,0.000324003,-0.000000000,0.000747745,-0.000293480,-0.205942050,0.000000000,-0.205904668,0.000000000,0.006085870,-0.019688886,-1.283363362,0.000000000,-1.284535137,0.000000000,0.012435757,-0.008128426,-0.727311606,0.000000000,-0.727727785,0.000000000,0.006778626,-0.016067324,-0.639380177,0.000000000,-0.639402413,0.000000000,0.000002734,0.000077368,-0.000495648,0.000000000,-0.000496285
0.002000000,0.000000000,0.000165790,0.000298650,0.018130369,0.000000000,-0.019360742,0.000000000,-0.000873773,0.001997052,0.204285278,0.000000000,0.203194403,0.000000000,0.005406176,-0.010760800,-1.300278931,0.000000000,-1.293279899,0.000000000,0.012355143,-0.006955840,-0.731626413,0.000000000,-0.730970525,0.000000000,0.006729233,-0.015533091,-0.639192318,0.000000000,-0.635929344,0.000000000,0.000011278,-0.000104158,-0.001111870,0.000000000,-0.000843726,0.000000000,-0.000011548,0.000166823,0.000324003,0.000000000,0.000287576,-0.000000000,0.000747157,-0.000294287,-0.205904668,0.000000000,-0.205719160,0.000000000,0.006046459,-0.019710114,-1.284535137,0.000000000,-1.272852624,0.000000000,0.012419439,-0.008159443,-0.727727785,0.000000000,-0.726476529,0.000000000,0.006746487,-0.016069276,-0.639402413,0.000000000,-0.636148783,0.000000000,0.000002847,0.000078334,-0.000496285,0.000000000,-0.000510422
0.004000000,0.000000000,0.000165778,-0.000114213,-0.019360742,0.000000000,-0.017024768,0.000000000,-0.000869846,0.001996308,0.203194403,0.000000000,0.202094743,0.000000000,0.005384771,-0.010703827,-1.293279899,0.000000000,-1.288484265,0.000000000,0.012340786,-0.007178367,-0.730970525,0.000000000,-0.728481957,0.000000000,0.006698994,-0.015119202,-0.635929344,0.000000000,-0.634049988,0.000000000,0.000011216,-0.000031713,-0.000843726,0.000000000,-0.001043366,0.000000000,-0.000011288,0.000184435,0.000287576,0.000000000,0.000160219,-0.000000000,0.000746583,-0.000286970,-0.205719160,0.000000000,-0.205721537,0.000000000,0.006007144,-0.019661732,-1.272852624,0.000000000,-1.262772022,0.000000000,0.012402698,-0.008370190,-0.726476529,0.000000000,-0.723921133,0.000000000,0.006715160,-0.015663788,-0.636148783,0.000000000,-0.634135464,0.000000000,0.000002961,0.000077107,-0.000510422,0.000000000,-0.000518518
0.006000000,0.000000000,-0.000165759,-0.000508933,-0.017024768,0.000000000,0.020546573,0.000000000,-0.000865905,0.002002316,0.202094743,0.000000000,0.200838687,0.000000000,0.005363493,-0.010639982,-1.288484265,0.000000000,-1.283880355,0.000000000,0.012325951,-0.007417672,-0.728481957,0.000000000,-0.725843904,0.000000000,0.006669905,-0.014544473,-0.634049988,0.000000000,-0.632744067,0.000000000,0.000011143,-0.000037144,-0.001043366,0.000000000,-0.001020524,0.000000000,-0.000010998,0.000210325,0.000160219,0.000000000,-0.000017071,-0.000001000,0.000746018,-0.000282583,-0.205721537,0.000000000,-0.205944388,0.000000000,0.005967986,-0.019583363,-1.262772022,0.000000000,-1.253414218,0.000000000,0.012385387,-0.008655550,-0.723921133,0.000000000,-0.720799342,0.000000000,0.006685061,-0.015049212,-0.634135464,0.000000000,-0.632840806,0.000000000,0.000003074,0.000073818,-0.000518518,0.000000000,-0.000520575
0.008000000,0.000000000,-0.000165733,-0.000095330,0.020546573,0.000000000,0.018204859,0.000000000,-0.000861972,0.001998690,0.200838687,0.000000000,0.199802785,0.000000000,0.005342247,-0.010624194,-1.283880355,0.000000000,-1.278198435,0.000000000,0.012310873,-0.007539098,-0.725843904,0.000000000,-0.724028395,0.000000000,0.006642014,-0.013945653,-0.632744067,0.000000000,-0.631627676,0.000000000,0.000010944,-0.000100589,-0.001020524,0.000000000,-0.000820122,0.000000000,-0.000010680,0.000238505,-0.000017071,0.000000000,-0.000210293,-0.000002000,0.000745455,-0.000281705,-0.205944388,0.000000000,-0.206088334,0.000000000,0.005929019,-0.019488240,-1.253414218,0.000000000,-1.244489420,0.000000000,0.012367444,-0.008971732,-0.720799342,0.000000000,-0.717418520,0.000000000,0.006656414,-0.014323758,-0.632840806,0.000000000,-0.632008010,0.000000000,0.000003185,0.000070919,-0.000520575,0.000000000,-0.000523557
0.010000000,0.000000000,-0.000165702,0.000306856,0.018204859,0.000000000,0.015927246,0.000000000,-0.000858073,0.001981303,0.199802785,0.000000000,0.199087917,0.000000000,0.005321060,-0.010595068,-1.278198435,0.000000000,-1.272834733,0.000000000,0.012295488,-0.007692649,-0.724028395,0.000000000,-0.721965144,0.000000000,0.006615537,-0.013238326,-0.631627676,0.000000000,-0.630962744,0.000000000,0.000010823,-0.000061572,-0.000820122,0.000000000,-0.000918790,0.000000000,-0.000010342,0.000265025,-0.000210293,0.000000000,-0.000396359,-0.000004000,0.000744890,-0.000282190,-0.206088334,0.000000000,-0.206485439,0.000000000,0.005890262,-0.019382617,-1.244489420,0.000000000,-1.235862194,0.000000000,0.012348853,-0.009295422,-0.717418520,0.000000000,-0.713943444,0.000000000,0.006629324,-0.013544710,-0.632008010,0.000000000,-0.631485051,0.000000000,0.000003295,0.000068521,-0.000523557,0.000000000,-0.000527809
0.012000000,0.000000000,0.000165677,0.000663410,0.015927246,0.000000000,-0.021411391,0.000000000,-0.000854212,0.001962518,0.199087917,0.000000000,0.198415191,0.000000000,0.005299951,-0.010555724,-1.272834733,0.000000000,-1.267724534,0.000000000,0.012279766,-0.007860957,-0.721965144,0.000000000,-0.719775731,0.000000000,0.006590584,-0.012476812,-0.630962744,0.000000000,-0.630605790,0.000000000,0.000010767,-0.000028317,-0.000918790,0.000000000,-0.001007697,0.000000000,-0.000009991,0.000289594,-0.000396359,0.000000000,-0.000572684,-0.000007000,0.000744323,-0.000283543,-0.206485439,0.000000000,-0.207146381,0.000000000,0.005851729,-0.019270931,-1.235862194,0.000000000,-1.227435600,0.000000000,0.012329628,-0.009612172,-0.713943444,0.000000000,-0.710477678,0.000000000,0.006603828,-0.012747997,-0.631485051,0.000000000,-0.631173352,0.000000000,0.000003404,0.000066759,-0.000527809,0.000000000,-0.000533776
0.014000000,0.000000000,0.000165653,0.000204595,-0.021411391,0.000000000,-0.018814322,0.000000000,-0.000850369,0.001952853,0.198415191,0.000000000,0.197541504,0.000000000,0.005279022,-0.010465582,-1.267724534,0.000000000,-1.263814580,0.000000000,0.012263493,-0.008136116,-0.719775731,0.000000000,-0.716792064,0.000000000,0.006567320,-0.011632035,-0.630605790,0.000000000,-0.630656309,0.000000000,0.000010852,0.000043082,-0.001007697,0.000000000,-0.001219250,0.000000000,-0.000009638,0.000311479,-0.000572684,0.000000000,-0.000734033,-0.000012000,0.000743752,-0.000285374,-0.207146381,0.000000000,-0.208363969,0.000000000,0.005813429,-0.019154694,-1.227435600,0.000000000,-1.219178048,0.000000000,0.012309798,-0.009915323,-0.710477678,0.000000000,-0.707070280,0.000000000,0.006579915,-0.011956568,-0.631173352,0.000000000,-0.631006605,0.000000000,0.000003514,0.000066624,-0.000533776,0.000000000,-0.000544519
0.016000000,0.000000000,0.000165623,-0.000237128,-0.018814322,0.000000000,-0.016313179,0.000000000,-0.000846524,0.001954245,0.197541504,0.000000000,0.196417180,0.000000000,0.005258245,-0.010389550,-1.263814580,0.000000000,-1.259628704,0.000000000,0.012246789,-0.008352377,-0.716792064,0.000000000,-0.714199729,0.000000000,0.006545618,-0.010850839,-0.630656309,0.000000000,-0.630683970,0.000000000,0.000010884,0.000016190,-0.001219250,0.000000000,-0.001146010,0.000000000,-0.000009294,0.000331954,-0.000734033,0.000000000,-0.000886509,-0.000018000,0.000743175,-0.000288851,-0.208363969,0.000000000,-0.209826585,0.000000000,0.005775366,-0.019035676,-1.219178048,0.000000000,-1.211051070,0.000000000,0.012289397,-0.010200264,-0.707070280,0.000000000,-0.703756320,0.000000000,0.006557544,-0.011185397,-0.631006605,0.000000000,-0.630938141,0.000000000,0.000003629,0.000068974,-0.000544519,0.000000000,-0.000562888
0.018000000,0.000000000,-0.000165594,-0.000625141,-0.016313179,0.000000000,0.021186137,0.000000000,-0.000842680,0.001954283,0.196417180,0.000000000,0.195323741,0.000000000,0.005237597,-0.010325559,-1.259628704,0.000000000,-1.255206827,0.000000000,0.012229748,-0.008520257,-0.714199729,0.000000000,-0.711930072,0.000000000,0.006525378,-0.010120235,-0.630683970,0.000000000,-0.630715471,0.000000000,0.000010883,-0.000000338,-0.001146010,0.000000000,-0.001098947,0.000000000,-0.000008970,0.000350512,-0.000886509,0.000000000,-0.001026009,-0.000025000,0.000742587,-0.000293824,-0.209826585,0.000000000,-0.211536782,0.000000000,0.005737548,-0.018913532,-1.211051070,0.000000000,-1.203064259,0.000000000,0.012268464,-0.010466606,-0.703756320,0.000000000,-0.700540913,0.000000000,0.006536657,-0.010443499,-0.630938141,0.000000000,-0.630936412,0.000000000,0.000003755,0.000073763,-0.000562888,0.000000000,-0.000589169
0.020000000,0.000000000,-0.000165565,-0.000191769,0.021186137,0.000000000,0.018732367,0.000000000,-0.000838860,0.001942861,0.195323741,0.000000000,0.194496236,0.000000000,0.005216971,-0.010314097,-1.255206827,0.000000000,-1.249603347,0.000000000,0.012212657,-0.008545585,-0.711930072,0.000000000,-0.710670476,0.000000000,0.006506383,-0.009497274,-0.630715471,0.000000000,-0.630566865,0.000000000,0.000010775,-0.000054674,-0.001098947,0.000000000,-0.000933588,0.000000000,-0.000008678,0.000367969,-0.001026009,0.000000000,-0.001155840,-0.000034000,0.000741986,-0.000300703,-0.211536782,0.000000000,-0.213768449,0.000000000,0.005699980,-0.018788779,-1.203064259,0.000000000,-1.195207379,0.000000000,0.012247037,-0.010713570,-0.700540913,0.000000000,-0.697432047,0.000000000,0.006517184,-0.009736555,-0.630936412,0.000000000,-0.630978203,0.000000000,0.000003892,0.000079985,-0.000589169,0.000000000,-0.000620773
0.022000000,0.000000000,-0.000165534,0.000229060,0.018732367,0.000000000,0.016349285,0.000000000,-0.000835088,0.001918418,0.194496236,0.000000000,0.193977016,0.000000000,0.005196394,-0.010289566,-1.249603347,0.000000000,-1.244309399,0.000000000,0.012195468,-0.008594592,-0.710670476,0.000000000,-0.709236379,0.000000000,0.006488675,-0.008853942,-0.630566865,0.000000000,-0.630606211,0.000000000,0.000010751,-0.000012414,-0.000933588,0.000000000,-0.001051256,0.000000000,-0.000008432,0.000383726,-0.001155840,0.000000000,-0.001271231,-0.000045000,0.000741367,-0.000309522,-0.213768449,0.000000000,-0.216519718,0.000000000,0.005662668,-0.018660503,-1.195207379,0.000000000,-1.187503130,0.000000000,0.012225152,-0.010942725,-0.697432047,0.000000000,-0.694420815,0.000000000,0.006499049,-0.009067535,-0.630978203,0.000000000,-0.631047405,0.000000000,0.000004048,0.000089442,-0.000620773,0.000000000,-0.000663422
0.024000000,0.000000000,0.000165508,0.000599544,0.016349285,0.000000000,-0.021032238,0.000000000,-0.000831366,0.001893509,0.193977016,0.000000000,0.193482302,0.000000000,0.005175891,-0.010253025,-1.244309399,0.000000000,-1.239307887,0.000000000,0.012178150,-0.008658765,-0.709236379,0.000000000,-0.707686377,0.000000000,0.006472244,-0.008215508,-0.630606211,0.000000000,-0.630760678,0.000000000,0.000010785,0.000017544,-0.001051256,0.000000000,-0.001139912,0.000000000,-0.000008243,0.000399208,-0.001271231,0.000000000,-0.001378850,-0.000058000,0.000740725,-0.000320978,-0.216519718,0.000000000,-0.219773328,0.000000000,0.005625619,-0.018529193,-1.187503130,0.000000000,-1.179942183,0.000000000,0.012202843,-0.011154004,-0.694420815,0.000000000,-0.691509960,0.000000000,0.006482173,-0.008437824,-0.631047405,0.000000000,-0.631132138,0.000000000,0.000004227,0.000101091,-0.000663422,0.000000000,-0.000714576
0.026000000,0.000000000,0.000165484,0.000151628,-0.021032238,0.000000000,-0.018496676,0.000000000,-0.000827673,0.001878359,0.193482302,0.000000000,0.192775253,0.000000000,0.005155568,-0.010162890,-1.239307887,0.000000000,-1.235569860,0.000000000,0.012160481,-0.008834900,-0.707686377,0.000000000,-0.705318297,0.000000000,0.006457179,-0.007532689,-0.630760678,0.000000000,-0.631179350,0.000000000,0.000010950,0.000083763,-0.001139912,0.000000000,-0.001344833,0.000000000,-0.000008126,0.000414502,-0.001378850,0.000000000,-0.001477799,-0.000074000,0.000740054,-0.000335281,-0.219773328,0.000000000,-0.223807124,0.000000000,0.005588840,-0.018394075,-1.179942183,0.000000000,-1.172544213,0.000000000,0.012180145,-0.011349184,-0.691509960,0.000000000,-0.688688878,0.000000000,0.006466479,-0.007847251,-0.631132138,0.000000000,-0.631224970,0.000000000,0.000004433,0.000115487,-0.000714576,0.000000000,-0.000776367
0.028000000,0.000000000,0.000165454,-0.000281822,-0.018496676,0.000000000,-0.016042360,0.000000000,-0.000823988,0.001874501,0.192775253,0.000000000,0.191815202,0.000000000,0.005135403,-0.010083657,-1.235569860,0.000000000,-1.231630284,0.000000000,0.012142561,-0.008959721,-0.705318297,0.000000000,-0.703299187,0.000000000,0.006443303,-0.006937983,-0.631179350,0.000000000,-0.631467725,0.000000000,0.000011053,0.000052058,-0.001344833,0.000000000,-0.001265053,0.000000000,0.000008094,0.000431218,-0.001477799,0.000000000,-0.003301287,-0.000092000,0.000739347,-0.000353853,-0.223807124,0.000000000,-0.228302305,0.000000000,0.005552338,-0.018255667,-1.172544213,0.000000000,-1.165299345,0.000000000,0.012157088,-0.011528378,-0.688688878,0.000000000,-0.685958788,0.000000000,0.006451888,-0.007295272,-0.631224970,0.000000000,-0.631319655,0.000000000,0.000004674,0.000133250,-0.000776367,0.000000000,-0.000851232
0.030000000,0.000000000,-0.000165427,-0.000663576,-0.016042360,0.000000000,0.021385748,0.000000000,-0.000820315,0.001869438,0.191815202,0.000000000,0.190885541,0.000000000,0.005115379,-0.010013316,-1.231630284,0.000000000,-1.227529566,0.000000000,0.012124472,-0.009044506,-0.703299187,0.000000000,-0.701553943,0.000000000,0.006430486,-0.006408450,-0.631467725,0.000000000,-0.631677847,0.000000000,0.000011115,0.000031414,-0.001265053,0.000000000,-0.001212610,0.000000000,0.000008147,0.000409857,-0.003301287,0.000000000,-0.003186201,-0.000113000,0.000738594,-0.000376174,-0.228302305,0.000000000,-0.233552732,0.000000000,0.005516117,-0.018115314,-1.165299345,0.000000000,-1.158178284,0.000000000,0.012133712,-0.011688236,-0.685958788,0.000000000,-0.683345942,0.000000000,0.006438320,-0.006783949,-0.631319655,0.000000000,-0.631402107,0.000000000,0.000004960,0.000155871,-0.000851232,0.000000000,-0.000944380
0.032000000,0.000000000,-0.000165401,-0.000226304,0.021385748,0.000000000,0.018910204,0.000000000,-0.000816675,0.001853011,0.190885541,0.000000000,0.190222481,0.000000000,0.005095396,-0.009992600,-1.227529566,0.000000000,-1.222318187,0.000000000,0.012106482,-0.008995126,-0.701553943,0.000000000,-0.700768585,0.000000000,0.006418498,-0.005994014,-0.631677847,0.000000000,-0.631644520,0.000000000,0.000011062,-0.000026599,-0.001212610,0.000000000,-0.001042380,0.000000000,0.000008276,0.000395480,-0.003186201,0.000000000,-0.003118612,-0.000137000,0.000737787,-0.000403513,-0.233552732,0.000000000,-0.239526883,0.000000000,0.005480185,-0.017970306,-1.158178284,0.000000000,-1.151244961,0.000000000,0.012110038,-0.011836710,-0.683345942,0.000000000,-0.680795258,0.000000000,0.006425708,-0.006306209,-0.631402107,0.000000000,-0.631485645,0.000000000,0.000005292,0.000179602,-0.000944380,0.000000000,-0.001045452
0.034000000,0.000000000,-0.000165371,0.000197111,0.018910204,0.000000000,0.016512611,0.000000000,-0.000813093,0.001823781,0.190222481,0.000000000,0.189865424,0.000000000,0.005075486,-0.009956393,-1.222318187,0.000000000,-1.217477758,0.000000000,0.012088528,-0.008977019,-0.700768585,0.000000000,-0.699763223,0.000000000,0.006407374,-0.005561769,-0.631644520,0.000000000,-0.631749191,0.000000000,0.000011086,0.000012269,-0.001042380,0.000000000,-0.001155317,0.000000000,0.000008471,0.000385995,-0.003118612,0.000000000,-0.003085729,-0.000164000,0.000736915,-0.000436232,-0.239526883,0.000000000,-0.246213462,0.000000000,0.005444555,-0.017820102,-1.151244961,0.000000000,-1.144514555,0.000000000,0.012086089,-0.011974560,-0.680795258,0.000000000,-0.678302676,0.000000000,0.006413984,-0.005861994,-0.631485645,0.000000000,-0.631563665,0.000000000,0.000005680,0.000207254,-0.001045452,0.000000000,-0.001163255
0.036000000,0.000000000,0.000165344,0.000569174,0.016512611,0.000000000,-0.020843022,0.000000000,-0.000809569,0.001794285,0.189865424,0.000000000,0.189530894,0.000000000,0.005055676,-0.009906178,-1.217477758,0.000000000,-1.212982726,0.000000000,0.012070566,-0.008980935,-0.699763223,0.000000000,-0.698600823,0.000000000,0.006397108,-0.005133244,-0.631749191,0.000000000,-0.631929906,0.000000000,0.000011163,0.000039114,-0.001155317,0.000000000,-0.001239421,0.000000000,0.000008726,0.000381659,-0.003085729,0.000000000,-0.003088433,-0.000194000,0.000735965,-0.000475266,-0.246213462,0.000000000,-0.253587746,0.000000000,0.005409233,-0.017665679,-1.144514555,0.000000000,-1.137967414,0.000000000,0.012061888,-0.012100707,-0.678302676,0.000000000,-0.675877337,0.000000000,0.006403083,-0.005450612,-0.631563665,0.000000000,-0.631631492,0.000000000,0.000006129,0.000237694,-0.001163255,0.000000000,-0.001295180
0.038000000,0.000000000,0.000165321,0.000122863,-0.020843022,0.000000000,-0.018316671,0.000000000,-0.000806083,0.001774846,0.189530894,0.000000000,0.188979698,0.000000000,0.005036077,-0.009800814,-1.212982726,0.000000000,-1.209795007,0.000000000,0.012052360,-0.009102760,-0.698600823,0.000000000,-0.696584938,0.000000000,0.006387795,-0.004656470,-0.631929906,0.000000000,-0.632344162,0.000000000,0.000011365,0.000102596,-0.001239421,0.000000000,-0.001440331,0.000000000,0.000009039,0.000381575,-0.003088433,0.000000000,-0.003121258,-0.000227000,0.000734923,-0.000520977,-0.253587746,0.000000000,-0.261637775,0.000000000,0.005374229,-0.017506674,-1.137967414,0.000000000,-1.131614312,0.000000000,0.012037456,-0.012216050,-0.675877337,0.000000000,-0.673514225,0.000000000,0.006392942,-0.005070348,-0.631631492,0.000000000,-0.631687713,0.000000000,0.000006646,0.000271120,-0.001295180,0.000000000,-0.001442431
0.040000000,0.000000000,0.000165296,-0.000309574,-0.018316671,0.000000000,-0.015868573,0.000000000,-0.000802613,0.001766860,0.188979698,0.000000000,0.188174139,0.000000000,0.005016669,-0.009705139,-1.209795007,0.000000000,-1.206442532,0.000000000,0.012034003,-0.009178582,-0.696584938,0.000000000,-0.694886465,0.000000000,0.006379271,-0.004261818,-0.632344162,0.000000000,-0.632604715,0.000000000,0.000011500,0.000068359,-0.001440331,0.000000000,-0.001356614,0.000000000,0.000009408,0.000386418,-0.003121258,0.000000000,-0.003187987,-0.000264000,0.000733774,-0.000574514,-0.261637775,0.000000000,-0.270617348,0.000000000,0.005339551,-0.017343951,-1.131614312,0.000000000,-1.125437820,0.000000000,0.012012816,-0.012319931,-0.673514225,0.000000000,-0.671219464,0.000000000,0.006383503,-0.004719492,-0.631687713,0.000000000,-0.631731246,0.000000000,0.000007234,0.000306550,-0.001442431,0.000000000,-0.001602659
0.042000000,0.000000000,-0.000165277,-0.000690738,-0.015868573,0.000000000,0.021523373,0.000000000,-0.000799162,0.001757839,0.188174139,0.000000000,0.187397368,0.000000000,0.004997437,-0.009617476,-1.206442532,0.000000000,-1.202958683,0.000000000,0.012015565,-0.009218950,-0.694886465,0.000000000,-0.693434899,0.000000000,0.006371421,-0.003924905,-0.632604715,0.000000000,-0.632769217,0.000000000,0.000011590,0.000045362,-0.001356614,0.000000000,-0.001300273,0.000000000,0.000009834,0.000395001,-0.003187987,0.000000000,-0.003281926,-0.000305000,0.000732501,-0.000636596,-0.270617348,0.000000000,-0.280505315,0.000000000,0.005305207,-0.017176904,-1.125437820,0.000000000,-1.119454145,0.000000000,0.011987989,-0.012413674,-0.671219464,0.000000000,-0.668984924,0.000000000,0.006374711,-0.004396152,-0.631731246,0.000000000,-0.631761907,0.000000000,0.000007904,0.000346140,-0.001602659,0.000000000,-0.001782852
0.044000000,0.000000000,-0.000165257,-0.000253968,0.021523373,0.000000000,0.019051253,0.000000000,-0.000795753,0.001737461,0.187397368,0.000000000,0.186889217,0.000000000,0.004978282,-0.009578853,-1.202958683,0.000000000,-1.198387534,0.000000000,0.011997307,-0.009129109,-0.693434899,0.000000000,-0.692920212,0.000000000,0.006364032,-0.003694613,-0.632769217,0.000000000,-0.632677147,0.000000000,0.000011560,-0.000015020,-0.001300273,0.000000000,-0.001125606,0.000000000,0.000010318,0.000407537,-0.003281926,0.000000000,-0.003404485,-0.000349000,0.000731085,-0.000708216,-0.280505315,0.000000000,-0.290989606,0.000000000,0.005271204,-0.017006177,-1.119454145,0.000000000,-1.113650745,0.000000000,0.011962995,-0.012496856,-0.668984924,0.000000000,-0.666814938,0.000000000,0.006366513,-0.004098801,-0.631761907,0.000000000,-0.631778785,0.000000000,0.000008660,0.000389087,-0.001782852,0.000000000,-0.001981419
0.046000000,0.000000000,-0.000165229,0.000168831,0.019051253,0.000000000,0.016657350,0.000000000,-0.000792409,0.001704465,0.186889217,0.000000000,0.186684991,0.000000000,0.004959235,-0.009524422,-1.198387534,0.000000000,-1.194204903,0.000000000,0.011979159,-0.009073817,-0.692920212,0.000000000,-0.692166931,0.000000000,0.006357157,-0.003437428,-0.632677147,0.000000000,-0.632713516,0.000000000,0.000011603,0.000021680,-0.001125606,0.000000000,-0.001234263,0.000000000,0.000010863,0.000422671,-0.003404485,0.000000000,-0.003548106,-0.000398000,0.000729507,-0.000789119,-0.290989606,0.000000000,-0.302639149,0.000000000,0.005237552,-0.016831162,-1.113650745,0.000000000,-1.108043848,0.000000000,0.011937854,-0.012570685,-0.666814938,0.000000000,-0.664702103,0.000000000,0.006358862,-0.003825599,-0.631778785,0.000000000,-0.631782232,0.000000000,0.000009509,0.000434302,-0.001981419,0.000000000,-0.002195735
0.048000000,0.000000000,-0.000165199,0.000540274,0.016657350,0.000000000,0.014553682,0.000000000,-0.000789130,0.001671356,0.186684991,0.000000000,0.186501787,0.000000000,0.004940326,-0.009455882,-1.194204903,0.000000000,-1.190380359,0.000000000,0.011961073,-0.009043305,-0.692166931,0.000000000,-0.691241370,0.000000000,0.006350808,-0.003174453,-0.632713516,0.000000000,-0.632819503,0.000000000,0.000011695,0.000046602,-0.001234263,0.000000000,-0.001314404,0.000000000,0.000011470,0.000441121,-0.003548106,0.000000000,-0.003717168,-0.000451000,0.000727746,-0.000880871,-0.302639149,0.000000000,-0.315128134,0.000000000,0.005204256,-0.016652720,-1.108043848,0.000000000,-1.102615940,0.000000000,0.011912585,-0.012634449,-0.664702103,0.000000000,-0.662652757,0.000000000,0.006351712,-0.003575015,-0.631782232,0.000000000,-0.631772024,0.000000000,0.000010456,0.000482903,-0.002195735,0.000000000,-0.002429667
0.050000000,0.000000000,0.000165182,0.000855818,0.014553682,0.000000000,-0.022446738,0.000000000,-0.000785911,0.001640852,0.186501787,0.000000000,0.186276815,0.000000000,0.004921573,-0.009377579,-1.190380359,0.000000000,-1.186821154,0.000000000,0.011943021,-0.009025696,-0.691241370,0.000000000,-0.690226319,0.000000000,0.006344967,-0.002920484,-0.632819503,0.000000000,-0.632951218,0.000000000,0.000011793,0.000049678,-0.001314404,0.000000000,-0.001333051,0.000000000,0.000012144,0.000462800,-0.003717168,0.000000000,-0.003911547,-0.000508000,0.000725778,-0.000984127,-0.315128134,0.000000000,-0.328435236,0.000000000,0.005171325,-0.016470717,-1.102615940,0.000000000,-1.097372038,0.000000000,0.011887207,-0.012688839,-0.662652757,0.000000000,-0.660663177,0.000000000,0.006345022,-0.003344842,-0.631772024,0.000000000,-0.631750313,0.000000000,0.000011508,0.000534165,-0.002429667,0.000000000,-0.002681690
0.052000000,0.000000000,0.000165170,0.000363455,-0.022446738,0.000000000,-0.019661160,0.000000000,-0.000782733,0.001619872,0.186276815,0.000000000,0.185848112,0.000000000,0.004903082,-0.009246991,-1.186821154,0.000000000,-1.184518832,0.000000000,0.011924780,-0.009120843,-0.690226319,0.000000000,-0.688397777,0.000000000,0.006339736,-0.002615908,-0.632951218,0.000000000,-0.633288374,0.000000000,0.000011997,0.000103776,-0.001333051,0.000000000,-0.001507554,0.000000000,0.000012886,0.000486987,-0.003911547,0.000000000,-0.004127467,-0.000570000,0.000723580,-0.001099396,-0.328435236,0.000000000,-0.342826286,0.000000000,0.005138765,-0.016285026,-1.097372038,0.000000000,-1.092317146,0.000000000,0.011861738,-0.012734376,-0.660663177,0.000000000,-0.658730762,0.000000000,0.006338755,-0.003133641,-0.631750313,0.000000000,-0.631717352,0.000000000,0.000012669,0.000588101,-0.002681690,0.000000000,-0.002952371
0.054000000,0.000000000,0.000165149,-0.000105448,-0.019661160,0.000000000,-0.017007220,0.000000000,-0.000779577,0.001609441,0.185848112,0.000000000,0.185186855,0.000000000,0.004884828,-0.009128028,-1.184518832,0.000000000,-1.182021188,0.000000000,0.011906445,-0.009167650,-0.688397777,0.000000000,-0.686906924,0.000000000,0.006334962,-0.002386688,-0.633288374,0.000000000,-0.633457626,0.000000000,0.000012133,0.000068812,-0.001507554,0.000000000,-0.001421881,0.000000000,0.000013703,0.000514713,-0.004127467,0.000000000,-0.004371292,-0.000636000,0.000721124,-0.001228320,-0.342826286,0.000000000,-0.357972233,0.000000000,0.005106582,-0.016096570,-1.092317146,0.000000000,-1.087431954,0.000000000,0.011836198,-0.012770303,-0.658730762,0.000000000,-0.656862126,0.000000000,0.006332875,-0.002939857,-0.631717352,0.000000000,-0.631674048,0.000000000,0.000013945,0.000644812,-0.002952371,0.000000000,-0.003242556
0.056000000,0.000000000,0.000165121,-0.000516765,-0.017007220,0.000000000,-0.014678311,0.000000000,-0.000776445,0.001597665,0.185186855,0.000000000,0.184562891,0.000000000,0.004866794,-0.009018504,-1.182021188,0.000000000,-1.179372298,0.000000000,0.011888088,-0.009178204,-0.686906924,0.000000000,-0.685672423,0.000000000,0.006330550,-0.002206155,-0.633457626,0.000000000,-0.633524949,0.000000000,0.000012225,0.000046569,-0.001421881,0.000000000,-0.001367936,0.000000000,0.000014597,0.000545000,-0.004371292,0.000000000,-0.004637874,-0.000707000,0.000718382,-0.001371149,-0.357972233,0.000000000,-0.374143708,0.000000000,0.005074782,-0.015904740,-1.087431954,0.000000000,-1.082732115,0.000000000,0.011810602,-0.012797858,-0.656862126,0.000000000,-0.655049506,0.000000000,0.006327352,-0.002761742,-0.631674048,0.000000000,-0.631622199,0.000000000,0.000015341,0.000703893,-0.003242556,0.000000000,-0.003551557
0.058000000,0.000000000,-0.000165103,-0.000868052,-0.014678311,0.000000000,0.022507448,0.000000000,-0.000773343,0.001582228,0.184562891,0.000000000,0.184030550,0.000000000,0.004848969,-0.008913854,-1.179372298,0.000000000,-1.176672668,0.000000000,0.011869756,-0.009165862,-0.685672423,0.000000000,-0.684602229,0.000000000,0.006326440,-0.002055129,-0.633524949,0.000000000,-0.633538913,0.000000000,0.000012313,0.000044707,-0.001367936,0.000000000,-0.001371567,0.000000000,0.000015572,0.000577710,-0.004637874,0.000000000,-0.004926806,-0.000783000,0.000715325,-0.001528886,-0.374143708,0.000000000,-0.391309549,0.000000000,0.005043372,-0.015709947,-1.082732115,0.000000000,-1.078210060,0.000000000,0.011784968,-0.012816805,-0.655049506,0.000000000,-0.653295689,0.000000000,0.006322155,-0.002598391,-0.631622199,0.000000000,-0.631561392,0.000000000,0.000016861,0.000765744,-0.003551557,0.000000000,-0.003881061
0.060000000,0.000000000,-0.000165088,-0.000408514,0.022507448,0.000000000,0.019907208,0.000000000,-0.000770294,0.001556275,0.184030550,0.000000000,0.183750845,0.000000000,0.004831258,-0.008856550,-1.176672668,0.000000000,-1.172934683,0.000000000,0.011851693,-0.009031748,-0.684602229,0.000000000,-0.684414528,0.000000000,0.006322461,-0.001989609,-0.633538913,0.000000000,-0.633323026,0.000000000,0.000012295,-0.000009519,-0.001371567,0.000000000,-0.001215498,0.000000000,0.000016633,0.000613320,-0.004926806,0.000000000,-0.005241262,-0.000864000,0.000711921,-0.001702607,-0.391309549,0.000000000,-0.409436338,0.000000000,0.005012357,-0.015512604,-1.078210060,0.000000000,-1.073857867,0.000000000,0.011759314,-0.012827025,-0.653295689,0.000000000,-0.651602602,0.000000000,0.006317258,-0.002448323,-0.631561392,0.000000000,-0.631493157,0.000000000,0.000018511,0.000829775,-0.003881061,0.000000000,-0.004229820
0.062000000,0.000000000,-0.000165067,0.000030536,0.019907208,0.000000000,0.017422149,0.000000000,-0.000767318,0.001518892,0.183750845,0.000000000,0.183750552,0.000000000,0.004813695,-0.008782773,-1.172934683,0.000000000,-1.169611259,0.000000000,0.011833818,-0.008937488,-0.684414528,0.000000000,-0.683955455,0.000000000,0.006318699,-0.001880624,-0.633323026,0.000000000,-0.633252742,0.000000000,0.000012343,0.000024660,-0.001215498,0.000000000,-0.001317590,0.000000000,0.000017782,0.000650615,-0.005241262,0.000000000,-0.005574620,-0.000950000,0.000708137,-0.001892625,-0.409436338,0.000000000,-0.428507762,0.000000000,0.004981743,-0.015312081,-1.073857867,0.000000000,-1.069691611,0.000000000,0.011733655,-0.012829666,-0.651602602,0.000000000,-0.649963057,0.000000000,0.006312638,-0.002310406,-0.631493157,0.000000000,-0.631418252,0.000000000,0.000020295,0.000896621,-0.004229820,0.000000000,-0.004600197
0.064000000,0.000000000,-0.000165042,0.000414723,0.017422149,0.000000000,0.015246852,0.000000000,-0.000764415,0.001482014,0.183750552,0.000000000,0.183759402,0.000000000,0.004796308,-0.008694842,-1.169611259,0.000000000,-1.166657950,0.000000000,0.011816075,-0.008871417,-0.683955455,0.000000000,-0.683304365,0.000000000,0.006315195,-0.001752116,-0.633252742,0.000000000,-0.633263934,0.000000000,0.000012434,0.000045793,-0.001317590,0.000000000,-0.001386814,0.000000000,0.000019022,0.000690358,-0.005574620,0.000000000,-0.005931598,-0.001042000,0.000703938,-0.002100030,-0.428507762,0.000000000,-0.448773507,0.000000000,0.004951535,-0.015109281,-1.069691611,0.000000000,-1.065692160,0.000000000,0.011708007,-0.012823826,-0.649963057,0.000000000,-0.648384534,0.000000000,0.006308270,-0.002183775,-0.631418252,0.000000000,-0.631336859,0.000000000,0.000022217,0.000964907,-0.004600197,0.000000000,-0.004988564
0.066000000,0.000000000,0.000165023,0.000741329,0.015246852,0.000000000,-0.021782326,0.000000000,-0.000761578,0.001447983,0.183759402,0.000000000,0.183722912,0.000000000,0.004779116,-0.008597487,-1.166657950,0.000000000,-1.163973152,0.000000000,0.011798434,-0.008820495,-0.683304365,0.000000000,-0.682552026,0.000000000,0.006311953,-0.001620789,-0.633263934,0.000000000,-0.633309689,0.000000000,0.000012525,0.000046307,-0.001386814,0.000000000,-0.001397520,0.000000000,0.000020359,0.000732549,-0.005931598,0.000000000,-0.006312623,-0.001139000,0.000699287,-0.002326061,-0.448773507,0.000000000,-0.469910712,0.000000000,0.004921737,-0.014904079,-1.065692160,0.000000000,-1.061863682,0.000000000,0.011682387,-0.012810112,-0.648384534,0.000000000,-0.646863715,0.000000000,0.006304136,-0.002067034,-0.631336859,0.000000000,-0.631250944,0.000000000,0.000024282,0.001036115,-0.004988564,0.000000000,-0.005399717
0.068000000,0.000000000,0.000165011,0.000259648,-0.021782326,0.000000000,-0.019057140,0.000000000,-0.000758789,0.001423784,0.183722912,0.000000000,0.183477458,0.000000000,0.004762221,-0.008448435,-1.163973152,0.000000000,-1.162542420,0.000000000,0.011780667,-0.008883786,-0.682552026,0.000000000,-0.680979860,0.000000000,0.006309097,-0.001428399,-0.633309689,0.000000000,-0.633567929,0.000000000,0.000012721,0.000098989,-0.001397520,0.000000000,-0.001567070,0.000000000,0.000021793,0.000776597,-0.006312623,0.000000000,-0.006714645,-0.001242000,0.000694146,-0.002571147,-0.469910712,0.000000000,-0.492183101,0.000000000,0.004892354,-0.014696357,-1.061863682,0.000000000,-1.058210302,0.000000000,0.011656809,-0.012788947,-0.646863715,0.000000000,-0.645398525,0.000000000,0.006300217,-0.001959392,-0.631250944,0.000000000,-0.631160917,0.000000000,0.000026494,0.001109266,-0.005399717,0.000000000,-0.005831251
0.070000000,0.000000000,0.000164994,-0.000199664,-0.019057140,0.000000000,-0.016457942,0.000000000,-0.000756027,0.001410297,0.183477458,0.000000000,0.182997466,0.000000000,0.004745600,-0.008311684,-1.162542420,0.000000000,-1.160911186,0.000000000,0.011762867,-0.008899936,-0.680979860,0.000000000,-0.679740740,0.000000000,0.006306493,-0.001301763,-0.633567929,0.000000000,-0.633664830,0.000000000,0.000012846,0.000063014,-0.001567070,0.000000000,-0.001477386,0.000000000,0.000023332,0.000823590,-0.006714645,0.000000000,-0.007144369,-0.001351000,0.000688474,-0.002836934,-0.492183101,0.000000000,-0.515541693,0.000000000,0.004863390,-0.014487020,-1.058210302,0.000000000,-1.054712474,0.000000000,0.011631290,-0.012759525,-0.645398525,0.000000000,-0.643995747,0.000000000,0.006296497,-0.001859954,-0.631160917,0.000000000,-0.631067669,0.000000000,0.000028857,0.001184254,-0.005831251,0.000000000,-0.006283234
0.072000000,0.000000000,-0.000164978,-0.000602456,-0.016457942,0.000000000,0.020992264,0.000000000,-0.000753295,0.001395644,0.182997466,0.000000000,0.182552273,0.000000000,0.004729233,-0.008185120,-1.160911186,0.000000000,-1.159121482,0.000000000,0.011745105,-0.008880762,-0.679740740,0.000000000,-0.678755123,0.000000000,0.006304063,-0.001215001,-0.633664830,0.000000000,-0.633665906,0.000000000,0.000012924,0.000039829,-0.001477386,0.000000000,-0.001419430,0.000000000,0.000024977,0.000872671,-0.007144369,0.000000000,-0.007597296,-0.001465000,0.000682228,-0.003124126,-0.515541693,0.000000000,-0.539674136,0.000000000,0.004834850,-0.014275448,-1.054712474,0.000000000,-1.051385468,0.000000000,0.011605844,-0.012723049,-0.643995747,0.000000000,-0.642647720,0.000000000,0.006292962,-0.001767688,-0.631067669,0.000000000,-0.630972678,0.000000000,0.000031376,0.001262041,-0.006283234,0.000000000,-0.006758955
0.074000000,0.000000000,-0.000164963,-0.000185495,0.020992264,0.000000000,0.018632749,0.000000000,-0.000750615,0.001369615,0.182552273,0.000000000,0.182379255,0.000000000,0.004713016,-0.008109476,-1.159121482,0.000000000,-1.156223029,0.000000000,0.011727640,-0.008732348,-0.678755123,0.000000000,-0.678706888,0.000000000,0.006301630,-0.001216455,-0.633665906,0.000000000,-0.633415890,0.000000000,0.000012881,-0.000021893,-0.001419430,0.000000000,-0.001239574,0.000000000,0.000026733,0.000924154,-0.007597296,0.000000000,-0.008075653,-0.001586000,0.000675363,-0.003433440,-0.539674136,0.000000000,-0.565120161,0.000000000,0.004806735,-0.014062284,-1.051385468,0.000000000,-1.048215657,0.000000000,0.011580486,-0.012678937,-0.642647720,0.000000000,-0.641359538,0.000000000,0.006289598,-0.001682122,-0.630972678,0.000000000,-0.630875936,0.000000000,0.000034052,0.001340313,-0.006758955,0.000000000,-0.007251927
0.076000000,0.000000000,-0.000164946,0.000220136,0.018632749,0.000000000,0.016337056,0.000000000,-0.000748010,0.001331304,0.182379255,0.000000000,0.182505375,0.000000000,0.004696979,-0.008019839,-1.156223029,0.000000000,-1.153692030,0.000000000,0.011710402,-0.008619434,-0.678706888,0.000000000,-0.678420592,0.000000000,0.006299284,-0.001173062,-0.633415890,0.000000000,-0.633302145,0.000000000,0.000012906,0.000012793,-0.001239574,0.000000000,-0.001340744,0.000000000,0.000028603,0.000976926,-0.008075653,0.000000000,-0.008573336,-0.001712000,0.000667834,-0.003765755,-0.565120161,0.000000000,-0.591278300,0.000000000,0.004779052,-0.013846927,-1.048215657,0.000000000,-1.045217885,0.000000000,0.011555230,-0.012628274,-0.641359538,0.000000000,-0.640124321,0.000000000,0.006286392,-0.001602760,-0.630875936,0.000000000,-0.630777594,0.000000000,0.000036891,0.001421869,-0.007251927,0.000000000,-0.007770769
0.078000000,0.000000000,0.000164933,0.000576862,0.016337056,0.000000000,-0.020842645,0.000000000,-0.000745480,0.001293221,0.182505375,0.000000000,0.182647519,0.000000000,0.004681146,-0.007917846,-1.153692030,0.000000000,-1.151498479,0.000000000,0.011693337,-0.008532333,-0.678420592,0.000000000,-0.677961812,0.000000000,0.006297071,-0.001106543,-0.633302145,0.000000000,-0.633267595,0.000000000,0.000012977,0.000035685,-0.001340744,0.000000000,-0.001412956,0.000000000,0.000030589,0.001031792,-0.008573336,0.000000000,-0.009095283,-0.001845000,0.000659593,-0.004121651,-0.591278300,0.000000000,-0.618690531,0.000000000,0.004751801,-0.013630245,-1.045217885,0.000000000,-1.042373247,0.000000000,0.011530089,-0.012570158,-0.640124321,0.000000000,-0.638949416,0.000000000,0.006283334,-0.001529066,-0.630777594,0.000000000,-0.630678037,0.000000000,0.000039893,0.001502994,-0.007770769,0.000000000,-0.008304825
0.080000000,0.000000000,0.000164922,0.000119458,-0.020842645,0.000000000,-0.018254886,0.000000000,-0.000743002,0.001265992,0.182647519,0.000000000,0.182559183,0.000000000,0.004665623,-0.007762546,-1.151498479,0.000000000,-1.150598963,0.000000000,0.011676204,-0.008566241,-0.677961812,0.000000000,-0.676638623,0.000000000,0.006295140,-0.000965700,-0.633267595,0.000000000,-0.633472814,0.000000000,0.000013167,0.000095943,-0.001412956,0.000000000,-0.001603453,0.000000000,0.000032694,0.001088287,-0.009095283,0.000000000,-0.009639150,-0.001984000,0.000650592,-0.004502302,-0.618690531,0.000000000,-0.647032025,0.000000000,0.004724988,-0.013411829,-1.042373247,0.000000000,-1.039692023,0.000000000,0.011505078,-0.012505504,-0.638949416,0.000000000,-0.637829157,0.000000000,0.006280414,-0.001460248,-0.630678037,0.000000000,-0.630578525,0.000000000,0.000043063,0.001586410,-0.008304825,0.000000000,-0.008862292
0.082000000,0.000000000,0.000164908,-0.000322210,-0.018254886,0.000000000,-0.015755737,0.000000000,-0.000740556,0.001250574,0.182559183,0.000000000,0.182212499,0.000000000,0.004650388,-0.007618791,-1.150598963,0.000000000,-1.149520039,0.000000000,0.011659090,-0.008557241,-0.676638623,0.000000000,-0.675621558,0.000000000,0.006293377,-0.000881537,-0.633472814,0.000000000,-0.633533905,0.000000000,0.000013283,0.000058800,-0.001603453,0.000000000,-0.001509613,0.000000000,0.000034923,0.001147466,-0.009639150,0.000000000,-0.010211422,-0.002130000,0.000640778,-0.004908984,-0.647032025,0.000000000,-0.676543322,0.000000000,0.004698613,-0.013192534,-1.039692023,0.000000000,-1.037155316,0.000000000,0.011480211,-0.012433522,-0.637829157,0.000000000,-0.636770080,0.000000000,0.006277622,-0.001395712,-0.630578525,0.000000000,-0.630479888,0.000000000,0.000046400,0.001670315,-0.008862292,0.000000000,-0.009438139
0.084000000,0.000000000,-0.000164899,-0.000711067,-0.015755737,0.000000000,0.021598015,0.000000000,-0.000738141,0.001234503,0.182212499,0.000000000,0.181889763,0.000000000,0.004635420,-0.007484995,-1.149520039,0.000000000,-1.148291902,0.000000000,0.011642059,-0.008515495,-0.675621558,0.000000000,-0.674842524,0.000000000,0.006291715,-0.000830841,-0.633533905,0.000000000,-0.633510095,0.000000000,0.000013348,0.000033007,-0.001509613,0.000000000,-0.001442887,0.000000000,0.000037279,0.001208420,-0.010211422,0.000000000,-0.010807289,-0.002283000,0.000630096,-0.005342603,-0.676543322,0.000000000,-0.707188679,0.000000000,0.004672680,-0.012971737,-1.037155316,0.000000000,-1.034778113,0.000000000,0.011455500,-0.012355397,-0.636770080,0.000000000,-0.635764535,0.000000000,0.006274952,-0.001334879,-0.630479888,0.000000000,-0.630383017,0.000000000,0.000049911,0.001756675,-0.009438139,0.000000000,-0.010038453
0.086000000,0.000000000,-0.000164890,-0.000282450,0.021598015,0.000000000,0.019173252,0.000000000,-0.000735782,0.001207120,0.181889763,0.000000000,0.181838464,0.000000000,0.004620618,-0.007402204,-1.148291902,0.000000000,-1.145957146,0.000000000,0.011625367,-0.008346160,-0.674842524,0.000000000,-0.674991792,0.000000000,0.006289988,-0.000863612,-0.633510095,0.000000000,-0.633242364,0.000000000,0.000013288,-0.000030332,-0.001442887,0.000000000,-0.001256744,0.000000000,0.000039767,0.001271577,-0.010807289,0.000000000,-0.011429590,-0.002442000,0.000618492,-0.005804349,-0.707188679,0.000000000,-0.738640961,0.000000000,0.004647190,-0.012750073,-1.034778113,0.000000000,-1.032546530,0.000000000,0.011430959,-0.012270552,-0.635764535,0.000000000,-0.634817475,0.000000000,0.006272397,-0.001277657,-0.630383017,0.000000000,-0.630287445,0.000000000,0.000053598,0.001844670,-0.010038453,0.000000000,-0.010661229
0.088000000,0.000000000,-0.000164875,0.000133554,0.019173252,0.000000000,0.016819140,0.000000000,-0.000733500,0.001167591,0.181838464,0.000000000,0.182083885,0.000000000,0.004606009,-0.007305700,-1.145957146,0.000000000,-1.143987409,0.000000000,0.011608940,-0.008213358,-0.674991792,0.000000000,-0.674898152,0.000000000,0.006288292,-0.000847894,-0.633242364,0.000000000,-0.633115665,0.000000000,0.000013295,0.000003662,-0.001256744,0.000000000,-0.001354121,0.000000000,0.000042387,0.001335760,-0.011429590,0.000000000,-0.012071840,-0.002608000,0.000605909,-0.006294154,-0.738640961,0.000000000,-0.771170016,0.000000000,0.004622146,-0.012526919,-1.032546530,0.000000000,-1.030475492,0.000000000,0.011406599,-0.012180047,-0.634817475,0.000000000,-0.633922079,0.000000000,0.006269950,-0.001223674,-0.630287445,0.000000000,-0.630193579,0.000000000,0.000057462,0.001933207,-0.010661229,0.000000000,-0.011303464
0.090000000,0.000000000,-0.000164858,0.000499496,0.016819140,0.000000000,0.014747934,0.000000000,-0.000731294,0.001128408,0.182083885,0.000000000,0.182343213,0.000000000,0.004591617,-0.007197202,-1.143987409,0.000000000,-1.142350657,0.000000000,0.011592726,-0.008107133,-0.674898152,0.000000000,-0.674629028,0.000000000,0.006286680,-0.000806044,-0.633115665,0.000000000,-0.633071722,0.000000000,0.000013347,0.000026258,-0.001354121,0.000000000,-0.001423611,0.000000000,0.000045143,0.001401761,-0.012071840,0.000000000,-0.012738867,-0.002781000,0.000592288,-0.006813341,-0.771170016,0.000000000,-0.804729179,0.000000000,0.004597550,-0.012303111,-1.030475492,0.000000000,-1.028546470,0.000000000,0.011382433,-0.012083034,-0.633922079,0.000000000,-0.633085200,0.000000000,0.006267604,-0.001172809,-0.630193579,0.000000000,-0.630101129,0.000000000,0.000061504,0.002022048,-0.011303464,0.000000000,-0.011964541
0.092000000,0.000000000,0.000164852,0.000810701,0.014747934,0.000000000,-0.022156460,0.000000000,-0.000729159,0.001092264,0.182343213,0.000000000,0.182553936,0.000000000,0.004577457,-0.007081048,-1.142350657,0.000000000,-1.140953096,0.000000000,0.011576695,-0.008015466,-0.674629028,0.000000000,-0.674268001,0.000000000,0.006285171,-0.000754129,-0.633071722,0.000000000,-0.633066882,0.000000000,0.000013402,0.000027335,-0.001423611,0.000000000,-0.001432140,0.000000000,0.000048039,0.001469564,-0.012738867,0.000000000,-0.013430928,-0.002961000,0.000577568,-0.007362876,-0.804729179,0.000000000,-0.839279442,0.000000000,0.004573403,-0.012078485,-1.028546470,0.000000000,-1.026763647,0.000000000,0.011358473,-0.011980111,-0.633085200,0.000000000,-0.632303329,0.000000000,0.006265355,-0.001124338,-0.630101129,0.000000000,-0.630011669,0.000000000,0.000065725,0.002111631,-0.011964541,0.000000000,-0.012645852
0.094000000,0.000000000,0.000164851,0.000316570,-0.022156460,0.000000000,-0.019361981,0.000000000,-0.000727075,0.001066409,0.182553936,0.000000000,0.182546223,0.000000000,0.004563630,-0.006914748,-1.140953096,0.000000000,-1.140784309,0.000000000,0.011560619,-0.008037878,-0.674268001,0.000000000,-0.673093270,0.000000000,0.006283904,-0.000633932,-0.633066882,0.000000000,-0.633280466,0.000000000,0.000013560,0.000079967,-0.001432140,0.000000000,-0.001597773,0.000000000,0.000051076,0.001538573,-0.013430928,0.000000000,-0.014144877,-0.003148000,0.000561689,-0.007943431,-0.839279442,0.000000000,-0.874787997,0.000000000,0.004549707,-0.011852879,-1.026763647,0.000000000,-1.025131231,0.000000000,0.011334730,-0.011871721,-0.632303329,0.000000000,-0.631574007,0.000000000,0.006263199,-0.001078195,-0.630011669,0.000000000,-0.629924919,0.000000000,0.000070128,0.002202198,-0.012645852,0.000000000,-0.013348285
0.096000000,0.000000000,0.000164840,-0.000153403,-0.019361981,0.000000000,-0.016703147,0.000000000,-0.000725020,0.001051463,0.182546223,0.000000000,0.182300236,0.000000000,0.004550108,-0.006762118,-1.140784309,0.000000000,-1.140393093,0.000000000,0.011544592,-0.008013498,-0.673093270,0.000000000,-0.672254217,0.000000000,0.006282759,-0.000572450,-0.633280466,0.000000000,-0.633339551,0.000000000,0.000013646,0.000043655,-0.001597773,0.000000000,-0.001503272,0.000000000,0.000054258,0.001609852,-0.014144877,0.000000000,-0.014887186,-0.003342000,0.000544584,-0.008556343,-0.874787997,0.000000000,-0.911206281,0.000000000,0.004526463,-0.011627164,-1.025131231,0.000000000,-1.023629581,0.000000000,0.011311215,-0.011757047,-0.631574007,0.000000000,-0.630903845,0.000000000,0.006261131,-0.001034067,-0.629924919,0.000000000,-0.629841360,0.000000000,0.000074711,0.002292528,-0.013348285,0.000000000,-0.014068318
0.098000000,0.000000000,0.000164826,-0.000565271,-0.016703147,0.000000000,-0.014372472,0.000000000,-0.000722997,0.001035538,0.182300236,0.000000000,0.182085484,0.000000000,0.004536868,-0.006620943,-1.140393093,0.000000000,-1.139823006,0.000000000,0.011528683,-0.007954322,-0.672254217,0.000000000,-0.671669973,0.000000000,0.006281670,-0.000544286,-0.633339551,0.000000000,-0.633309605,0.000000000,0.000013686,0.000020075,-0.001503272,0.000000000,-0.001440251,0.000000000,0.000057589,0.001682460,-0.014887186,0.000000000,-0.015652797,-0.003544000,0.000526190,-0.009202122,-0.911206281,0.000000000,-0.948788282,0.000000000,0.004503671,-0.011400680,-1.023629581,0.000000000,-1.022274085,0.000000000,0.011287941,-0.011637302,-0.630903845,0.000000000,-0.630284852,0.000000000,0.006259148,-0.000991500,-0.629841360,0.000000000,-0.629761964,0.000000000,0.000079476,0.002383416,-0.014068318,0.000000000,-0.014808323
0.100000000,0.000000000,-0.000164823,-0.000916691,-0.014372472,0.000000000,0.022752660,0.000000000,-0.000721012,0.001016320,0.182085484,0.000000000,0.181956033,0.000000000,0.004523897,-0.006486630,-1.139823006,0.000000000,-1.139174085,0.000000000,0.011512936,-0.007873634,-0.671669973,0.000000000,-0.671248829,0.000000000,0.006280607,-0.000531460,-0.633309605,0.000000000,-0.633238643,0.000000000,0.000013720,0.000016939,-0.001440251,0.000000000,-0.001434725,0.000000000,0.000061069,0.001756354,-0.015652797,0.000000000,-0.016441701,-0.003753000,0.000506437,-0.009881892,-0.948788282,0.000000000,-0.987205155,0.000000000,0.004481334,-0.011173784,-1.022274085,0.000000000,-1.021056854,0.000000000,0.011264916,-0.011512221,-0.630284852,0.000000000,-0.629719588,0.000000000,0.006257246,-0.000950770,-0.629761964,0.000000000,-0.629685583,0.000000000,0.000084426,0.002475534,-0.014808323,0.000000000,-0.015570456
0.102000000,0.000000000,-0.000164823,-0.000458265,0.022752660,0.000000000,0.020160294,0.000000000,-0.000719087,0.000986642,0.181956033,0.000000000,0.182079897,0.000000000,0.004511096,-0.006401574,-1.139174085,0.000000000,-1.137459346,0.000000000,0.011497591,-0.007672703,-0.671248829,0.000000000,-0.671707754,0.000000000,0.006279425,-0.000591009,-0.633238643,0.000000000,-0.632949887,0.000000000,0.000013643,-0.000038735,-0.001434725,0.000000000,-0.001268690,0.000000000,0.000064704,0.001832009,-0.016441701,0.000000000,-0.017256948,-0.003970000,0.000485257,-0.010596389,-0.987205155,0.000000000,-1.026704842,0.000000000,0.004459450,-0.010946831,-1.021056854,0.000000000,-1.019969939,0.000000000,0.011242153,-0.011381669,-0.629719588,0.000000000,-0.629209709,0.000000000,0.006255424,-0.000911435,-0.629685583,0.000000000,-0.629613182,0.000000000,0.000089559,0.002566991,-0.015570456,0.000000000,-0.016349208
0.104000000,0.000000000,-0.000164814,-0.000019855,0.020160294,0.000000000,0.017680170,0.000000000,-0.000717240,0.000945971,0.182079897,0.000000000,0.182474985,0.000000000,0.004498494,-0.006301968,-1.137459346,0.000000000,-1.136130335,0.000000000,0.011482565,-0.007512861,-0.671707754,0.000000000,-0.671894807,0.000000000,0.006278235,-0.000595211,-0.632949887,0.000000000,-0.632817629,0.000000000,0.000013631,-0.000005791,-0.001268690,0.000000000,-0.001361191,0.000000000,0.000068493,0.001908227,-0.017256948,0.000000000,-0.018091855,-0.004195000,0.000462580,-0.011346152,-1.026704842,0.000000000,-1.067255237,0.000000000,0.004438021,-0.010719128,-1.019969939,0.000000000,-1.019029416,0.000000000,0.011219659,-0.011246798,-0.629209709,0.000000000,-0.628747560,0.000000000,0.006253677,-0.000873453,-0.629613182,0.000000000,-0.629544614,0.000000000,0.000094877,0.002659632,-0.016349208,0.000000000,-0.017150060
0.106000000,0.000000000,-0.000164798,0.000364166,0.017680170,0.000000000,0.015506743,0.000000000,-0.000715471,0.000906217,0.182474985,0.000000000,0.182871323,0.000000000,0.004486116,-0.006190078,-1.136130335,0.000000000,-1.135142770,0.000000000,0.011467800,-0.007382463,-0.671894807,0.000000000,-0.671889049,0.000000000,0.006277097,-0.000568965,-0.632817629,0.000000000,-0.632777243,0.000000000,0.000013660,0.000014397,-0.001361191,0.000000000,-0.001421465,0.000000000,0.000072440,0.001985833,-0.018091855,0.000000000,-0.018951369,-0.004427000,0.000438333,-0.012132355,-1.067255237,0.000000000,-1.108524889,0.000000000,0.004417048,-0.010491523,-1.019029416,0.000000000,-1.018216049,0.000000000,0.011197446,-0.011106707,-0.628747560,0.000000000,-0.628340215,0.000000000,0.006252003,-0.000836929,-0.629544614,0.000000000,-0.629479283,0.000000000,0.000100380,0.002752352,-0.017150060,0.000000000,-0.017969888
0.108000000,0.000000000,-0.000164783,0.000691007,0.015506743,0.000000000,0.013656923,0.000000000,-0.000713773,0.000869733,0.182871323,0.000000000,0.183213977,0.000000000,0.004473977,-0.006070576,-1.135142770,0.000000000,-1.134395334,0.000000000,0.011453263,-0.007268499,-0.671889049,0.000000000,-0.671780876,0.000000000,0.006276037,-0.000529888,-0.632777243,0.000000000,-0.632781232,0.000000000,0.000013688,0.000014169,-0.001421465,0.000000000,-0.001423653,0.000000000,0.000076546,0.002064729,-0.018951369,0.000000000,-0.019835195,-0.004667000,0.000412444,-0.012955461,-1.108524889,0.000000000,-1.150766894,0.000000000,0.004396530,-0.010263831,-1.018216049,0.000000000,-1.017534055,0.000000000,0.011175522,-0.010961984,-0.628340215,0.000000000,-0.627984083,0.000000000,0.006250400,-0.000801264,-0.629479283,0.000000000,-0.629418720,0.000000000,0.000106067,0.002843971,-0.017969888,0.000000000,-0.018805115
0.110000000,0.000000000,0.000164786,0.000970803,0.013656923,0.000000000,-0.023054815,0.000000000,-0.000712142,0.000835601,0.183213977,0.000000000,0.183522431,0.000000000,0.004462087,-0.005946386,-1.134395334,0.000000000,-1.133824504,0.000000000,0.011438937,-0.007162946,-0.671780876,0.000000000,-0.671626255,0.000000000,0.006275062,-0.000487460,-0.632781232,0.000000000,-0.632803324,0.000000000,0.000013702,0.000007367,-0.001423653,0.000000000,-0.001405787,0.000000000,0.000080813,0.002144707,-0.019835195,0.000000000,-0.020742363,-0.004915000,0.000384837,-0.013816498,-1.150766894,0.000000000,-1.193936723,0.000000000,0.004376467,-0.010036118,-1.017534055,0.000000000,-1.016981980,0.000000000,0.011153896,-0.010812803,-0.627984083,0.000000000,-0.627678475,0.000000000,0.006248867,-0.000766504,-0.629418720,0.000000000,-0.629362611,0.000000000,0.000111938,0.002935664,-0.018805115,0.000000000,-0.019659090
0.112000000,0.000000000,0.000164796,0.000453431,-0.023054815,0.000000000,-0.020130036,0.000000000,-0.000710559,0.000811001,0.183522431,0.000000000,0.183628838,0.000000000,0.004450541,-0.005774082,-1.133824504,0.000000000,-1.134439915,0.000000000,0.011424601,-0.007168037,-0.671626255,0.000000000,-0.670684530,0.000000000,0.006274303,-0.000379731,-0.632803324,0.000000000,-0.633032844,0.000000000,0.000013823,0.000061053,-0.001405787,0.000000000,-0.001570638,0.000000000,0.000085243,0.002225215,-0.020742363,0.000000000,-0.021669857,-0.005172000,0.000355437,-0.014716028,-1.193936723,0.000000000,-1.238284415,0.000000000,0.004356860,-0.009808257,-1.016981980,0.000000000,-1.016562763,0.000000000,0.011132577,-0.010659542,-0.627678475,0.000000000,-0.627421236,0.000000000,0.006247402,-0.000732763,-0.629362611,0.000000000,-0.629310424,0.000000000,0.000117992,0.003027542,-0.019659090,0.000000000,-0.020532169
0.114000000,0.000000000,0.000164791,-0.000035121,-0.020130036,0.000000000,-0.017366839,0.000000000,-0.000709004,0.000796982,0.183628838,0.000000000,0.183503839,0.000000000,0.004439309,-0.005616875,-1.134439915,0.000000000,-1.134803210,0.000000000,0.011410352,-0.007124702,-0.670684530,0.000000000,-0.670092490,0.000000000,0.006273640,-0.000331503,-0.633032844,0.000000000,-0.633102950,0.000000000,0.000013877,0.000027222,-0.001570638,0.000000000,-0.001479905,0.000000000,0.000089839,0.002307445,-0.021669857,0.000000000,-0.022624769,-0.005436000,0.000324166,-0.015655680,-1.238284415,0.000000000,-1.283182613,0.000000000,0.004337708,-0.009581068,-1.016562763,0.000000000,-1.016257475,0.000000000,0.011111574,-0.010501457,-0.627421236,0.000000000,-0.627218254,0.000000000,0.006246002,-0.000699827,-0.629310424,0.000000000,-0.629262605,0.000000000,0.000124231,0.003119744,-0.020532169,0.000000000,-0.021424814
0.116000000,0.000000000,0.000164776,-0.000462883,-0.017366839,0.000000000,-0.014946250,0.000000000,-0.000707478,0.000782031,0.183503839,0.000000000,0.183408433,0.000000000,0.004428366,-0.005472181,-1.134803210,0.000000000,-1.134965710,0.000000000,0.011396260,-0.007045959,-0.670092490,0.000000000,-0.669762078,0.000000000,0.006273007,-0.000316217,-0.633102950,0.000000000,-0.633082491,0.000000000,0.000013887,0.000005020,-0.001479905,0.000000000,-0.001417791,0.000000000,0.000094603,0.002390439,-0.022624769,0.000000000,-0.023601837,-0.005708000,0.000290948,-0.016635316,-1.283182613,0.000000000,-1.328896906,0.000000000,0.004319009,-0.009353861,-1.016257475,0.000000000,-1.016081758,0.000000000,0.011090895,-0.010339760,-0.627218254,0.000000000,-0.627061379,0.000000000,0.006244668,-0.000667252,-0.629262605,0.000000000,-0.629220345,0.000000000,0.000130651,0.003210669,-0.021424814,0.000000000,-0.022332214
0.118000000,0.000000000,0.000164765,-0.000828194,-0.014946250,0.000000000,-0.012879157,0.000000000,-0.000705989,0.000763911,0.183408433,0.000000000,0.183394823,0.000000000,0.004417698,-0.005335188,-1.134965710,0.000000000,-1.135031911,0.000000000,0.011382368,-0.006945657,-0.669762078,0.000000000,-0.669597580,0.000000000,0.006272377,-0.000315338,-0.633082491,0.000000000,-0.633021250,0.000000000,0.000013892,0.000002330,-0.001417791,0.000000000,-0.001410607,0.000000000,0.000099534,0.002473995,-0.023601837,0.000000000,-0.024600018,-0.005989000,0.000255708,-0.017655721,-1.328896906,0.000000000,-1.375672325,0.000000000,0.004300764,-0.009126971,-1.016081758,0.000000000,-1.016027816,0.000000000,0.011070547,-0.010174175,-0.627061379,0.000000000,-0.626953052,0.000000000,0.006243397,-0.000635464,-0.629220345,0.000000000,-0.629182271,0.000000000,0.000137252,0.003300677,-0.022332214,0.000000000,-0.023255203
0.120000000,0.000000000,-0.000164777,-0.001141796,-0.012879157,0.000000000,0.024020725,0.000000000,-0.000704539,0.000743541,0.183394823,0.000000000,0.183443484,0.000000000,0.004407294,-0.005202928,-1.135031911,0.000000000,-1.135066205,0.000000000,0.011368704,-0.006832360,-0.669597580,0.000000000,-0.669539766,0.000000000,0.006271739,-0.000318898,-0.633021250,0.000000000,-0.632946670,0.000000000,0.000013904,0.000005919,-0.001410607,0.000000000,-0.001421996,0.000000000,0.000104636,0.002558160,-0.024600018,0.000000000,-0.025619712,-0.006278000,0.000218373,-0.018717927,-1.375672325,0.000000000,-1.423180585,0.000000000,0.004282973,-0.008900502,-1.016027816,0.000000000,-1.016093050,0.000000000,0.011050537,-0.010004845,-0.626953052,0.000000000,-0.626892740,0.000000000,0.006242188,-0.000604399,-0.629182271,0.000000000,-0.629148421,0.000000000,0.000144033,0.003390868,-0.023255203,0.000000000,-0.024196949
0.122000000,0.000000000,-0.000164794,-0.000654146,0.024020725,0.000000000,0.021264939,0.000000000,-0.000703148,0.000713713,0.183443484,0.000000000,0.183722811,0.000000000,0.004397058,-0.005118851,-1.135066205,0.000000000,-1.134058455,0.000000000,0.011355495,-0.006604224,-0.669539766,0.000000000,-0.670327046,0.000000000,0.006270962,-0.000388596,-0.632946670,0.000000000,-0.632669971,0.000000000,0.000013802,-0.000051056,-0.001421996,0.000000000,-0.001249794,0.000000000,0.000109908,0.002643359,-0.025619712,0.000000000,-0.026663524,-0.006576000,0.000178879,-0.019822610,-1.423180585,0.000000000,-1.471673023,0.000000000,0.004265632,-0.008674744,-1.016093050,0.000000000,-1.016270538,0.000000000,0.011030874,-0.009831693,-0.626892740,0.000000000,-0.626881467,0.000000000,0.006241040,-0.000573742,-0.629148421,0.000000000,-0.629119611,0.000000000,0.000150992,0.003479733,-0.024196949,0.000000000,-0.025152890
0.124000000,0.000000000,-0.000164798,-0.000191630,0.021264939,0.000000000,0.018649813,0.000000000,-0.000701835,0.000673469,0.183722811,0.000000000,0.184260025,0.000000000,0.004387020,-0.005019787,-1.134058455,0.000000000,-1.133446007,0.000000000,0.011342654,-0.006420600,-0.670327046,0.000000000,-0.670821124,0.000000000,0.006270163,-0.000399503,-0.632669971,0.000000000,-0.632558211,0.000000000,0.000013762,-0.000020426,-0.001249794,0.000000000,-0.001332786,0.000000000,0.000115352,0.002728363,-0.026663524,0.000000000,-0.027724453,-0.006882000,0.000137195,-0.020970211,-1.471673023,0.000000000,-1.520845930,0.000000000,0.004248743,-0.008449008,-1.016270538,0.000000000,-1.016575824,0.000000000,0.011011562,-0.009655830,-0.626881467,0.000000000,-0.626911680,0.000000000,0.006239953,-0.000543626,-0.629119611,0.000000000,-0.629095348,0.000000000,0.000158130,0.003569208,-0.025152890,0.000000000,-0.026128657
0.126000000,0.000000000,-0.000164784,0.000213305,0.018649813,0.000000000,0.016358433,0.000000000,-0.000700599,0.000634396,0.184260025,0.000000000,0.184792333,0.000000000,0.004377205,-0.004908383,-1.133446007,0.000000000,-1.133175994,0.000000000,0.011330117,-0.006268718,-0.670821124,0.000000000,-0.671108775,0.000000000,0.006269406,-0.000378117,-0.632558211,0.000000000,-0.632542582,0.000000000,0.000013759,-0.000001385,-0.001332786,0.000000000,-0.001386642,0.000000000,0.000120967,0.002813914,-0.027724453,0.000000000,-0.028806805,-0.007196000,0.000093393,-0.022161386,-1.520845930,0.000000000,-1.570705184,0.000000000,0.004232304,-0.008224133,-1.016575824,0.000000000,-1.016989424,0.000000000,0.010992609,-0.009476320,-0.626911680,0.000000000,-0.626990495,0.000000000,0.006238925,-0.000514226,-0.629095348,0.000000000,-0.629074991,0.000000000,0.000165443,0.003656880,-0.026128657,0.000000000,-0.027117019
0.128000000,0.000000000,-0.000164761,0.000558570,0.016358433,0.000000000,0.014403492,0.000000000,-0.000699432,0.000598754,0.184792333,0.000000000,0.185266755,0.000000000,0.004367628,-0.004789519,-1.133175994,0.000000000,-1.133142281,0.000000000,0.011317847,-0.006134947,-0.671108775,0.000000000,-0.671284597,0.000000000,0.006268720,-0.000342937,-0.632542582,0.000000000,-0.632573280,0.000000000,0.000013756,-0.000001829,-0.001386642,0.000000000,-0.001385014,0.000000000,0.000126755,0.002899886,-0.028806805,0.000000000,-0.029909955,-0.007520000,0.000048195,-0.023396710,-1.570705184,0.000000000,-1.622011247,0.000000000,0.004216312,-0.007999918,-1.016989424,0.000000000,-1.017515555,0.000000000,0.010974022,-0.009293757,-0.626990495,0.000000000,-0.627114069,0.000000000,0.006237954,-0.000485090,-0.629074991,0.000000000,-0.629059773,0.000000000,0.000172929,0.003742963,-0.027117019,0.000000000,-0.028118270
0.130000000,0.000000000,-0.000164743,0.000854555,0.014403492,0.000000000,0.012727764,0.000000000,-0.000698329,0.000565621,0.185266755,0.000000000,0.185702868,0.000000000,0.004358297,-0.004666235,-1.133142281,0.000000000,-1.133278632,0.000000000,0.011305825,-0.006010917,-0.671284597,0.000000000,-0.671406839,0.000000000,0.006268113,-0.000303904,-0.632573280,0.000000000,-0.632622825,0.000000000,0.000013739,-0.000008483,-0.001385014,0.000000000,-0.001364397,0.000000000,0.000132717,0.002986278,-0.029909955,0.000000000,-0.031033973,-0.007852000,-0.000017837,-0.024677901,-1.622011247,0.000000000,-1.668632160,0.000000000,0.004200768,-0.007776409,-1.017515555,0.000000000,-1.018152733,0.000000000,0.010955805,-0.009108346,-0.627114069,0.000000000,-0.627281313,0.000000000,0.006237042,-0.000456408,-0.629059773,0.000000000,-0.629049063,0.000000000,0.000180591,0.003831375,-0.028118270,0.000000000,-0.029144015
0.132000000,0.000000000,0.000164747,0.001111010,0.012727764,0.000000000,-0.023843515,0.000000000,-0.000697289,0.000534214,0.185702868,0.000000000,0.186117398,0.000000000,0.004349218,-0.004540416,-1.133278632,0.000000000,-1.133543832,0.000000000,0.011294041,-0.005891695,-0.671406839,0.000000000,-0.671509972,0.000000000,0.006267580,-0.000266142,-0.632622825,0.000000000,-0.632676385,0.000000000,0.000013711,-0.000013935,-0.001364397,0.000000000,-0.001346108,0.000000000,0.000138850,0.003071466,-0.031033973,0.000000000,-0.032169423,-0.008193000,-0.000058959,-0.025997456,-1.668632160,0.000000000,-1.724024110,0.000000000,0.004185669,-0.007553750,-1.018152733,0.000000000,-1.018897240,0.000000000,0.010937965,-0.008919814,-0.627281313,0.000000000,-0.627494562,0.000000000,0.006236187,-0.000427324,-0.629049063,0.000000000,-0.629045374,0.000000000,0.000188377,0.003893476,-0.029144015,0.000000000,-0.030107515
0.134000000,0.000000000,0.000164764,0.000575151,-0.023843515,0.000000000,-0.020814961,0.000000000,-0.000696291,0.000511893,0.186117398,0.000000000,0.186338623,0.000000000,0.004340484,-0.004367935,-1.133543832,0.000000000,-1.134962529,0.000000000,0.011282279,-0.005881408,-0.671509972,0.000000000,-0.670840098,0.000000000,0.006267250,-0.000165050,-0.632676385,0.000000000,-0.632930429,0.000000000,0.000013796,0.000042591,-0.001346108,0.000000000,-0.001515338,0.000000000,0.000145153,0.003156228,-0.032169423,0.000000000,-0.033320592,-0.008542000,-0.000112443,-0.027370016,-1.724024110,0.000000000,-1.776976984,0.000000000,0.004171014,-0.007331687,-1.018897240,0.000000000,-1.019754450,0.000000000,0.010920507,-0.008729247,-0.627494562,0.000000000,-0.627746344,0.000000000,0.006235387,-0.000400246,-0.629045374,0.000000000,-0.629041455,0.000000000,0.000196354,0.003988503,-0.030107515,0.000000000,-0.031183832
0.136000000,0.000000000,0.000164768,0.000070838,-0.020814961,0.000000000,-0.017963497,0.000000000,-0.000695316,0.000500286,0.186338623,0.000000000,0.186324058,0.000000000,0.004332062,-0.004211663,-1.134962529,0.000000000,-1.136103414,0.000000000,0.011270634,-0.005822106,-0.670840098,0.000000000,-0.670526107,0.000000000,0.006267002,-0.000124066,-0.632930429,0.000000000,-0.633021868,0.000000000,0.000013816,0.000010442,-0.001515338,0.000000000,-0.001426027,0.000000000,0.000151629,0.003242541,-0.033320592,0.000000000,-0.034499006,-0.008901000,-0.000169567,-0.028788377,-1.776976984,0.000000000,-1.830701991,0.000000000,0.004156800,-0.007111180,-1.019754450,0.000000000,-1.020701807,0.000000000,0.010903436,-0.008535374,-0.627746344,0.000000000,-0.628046116,0.000000000,0.006234641,-0.000372946,-0.629041455,0.000000000,-0.629043685,0.000000000,0.000204500,0.004073139,-0.031183832,0.000000000,-0.032247719
0.138000000,0.000000000,0.000164758,-0.000370720,-0.017963497,0.000000000,-0.015465481,0.000000000,-0.000694366,0.000487880,0.186324058,0.000000000,0.186334611,0.000000000,0.004323926,-0.004068744,-1.136103414,0.000000000,-1.137023494,0.000000000,0.011259180,-0.005727450,-0.670526107,0.000000000,-0.670475376,0.000000000,0.006266770,-0.000115897,-0.633021868,0.000000000,-0.633021668,0.000000000,0.000013794,-0.000011089,-0.001426027,0.000000000,-0.001362594,0.000000000,0.000158278,0.003328915,-0.034499006,0.000000000,-0.035696231,-0.009269000,-0.000229841,-0.030253568,-1.830701991,0.000000000,-1.885030268,0.000000000,0.004143026,-0.006891231,-1.020701807,0.000000000,-1.021761558,0.000000000,0.010886756,-0.008339849,-0.628046116,0.000000000,-0.628382340,0.000000000,0.006233950,-0.000345238,-0.629043685,0.000000000,-0.629052678,0.000000000,0.000212810,0.004155184,-0.032247719,0.000000000,-0.033320825
0.140000000,0.000000000,0.000164747,-0.000748056,-0.015465481,0.000000000,-0.013330486,0.000000000,-0.000693446,0.000472395,0.186334611,0.000000000,0.186423483,0.000000000,0.004316059,-0.003934239,-1.137023494,0.000000000,-1.137829721,0.000000000,0.011247956,-0.005611618,-0.670475376,0.000000000,-0.670589794,0.000000000,0.006266527,-0.000121677,-0.633021668,0.000000000,-0.632980640,0.000000000,0.000013768,-0.000013468,-0.001362594,0.000000000,-0.001353135,0.000000000,0.000165101,0.003415002,-0.035696231,0.000000000,-0.036910244,-0.009645000,-0.000293233,-0.031766475,-1.885030268,0.000000000,-1.939667165,0.000000000,0.004129689,-0.006672309,-1.021761558,0.000000000,-1.022922461,0.000000000,0.010870472,-0.008142117,-0.628382340,0.000000000,-0.628759225,0.000000000,0.006233314,-0.000317985,-0.629052678,0.000000000,-0.629065883,0.000000000,0.000221281,0.004235859,-0.033320825,0.000000000,-0.034406345
0.142000000,0.000000000,-0.000164755,-0.001072055,-0.013330486,0.000000000,0.023623984,0.000000000,-0.000692561,0.000454735,0.186423483,0.000000000,0.186571315,0.000000000,0.004308451,-0.003805099,-1.137829721,0.000000000,-1.138587986,0.000000000,0.011236990,-0.005483367,-0.670589794,0.000000000,-0.670808686,0.000000000,0.006266264,-0.000131312,-0.632980640,0.000000000,-0.632926707,0.000000000,0.000013749,-0.000009607,-0.001353135,0.000000000,-0.001362190,0.000000000,0.000172095,0.003500641,-0.036910244,0.000000000,-0.038140032,-0.010031000,-0.000359793,-0.033327206,-1.939667165,0.000000000,-1.995164165,0.000000000,0.004116788,-0.006454538,-1.022922461,0.000000000,-1.024181104,0.000000000,0.010854588,-0.007942229,-0.628759225,0.000000000,-0.629176687,0.000000000,0.006232732,-0.000291162,-0.629065883,0.000000000,-0.629083291,0.000000000,0.000229908,0.004313572,-0.034406345,0.000000000,-0.035499152
0.144000000,0.000000000,-0.000164769,-0.000593453,0.023623984,0.000000000,0.020919011,0.000000000,-0.000691729,0.000427555,0.186571315,0.000000000,0.186949765,0.000000000,0.004301003,-0.003724712,-1.138587986,0.000000000,-1.138289213,0.000000000,0.011226508,-0.005240993,-0.670808686,0.000000000,-0.671869385,0.000000000,0.006265851,-0.000206463,-0.632926707,0.000000000,-0.632671319,0.000000000,0.000013617,-0.000066381,-0.001362190,0.000000000,-0.001187495,0.000000000,0.000179260,0.003586241,-0.038140032,0.000000000,-0.039387892,-0.010426000,-0.000429599,-0.034936971,-1.995164165,0.000000000,-2.051187571,0.000000000,0.004104319,-0.006238187,-1.024181104,0.000000000,-1.025530593,0.000000000,0.010839108,-0.007740136,-0.629176687,0.000000000,-0.629635347,0.000000000,0.006232203,-0.000264636,-0.629083291,0.000000000,-0.629105212,0.000000000,0.000238689,0.004390338,-0.035499152,0.000000000,-0.036604786
0.146000000,0.000000000,-0.000164773,-0.000138732,0.020919011,0.000000000,0.018347993,0.000000000,-0.000690971,0.000390048,0.186949765,0.000000000,0.187582493,0.000000000,0.004293744,-0.003629863,-1.138289213,0.000000000,-1.138371462,0.000000000,0.011216420,-0.005043900,-0.671869385,0.000000000,-0.672633123,0.000000000,0.006265407,-0.000222244,-0.632671319,0.000000000,-0.632581532,0.000000000,0.000013547,-0.000035465,-0.001187495,0.000000000,-0.001268294,0.000000000,0.000186595,0.003670589,-0.039387892,0.000000000,-0.040646700,-0.010830000,-0.000502739,-0.036595484,-2.051187571,0.000000000,-2.107718968,0.000000000,0.004092281,-0.006022564,-1.025530593,0.000000000,-1.026986154,0.000000000,0.010824034,-0.007536911,-0.629635347,0.000000000,-0.630127738,0.000000000,0.006231726,-0.000238455,-0.629105212,0.000000000,-0.629131447,0.000000000,0.000247620,0.004465954,-0.036604786,0.000000000,-0.037722440
0.148000000,0.000000000,-0.000164764,0.000259497,0.018347993,0.000000000,0.016095068,0.000000000,-0.000690282,0.000353800,0.187582493,0.000000000,0.188206709,0.000000000,0.004286699,-0.003523166,-1.138371462,0.000000000,-1.138782353,0.000000000,0.011206661,-0.004879360,-0.672633123,0.000000000,-0.673186266,0.000000000,0.006264997,-0.000205208,-0.632581532,0.000000000,-0.632588485,0.000000000,0.000013515,-0.000016099,-0.001268294,0.000000000,-0.001320128,0.000000000,0.000194098,0.003754414,-0.040646700,0.000000000,-0.041920463,-0.011244000,-0.000579306,-0.038303295,-2.107718968,0.000000000,-2.165003556,0.000000000,0.004080672,-0.005808473,-1.026986154,0.000000000,-1.028528720,0.000000000,0.010809370,-0.007331639,-0.630127738,0.000000000,-0.630660602,0.000000000,0.006231300,-0.000212816,-0.629131447,0.000000000,-0.629161322,0.000000000,0.000256698,0.004538961,-0.037722440,0.000000000,-0.038847430
0.150000000,0.000000000,-0.000164751,0.000599014,0.016095068,0.000000000,0.014173716,0.000000000,-0.000689658,0.000321063,0.188206709,0.000000000,0.188769615,0.000000000,0.004279882,-0.003409476,-1.138782353,0.000000000,-1.139416031,0.000000000,0.011197194,-0.004733763,-0.673186266,0.000000000,-0.673623153,0.000000000,0.006264649,-0.000173922,-0.632588485,0.000000000,-0.632642277,0.000000000,0.000013483,-0.000016197,-0.001320128,0.000000000,-0.001316610,0.000000000,0.000201767,0.003837697,-0.041920463,0.000000000,-0.043208949,-0.011667000,-0.000659397,-0.040061145,-2.165003556,0.000000000,-2.222712986,0.000000000,0.004069488,-0.005595698,-1.028528720,0.000000000,-1.030162440,0.000000000,0.010795121,-0.007124914,-0.630660602,0.000000000,-0.631229913,0.000000000,0.006230925,-0.000187325,-0.629161322,0.000000000,-0.629195930,0.000000000,0.000265920,0.004611024,-0.038847430,0.000000000,-0.039984308
0.152000000,0.000000000,0.000164748,0.000890077,0.014173716,0.000000000,-0.022594239,0.000000000,-0.000689092,0.000290950,0.188769615,0.000000000,0.189289854,0.000000000,0.004273299,-0.003291817,-1.139416031,0.000000000,-1.140206357,0.000000000,0.011187996,-0.004598750,-0.673623153,0.000000000,-0.674001869,0.000000000,0.006264372,-0.000138405,-0.632642277,0.000000000,-0.632715276,0.000000000,0.000013438,-0.000022527,-0.001316610,0.000000000,-0.001294105,0.000000000,0.000209602,0.003920265,-0.043208949,0.000000000,-0.044511037,-0.012099000,-0.000743110,-0.041869216,-2.222712986,0.000000000,-2.280815001,0.000000000,0.004058726,-0.005384276,-1.030162440,0.000000000,-1.031885698,0.000000000,0.010781287,-0.006916866,-0.631229913,0.000000000,-0.631834910,0.000000000,0.006230601,-0.000162007,-0.629195930,0.000000000,-0.629235164,0.000000000,0.000275282,0.004681179,-0.039984308,0.000000000,-0.041129941
0.154000000,0.000000000,0.000164757,0.000382850,-0.022594239,0.000000000,-0.019726786,0.000000000,-0.000688564,0.000270856,0.189289854,0.000000000,0.189594463,0.000000000,0.004267047,-0.003126801,-1.140206357,0.000000000,-1.142161655,0.000000000,0.011178843,-0.004576328,-0.674001869,0.000000000,-0.673583111,0.000000000,0.006264298,-0.000037019,-0.632715276,0.000000000,-0.632996034,0.000000000,0.000013502,0.000031910,-0.001294105,0.000000000,-0.001455257,0.000000000,0.000217600,0.004001487,-0.044511037,0.000000000,-0.045822854,-0.012541000,-0.000830544,-0.043727480,-2.280815001,0.000000000,-2.339566624,0.000000000,0.004048385,-0.005174039,-1.031885698,0.000000000,-1.033701641,0.000000000,0.010767871,-0.006707853,-0.631834910,0.000000000,-0.632473171,0.000000000,0.006230327,-0.000137050,-0.629235164,0.000000000,-0.629278414,0.000000000,0.000284780,0.004749261,-0.041129941,0.000000000,-0.042283444
0.156000000,0.000000000,0.000164760,-0.000096728,-0.019726786,0.000000000,-0.017015142,0.000000000,-0.000688055,0.000261570,0.189594463,0.000000000,0.189659845,0.000000000,0.004261093,-0.002977671,-1.142161655,0.000000000,-1.143842394,0.000000000,0.011169829,-0.004507336,-0.673583111,0.000000000,-0.673504100,0.000000000,0.006264308,0.000005260,-0.632996034,0.000000000,-0.633117297,0.000000000,0.000013499,-0.000001303,-0.001455257,0.000000000,-0.001360572,0.000000000,0.000225760,0.004082468,-0.045822854,0.000000000,-0.047150607,-0.012992000,-0.000921800,-0.045637070,-2.339566624,0.000000000,-2.398629093,0.000000000,0.004038460,-0.004965786,-1.033701641,0.000000000,-1.035591039,0.000000000,0.010754877,-0.006497081,-0.632473171,0.000000000,-0.633150565,0.000000000,0.006230103,-0.000112362,-0.629278414,0.000000000,-0.629325890,0.000000000,0.000294411,0.004815544,-0.042283444,0.000000000,-0.043445230
0.158000000,0.000000000,0.000164762,-0.000516548,-0.017015142,0.000000000,-0.014641204,0.000000000,-0.000687567,0.000251554,0.189659845,0.000000000,0.189747449,0.000000000,0.004255410,-0.002841851,-1.143842394,0.000000000,-1.145299285,0.000000000,0.011161019,-0.004404706,-0.673504100,0.000000000,-0.673677146,0.000000000,0.006264338,0.000014883,-0.633117297,0.000000000,-0.633147663,0.000000000,0.000013454,-0.000022942,-0.001360572,0.000000000,-0.001294460,0.000000000,0.000234080,0.004162277,-0.047150607,0.000000000,-0.048488776,-0.013452000,-0.001016980,-0.047597744,-2.398629093,0.000000000,-2.457978722,0.000000000,0.004028949,-0.004758806,-1.035591039,0.000000000,-1.037569280,0.000000000,0.010742306,-0.006285733,-0.633150565,0.000000000,-0.633858751,0.000000000,0.006229927,-0.000087631,-0.629325890,0.000000000,-0.629378491,0.000000000,0.000304171,0.004879903,-0.043445230,0.000000000,-0.044614556
0.160000000,0.000000000,-0.000164775,-0.000874832,-0.014641204,0.000000000,0.022510898,0.000000000,-0.000687103,0.000238574,0.189747449,0.000000000,0.189909330,0.000000000,0.004249982,-0.002714526,-1.145299285,0.000000000,-1.146636384,0.000000000,0.011152455,-0.004282231,-0.673677146,0.000000000,-0.674006723,0.000000000,0.006264359,0.000010314,-0.633147663,0.000000000,-0.633136757,0.000000000,0.000013404,-0.000025082,-0.001294460,0.000000000,-0.001283359,0.000000000,0.000242558,0.004240730,-0.048488776,0.000000000,-0.049836027,-0.013923000,-0.001116187,-0.049609594,-2.457978722,0.000000000,-2.518153130,0.000000000,0.004019849,-0.004553409,-1.037569280,0.000000000,-1.039628435,0.000000000,0.010730159,-0.006073493,-0.633858751,0.000000000,-0.634600084,0.000000000,0.006229801,-0.000063277,-0.629378491,0.000000000,-0.629434938,0.000000000,0.000314054,0.004941633,-0.044614556,0.000000000,-0.045788890
0.162000000,0.000000000,-0.000164788,-0.000422513,0.022510898,0.000000000,0.019954424,0.000000000,-0.000686686,0.000215109,0.189909330,0.000000000,0.190321568,0.000000000,0.004244708,-0.002637968,-1.146636384,0.000000000,-1.146868694,0.000000000,0.011144372,-0.004041488,-0.674006723,0.000000000,-0.675207366,0.000000000,0.006264228,-0.000065305,-0.633136757,0.000000000,-0.632908573,0.000000000,0.000013245,-0.000080387,-0.001283359,0.000000000,-0.001110048,0.000000000,0.000251190,0.004318374,-0.049836027,0.000000000,-0.051195283,-0.014403000,-0.001219523,-0.051673741,-2.518153130,0.000000000,-2.578529015,0.000000000,0.004011156,-0.004349904,-1.039628435,0.000000000,-1.041760408,0.000000000,0.010718438,-0.005860221,-0.634600084,0.000000000,-0.635375705,0.000000000,0.006229722,-0.000039200,-0.629434938,0.000000000,-0.629495465,0.000000000,0.000324059,0.005002873,-0.045788890,0.000000000,-0.046974209
0.164000000,0.000000000,-0.000164790,0.000010830,0.019954424,0.000000000,0.017504067,0.000000000,-0.000686335,0.000180983,0.190321568,0.000000000,0.190993739,0.000000000,0.004239612,-0.002548271,-1.146868694,0.000000000,-1.147449191,0.000000000,0.011136684,-0.003843902,-0.675207366,0.000000000,-0.676126202,0.000000000,0.006264060,-0.000084277,-0.632908573,0.000000000,-0.632837600,0.000000000,0.000013152,-0.000046889,-0.001110048,0.000000000,-0.001195906,0.000000000,0.000259975,0.004394027,-0.051195283,0.000000000,-0.052559427,-0.014892000,-0.001327091,-0.053789411,-2.578529015,0.000000000,-2.639094631,0.000000000,0.004002867,-0.004147573,-1.041760408,0.000000000,-1.043980838,0.000000000,0.010707144,-0.005646985,-0.635375705,0.000000000,-0.636178000,0.000000000,0.006229692,-0.000015352,-0.629495465,0.000000000,-0.629560162,0.000000000,0.000334183,0.005062151,-0.046974209,0.000000000,-0.048165929
0.166000000,0.000000000,-0.000164783,0.000390712,0.017504067,0.000000000,0.015355036,0.000000000,-0.000686048,0.000148095,0.190993739,0.000000000,0.191655988,0.000000000,0.004234718,-0.002447626,-1.147449191,0.000000000,-1.148334511,0.000000000,0.011129328,-0.003677926,-0.676126202,0.000000000,-0.676841326,0.000000000,0.006263916,-0.000071566,-0.632837600,0.000000000,-0.632859273,0.000000000,0.000013101,-0.000025979,-0.001195906,0.000000000,-0.001250157,0.000000000,0.000268908,0.004468356,-0.052559427,0.000000000,-0.053931957,-0.015391000,-0.001438996,-0.055956857,-2.639094631,0.000000000,-2.700098966,0.000000000,0.003994978,-0.003947202,-1.043980838,0.000000000,-1.046270779,0.000000000,0.010696278,-0.005432854,-0.636178000,0.000000000,-0.637013712,0.000000000,0.006229708,0.000008043,-0.629560162,0.000000000,-0.629628302,0.000000000,0.000344419,0.005117885,-0.048165929,0.000000000,-0.049358842
0.168000000,0.000000000,-0.000164777,0.000714219,0.015355036,0.000000000,0.013525015,0.000000000,-0.000685818,0.000118761,0.191655988,0.000000000,0.192254054,0.000000000,0.004230038,-0.002340646,-1.148334511,0.000000000,-1.149423938,0.000000000,0.011122267,-0.003530604,-0.676841326,0.000000000,-0.677442471,0.000000000,0.006263827,-0.000044894,-0.632859273,0.000000000,-0.632926027,0.000000000,0.000013050,-0.000025376,-0.001250157,0.000000000,-0.001246799,0.000000000,0.000277987,0.004541284,-0.053931957,0.000000000,-0.055312129,-0.015900001,-0.001555342,-0.058176554,-2.700098966,0.000000000,-2.761502141,0.000000000,0.003987487,-0.003748577,-1.046270779,0.000000000,-1.048634092,0.000000000,0.010685842,-0.005218376,-0.637013712,0.000000000,-0.637878985,0.000000000,0.006229770,0.000031328,-0.629628302,0.000000000,-0.629700835,0.000000000,0.000354762,0.005171780,-0.049358842,0.000000000,-0.050557422
0.170000000,0.000000000,0.000164789,0.000991369,0.013525015,0.000000000,-0.023171419,0.000000000,-0.000685640,0.000092064,0.192254054,0.000000000,0.192807288,0.000000000,0.004225578,-0.002230212,-1.149423938,0.000000000,-1.150654243,0.000000000,0.011115479,-0.003393936,-0.677442471,0.000000000,-0.677985153,0.000000000,0.006263799,-0.000013867,-0.632926027,0.000000000,-0.633011432,0.000000000,0.000012989,-0.000031301,-0.001246799,0.000000000,-0.001223694,0.000000000,0.000287209,0.004612689,-0.055312129,0.000000000,-0.056698937,-0.016419001,-0.001676232,-0.060448797,-2.761502141,0.000000000,-2.823266873,0.000000000,0.003980389,-0.003551731,-1.048634092,0.000000000,-1.051069033,0.000000000,0.010675834,-0.005003670,-0.637878985,0.000000000,-0.638773000,0.000000000,0.006229879,0.000054415,-0.629700835,0.000000000,-0.629777470,0.000000000,0.000365211,0.005224231,-0.050557422,0.000000000,-0.051762499
0.172000000,0.000000000,0.000164809,0.000471956,-0.023171419,0.000000000,-0.020236193,0.000000000,-0.000685493,0.000075434,0.192807288,0.000000000,0.193141822,0.000000000,0.004221433,-0.002072837,-1.150654243,0.000000000,-1.153035776,0.000000000,0.011108739,-0.003370162,-0.677985153,0.000000000,-0.677728384,0.000000000,0.006263966,0.000083353,-0.633011432,0.000000000,-0.633304678,0.000000000,0.000013035,0.000023589,-0.001223694,0.000000000,-0.001384466,0.000000000,0.000296570,0.004682062,-0.056698937,0.000000000,-0.058089053,-0.016946999,-0.001801773,-0.062773494,-2.823266873,0.000000000,-2.885081144,0.000000000,0.003973681,-0.003356482,-1.051069033,0.000000000,-1.053578784,0.000000000,0.010666256,-0.004789087,-0.638773000,0.000000000,-0.639693251,0.000000000,0.006230034,0.000077139,-0.629777470,0.000000000,-0.629857665,0.000000000,0.000375761,0.005275278,-0.051762499,0.000000000,-0.052973904
0.174000000,0.000000000,0.000164815,-0.000018191,-0.020236193,0.000000000,-0.017465131,0.000000000,-0.000685359,0.000069618,0.193141822,0.000000000,0.193235097,0.000000000,0.004217571,-0.001931721,-1.153035776,0.000000000,-1.155129747,0.000000000,0.011102138,-0.003300214,-0.677728384,0.000000000,-0.677808663,0.000000000,0.006264209,0.000121820,-0.633304678,0.000000000,-0.633438665,0.000000000,0.000013017,-0.000009242,-0.001384466,0.000000000,-0.001289278,0.000000000,0.000306068,0.004750447,-0.058089053,0.000000000,-0.059488181,-0.017485000,-0.001932069,-0.065150866,-2.885081144,0.000000000,-2.947195389,0.000000000,0.003967359,-0.003163615,-1.053578784,0.000000000,-1.056144269,0.000000000,0.010657109,-0.004573795,-0.639693251,0.000000000,-0.640645737,0.000000000,0.006230233,0.000099708,-0.629857665,0.000000000,-0.629941986,0.000000000,0.000386406,0.005322503,-0.052973904,0.000000000,-0.054183990
0.176000000,0.000000000,0.000164811,-0.000447163,-0.017465131,0.000000000,-0.015038851,0.000000000,-0.000685237,0.000063057,0.193235097,0.000000000,0.193349003,0.000000000,0.004213963,-0.001804246,-1.155129747,0.000000000,-1.156987647,0.000000000,0.011095744,-0.003197098,-0.677808663,0.000000000,-0.678137719,0.000000000,0.006264465,0.000127992,-0.633438665,0.000000000,-0.633482081,0.000000000,0.000012957,-0.000030537,-0.001289278,0.000000000,-0.001222633,0.000000000,0.000315699,0.004816897,-0.059488181,0.000000000,-0.060890553,-0.018033000,-0.002067226,-0.067580934,-2.947195389,0.000000000,-3.009578167,0.000000000,0.003961420,-0.002972402,-1.056144269,0.000000000,-1.058780996,0.000000000,0.010648391,-0.004358981,-0.640645737,0.000000000,-0.641621964,0.000000000,0.006230478,0.000122320,-0.629941986,0.000000000,-0.630030995,0.000000000,0.000397142,0.005368153,-0.054183990,0.000000000,-0.055398825
0.178000000,0.000000000,0.000164810,-0.000813343,-0.015038851,0.000000000,-0.012967939,0.000000000,-0.000685135,0.000053519,0.193349003,0.000000000,0.193535558,0.000000000,0.004210593,-0.001685568,-1.156987647,0.000000000,-1.158713996,0.000000000,0.011089595,-0.003074647,-0.678137719,0.000000000,-0.678619677,0.000000000,0.006264706,0.000120309,-0.633482081,0.000000000,-0.633484555,0.000000000,0.000012893,-0.000032352,-0.001222633,0.000000000,-0.001211005,0.000000000,0.000325459,0.004881343,-0.060890553,0.000000000,-0.062295342,-0.018591000,-0.002207349,-0.070063790,-3.009578167,0.000000000,-3.072197932,0.000000000,0.003955858,-0.002783156,-1.058780996,0.000000000,-1.061480745,0.000000000,0.010640102,-0.004144299,-0.641621964,0.000000000,-0.642624379,0.000000000,0.006230767,0.000144533,-0.630030995,0.000000000,-0.630123362,0.000000000,0.000407966,0.005411987,-0.055398825,0.000000000,-0.056617355
0.180000000,0.000000000,-0.000164831,-0.001127528,-0.012967939,0.000000000,0.023945855,0.000000000,-0.000685055,0.000041933,0.193535558,0.000000000,0.193774849,0.000000000,0.004207448,-0.001572693,-1.158713996,0.000000000,-1.160373270,0.000000000,0.011083712,-0.002941409,-0.678619677,0.000000000,-0.679195150,0.000000000,0.006264923,0.000108654,-0.633484555,0.000000000,-0.633473383,0.000000000,0.000012837,-0.000027906,-0.001211005,0.000000000,-0.001218070,0.000000000,0.000335344,0.004943837,-0.062295342,0.000000000,-0.063702432,-0.019159000,-0.002352544,-0.072599416,-3.072197932,0.000000000,-3.135025081,0.000000000,0.003950671,-0.002595930,-1.061480745,0.000000000,-1.064241219,0.000000000,0.010632242,-0.003929845,-0.642624379,0.000000000,-0.643652256,0.000000000,0.006231100,0.000166454,-0.630123362,0.000000000,-0.630219329,0.000000000,0.000418873,0.005453667,-0.056617355,0.000000000,-0.057838190
0.182000000,0.000000000,-0.000164858,-0.000639993,0.023945855,0.000000000,0.021191654,0.000000000,-0.000685016,0.000020855,0.193774849,0.000000000,0.194240711,0.000000000,0.004204430,-0.001509065,-1.160373270,0.000000000,-1.160954761,0.000000000,0.011078321,-0.002695486,-0.679195150,0.000000000,-0.680602647,0.000000000,0.006264986,0.000031222,-0.633473383,0.000000000,-0.633259555,0.000000000,0.000012671,-0.000084316,-0.001218070,0.000000000,-0.001040848,0.000000000,0.000345352,0.005004817,-0.063702432,0.000000000,-0.065113975,-0.019737000,-0.002502916,-0.075188068,-3.135025081,0.000000000,-3.198023198,0.000000000,0.003945854,-0.002410968,-1.064241219,0.000000000,-1.067055543,0.000000000,0.010624811,-0.003715500,-0.643652256,0.000000000,-0.644706442,0.000000000,0.006231476,0.000188292,-0.630219329,0.000000000,-0.630319475,0.000000000,0.000429859,0.005492975,-0.057838190,0.000000000,-0.059060226
0.184000000,0.000000000,-0.000164870,-0.000177355,0.021191654,0.000000000,0.018576754,0.000000000,-0.000685038,-0.000010402,0.194240711,0.000000000,0.194954015,0.000000000,0.004201568,-0.001431454,-1.160954761,0.000000000,-1.161896668,0.000000000,0.011073329,-0.002496250,-0.680602647,0.000000000,-0.681703466,0.000000000,0.006265012,0.000012931,-0.633259555,0.000000000,-0.633210167,0.000000000,0.000012566,-0.000052919,-0.001040848,0.000000000,-0.001119536,0.000000000,0.000355476,0.005063053,-0.065113975,0.000000000,-0.066522421,-0.020324999,-0.002658571,-0.077829234,-3.198023198,0.000000000,-3.261174526,0.000000000,0.003941403,-0.002227561,-1.067055543,0.000000000,-1.069938931,0.000000000,0.010617807,-0.003502289,-0.644706442,0.000000000,-0.645779503,0.000000000,0.006231896,0.000209900,-0.630319475,0.000000000,-0.630423336,0.000000000,0.000440921,0.005530834,-0.059060226,0.000000000,-0.060285795
0.186000000,0.000000000,-0.000164865,0.000227902,0.018576754,0.000000000,0.016284478,0.000000000,-0.000685118,-0.000040266,0.194954015,0.000000000,0.195652184,0.000000000,0.004198884,-0.001342478,-1.161896668,0.000000000,-1.163146200,0.000000000,0.011068667,-0.002330901,-0.681703466,0.000000000,-0.682584301,0.000000000,0.006265066,0.000027223,-0.633210167,0.000000000,-0.633256301,0.000000000,0.000012501,-0.000033002,-0.001119536,0.000000000,-0.001169569,0.000000000,0.000365712,0.005119321,-0.066522421,0.000000000,-0.067931755,-0.020923000,-0.002819614,-0.080523137,-3.261174526,0.000000000,-3.324444073,0.000000000,0.003937314,-0.002046508,-1.069938931,0.000000000,-1.072871965,0.000000000,0.010611228,-0.003289232,-0.645779503,0.000000000,-0.646878386,0.000000000,0.006232358,0.000231022,-0.630423336,0.000000000,-0.630530082,0.000000000,0.000452053,0.005566049,-0.060285795,0.000000000,-0.061510968
0.188000000,0.000000000,-0.000164851,0.000573664,0.016284478,0.000000000,0.014327710,0.000000000,-0.000685249,-0.000066484,0.195652184,0.000000000,0.196282383,0.000000000,0.004196390,-0.001246995,-1.163146200,0.000000000,-1.164597191,0.000000000,0.011064295,-0.002185777,-0.682584301,0.000000000,-0.683339717,0.000000000,0.006265177,0.000055541,-0.633256301,0.000000000,-0.633348036,0.000000000,0.000012437,-0.000032513,-0.001169569,0.000000000,-0.001164465,0.000000000,0.000376057,0.005173590,-0.067931755,0.000000000,-0.069341360,-0.021530000,-0.002986150,-0.083269731,-3.324444073,0.000000000,-3.387518600,0.000000000,0.003933583,-0.001867573,-1.072871965,0.000000000,-1.075858755,0.000000000,0.010605075,-0.003076861,-0.646878386,0.000000000,-0.647999215,0.000000000,0.006232862,0.000252088,-0.630530082,0.000000000,-0.630640928,0.000000000,0.000463250,0.005598949,-0.061510968,0.000000000,-0.062736207
0.190000000,0.000000000,-0.000164843,0.000870277,0.014327710,0.000000000,0.012649503,0.000000000,-0.000685425,-0.000089956,0.196282383,0.000000000,0.196863472,0.000000000,0.004194095,-0.001148024,-1.164597191,0.000000000,-1.166183324,0.000000000,0.011060190,-0.002052474,-0.683339717,0.000000000,-0.684027942,0.000000000,0.006265353,0.000087886,-0.633348036,0.000000000,-0.633457757,0.000000000,0.000012361,-0.000038242,-0.001164465,0.000000000,-0.001140540,0.000000000,0.000386507,0.005225619,-0.069341360,0.000000000,-0.070749402,-0.022148000,-0.003158285,-0.086068571,-3.387518600,0.000000000,-3.450946600,0.000000000,0.003930206,-0.001690773,-1.075858755,0.000000000,-1.078897705,0.000000000,0.010599344,-0.002865261,-0.647999215,0.000000000,-0.649141301,0.000000000,0.006233408,0.000273056,-0.630640928,0.000000000,-0.630755732,0.000000000,0.000474507,0.005628389,-0.062736207,0.000000000,-0.063957561
0.192000000,0.000000000,0.000164858,0.001127583,0.012649503,0.000000000,-0.023949057,0.000000000,-0.000685644,-0.000111717,0.196863472,0.000000000,0.197417928,0.000000000,0.004192001,-0.001047407,-1.166183324,0.000000000,-1.167863877,0.000000000,0.011056338,-0.001926036,-0.684027942,0.000000000,-0.684683348,0.000000000,0.006265591,0.000119152,-0.633457757,0.000000000,-0.633570731,0.000000000,0.000012277,-0.000042596,-0.001140540,0.000000000,-0.001119659,0.000000000,0.000397056,0.005275342,-0.070749402,0.000000000,-0.072155013,-0.022776000,-0.003336122,-0.088920102,-3.450946600,0.000000000,-3.514404262,0.000000000,0.003927177,-0.001516165,-1.078897705,0.000000000,-1.081986273,0.000000000,0.010594035,-0.002654494,-0.649141301,0.000000000,-0.650304089,0.000000000,0.006233996,0.000293743,-0.630755732,0.000000000,-0.630873920,0.000000000,0.000485820,0.005656777,-0.063957561,0.000000000,-0.065181663
0.194000000,0.000000000,0.000164885,0.000592109,-0.023949057,0.000000000,-0.020923773,0.000000000,-0.000685886,-0.000123725,0.197417928,0.000000000,0.197758240,0.000000000,0.004190199,-0.000901009,-1.167863877,0.000000000,-1.170663159,0.000000000,0.011052517,-0.001910601,-0.684683348,0.000000000,-0.684551696,0.000000000,0.006266019,0.000213842,-0.633570731,0.000000000,-0.633883158,0.000000000,0.000012307,0.000015054,-0.001119659,0.000000000,-0.001286564,0.000000000,0.000407699,0.005322323,-0.072155013,0.000000000,-0.073555142,-0.023414001,-0.003519767,-0.091823767,-3.514404262,0.000000000,-3.577874536,0.000000000,0.003924493,-0.001343548,-1.081986273,0.000000000,-1.085127916,0.000000000,0.010589145,-0.002444906,-0.650304089,0.000000000,-0.651484976,0.000000000,0.006234624,0.000314094,-0.630873920,0.000000000,-0.630995266,0.000000000,0.000497187,0.005683242,-0.065181663,0.000000000,-0.066405649
0.196000000,0.000000000,0.000164898,0.000088210,-0.020923773,0.000000000,-0.018075613,0.000000000,-0.000686131,-0.000124976,0.197758240,0.000000000,0.197856058,0.000000000,0.004188656,-0.000771666,-1.170663159,0.000000000,-1.173150205,0.000000000,0.011048821,-0.001848129,-0.684551696,0.000000000,-0.684762275,0.000000000,0.006266516,0.000248482,-0.633883158,0.000000000,-0.634031867,0.000000000,0.000012275,-0.000016165,-0.001286564,0.000000000,-0.001194582,0.000000000,0.000418432,0.005367697,-0.073555142,0.000000000,-0.074955867,-0.024062000,-0.003709325,-0.094779854,-3.577874536,0.000000000,-3.641320612,0.000000000,0.003922149,-0.001173671,-1.085127916,0.000000000,-1.088304090,0.000000000,0.010584674,-0.002235684,-0.651484976,0.000000000,-0.652689693,0.000000000,0.006235293,0.000334310,-0.630995266,0.000000000,-0.631120314,0.000000000,0.000508600,0.005706645,-0.066405649,0.000000000,-0.067625659
0.198000000,0.000000000,0.000164896,-0.000352796,-0.018075613,0.000000000,-0.015581495,0.000000000,-0.000686380,-0.000126958,0.197856058,0.000000000,0.197971632,0.000000000,0.004187343,-0.000656534,-1.173150205,0.000000000,-1.175381246,0.000000000,0.011045316,-0.001752228,-0.684762275,0.000000000,-0.685222579,0.000000000,0.006267016,0.000250359,-0.634031867,0.000000000,-0.634087807,0.000000000,0.000012202,-0.000036734,-0.001194582,0.000000000,-0.001128770,0.000000000,0.000429252,0.005410559,-0.074955867,0.000000000,-0.076351531,-0.024720000,-0.003904899,-0.097787914,-3.641320612,0.000000000,-3.704723613,0.000000000,0.003920141,-0.001005799,-1.088304090,0.000000000,-1.091530291,0.000000000,0.010580618,-0.002027975,-0.652689693,0.000000000,-0.653909894,0.000000000,0.006236002,0.000354633,-0.631120314,0.000000000,-0.631249776,0.000000000,0.000520056,0.005728154,-0.067625659,0.000000000,-0.068844635
0.200000000,0.000000000,0.000164890,-0.000729457,-0.015581495,0.000000000,-0.013450875,0.000000000,-0.000686638,-0.000131923,0.197971632,0.000000000,0.198157458,0.000000000,0.004186242,-0.000550640,-1.175381246,0.000000000,-1.177463519,0.000000000,0.011042042,-0.001637060,-0.685222579,0.000000000,-0.685834380,0.000000000,0.006267493,0.000238334,-0.634087807,0.000000000,-0.634101794,0.000000000,0.000012127,-0.000038143,-0.001128770,0.000000000,-0.001117153,0.000000000,0.000440152,0.005450817,-0.076351531,0.000000000,-0.077741061,-0.025388001,-0.004106592,-0.100847708,-3.704723613,0.000000000,-3.768059530,0.000000000,0.003918464,-0.000840232,-1.091530291,0.000000000,-1.094798432,0.000000000,0.010576975,-0.001821407,-0.653909894,0.000000000,-0.655148082,0.000000000,0.006236751,0.000374617,-0.631249776,0.000000000,-0.631382313,0.000000000,0.000531551,0.005747384,-0.068844635,0.000000000,-0.070061017
0.202000000,0.000000000,-0.000164900,-0.001052690,-0.013450875,0.000000000,0.023529998,0.000000000,-0.000686911,-0.000138962,0.198157458,0.000000000,0.198394123,0.000000000,0.004185341,-0.000450907,-1.177463519,0.000000000,-1.179463117,0.000000000,0.011039019,-0.001511359,-0.685834380,0.000000000,-0.686536936,0.000000000,0.006267938,0.000222491,-0.634101794,0.000000000,-0.634101726,0.000000000,0.000012061,-0.000033334,-0.001117153,0.000000000,-0.001124175,0.000000000,0.000451128,0.005488505,-0.077741061,0.000000000,-0.079124101,-0.026066000,-0.004314508,-0.103958929,-3.768059530,0.000000000,-3.831305572,0.000000000,0.003917112,-0.000677016,-1.094798432,0.000000000,-1.098106141,0.000000000,0.010573743,-0.001616041,-0.655148082,0.000000000,-0.656403672,0.000000000,0.006237540,0.000394343,-0.631382313,0.000000000,-0.631518103,0.000000000,0.000543079,0.005764034,-0.070061017,0.000000000,-0.071273428
0.204000000,0.000000000,-0.000164918,-0.000572611,0.023529998,0.000000000,0.020817110,0.000000000,-0.000687216,-0.000155559,0.198394123,0.000000000,0.198856315,0.000000000,0.004184540,-0.000400746,-1.179463117,0.000000000,-1.180369973,0.000000000,0.011036473,-0.001273292,-0.686536936,0.000000000,-0.688068259,0.000000000,0.006268220,0.000141082,-0.634101726,0.000000000,-0.633898796,0.000000000,0.000011884,-0.000089436,-0.001124175,0.000000000,-0.000946832,0.000000000,0.000462174,0.005524057,-0.079124101,0.000000000,-0.080502647,-0.026753999,-0.004528750,-0.107121540,-3.831305572,0.000000000,-3.894433905,0.000000000,0.003916082,-0.000516390,-1.098106141,0.000000000,-1.101446539,0.000000000,0.010570920,-0.001411725,-0.656403672,0.000000000,-0.657677603,0.000000000,0.006238368,0.000414009,-0.631518103,0.000000000,-0.631657698,0.000000000,0.000554635,0.005777918,-0.071273428,0.000000000,-0.072480785
0.206000000,0.000000000,-0.000164928,-0.000116397,0.020817110,0.000000000,0.018238271,0.000000000,-0.000687573,-0.000182355,0.198856315,0.000000000,0.199563956,0.000000000,0.004183866,-0.000336857,-1.180369973,0.000000000,-1.181623637,0.000000000,0.011034308,-0.001082367,-0.688068259,0.000000000,-0.689288623,0.000000000,0.006268459,0.000119108,-0.633898796,0.000000000,-0.633860398,0.000000000,0.000011771,-0.000057671,-0.000946832,0.000000000,-0.001025637,0.000000000,0.000473286,0.005556248,-0.080502647,0.000000000,-0.081869053,-0.027451999,-0.004749418,-0.110334734,-3.894433905,0.000000000,-3.957433976,0.000000000,0.003915369,-0.000357631,-1.101446539,0.000000000,-1.104834878,0.000000000,0.010568501,-0.001209464,-0.657677603,0.000000000,-0.658962488,0.000000000,0.006239235,0.000433471,-0.631657698,0.000000000,-0.631800646,0.000000000,0.000566215,0.005790005,-0.072480785,0.000000000,-0.073685475
0.208000000,0.000000000,-0.000164927,0.000283321,0.018238271,0.000000000,0.015977771,0.000000000,-0.000687980,-0.000207769,0.199563956,0.000000000,0.200254279,0.000000000,0.004183343,-0.000261834,-1.181623637,0.000000000,-1.183171770,0.000000000,0.011032457,-0.000925808,-0.689288623,0.000000000,-0.690284487,0.000000000,0.006268718,0.000129987,-0.633860398,0.000000000,-0.633917604,0.000000000,0.000011697,-0.000037396,-0.001025637,0.000000000,-0.001075822,0.000000000,0.000484456,0.005585870,-0.081869053,0.000000000,-0.083227260,-0.028161000,-0.004976613,-0.113598444,-3.957433976,0.000000000,-4.020562939,0.000000000,0.003914969,-0.000201528,-1.104834878,0.000000000,-1.108251860,0.000000000,0.010566484,-0.001008254,-0.658962488,0.000000000,-0.660265310,0.000000000,0.006240140,0.000452474,-0.631800646,0.000000000,-0.631946132,0.000000000,0.000577813,0.005799150,-0.073685475,0.000000000,-0.074883648
0.210000000,0.000000000,-0.000164925,0.000624321,0.015977771,0.000000000,0.014049131,0.000000000,-0.000688428,-0.000229559,0.200254279,0.000000000,0.200874649,0.000000000,0.004182982,-0.000180517,-1.183171770,0.000000000,-1.184908505,0.000000000,0.011030877,-0.000789959,-0.690284487,0.000000000,-0.691150304,0.000000000,0.006269029,0.000155132,-0.633917604,0.000000000,-0.634020447,0.000000000,0.000011625,-0.000036562,-0.001075822,0.000000000,-0.001070903,0.000000000,0.000495681,0.005612999,-0.083227260,0.000000000,-0.084577151,-0.028879000,-0.005210437,-0.116912746,-4.020562939,0.000000000,-4.083221140,0.000000000,0.003914875,-0.000047829,-1.108251860,0.000000000,-1.111701791,0.000000000,0.010564867,-0.000808630,-0.660265310,0.000000000,-0.661582088,0.000000000,0.006241083,0.000471416,-0.631946132,0.000000000,-0.632095272,0.000000000,0.000589427,0.005807098,-0.074883648,0.000000000,-0.076080029
0.212000000,0.000000000,0.000164935,0.000916864,0.014049131,0.000000000,-0.022765644,0.000000000,-0.000688914,-0.000248612,0.200874649,0.000000000,0.201443686,0.000000000,0.004182790,-0.000095912,-1.184908505,0.000000000,-1.186767710,0.000000000,0.011029544,-0.000666417,-0.691150304,0.000000000,-0.691944255,0.000000000,0.006269398,0.000184503,-0.634020447,0.000000000,-0.634141241,0.000000000,0.000011542,-0.000041964,-0.001070903,0.000000000,-0.001047183,0.000000000,0.000506955,0.005637470,-0.084577151,0.000000000,-0.085917240,-0.029608000,-0.005450989,-0.120276751,-4.083221140,0.000000000,-4.145969628,0.000000000,0.003915084,0.000103461,-1.111701791,0.000000000,-1.115183202,0.000000000,0.010563646,-0.000610645,-0.661582088,0.000000000,-0.662912222,0.000000000,0.006242063,0.000490320,-0.632095272,0.000000000,-0.632248124,0.000000000,0.000601050,0.005811611,-0.076080029,0.000000000,-0.077267553
0.214000000,0.000000000,0.000164954,0.000410282,-0.022765644,0.000000000,-0.019902896,0.000000000,-0.000689416,-0.000257451,0.201443686,0.000000000,0.201786420,0.000000000,0.004182861,0.000035443,-1.186767710,0.000000000,-1.189758992,0.000000000,0.011028229,-0.000657269,-0.691944255,0.000000000,-0.691926241,0.000000000,0.006269957,0.000279816,-0.634141241,0.000000000,-0.634468775,0.000000000,0.000011569,0.000013623,-0.001047183,0.000000000,-0.001207933,0.000000000,0.000518271,0.005658781,-0.085917240,0.000000000,-0.087244001,-0.030346001,-0.005698369,-0.123690360,-4.145969628,0.000000000,-4.208213769,0.000000000,0.003915591,0.000252549,-1.115183202,0.000000000,-1.118699502,0.000000000,0.010562816,-0.000414624,-0.662912222,0.000000000,-0.664253159,0.000000000,0.006243081,0.000508898,-0.632248124,0.000000000,-0.632403807,0.000000000,0.000612681,0.005815164,-0.077267553,0.000000000,-0.078453067
