sainanliu129-hub/model/applications/Body_GravityPara_Iden/data/excitation/excitation_trajectory_TLBO_E1_PD-M1-v0_multi_joint_20260305-111649.csv
time,cmd_leg_l1_joint,pos_leg_l1_joint,vel_leg_l1_joint,torque_leg_l1_joint,acc_leg_l1_joint,cmd_torque_leg_l1_joint,cmd_leg_l2_joint,pos_leg_l2_joint,vel_leg_l2_joint,torque_leg_l2_joint,acc_leg_l2_joint,cmd_torque_leg_l2_joint,cmd_leg_l3_joint,pos_leg_l3_joint,vel_leg_l3_joint,torque_leg_l3_joint,acc_leg_l3_joint,cmd_torque_leg_l3_joint,cmd_leg_l4_joint,pos_leg_l4_joint,vel_leg_l4_joint,torque_leg_l4_joint,acc_leg_l4_joint,cmd_torque_leg_l4_joint,cmd_leg_l5_joint,pos_leg_l5_joint,vel_leg_l5_joint,torque_leg_l5_joint,acc_leg_l5_joint,cmd_torque_leg_l5_joint,cmd_leg_l6_joint,pos_leg_l6_joint,vel_leg_l6_joint,torque_leg_l6_joint,acc_leg_l6_joint,cmd_torque_leg_l6_joint,cmd_leg_r1_joint,pos_leg_r1_joint,vel_leg_r1_joint,torque_leg_r1_joint,acc_leg_r1_joint,cmd_torque_leg_r1_joint,cmd_leg_r2_joint,pos_leg_r2_joint,vel_leg_r2_joint,torque_leg_r2_joint,acc_leg_r2_joint,cmd_torque_leg_r2_joint,cmd_leg_r3_joint,pos_leg_r3_joint,vel_leg_r3_joint,torque_leg_r3_joint,acc_leg_r3_joint,cmd_torque_leg_r3_joint,cmd_leg_r4_joint,pos_leg_r4_joint,vel_leg_r4_joint,torque_leg_r4_joint,acc_leg_r4_joint,cmd_torque_leg_r4_joint,cmd_leg_r5_joint,pos_leg_r5_joint,vel_leg_r5_joint,torque_leg_r5_joint,acc_leg_r5_joint,cmd_torque_leg_r5_joint,cmd_leg_r6_joint,pos_leg_r6_joint,vel_leg_r6_joint,torque_leg_r6_joint,acc_leg_r6_joint,cmd_torque_leg_r6_joint
0.000000000,0.000000000,-0.000165419,0.000475482,0.017273457,0.000000000,0.014943448,0.000000000,-0.000978042,0.003240613,0.204264332,0.000000000,0.204704138,0.000000000,0.006932347,-0.032793457,-1.227216999,0.000000000,-1.228729776,0.000000000,0.012615024,-0.012362174,-0.708081837,0.000000000,-0.708957652,0.000000000,0.006786059,-0.016929418,-0.637680110,0.000000000,-0.637702700,0.000000000,0.000009015,-0.000002058,-0.000843375,0.000000000,-0.000905235,0.000000000,-0.000018988,0.000340839,0.000098465,0.000000000,0.000096538,-0.000000000,0.000952378,-0.003201144,-0.198120751,0.000000000,-0.198301879,0.000000000,0.006933506,-0.032759735,-1.227937659,0.000000000,-1.229821812,0.000000000,0.012618160,-0.012454380,-0.707849811,0.000000000,-0.708500371,0.000000000,0.006789178,-0.016869438,-0.638161265,0.000000000,-0.638188436,0.000000000,0.000005009,-0.000032732,-0.000411835,0.000000000,-0.000413188
0.002000000,0.000000000,0.000165423,0.000815808,0.014943448,0.000000000,-0.022246175,0.000000000,-0.000971664,0.003233153,0.204704138,0.000000000,0.203059844,0.000000000,0.006866739,-0.032806782,-1.228729776,0.000000000,-1.209779471,0.000000000,0.012590294,-0.012364869,-0.708957652,0.000000000,-0.707376445,0.000000000,0.006752234,-0.016912537,-0.637702700,0.000000000,-0.634332161,0.000000000,0.000009014,-0.000000625,-0.000905235,0.000000000,-0.000909191,0.000000000,-0.000018374,0.000341363,0.000096538,0.000000000,0.000028063,-0.000000000,0.000945976,-0.003201221,-0.198301879,0.000000000,-0.196480581,0.000000000,0.006867987,-0.032765171,-1.229821812,0.000000000,-1.211075547,0.000000000,0.012593224,-0.012468319,-0.708500371,0.000000000,-0.706826166,0.000000000,0.006755439,-0.016869148,-0.638188436,0.000000000,-0.634779500,0.000000000,0.000004948,-0.000032950,-0.000413188,0.000000000,-0.000406438
0.004000000,0.000000000,0.000165404,0.000320209,-0.022246175,0.000000000,-0.019441521,0.000000000,-0.000965265,0.003240769,0.203059844,0.000000000,0.201068914,0.000000000,0.006801407,-0.032668052,-1.209779471,0.000000000,-1.194347334,0.000000000,0.012564824,-0.012734826,-0.707376445,0.000000000,-0.703138001,0.000000000,0.006719517,-0.016358107,-0.634332161,0.000000000,-0.632601941,0.000000000,0.000009133,0.000061101,-0.000909191,0.000000000,-0.001096744,0.000000000,-0.000017720,0.000365300,0.000028063,0.000000000,-0.000177003,-0.000000000,0.000939603,-0.003186988,-0.196480581,0.000000000,-0.194991027,0.000000000,0.006802660,-0.032669152,-1.211075547,0.000000000,-1.194678602,0.000000000,0.012567762,-0.012730630,-0.706826166,0.000000000,-0.703353402,0.000000000,0.006722635,-0.016401994,-0.634779500,0.000000000,-0.632792282,0.000000000,0.000004874,-0.000040371,-0.000406438,0.000000000,-0.000377826
0.006000000,0.000000000,0.000165356,-0.000166849,-0.019441521,0.000000000,-0.016682145,0.000000000,-0.000958836,0.003255546,0.201068914,0.000000000,0.198906997,0.000000000,0.006736422,-0.032495204,-1.194347334,0.000000000,-1.179785141,0.000000000,0.012538483,-0.013170628,-0.703138001,0.000000000,-0.698376475,0.000000000,0.006688238,-0.015639671,-0.632601941,0.000000000,-0.631483207,0.000000000,0.000009206,0.000037102,-0.001096744,0.000000000,-0.001035836,0.000000000,-0.000017008,0.000401134,-0.000177003,0.000000000,-0.000455458,-0.000001000,0.000933253,-0.003175527,-0.194991027,0.000000000,-0.193729506,0.000000000,0.006737622,-0.032524607,-1.194678602,0.000000000,-1.179461391,0.000000000,0.012541556,-0.013102887,-0.703353402,0.000000000,-0.699052109,0.000000000,0.006691208,-0.015713843,-0.632792282,0.000000000,-0.631572457,0.000000000,0.000004785,-0.000048271,-0.000377826,0.000000000,-0.000346401
0.008000000,0.000000000,-0.000165298,-0.000602798,-0.016682145,0.000000000,0.021028286,0.000000000,-0.000952387,0.003264757,0.198906997,0.000000000,0.196865703,0.000000000,0.006671817,-0.032304776,-1.179785141,0.000000000,-1.165728845,0.000000000,0.012511233,-0.013625292,-0.698376475,0.000000000,-0.693423440,0.000000000,0.006658544,-0.014847252,-0.631483207,0.000000000,-0.630734979,0.000000000,0.000009257,0.000026463,-0.001035836,0.000000000,-0.001010808,0.000000000,-0.000016238,0.000439972,-0.000455458,0.000000000,-0.000757210,-0.000002000,0.000926919,-0.003167622,-0.193729506,0.000000000,-0.192392059,0.000000000,0.006672934,-0.032349884,-1.179461391,0.000000000,-1.165026099,0.000000000,0.012514503,-0.013526923,-0.699052109,0.000000000,-0.694329208,0.000000000,0.006661368,-0.014919613,-0.631572457,0.000000000,-0.630814750,0.000000000,0.000004686,-0.000054396,-0.000346401,0.000000000,-0.000318922
0.010000000,0.000000000,-0.000165235,-0.000218618,0.021028286,0.000000000,0.018849039,0.000000000,-0.000945947,0.003261162,0.196865703,0.000000000,0.195116365,0.000000000,0.006607528,-0.032146680,-1.165728845,0.000000000,-1.151031115,0.000000000,0.012483286,-0.013973036,-0.693423440,0.000000000,-0.689186461,0.000000000,0.006630359,-0.014092256,-0.630734979,0.000000000,-0.630032965,0.000000000,0.000009214,-0.000021981,-0.001010808,0.000000000,-0.000868719,0.000000000,-0.000015414,0.000478323,-0.000757210,0.000000000,-0.001061916,-0.000004000,0.000920598,-0.003161075,-0.192392059,0.000000000,-0.191311863,0.000000000,0.006608635,-0.032155083,-1.165026099,0.000000000,-1.151155710,0.000000000,0.012486563,-0.013970006,-0.694329208,0.000000000,-0.689414938,0.000000000,0.006633205,-0.014081849,-0.630814750,0.000000000,-0.630350149,0.000000000,0.000004575,-0.000060593,-0.000318922,0.000000000,-0.000290141
0.012000000,0.000000000,-0.000165167,0.000154894,0.018849039,0.000000000,0.016729504,0.000000000,-0.000939543,0.003242953,0.195116365,0.000000000,0.193707943,0.000000000,0.006543610,-0.031961425,-1.151031115,0.000000000,-1.137053031,0.000000000,0.012454566,-0.014360292,-0.689186461,0.000000000,-0.684619710,0.000000000,0.006603800,-0.013279533,-0.630032965,0.000000000,-0.629659345,0.000000000,0.000009263,0.000024877,-0.000868719,0.000000000,-0.001006840,0.000000000,-0.000014548,0.000513158,-0.001061916,0.000000000,-0.001351194,-0.000007000,0.000914290,-0.003153992,-0.191311863,0.000000000,-0.190532065,0.000000000,0.006544757,-0.031945044,-1.151155710,0.000000000,-1.137749442,0.000000000,0.012457734,-0.014414306,-0.689414938,0.000000000,-0.684435898,0.000000000,0.006606728,-0.013238196,-0.630350149,0.000000000,-0.630072819,0.000000000,0.000004458,-0.000064830,-0.000290141,0.000000000,-0.000266214
0.014000000,0.000000000,0.000165097,0.000481098,0.016729504,0.000000000,-0.020318640,0.000000000,-0.000933178,0.003223108,0.193707943,0.000000000,0.192347779,0.000000000,0.006480107,-0.031754053,-1.137053031,0.000000000,-1.123693110,0.000000000,0.012425034,-0.014766077,-0.684619710,0.000000000,-0.679869989,0.000000000,0.006578890,-0.012455137,-0.629659345,0.000000000,-0.629485545,0.000000000,0.000009377,0.000058735,-0.001006840,0.000000000,-0.001114702,0.000000000,-0.000013654,0.000544545,-0.001351194,0.000000000,-0.001624007,-0.000012000,0.000907999,-0.003146238,-0.190532065,0.000000000,-0.190340341,0.000000000,0.006481320,-0.031724066,-1.137749442,0.000000000,-1.124716257,0.000000000,0.012428039,-0.014847500,-0.684435898,0.000000000,-0.679481070,0.000000000,0.006581903,-0.012412534,-0.630072819,0.000000000,-0.629911232,0.000000000,0.000004336,-0.000067755,-0.000266214,0.000000000,-0.000245556
0.016000000,0.000000000,0.000165030,-0.000005668,-0.020318640,0.000000000,-0.017558842,0.000000000,-0.000926838,0.003210839,0.192347779,0.000000000,0.190823204,0.000000000,0.006417140,-0.031485866,-1.123693110,0.000000000,-1.111861252,0.000000000,0.012394475,-0.015279114,-0.679869989,0.000000000,-0.674293116,0.000000000,0.006555724,-0.011582921,-0.629485545,0.000000000,-0.629624001,0.000000000,0.000009628,0.000127894,-0.001114702,0.000000000,-0.001336628,0.000000000,-0.000012747,0.000571972,-0.001624007,0.000000000,-0.001875747,-0.000018000,0.000901724,-0.003138165,-0.190340341,0.000000000,-0.190444658,0.000000000,0.006418345,-0.031493862,-1.124716257,0.000000000,-1.112022666,0.000000000,0.012397511,-0.015263852,-0.679481070,0.000000000,-0.674593354,0.000000000,0.006558665,-0.011619007,-0.629911232,0.000000000,-0.629818678,0.000000000,0.000004215,-0.000067199,-0.000245556,0.000000000,-0.000234981
0.018000000,0.000000000,-0.000164964,-0.000474326,-0.017558842,0.000000000,0.020266127,0.000000000,-0.000920503,0.003209001,0.190823204,0.000000000,0.189064083,0.000000000,0.006354700,-0.031222823,-1.111861252,0.000000000,-1.100062573,0.000000000,0.012363012,-0.015731893,-0.674293116,0.000000000,-0.669087350,0.000000000,0.006534119,-0.010802544,-0.629624001,0.000000000,-0.629659094,0.000000000,0.000009822,0.000099165,-0.001336628,0.000000000,-0.001274592,0.000000000,-0.000011845,0.000596781,-0.001875747,0.000000000,-0.002112165,-0.000025000,0.000895464,-0.003130491,-0.190444658,0.000000000,-0.190828563,0.000000000,0.006355844,-0.031256450,-1.112022666,0.000000000,-1.099627106,0.000000000,0.012366193,-0.015659126,-0.674593354,0.000000000,-0.669805530,0.000000000,0.006536934,-0.010865473,-0.629818678,0.000000000,-0.629764737,0.000000000,0.000004100,-0.000064906,-0.000234981,0.000000000,-0.000229838
0.020000000,0.000000000,-0.000164895,-0.000127105,0.020266127,0.000000000,0.018295272,0.000000000,-0.000914191,0.003198615,0.189064083,0.000000000,0.187504707,0.000000000,0.006292687,-0.031009061,-1.100062573,0.000000000,-1.087270754,0.000000000,0.012330960,-0.016026041,-0.669087350,0.000000000,-0.664971981,0.000000000,0.006513795,-0.010161839,-0.629659094,0.000000000,-0.629426605,0.000000000,0.000009867,0.000023223,-0.001274592,0.000000000,-0.001063277,0.000000000,-0.000010970,0.000618906,-0.002112165,0.000000000,-0.002330632,-0.000034000,0.000889218,-0.003123449,-0.190828563,0.000000000,-0.191770680,0.000000000,0.006293832,-0.031012015,-1.099627106,0.000000000,-1.087529395,0.000000000,0.012334128,-0.016032691,-0.669805530,0.000000000,-0.665124823,0.000000000,0.006516623,-0.010155407,-0.629764737,0.000000000,-0.629730743,0.000000000,0.000003994,-0.000060289,-0.000229838,0.000000000,-0.000232212
0.022000000,0.000000000,-0.000164823,0.000219211,0.018295272,0.000000000,0.016329211,0.000000000,-0.000907929,0.003173520,0.187504707,0.000000000,0.186292418,0.000000000,0.006231134,-0.030778669,-1.087270754,0.000000000,-1.074986085,0.000000000,0.012298300,-0.016329944,-0.664971981,0.000000000,-0.660748871,0.000000000,0.006494749,-0.009522877,-0.629426605,0.000000000,-0.629318316,0.000000000,0.000009980,0.000057525,-0.001063277,0.000000000,-0.001172194,0.000000000,-0.000010147,0.000637663,-0.002330632,0.000000000,-0.002524446,-0.000045000,0.000882984,-0.003117118,-0.191770680,0.000000000,-0.193268820,0.000000000,0.006232323,-0.030760435,-1.087529395,0.000000000,-1.075736358,0.000000000,0.012301358,-0.016384722,-0.665124823,0.000000000,-0.660552701,0.000000000,0.006497642,-0.009490635,-0.629730743,0.000000000,-0.629702348,0.000000000,0.000003903,-0.000051757,-0.000232212,0.000000000,-0.000247295
0.024000000,0.000000000,0.000164754,0.000526807,0.016329211,0.000000000,-0.020540600,0.000000000,-0.000901722,0.003146069,0.186292418,0.000000000,0.185149034,0.000000000,0.006170075,-0.030532434,-1.074986085,0.000000000,-1.063199747,0.000000000,0.012265026,-0.016636877,-0.660748871,0.000000000,-0.656465458,0.000000000,0.006476942,-0.008903761,-0.629318316,0.000000000,-0.629278744,0.000000000,0.000010153,0.000087880,-0.001172194,0.000000000,-0.001275920,0.000000000,-0.000009407,0.000654625,-0.002524446,0.000000000,-0.002699191,-0.000058000,0.000876761,-0.003112140,-0.193268820,0.000000000,-0.195307656,0.000000000,0.006171330,-0.030502670,-1.075736358,0.000000000,-1.064229789,0.000000000,0.012267929,-0.016714403,-0.660552701,0.000000000,-0.656097800,0.000000000,0.006479900,-0.008870935,-0.629702348,0.000000000,-0.629671072,0.000000000,0.000003832,-0.000040745,-0.000247295,0.000000000,-0.000271421
0.026000000,0.000000000,0.000164689,0.000027770,-0.020540600,0.000000000,-0.017711527,0.000000000,-0.000895555,0.003126279,0.185149034,0.000000000,0.183843607,0.000000000,0.006109622,-0.030229026,-1.063199747,0.000000000,-1.052879140,0.000000000,0.012230938,-0.017044095,-0.656465458,0.000000000,-0.651417769,0.000000000,0.006460441,-0.008250455,-0.629278744,0.000000000,-0.629468428,0.000000000,0.000010458,0.000155403,-0.001275920,0.000000000,-0.001498742,0.000000000,-0.000008789,0.000670069,-0.002699191,0.000000000,-0.002852452,-0.000074000,0.000870545,-0.003108723,-0.195307656,0.000000000,-0.198165873,0.000000000,0.006110866,-0.030238279,-1.064229789,0.000000000,-1.053023459,0.000000000,0.012233883,-0.017023033,-0.656097800,0.000000000,-0.651753538,0.000000000,0.006463311,-0.008294622,-0.629671072,0.000000000,-0.629632937,0.000000000,0.000003785,-0.000026744,-0.000271421,0.000000000,-0.000306521
0.028000000,0.000000000,-0.000164623,-0.000450849,-0.017711527,0.000000000,0.020096993,0.000000000,-0.000889407,0.003117060,0.183843607,0.000000000,0.182304697,0.000000000,0.006049762,-0.029932726,-1.052879140,0.000000000,-1.042566177,0.000000000,0.012196159,-0.017389420,-0.651417769,0.000000000,-0.646766399,0.000000000,0.006445058,-0.007691240,-0.629468428,0.000000000,-0.629503646,0.000000000,0.000010702,0.000124315,-0.001498742,0.000000000,-0.001435063,0.000000000,-0.000008333,0.000685811,-0.002852452,0.000000000,-0.002989984,-0.000092000,0.000864329,-0.003108326,-0.198165873,0.000000000,-0.201524506,0.000000000,0.006050943,-0.029968070,-1.053023459,0.000000000,-1.042102376,0.000000000,0.012199263,-0.017310343,-0.651753538,0.000000000,-0.647524526,0.000000000,0.006447791,-0.007759886,-0.629632937,0.000000000,-0.629584685,0.000000000,0.000003769,-0.000009040,-0.000306521,0.000000000,-0.000355241
0.030000000,0.000000000,-0.000164557,-0.000113768,0.020096993,0.000000000,0.018183801,0.000000000,-0.000883297,0.003099308,0.182304697,0.000000000,0.180969407,0.000000000,0.005990393,-0.029686814,-1.042566177,0.000000000,-1.031253338,0.000000000,0.012161004,-0.017577274,-0.646766399,0.000000000,-0.643210593,0.000000000,0.006430524,-0.007267327,-0.629503646,0.000000000,-0.629239887,0.000000000,0.000010791,0.000045158,-0.001435063,0.000000000,-0.001218990,0.000000000,-0.000008085,0.000702128,-0.002989984,0.000000000,-0.003108697,-0.000113000,0.000858108,-0.003111248,-0.201524506,0.000000000,-0.205659146,0.000000000,0.005991572,-0.029691656,-1.042102376,0.000000000,-1.031478813,0.000000000,0.012164107,-0.017577692,-0.647524526,0.000000000,-0.643403621,0.000000000,0.006433263,-0.007264331,-0.629584685,0.000000000,-0.629525210,0.000000000,0.000003789,0.000011967,-0.000355241,0.000000000,-0.000417006
0.032000000,0.000000000,-0.000164491,0.000223709,0.018183801,0.000000000,0.016268339,0.000000000,-0.000877251,0.003067162,0.180969407,0.000000000,0.179978049,0.000000000,0.005931549,-0.029425139,-1.031253338,0.000000000,-1.020445802,0.000000000,0.012125451,-0.017776936,-0.643210593,0.000000000,-0.639545634,0.000000000,0.006416849,-0.006837328,-0.629239887,0.000000000,-0.629080346,0.000000000,0.000010941,0.000076061,-0.001218990,0.000000000,-0.001321969,0.000000000,0.000008080,0.000718545,-0.003108697,0.000000000,-0.004924632,-0.000137000,0.000851873,-0.003117747,-0.205659146,0.000000000,-0.210561915,0.000000000,0.005932768,-0.029408677,-1.031478813,0.000000000,-1.021164652,0.000000000,0.012128455,-0.017826186,-0.643403621,0.000000000,-0.639385344,0.000000000,0.006419650,-0.006806353,-0.629525210,0.000000000,-0.629451473,0.000000000,0.000003854,0.000037568,-0.000417006,0.000000000,-0.000496313
0.034000000,0.000000000,0.000164430,0.000523710,0.016268339,0.000000000,-0.020488511,0.000000000,-0.000871274,0.003032892,0.179978049,0.000000000,0.179054217,0.000000000,0.005873257,-0.029148376,-1.020445802,0.000000000,-1.010136896,0.000000000,0.012089486,-0.017982197,-0.639545634,0.000000000,-0.635814950,0.000000000,0.006404015,-0.006417221,-0.629080346,0.000000000,-0.628977595,0.000000000,0.000011144,0.000103265,-0.001321969,0.000000000,-0.001419859,0.000000000,0.000008315,0.000697771,-0.004924632,0.000000000,-0.004832250,-0.000164000,0.000845618,-0.003128179,-0.210561915,0.000000000,-0.216222550,0.000000000,0.005874536,-0.029122275,-1.021164652,0.000000000,-1.011090799,0.000000000,0.012092355,-0.018050050,-0.639385344,0.000000000,-0.635513850,0.000000000,0.006406876,-0.006387070,-0.629451473,0.000000000,-0.629352476,0.000000000,0.000003972,0.000067964,-0.000496313,0.000000000,-0.000594657
0.036000000,0.000000000,0.000164370,0.000019820,-0.020488511,0.000000000,-0.017632633,0.000000000,-0.000865349,0.003006798,0.179054217,0.000000000,0.177960234,0.000000000,0.005815632,-0.028815216,-1.010136896,0.000000000,-1.001293046,0.000000000,0.012052905,-0.018290326,-0.635814950,0.000000000,-0.631314149,0.000000000,0.006392111,-0.005951931,-0.628977595,0.000000000,-0.629097353,0.000000000,0.000011475,0.000168145,-0.001419859,0.000000000,-0.001637803,0.000000000,0.000008757,0.000683393,-0.004832250,0.000000000,-0.004798064,-0.000194000,0.000839333,-0.003143220,-0.216222550,0.000000000,-0.222623117,0.000000000,0.005816891,-0.028828994,-1.011090799,0.000000000,-1.001339287,0.000000000,0.012055838,-0.018258284,-0.635513850,0.000000000,-0.631727153,0.000000000,0.006394880,-0.005997737,-0.629352476,0.000000000,-0.629247026,0.000000000,0.000004147,0.000099667,-0.000594657,0.000000000,-0.000702497
0.038000000,0.000000000,0.000164308,-0.000462803,-0.017632633,0.000000000,-0.014896794,0.000000000,-0.000859455,0.002991447,0.177960234,0.000000000,0.176632339,0.000000000,0.005758658,-0.028489906,-1.001293046,0.000000000,-0.992456599,0.000000000,0.012015827,-0.018539381,-0.631314149,0.000000000,-0.627201791,0.000000000,0.006380973,-0.005569027,-0.629097353,0.000000000,-0.629060281,0.000000000,0.000011741,0.000134648,-0.001637803,0.000000000,-0.001569410,0.000000000,0.000009371,0.000675110,-0.004798064,0.000000000,-0.004816643,-0.000227000,0.000833005,-0.003164414,-0.222623117,0.000000000,-0.229725212,0.000000000,0.005759845,-0.028529990,-1.001339287,0.000000000,-0.991887262,0.000000000,0.012018939,-0.018449527,-0.631727153,0.000000000,-0.628037071,0.000000000,0.006383605,-0.005637453,-0.629247026,0.000000000,-0.629131817,0.000000000,0.000004387,0.000134181,-0.000702497,0.000000000,-0.000824804
0.040000000,0.000000000,-0.000164259,-0.000888183,-0.014896794,0.000000000,0.022531377,0.000000000,-0.000853597,0.002974524,0.176632339,0.000000000,0.175350014,0.000000000,0.005702322,-0.028170719,-0.992456599,0.000000000,-0.983663121,0.000000000,0.011978346,-0.018740524,-0.627201791,0.000000000,-0.623404576,0.000000000,0.006370487,-0.005242962,-0.629060281,0.000000000,-0.628927524,0.000000000,0.000011961,0.000111344,-0.001569410,0.000000000,-0.001525359,0.000000000,0.000010124,0.000671139,-0.004816643,0.000000000,-0.004874411,-0.000264000,0.000826622,-0.003192234,-0.229725212,0.000000000,-0.237798610,0.000000000,0.005703409,-0.028224995,-0.991887262,0.000000000,-0.982744171,0.000000000,0.011981690,-0.018624481,-0.628037071,0.000000000,-0.624440671,0.000000000,0.006372996,-0.005304734,-0.629131817,0.000000000,-0.629005492,0.000000000,0.000004699,0.000172567,-0.000824804,0.000000000,-0.000965511
0.042000000,0.000000000,-0.000164213,-0.000495090,0.022531377,0.000000000,0.020303559,0.000000000,-0.000847797,0.002946284,0.175350014,0.000000000,0.174340077,0.000000000,0.005646531,-0.027898418,-0.983663121,0.000000000,-0.973963944,0.000000000,0.011940746,-0.018799994,-0.623404576,0.000000000,-0.620606855,0.000000000,0.006360444,-0.005021542,-0.628927524,0.000000000,-0.628542016,0.000000000,0.000012060,0.000050534,-0.001525359,0.000000000,-0.001362552,0.000000000,0.000010990,0.000671326,-0.004874411,0.000000000,-0.004967782,-0.000305000,0.000820167,-0.003227852,-0.237798610,0.000000000,-0.246812340,0.000000000,0.005647592,-0.027914879,-0.982744171,0.000000000,-0.973893259,0.000000000,0.011944125,-0.018782427,-0.624440671,0.000000000,-0.620945203,0.000000000,0.006362999,-0.004998220,-0.629005492,0.000000000,-0.628866621,0.000000000,0.000005094,0.000214858,-0.000965511,0.000000000,-0.001125663
0.044000000,0.000000000,-0.000164160,-0.000111000,0.020303559,0.000000000,0.018125817,0.000000000,-0.000842080,0.002904754,0.174340077,0.000000000,0.173654285,0.000000000,0.005591320,-0.027608685,-0.973963944,0.000000000,-0.964823799,0.000000000,0.011902982,-0.018881815,-0.620606855,0.000000000,-0.617639931,0.000000000,0.006350900,-0.004771633,-0.628542016,0.000000000,-0.628288016,0.000000000,0.000012230,0.000086150,-0.001362552,0.000000000,-0.001480999,0.000000000,0.000011948,0.000674241,-0.004967782,0.000000000,-0.005086439,-0.000349000,0.000813626,-0.003271466,-0.246812340,0.000000000,-0.256473190,0.000000000,0.005592408,-0.027599203,-0.973893259,0.000000000,-0.965347607,0.000000000,0.011906277,-0.018924445,-0.620945203,0.000000000,-0.617545015,0.000000000,0.006353567,-0.004716064,-0.628866621,0.000000000,-0.628715530,0.000000000,0.000005581,0.000261294,-0.001125663,0.000000000,-0.001306930
0.046000000,0.000000000,-0.000164097,0.000226306,0.018125817,0.000000000,0.016211644,0.000000000,-0.000836446,0.002862436,0.173654285,0.000000000,0.173010284,0.000000000,0.005536719,-0.027303304,-0.964823799,0.000000000,-0.956211191,0.000000000,0.011865029,-0.018976496,-0.617639931,0.000000000,-0.614569643,0.000000000,0.006341873,-0.004513964,-0.628288016,0.000000000,-0.628108161,0.000000000,0.000012448,0.000109965,-0.001480999,0.000000000,-0.001570659,0.000000000,0.000012986,0.000680425,-0.005086439,0.000000000,-0.005232023,-0.000398000,0.000806979,-0.003323684,-0.256473190,0.000000000,-0.267330984,0.000000000,0.005537864,-0.027278945,-0.965347607,0.000000000,-0.957087676,0.000000000,0.011868177,-0.019049760,-0.617545015,0.000000000,-0.614247723,0.000000000,0.006344654,-0.004456456,-0.628715530,0.000000000,-0.628552814,0.000000000,0.000006165,0.000309032,-0.001306930,0.000000000,-0.001501659
0.048000000,0.000000000,-0.000164031,0.000511771,0.016211644,0.000000000,0.014590370,0.000000000,-0.000830894,0.002822045,0.173010284,0.000000000,0.172345647,0.000000000,0.005482751,-0.026986689,-0.956211191,0.000000000,-0.948032717,0.000000000,0.011826884,-0.019072430,-0.614569643,0.000000000,-0.611478321,0.000000000,0.006333346,-0.004263094,-0.628108161,0.000000000,-0.627959688,0.000000000,0.000012669,0.000111986,-0.001570659,0.000000000,-0.001598772,0.000000000,0.000014094,0.000689712,-0.005232023,0.000000000,-0.005402653,-0.000451000,0.000800209,-0.003385905,-0.267330984,0.000000000,-0.279064130,0.000000000,0.005483970,-0.026954067,-0.957087676,0.000000000,-0.949116988,0.000000000,0.011829859,-0.019159121,-0.614247723,0.000000000,-0.611050010,0.000000000,0.006336220,-0.004217215,-0.628552814,0.000000000,-0.628380550,0.000000000,0.000006854,0.000360768,-0.001501659,0.000000000,-0.001718400
0.050000000,0.000000000,0.000163974,0.000754517,0.014590370,0.000000000,-0.021745130,0.000000000,-0.000825420,0.002782822,0.172345647,0.000000000,0.171676913,0.000000000,0.005429434,-0.026661683,-0.948032717,0.000000000,-0.940228810,0.000000000,0.011788559,-0.019162481,-0.611478321,0.000000000,-0.608417441,0.000000000,0.006325294,-0.004026217,-0.627959688,0.000000000,-0.627819309,0.000000000,0.000012879,0.000106222,-0.001598772,0.000000000,-0.001603607,0.000000000,0.000015267,0.000701898,-0.005402653,0.000000000,-0.005596607,-0.000508000,0.000793293,-0.003458846,-0.279064130,0.000000000,-0.291650351,0.000000000,0.005430735,-0.026624792,-0.949116988,0.000000000,-0.941433005,0.000000000,0.011791353,-0.019252806,-0.611050010,0.000000000,-0.607951887,0.000000000,0.006328227,-0.003996636,-0.628380550,0.000000000,-0.628199817,0.000000000,0.000007656,0.000415539,-0.001718400,0.000000000,-0.001955095
0.052000000,0.000000000,0.000163928,0.000207608,-0.021745130,0.000000000,-0.018647391,0.000000000,-0.000820010,0.002751129,0.171676913,0.000000000,0.170855857,0.000000000,0.005376869,-0.026285187,-0.940228810,0.000000000,-0.933803592,0.000000000,0.011749861,-0.019348951,-0.608417441,0.000000000,-0.604647660,0.000000000,0.006317814,-0.003739935,-0.627819309,0.000000000,-0.627877255,0.000000000,0.000013195,0.000159602,-0.001603607,0.000000000,-0.001787274,0.000000000,0.000016502,0.000716356,-0.005596607,0.000000000,-0.005809938,-0.000570000,0.000786208,-0.003542982,-0.291650351,0.000000000,-0.305356721,0.000000000,0.005378167,-0.026291118,-0.941433005,0.000000000,-0.934038221,0.000000000,0.011752690,-0.019331340,-0.607951887,0.000000000,-0.604951541,0.000000000,0.006320640,-0.003793249,-0.628199817,0.000000000,-0.628011316,0.000000000,0.000008575,0.000472935,-0.001955095,0.000000000,-0.002211138
0.054000000,0.000000000,-0.000163881,-0.000307114,-0.018647391,0.000000000,0.019205093,0.000000000,-0.000814644,0.002729073,0.170855857,0.000000000,0.169829593,0.000000000,0.005325035,-0.025920077,-0.933803592,0.000000000,-0.927328430,0.000000000,0.011710913,-0.019473952,-0.604647660,0.000000000,-0.601299008,0.000000000,0.006310760,-0.003526936,-0.627877255,0.000000000,-0.627769913,0.000000000,0.000013444,0.000125825,-0.001787274,0.000000000,-0.001716413,0.000000000,0.000017798,0.000734195,-0.005809938,0.000000000,-0.006048971,-0.000636000,0.000778930,-0.003639958,-0.305356721,0.000000000,-0.319854595,0.000000000,0.005326273,-0.025954010,-0.934038221,0.000000000,-0.926912804,0.000000000,0.011713902,-0.019394100,-0.604951541,0.000000000,-0.602055388,0.000000000,0.006313429,-0.003605417,-0.628011316,0.000000000,-0.627816558,0.000000000,0.000009616,0.000532988,-0.002211138,0.000000000,-0.002487163
0.056000000,0.000000000,-0.000163834,-0.000002559,0.019205093,0.000000000,0.017477821,0.000000000,-0.000809342,0.002697778,0.169829593,0.000000000,0.169030512,0.000000000,0.005273824,-0.025608784,-0.927328430,0.000000000,-0.919812941,0.000000000,0.011672025,-0.019444407,-0.601299008,0.000000000,-0.599052602,0.000000000,0.006303908,-0.003425873,-0.627769913,0.000000000,-0.627364762,0.000000000,0.000013533,0.000045077,-0.001716413,0.000000000,-0.001495859,0.000000000,0.000019157,0.000754954,-0.006048971,0.000000000,-0.006311206,-0.000707000,0.000771431,-0.003750313,-0.319854595,0.000000000,-0.335408339,0.000000000,0.005275062,-0.025613164,-0.926912804,0.000000000,-0.920065730,0.000000000,0.011675018,-0.019442155,-0.602055388,0.000000000,-0.599257689,0.000000000,0.006306567,-0.003431291,-0.627816558,0.000000000,-0.627618033,0.000000000,0.000010785,0.000595138,-0.002487163,0.000000000,-0.002781994
0.058000000,0.000000000,0.000163789,0.000307125,0.017477821,0.000000000,-0.019195356,0.000000000,-0.000804131,0.002652611,0.169030512,0.000000000,0.168570754,0.000000000,0.005223260,-0.025284980,-0.919812941,0.000000000,-0.912764539,0.000000000,0.011633165,-0.019429916,-0.599052602,0.000000000,-0.596701024,0.000000000,0.006297318,-0.003295184,-0.627364762,0.000000000,-0.627070256,0.000000000,0.000013677,0.000072917,-0.001495859,0.000000000,-0.001589596,0.000000000,0.000020578,0.000777379,-0.006311206,0.000000000,-0.006589504,-0.000783000,0.000763684,-0.003874580,-0.335408339,0.000000000,-0.351998017,0.000000000,0.005224540,-0.025268312,-0.920065730,0.000000000,-0.913505363,0.000000000,0.011636065,-0.019476285,-0.599257689,0.000000000,-0.596554651,0.000000000,0.006300026,-0.003270175,-0.627618033,0.000000000,-0.627415085,0.000000000,0.000012088,0.000660695,-0.002781994,0.000000000,-0.003100017
0.060000000,0.000000000,0.000163746,-0.000171885,-0.019195356,0.000000000,-0.016481969,0.000000000,-0.000798997,0.002613418,0.168570754,0.000000000,0.167997882,0.000000000,0.005173458,-0.024904225,-0.912764539,0.000000000,-0.907220787,0.000000000,0.011594103,-0.019531115,-0.596701024,0.000000000,-0.593514332,0.000000000,0.006291149,-0.003084640,-0.627070256,0.000000000,-0.627045335,0.000000000,0.000013984,0.000154996,-0.001589596,0.000000000,-0.001853975,0.000000000,0.000022063,0.000801952,-0.006589504,0.000000000,-0.006886748,-0.000864000,0.000755658,-0.004013636,-0.351998017,0.000000000,-0.369595378,0.000000000,0.005174714,-0.024920196,-0.913505363,0.000000000,-0.907216756,0.000000000,0.011597073,-0.019495975,-0.596554651,0.000000000,-0.593951770,0.000000000,0.006293784,-0.003121128,-0.627415085,0.000000000,-0.627207954,0.000000000,0.000013528,0.000728333,-0.003100017,0.000000000,-0.003437863
0.062000000,0.000000000,-0.000163708,-0.000633293,-0.016481969,0.000000000,0.021031265,0.000000000,-0.000793918,0.002585759,0.167997882,0.000000000,0.167180003,0.000000000,0.005124400,-0.024531742,-0.907220787,0.000000000,-0.901701677,0.000000000,0.011554936,-0.019583270,-0.593514332,0.000000000,-0.590669663,0.000000000,0.006285292,-0.002928466,-0.627045335,0.000000000,-0.626897405,0.000000000,0.000014236,0.000127254,-0.001853975,0.000000000,-0.001800586,0.000000000,0.000023616,0.000829903,-0.006886748,0.000000000,-0.007210372,-0.000950000,0.000747323,-0.004168894,-0.369595378,0.000000000,-0.388159276,0.000000000,0.005125590,-0.024569452,-0.907216756,0.000000000,-0.901187008,0.000000000,0.011558071,-0.019501092,-0.593951770,0.000000000,-0.591451821,0.000000000,0.006287820,-0.002982349,-0.627207954,0.000000000,-0.626999680,0.000000000,0.000015108,0.000797338,-0.003437863,0.000000000,-0.003793752
0.064000000,0.000000000,-0.000163672,-0.000288075,0.021031265,0.000000000,0.019075149,0.000000000,-0.000788912,0.002550194,0.167180003,0.000000000,0.166561444,0.000000000,0.005075984,-0.024211462,-0.901701677,0.000000000,-0.895183872,0.000000000,0.011515958,-0.019488790,-0.590669663,0.000000000,-0.588879206,0.000000000,0.006279547,-0.002872227,-0.626897405,0.000000000,-0.626476730,0.000000000,0.000014321,0.000042573,-0.001800586,0.000000000,-0.001568361,0.000000000,0.000025241,0.000860717,-0.007210372,0.000000000,-0.007557880,-0.001042000,0.000738642,-0.004341285,-0.388159276,0.000000000,-0.407943155,0.000000000,0.005077174,-0.024215737,-0.901187008,0.000000000,-0.895425582,0.000000000,0.011519086,-0.019492723,-0.591451821,0.000000000,-0.589048792,0.000000000,0.006282114,-0.002852544,-0.626999680,0.000000000,-0.626792131,0.000000000,0.000016833,0.000868739,-0.003793752,0.000000000,-0.004171069
0.066000000,0.000000000,-0.000163630,0.000055406,0.019075149,0.000000000,0.017128374,0.000000000,-0.000784003,0.002501420,0.166561444,0.000000000,0.166269247,0.000000000,0.005028234,-0.023878046,-0.895183872,0.000000000,-0.889152749,0.000000000,0.011477130,-0.019414273,-0.588879206,0.000000000,-0.586956274,0.000000000,0.006273990,-0.002778698,-0.626476730,0.000000000,-0.626180976,0.000000000,0.000014452,0.000066145,-0.001568361,0.000000000,-0.001648625,0.000000000,0.000026941,0.000893180,-0.007557880,0.000000000,-0.007922593,-0.001139000,0.000729582,-0.004531522,-0.407943155,0.000000000,-0.428636510,0.000000000,0.005029472,-0.023858807,-0.895425582,0.000000000,-0.889939804,0.000000000,0.011480143,-0.019471573,-0.589048792,0.000000000,-0.586739281,0.000000000,0.006276651,-0.002731516,-0.626792131,0.000000000,-0.626584093,0.000000000,0.000018710,0.000944036,-0.004171069,0.000000000,-0.004574841
0.068000000,0.000000000,-0.000163587,0.000361101,0.017128374,0.000000000,0.015395007,0.000000000,-0.000779193,0.002451349,0.166269247,0.000000000,0.166034571,0.000000000,0.004981175,-0.023532492,-0.889152749,0.000000000,-0.883592647,0.000000000,0.011438425,-0.019352420,-0.586956274,0.000000000,-0.584951133,0.000000000,0.006268657,-0.002666494,-0.626180976,0.000000000,-0.625960993,0.000000000,0.000014625,0.000087404,-0.001648625,0.000000000,-0.001726576,0.000000000,0.000028718,0.000928210,-0.007922593,0.000000000,-0.008310125,-0.001242000,0.000720103,-0.004740413,-0.428636510,0.000000000,-0.450494674,0.000000000,0.004982488,-0.023499637,-0.889939804,0.000000000,-0.884708920,0.000000000,0.011441269,-0.019436829,-0.586739281,0.000000000,-0.584530787,0.000000000,0.006271414,-0.002618523,-0.626584093,0.000000000,-0.626376049,0.000000000,0.000020741,0.001020208,-0.004574841,0.000000000,-0.004996632
0.070000000,0.000000000,0.000163549,0.000621220,0.015395007,0.000000000,-0.020945968,0.000000000,-0.000774478,0.002403159,0.166034571,0.000000000,0.165784558,0.000000000,0.004934824,-0.023178688,-0.883592647,0.000000000,-0.878420265,0.000000000,0.011399839,-0.019293050,-0.584951133,0.000000000,-0.582935838,0.000000000,0.006263558,-0.002549378,-0.625960993,0.000000000,-0.625778648,0.000000000,0.000014802,0.000089428,-0.001726576,0.000000000,-0.001750251,0.000000000,0.000030577,0.000965870,-0.008310125,0.000000000,-0.008721287,-0.001351000,0.000710168,-0.004969120,-0.450494674,0.000000000,-0.473480142,0.000000000,0.004936227,-0.023138100,-0.884708920,0.000000000,-0.879737122,0.000000000,0.011402490,-0.019389293,-0.584530787,0.000000000,-0.582419225,0.000000000,0.006266390,-0.002512301,-0.626376049,0.000000000,-0.626170228,0.000000000,0.000022929,0.001098499,-0.004996632,0.000000000,-0.005440396
0.072000000,0.000000000,0.000163516,0.000088655,-0.020945968,0.000000000,-0.017930894,0.000000000,-0.000769841,0.002364212,0.165784558,0.000000000,0.165347382,0.000000000,0.004889282,-0.022774284,-0.878420265,0.000000000,-0.874622319,0.000000000,0.011361167,-0.019336049,-0.582935838,0.000000000,-0.580187478,0.000000000,0.006258822,-0.002368224,-0.625778648,0.000000000,-0.625814980,0.000000000,0.000015084,0.000141949,-0.001750251,0.000000000,-0.001928025,0.000000000,0.000032522,0.001005660,-0.008721287,0.000000000,-0.009153611,-0.001465000,0.000699734,-0.005218492,-0.473480142,0.000000000,-0.497277704,0.000000000,0.004890694,-0.022774110,-0.879737122,0.000000000,-0.875027762,0.000000000,0.011363831,-0.019329541,-0.582419225,0.000000000,-0.580402043,0.000000000,0.006261565,-0.002412341,-0.626170228,0.000000000,-0.625966808,0.000000000,0.000025281,0.001179413,-0.005440396,0.000000000,-0.005908073
0.074000000,0.000000000,-0.000163484,-0.000414760,-0.017930894,0.000000000,0.019771589,0.000000000,-0.000765262,0.002335634,0.165347382,0.000000000,0.164692049,0.000000000,0.004844523,-0.022382444,-0.874622319,0.000000000,-0.870762962,0.000000000,0.011322522,-0.019322553,-0.580187478,0.000000000,-0.577842391,0.000000000,0.006254325,-0.002248225,-0.625814980,0.000000000,-0.625701702,0.000000000,0.000015293,0.000105177,-0.001928025,0.000000000,-0.001844571,0.000000000,0.000034558,0.001048630,-0.009153611,0.000000000,-0.009613660,-0.001586000,0.000688758,-0.005489607,-0.497277704,0.000000000,-0.522419144,0.000000000,0.004845893,-0.022408610,-0.875027762,0.000000000,-0.870560364,0.000000000,0.011325318,-0.019256869,-0.580402043,0.000000000,-0.578485872,0.000000000,0.006256929,-0.002317899,-0.625966808,0.000000000,-0.625766789,0.000000000,0.000027795,0.001260406,-0.005908073,0.000000000,-0.006392437
0.076000000,0.000000000,-0.000163453,-0.000102193,0.019771589,0.000000000,0.018000634,0.000000000,-0.000760758,0.002297750,0.164692049,0.000000000,0.164268981,0.000000000,0.004800438,-0.022045783,-0.870762962,0.000000000,-0.865846899,0.000000000,0.011284204,-0.019158855,-0.577842391,0.000000000,-0.576585619,0.000000000,0.006249865,-0.002229950,-0.625701702,0.000000000,-0.625302918,0.000000000,0.000015336,0.000021790,-0.001844571,0.000000000,-0.001611866,0.000000000,0.000036691,0.001094383,-0.009613660,0.000000000,-0.010099712,-0.001712000,0.000677194,-0.005783934,-0.522419144,0.000000000,-0.548289537,0.000000000,0.004801826,-0.022041262,-0.870560364,0.000000000,-0.866343613,0.000000000,0.011286973,-0.019172357,-0.578485872,0.000000000,-0.576664541,0.000000000,0.006252473,-0.002228163,-0.625766789,0.000000000,-0.625571529,0.000000000,0.000030478,0.001344519,-0.006392437,0.000000000,-0.006902747
0.078000000,0.000000000,0.000163421,0.000214842,0.018000634,0.000000000,-0.018634295,0.000000000,-0.000756357,0.002246405,0.164268981,0.000000000,0.164179317,0.000000000,0.004757048,-0.021698222,-0.865846899,0.000000000,-0.861374970,0.000000000,0.011246177,-0.019013661,-0.576585619,0.000000000,-0.575215665,0.000000000,0.006245518,-0.002173580,-0.625302918,0.000000000,-0.625023832,0.000000000,0.000015431,0.000047855,-0.001611866,0.000000000,-0.001695564,0.000000000,0.000038922,0.001141671,-0.010099712,0.000000000,-0.010604973,-0.001845000,0.000664995,-0.006101279,-0.548289537,0.000000000,-0.575448672,0.000000000,0.004758498,-0.021671772,-0.866343613,0.000000000,-0.862385389,0.000000000,0.011248819,-0.019076732,-0.576664541,0.000000000,-0.574934280,0.000000000,0.006248187,-0.002143098,-0.625571529,0.000000000,-0.625380185,0.000000000,0.000033332,0.001429560,-0.006902747,0.000000000,-0.007432955
0.080000000,0.000000000,-0.000163394,-0.000255570,-0.018634295,0.000000000,0.018861753,0.000000000,-0.000752043,0.002201838,0.164179317,0.000000000,0.163961221,0.000000000,0.004714463,-0.021295429,-0.861374970,0.000000000,-0.858381334,0.000000000,0.011208202,-0.018987132,-0.575215665,0.000000000,-0.573005588,0.000000000,0.006241458,-0.002030018,-0.625023832,0.000000000,-0.625021653,0.000000000,0.000015687,0.000129046,-0.001695564,0.000000000,-0.001952279,0.000000000,0.000041256,0.001190951,-0.010604973,0.000000000,-0.011132415,-0.001984000,0.000652113,-0.006442986,-0.575448672,0.000000000,-0.603568102,0.000000000,0.004715912,-0.021300820,-0.862385389,0.000000000,-0.858671132,0.000000000,0.011210880,-0.018969525,-0.574934280,0.000000000,-0.573299891,0.000000000,0.006244062,-0.002062583,-0.625380185,0.000000000,-0.625192180,0.000000000,0.000036360,0.001516307,-0.007432955,0.000000000,-0.007985602
0.082000000,0.000000000,-0.000163366,0.000044299,0.018861753,0.000000000,0.017162959,0.000000000,-0.000747811,0.002161114,0.163961221,0.000000000,0.163679406,0.000000000,0.004672575,-0.020947347,-0.858381334,0.000000000,-0.854348065,0.000000000,0.011170585,-0.018808719,-0.573005588,0.000000000,-0.571897643,0.000000000,0.006237458,-0.002000264,-0.625021653,0.000000000,-0.624701930,0.000000000,0.000015770,0.000041761,-0.001952279,0.000000000,-0.001712504,0.000000000,0.000043700,0.001243886,-0.011132415,0.000000000,-0.011692193,-0.002130000,0.000638497,-0.006810548,-0.603568102,0.000000000,-0.632883594,0.000000000,0.004674069,-0.020929256,-0.858671132,0.000000000,-0.855181974,0.000000000,0.011173180,-0.018850306,-0.573299891,0.000000000,-0.571765936,0.000000000,0.006240091,-0.001985371,-0.625192180,0.000000000,-0.625010390,0.000000000,0.000039562,0.001602903,-0.007985602,0.000000000,-0.008555376
0.084000000,0.000000000,0.000163339,0.000335748,0.017162959,0.000000000,-0.019309249,0.000000000,-0.000743679,0.002110683,0.163679406,0.000000000,0.163645604,0.000000000,0.004631399,-0.020591503,-0.854348065,0.000000000,-0.850692665,0.000000000,0.011133301,-0.018642045,-0.571897643,0.000000000,-0.570727307,0.000000000,0.006233572,-0.001942674,-0.624701930,0.000000000,-0.624472985,0.000000000,0.000015860,0.000045465,-0.001712504,0.000000000,-0.001732155,0.000000000,0.000046255,0.001298374,-0.011692193,0.000000000,-0.012272705,-0.002283000,0.000624093,-0.007204466,-0.632883594,0.000000000,-0.663368882,0.000000000,0.004632974,-0.020555708,-0.855181974,0.000000000,-0.851950051,0.000000000,0.011135737,-0.018721379,-0.571765936,0.000000000,-0.570317282,0.000000000,0.006236269,-0.001911111,-0.625010390,0.000000000,-0.624835217,0.000000000,0.000042944,0.001692626,-0.008555376,0.000000000,-0.009152223
0.086000000,0.000000000,-0.000163315,-0.000155616,-0.019309249,0.000000000,0.018288122,0.000000000,-0.000739633,0.002066871,0.163645604,0.000000000,0.163486537,0.000000000,0.004591040,-0.020182605,-0.850692665,0.000000000,-0.848469742,0.000000000,0.011096121,-0.018589887,-0.570727307,0.000000000,-0.568749589,0.000000000,0.006229966,-0.001803309,-0.624472985,0.000000000,-0.624504697,0.000000000,0.000016092,0.000116886,-0.001732155,0.000000000,-0.001958662,0.000000000,0.000048926,0.001354759,-0.012272705,0.000000000,-0.012876269,-0.002442000,0.000608848,-0.007625762,-0.663368882,0.000000000,-0.694701033,0.000000000,0.004592627,-0.020181145,-0.851950051,0.000000000,-0.848954033,0.000000000,0.011098574,-0.018581747,-0.570317282,0.000000000,-0.568962356,0.000000000,0.006232588,-0.001840346,-0.624835217,0.000000000,-0.624664416,0.000000000,0.000046508,0.001784019,-0.009152223,0.000000000,-0.009772325
0.088000000,0.000000000,0.000163292,0.000129063,0.018288122,0.000000000,-0.018135430,0.000000000,-0.000735669,0.002025943,0.163486537,0.000000000,0.163285553,0.000000000,0.004551386,-0.019829905,-0.848469742,0.000000000,-0.845176176,0.000000000,0.011059354,-0.018383768,-0.568749589,0.000000000,-0.567892259,0.000000000,0.006226405,-0.001780346,-0.624504697,0.000000000,-0.624210118,0.000000000,0.000016150,0.000029149,-0.001958662,0.000000000,-0.001715074,0.000000000,0.000051719,0.001414676,-0.012876269,0.000000000,-0.013512871,-0.002608000,0.000592703,-0.008075694,-0.694701033,0.000000000,-0.727119617,0.000000000,0.004553030,-0.019806449,-0.848954033,0.000000000,-0.846174045,0.000000000,0.011061712,-0.018430918,-0.568962356,0.000000000,-0.567706065,0.000000000,0.006229044,-0.001771938,-0.624664416,0.000000000,-0.624500738,0.000000000,0.000050254,0.001874355,-0.009772325,0.000000000,-0.010407716
0.090000000,0.000000000,-0.000163272,-0.000343844,-0.018135430,0.000000000,0.019347918,0.000000000,-0.000731790,0.001983111,0.163285553,0.000000000,0.163151654,0.000000000,0.004512541,-0.019425729,-0.845176176,0.000000000,-0.843276737,0.000000000,0.011022765,-0.018294488,-0.567892259,0.000000000,-0.566215718,0.000000000,0.006223076,-0.001664407,-0.624210118,0.000000000,-0.624203307,0.000000000,0.000016336,0.000093690,-0.001715074,0.000000000,-0.001917369,0.000000000,0.000054637,0.001475543,-0.013512871,0.000000000,-0.014168079,-0.002781000,0.000575601,-0.008554407,-0.727119617,0.000000000,-0.760604963,0.000000000,0.004514186,-0.019429977,-0.846174045,0.000000000,-0.843648260,0.000000000,0.011025169,-0.018271505,-0.567706065,0.000000000,-0.566530937,0.000000000,0.006225633,-0.001705697,-0.624500738,0.000000000,-0.624344289,0.000000000,0.000054185,0.001967024,-0.010407716,0.000000000,-0.011068501
0.092000000,0.000000000,-0.000163251,-0.000032408,0.019347918,0.000000000,0.017584486,0.000000000,-0.000727996,0.001940359,0.163151654,0.000000000,0.163040172,0.000000000,0.004474397,-0.019075610,-0.843276737,0.000000000,-0.840353614,0.000000000,0.010986647,-0.018058663,-0.566215718,0.000000000,-0.565610610,0.000000000,0.006219767,-0.001654539,-0.624203307,0.000000000,-0.623896929,0.000000000,0.000016372,0.000017928,-0.001917369,0.000000000,-0.001705575,0.000000000,0.000057685,0.001539698,-0.014168079,0.000000000,-0.014855800,-0.002961000,0.000557482,-0.009063850,-0.760604963,0.000000000,-0.795095599,0.000000000,0.004476095,-0.019053903,-0.843648260,0.000000000,-0.841327262,0.000000000,0.010988967,-0.018101058,-0.566530937,0.000000000,-0.565455768,0.000000000,0.006222349,-0.001641875,-0.624344289,0.000000000,-0.624193862,0.000000000,0.000058302,0.002059370,-0.011068501,0.000000000,-0.011747062
0.094000000,0.000000000,0.000163230,0.000271328,0.017584486,0.000000000,-0.018933348,0.000000000,-0.000724306,0.001887653,0.163040172,0.000000000,0.163183479,0.000000000,0.004436968,-0.018717567,-0.840353614,0.000000000,-0.837813246,0.000000000,0.010950970,-0.017838586,-0.565610610,0.000000000,-0.564921372,0.000000000,0.006216543,-0.001612116,-0.623896929,0.000000000,-0.623691680,0.000000000,0.000016431,0.000030022,-0.001705575,0.000000000,-0.001745984,0.000000000,0.000060867,0.001605192,-0.014855800,0.000000000,-0.015565268,-0.003148000,0.000538283,-0.009604084,-0.795095599,0.000000000,-0.830572703,0.000000000,0.004438757,-0.018676631,-0.841327262,0.000000000,-0.839247845,0.000000000,0.010953122,-0.017922256,-0.565455768,0.000000000,-0.564462570,0.000000000,0.006219190,-0.001579660,-0.624193862,0.000000000,-0.624051442,0.000000000,0.000062606,0.002153182,-0.011747062,0.000000000,-0.012448774
0.096000000,0.000000000,-0.000163214,-0.000210340,-0.018933348,0.000000000,0.018586756,0.000000000,-0.000720704,0.001842411,0.163183479,0.000000000,0.163183098,0.000000000,0.004400361,-0.018306639,-0.837813246,0.000000000,-0.836702700,0.000000000,0.010915498,-0.017736024,-0.564921372,0.000000000,-0.563409788,0.000000000,0.006213573,-0.001484855,-0.623691680,0.000000000,-0.623753350,0.000000000,0.000016637,0.000103408,-0.001745984,0.000000000,-0.001975384,0.000000000,0.000064184,0.001672264,-0.015565268,0.000000000,-0.016298166,-0.003342000,0.000517942,-0.010175975,-0.830572703,0.000000000,-0.866998730,0.000000000,0.004402175,-0.018299026,-0.839247845,0.000000000,-0.837390616,0.000000000,0.010917654,-0.017734233,-0.564462570,0.000000000,-0.563558672,0.000000000,0.006216150,-0.001519638,-0.624051442,0.000000000,-0.623914922,0.000000000,0.000067098,0.002247133,-0.012448774,0.000000000,-0.013169891
0.098000000,0.000000000,-0.000163196,0.000081147,0.018586756,0.000000000,0.016936511,0.000000000,-0.000717187,0.001800340,0.163183098,0.000000000,0.163134871,0.000000000,0.004364463,-0.017952217,-0.836702700,0.000000000,-0.834515535,0.000000000,0.010880534,-0.017482049,-0.563409788,0.000000000,-0.563006536,0.000000000,0.006210630,-0.001471813,-0.623753350,0.000000000,-0.623492931,0.000000000,0.000016666,0.000014815,-0.001975384,0.000000000,-0.001726488,0.000000000,0.000067644,0.001742508,-0.016298166,0.000000000,-0.017064170,-0.003544000,0.000496392,-0.010781079,-0.866998730,0.000000000,-0.904603914,0.000000000,0.004366347,-0.017921973,-0.837390616,0.000000000,-0.835735266,0.000000000,0.010882581,-0.017536475,-0.563558672,0.000000000,-0.562748953,0.000000000,0.006213229,-0.001460930,-0.623914922,0.000000000,-0.623786529,0.000000000,0.000071777,0.002340047,-0.013169891,0.000000000,-0.013906860
0.100000000,0.000000000,0.000163181,0.000366760,0.016936511,0.000000000,-0.019467775,0.000000000,-0.000713772,0.001748491,0.163134871,0.000000000,0.163336945,0.000000000,0.004329286,-0.017591580,-0.834515535,0.000000000,-0.832673954,0.000000000,0.010846052,-0.017240930,-0.563006536,0.000000000,-0.562542364,0.000000000,0.006207768,-0.001430554,-0.623492931,0.000000000,-0.623321072,0.000000000,0.000016705,0.000019444,-0.001726488,0.000000000,-0.001743550,0.000000000,0.000071248,0.001813834,-0.017064170,0.000000000,-0.017851674,-0.003753000,0.000473566,-0.011419864,-0.904603914,0.000000000,-0.943074385,0.000000000,0.004331275,-0.017544070,-0.835735266,0.000000000,-0.834313948,0.000000000,0.010847918,-0.017331302,-0.562748953,0.000000000,-0.562017861,0.000000000,0.006210422,-0.001403370,-0.623786529,0.000000000,-0.623666511,0.000000000,0.000076646,0.002435322,-0.013906860,0.000000000,-0.014669814
0.102000000,0.000000000,0.000163168,-0.000128386,-0.019467775,0.000000000,-0.016666335,0.000000000,-0.000710444,0.001703733,0.163336945,0.000000000,0.163403475,0.000000000,0.004294934,-0.017179254,-0.832673954,0.000000000,-0.832235919,0.000000000,0.010811820,-0.017115872,-0.562542364,0.000000000,-0.561269032,0.000000000,0.006205155,-0.001306661,-0.623321072,0.000000000,-0.623409185,0.000000000,0.000016887,0.000091911,-0.001743550,0.000000000,-0.001968033,0.000000000,0.000074999,0.001886505,-0.017851674,0.000000000,-0.018662434,-0.003970000,0.000449397,-0.012092907,-0.943074385,0.000000000,-0.982662040,0.000000000,0.004296958,-0.017166251,-0.834313948,0.000000000,-0.833105526,0.000000000,0.010813683,-0.017117724,-0.562017861,0.000000000,-0.561373493,0.000000000,0.006207727,-0.001347623,-0.623666511,0.000000000,-0.623552603,0.000000000,0.000081705,0.002530213,-0.014669814,0.000000000,-0.015450874
0.104000000,0.000000000,-0.000163159,-0.000599784,-0.016666335,0.000000000,0.020783224,0.000000000,-0.000707183,0.001670143,0.163403475,0.000000000,0.163236363,0.000000000,0.004261381,-0.016779519,-0.832235919,0.000000000,-0.831740327,0.000000000,0.010777931,-0.016944860,-0.561269032,0.000000000,-0.560343941,0.000000000,0.006202692,-0.001231778,-0.623409185,0.000000000,-0.623373098,0.000000000,0.000017014,0.000063648,-0.001968033,0.000000000,-0.001900465,0.000000000,0.000078901,0.001961734,-0.018662434,0.000000000,-0.019503847,-0.004195000,0.000423813,-0.012801758,-0.982662040,0.000000000,-1.023311632,0.000000000,0.004263396,-0.016789125,-0.833105526,0.000000000,-0.832095808,0.000000000,0.010779891,-0.016895551,-0.561373493,0.000000000,-0.560818280,0.000000000,0.006205141,-0.001292954,-0.623552603,0.000000000,-0.623446685,0.000000000,0.000086953,0.002624802,-0.015450874,0.000000000,-0.016250203
0.106000000,0.000000000,-0.000163151,-0.000263722,0.020783224,0.000000000,0.018881898,0.000000000,-0.000704007,0.001627982,0.163236363,0.000000000,0.163287067,0.000000000,0.004228516,-0.016435717,-0.831740327,0.000000000,-0.830175013,0.000000000,0.010744667,-0.016631971,-0.560343941,0.000000000,-0.560466835,0.000000000,0.006200191,-0.001250418,-0.623373098,0.000000000,-0.623067358,0.000000000,0.000016974,-0.000020280,-0.001900465,0.000000000,-0.001657781,0.000000000,0.000082960,0.002039049,-0.019503847,0.000000000,-0.020373682,-0.004427000,0.000396742,-0.013547385,-1.023311632,0.000000000,-1.064696272,0.000000000,0.004230587,-0.016412255,-0.832095808,0.000000000,-0.831294516,0.000000000,0.010746560,-0.016665914,-0.560818280,0.000000000,-0.560345135,0.000000000,0.006202663,-0.001238899,-0.623446685,0.000000000,-0.623349943,0.000000000,0.000092392,0.002720295,-0.016250203,0.000000000,-0.017071418
0.108000000,0.000000000,-0.000163138,0.000072541,0.018881898,0.000000000,0.016978975,0.000000000,-0.000700938,0.001573311,0.163287067,0.000000000,0.163651285,0.000000000,0.004196358,-0.016082309,-0.830175013,0.000000000,-0.829027887,0.000000000,0.010711979,-0.016344036,-0.560466835,0.000000000,-0.560448740,0.000000000,0.006197740,-0.001225495,-0.623067358,0.000000000,-0.622890504,0.000000000,0.000016980,0.000003390,-0.001657781,0.000000000,-0.001725755,0.000000000,0.000087176,0.002117086,-0.020373682,0.000000000,-0.021264367,-0.004667000,0.000368112,-0.014329725,-1.064696272,0.000000000,-1.107081204,0.000000000,0.004198533,-0.016035316,-0.831294516,0.000000000,-0.830709078,0.000000000,0.010713701,-0.016429512,-0.560345135,0.000000000,-0.559949940,0.000000000,0.006200291,-0.001185978,-0.623349943,0.000000000,-0.623260677,0.000000000,0.000098022,0.002815605,-0.017071418,0.000000000,-0.017911388
0.110000000,0.000000000,-0.000163123,0.000372469,0.016978975,0.000000000,0.015281302,0.000000000,-0.000697977,0.001518071,0.163651285,0.000000000,0.164059110,0.000000000,0.004164924,-0.015720054,-0.829027887,0.000000000,-0.828286802,0.000000000,0.010679830,-0.016074231,-0.560448740,0.000000000,-0.560335854,0.000000000,0.006195388,-0.001175688,-0.622890504,0.000000000,-0.622794464,0.000000000,0.000017029,0.000024293,-0.001725755,0.000000000,-0.001790061,0.000000000,0.000091552,0.002196633,-0.021264367,0.000000000,-0.022180673,-0.004915000,0.000337847,-0.015149947,-1.107081204,0.000000000,-1.150418946,0.000000000,0.004167230,-0.015659205,-0.830709078,0.000000000,-0.830318686,0.000000000,0.010681330,-0.016185551,-0.559949940,0.000000000,-0.559639296,0.000000000,0.006198022,-0.001134347,-0.623260677,0.000000000,-0.623178180,0.000000000,0.000103842,0.002910135,-0.017911388,0.000000000,-0.018768258
0.112000000,0.000000000,0.000163114,0.000628157,0.015281302,0.000000000,-0.020938926,0.000000000,-0.000695119,0.001465407,0.164059110,0.000000000,0.164438048,0.000000000,0.004134224,-0.015352679,-0.828286802,0.000000000,-0.827870353,0.000000000,0.010648205,-0.015812639,-0.560335854,0.000000000,-0.560197637,0.000000000,0.006193158,-0.001115099,-0.622794464,0.000000000,-0.622741324,0.000000000,0.000017080,0.000025953,-0.001790061,0.000000000,-0.001799995,0.000000000,0.000096091,0.002277683,-0.022180673,0.000000000,-0.023122866,-0.005172000,0.000305875,-0.016008889,-1.150418946,0.000000000,-1.194953500,0.000000000,0.004136678,-0.015283749,-0.830318686,0.000000000,-0.830126915,0.000000000,0.010649460,-0.015934795,-0.559639296,0.000000000,-0.559408628,0.000000000,0.006195855,-0.001083427,-0.623178180,0.000000000,-0.623103952,0.000000000,0.000109849,0.003004264,-0.018768258,0.000000000,-0.019643021
0.114000000,0.000000000,0.000163110,0.000094471,-0.020938926,0.000000000,-0.017920495,0.000000000,-0.000692343,0.001423401,0.164438048,0.000000000,0.164599259,0.000000000,0.004104355,-0.014937774,-0.827870353,0.000000000,-0.828764855,0.000000000,0.010616887,-0.015658997,-0.560197637,0.000000000,-0.559311523,0.000000000,0.006191188,-0.000985211,-0.622741324,0.000000000,-0.622911454,0.000000000,0.000017237,0.000078906,-0.001799995,0.000000000,-0.001966391,0.000000000,0.000100796,0.002359712,-0.023122866,0.000000000,-0.024088194,-0.005436000,0.000272120,-0.016907546,-1.194953500,0.000000000,-1.240072700,0.000000000,0.004106876,-0.014908786,-0.830126915,0.000000000,-0.830137122,0.000000000,0.010618104,-0.015677843,-0.559408628,0.000000000,-0.559254462,0.000000000,0.006193789,-0.001033372,-0.623103952,0.000000000,-0.623037382,0.000000000,0.000116048,0.003099702,-0.019643021,0.000000000,-0.020540805
0.116000000,0.000000000,0.000163104,-0.000409280,-0.017920495,0.000000000,-0.015071153,0.000000000,-0.000689630,0.001392237,0.164599259,0.000000000,0.164532815,0.000000000,0.004075284,-0.014538309,-0.828764855,0.000000000,-0.829537165,0.000000000,0.010585977,-0.015454949,-0.559311523,0.000000000,-0.558809476,0.000000000,0.006189365,-0.000911443,-0.622911454,0.000000000,-0.622936946,0.000000000,0.000017322,0.000042503,-0.001966391,0.000000000,-0.001871435,0.000000000,0.000105669,0.002443710,-0.024088194,0.000000000,-0.025082657,-0.005708000,0.000236508,-0.017846595,-1.240072700,0.000000000,-1.286024598,0.000000000,0.004077821,-0.014535194,-0.830137122,0.000000000,-0.830328658,0.000000000,0.010587276,-0.015413975,-0.559254462,0.000000000,-0.559182791,0.000000000,0.006191821,-0.000983963,-0.623037382,0.000000000,-0.622978965,0.000000000,0.000122432,0.003192829,-0.020540805,0.000000000,-0.021450850
0.118000000,0.000000000,-0.000163110,-0.000850292,-0.015071153,0.000000000,0.022194653,0.000000000,-0.000686980,0.001360133,0.164532815,0.000000000,0.164505742,0.000000000,0.004046986,-0.014152003,-0.829537165,0.000000000,-0.830231439,0.000000000,0.010555551,-0.015212895,-0.558809476,0.000000000,-0.558608147,0.000000000,0.006187628,-0.000868694,-0.622936946,0.000000000,-0.622882892,0.000000000,0.000017357,0.000018085,-0.001871435,0.000000000,-0.001805649,0.000000000,0.000110713,0.002528645,-0.025082657,0.000000000,-0.026100619,-0.005989000,0.000198973,-0.018826600,-1.286024598,0.000000000,-1.333061436,0.000000000,0.004049512,-0.014162331,-0.830328658,0.000000000,-0.830715671,0.000000000,0.010556987,-0.015144514,-0.559182791,0.000000000,-0.559184908,0.000000000,0.006189951,-0.000934985,-0.622978965,0.000000000,-0.622929219,0.000000000,0.000129003,0.003285440,-0.021450850,0.000000000,-0.022378152
0.120000000,0.000000000,-0.000163118,-0.000474914,0.022194653,0.000000000,0.020072742,0.000000000,-0.000684417,0.001316162,0.164505742,0.000000000,0.164771897,0.000000000,0.004019354,-0.013819050,-0.830231439,0.000000000,-0.829908195,0.000000000,0.010525870,-0.014840517,-0.558608147,0.000000000,-0.559380206,0.000000000,0.006185817,-0.000905469,-0.622882892,0.000000000,-0.622595318,0.000000000,0.000017267,-0.000045724,-0.001805649,0.000000000,-0.001615053,0.000000000,0.000115930,0.002614882,-0.026100619,0.000000000,-0.027144419,-0.006278000,0.000159459,-0.019848878,-1.333061436,0.000000000,-1.380853707,0.000000000,0.004021945,-0.013790821,-0.830715671,0.000000000,-0.831283220,0.000000000,0.010527249,-0.014869020,-0.559184908,0.000000000,-0.559264721,0.000000000,0.006188177,-0.000886783,-0.622929219,0.000000000,-0.622887015,0.000000000,0.000135758,0.003378263,-0.022378152,0.000000000,-0.023324824
0.122000000,0.000000000,-0.000163118,-0.000105358,0.020072742,0.000000000,0.017982867,0.000000000,-0.000681964,0.001260338,0.164771897,0.000000000,0.165337167,0.000000000,0.003992410,-0.013475155,-0.829908195,0.000000000,-0.830027918,0.000000000,0.010496868,-0.014501058,-0.559380206,0.000000000,-0.559961164,0.000000000,0.006184035,-0.000890894,-0.622595318,0.000000000,-0.622456681,0.000000000,0.000017240,-0.000013468,-0.001615053,0.000000000,-0.001704049,0.000000000,0.000121321,0.002701274,-0.027144419,0.000000000,-0.028207585,-0.006576000,0.000117960,-0.020913314,-1.380853707,0.000000000,-1.429686419,0.000000000,0.003995120,-0.013420053,-0.831283220,0.000000000,-0.832044750,0.000000000,0.010498072,-0.014588654,-0.559264721,0.000000000,-0.559414572,0.000000000,0.006186499,-0.000839316,-0.622887015,0.000000000,-0.622852313,0.000000000,0.000142699,0.003470555,-0.023324824,0.000000000,-0.024288649
0.124000000,0.000000000,-0.000163108,0.000220530,0.017982867,0.000000000,0.016138928,0.000000000,-0.000679618,0.001205048,0.165337167,0.000000000,0.165921026,0.000000000,0.003966172,-0.013121874,-0.830027918,0.000000000,-0.830560778,0.000000000,0.010468498,-0.014185284,-0.559961164,0.000000000,-0.560413660,0.000000000,0.006182340,-0.000847155,-0.622456681,0.000000000,-0.622409793,0.000000000,0.000017255,0.000007591,-0.001704049,0.000000000,-0.001765446,0.000000000,0.000126888,0.002788636,-0.028207585,0.000000000,-0.029294942,-0.006882000,0.000074660,-0.022021143,-1.429686419,0.000000000,-1.479299527,0.000000000,0.003969033,-0.013050842,-0.832044750,0.000000000,-0.832980909,0.000000000,0.010469467,-0.014302708,-0.559414572,0.000000000,-0.559640217,0.000000000,0.006184913,-0.000792739,-0.622852313,0.000000000,-0.622824495,0.000000000,0.000149823,0.003562269,-0.024288649,0.000000000,-0.025269372
0.126000000,0.000000000,-0.000163095,0.000497415,0.016138928,0.000000000,0.014571781,0.000000000,-0.000677374,0.001152971,0.165921026,0.000000000,0.166461151,0.000000000,0.003940650,-0.012763422,-0.830560778,0.000000000,-0.831414338,0.000000000,0.010440734,-0.013881740,-0.560413660,0.000000000,-0.560817568,0.000000000,0.006180760,-0.000790431,-0.622409793,0.000000000,-0.622411290,0.000000000,0.000017270,0.000007532,-0.001765446,0.000000000,-0.001766790,0.000000000,0.000132631,0.002876917,-0.029294942,0.000000000,-0.030406381,-0.007196000,0.000031408,-0.023172934,-1.479299527,0.000000000,-1.530205991,0.000000000,0.003943682,-0.012683020,-0.832980909,0.000000000,-0.834094708,0.000000000,0.010441443,-0.014011876,-0.559640217,0.000000000,-0.559937332,0.000000000,0.006183420,-0.000746558,-0.622824495,0.000000000,-0.622804886,0.000000000,0.000157128,0.003652938,-0.025269372,0.000000000,-0.026265454
0.128000000,0.000000000,0.000163090,0.000734033,0.014571781,0.000000000,-0.021535016,0.000000000,-0.000675228,0.001103288,0.166461151,0.000000000,0.166974808,0.000000000,0.003915851,-0.012402476,-0.831414338,0.000000000,-0.832529484,0.000000000,0.010413567,-0.013583358,-0.560817568,0.000000000,-0.561222484,0.000000000,0.006179301,-0.000729558,-0.622411290,0.000000000,-0.622436887,0.000000000,0.000017270,0.000000177,-0.001766790,0.000000000,-0.001745917,0.000000000,0.000138554,0.002966050,-0.030406381,0.000000000,-0.031541707,-0.007520000,-0.000028220,-0.024370124,-1.530205991,0.000000000,-1.578273275,0.000000000,0.003919063,-0.012316663,-0.834094708,0.000000000,-0.835383577,0.000000000,0.010414010,-0.013716456,-0.559937332,0.000000000,-0.560304374,0.000000000,0.006182018,-0.000700928,-0.622804886,0.000000000,-0.622792932,0.000000000,0.000164618,0.003745152,-0.026265454,0.000000000,-0.027284574
0.130000000,0.000000000,0.000163094,0.000187240,-0.021535016,0.000000000,-0.018443382,0.000000000,-0.000673158,0.001063913,0.166974808,0.000000000,0.167277072,0.000000000,0.003891865,-0.011995936,-0.832529484,0.000000000,-0.834907027,0.000000000,0.010386784,-0.013391864,-0.561222484,0.000000000,-0.560891830,0.000000000,0.006178094,-0.000603067,-0.622436887,0.000000000,-0.622674604,0.000000000,0.000017376,0.000053320,-0.001745917,0.000000000,-0.001907716,0.000000000,0.000144653,0.003054403,-0.031541707,0.000000000,-0.032691518,-0.007852000,-0.000075603,-0.025607694,-1.578273275,0.000000000,-1.631181578,0.000000000,0.003895175,-0.011951698,-0.835383577,0.000000000,-0.836848421,0.000000000,0.010387177,-0.013416658,-0.560304374,0.000000000,-0.560740414,0.000000000,0.006180707,-0.000655442,-0.622792932,0.000000000,-0.622789767,0.000000000,0.000172257,0.003819796,-0.027284574,0.000000000,-0.028268833
0.132000000,0.000000000,-0.000163099,-0.000326105,-0.018443382,0.000000000,0.019229140,0.000000000,-0.000671145,0.001034910,0.167277072,0.000000000,0.167361039,0.000000000,0.003868658,-0.011606301,-0.834907027,0.000000000,-0.837123660,0.000000000,0.010360483,-0.013150248,-0.560891830,0.000000000,-0.560947962,0.000000000,0.006177025,-0.000534509,-0.622674604,0.000000000,-0.622761473,0.000000000,0.000017415,0.000019331,-0.001907716,0.000000000,-0.001814971,0.000000000,0.000150932,0.003143547,-0.032691518,0.000000000,-0.033864869,-0.008193000,-0.000128571,-0.026894478,-1.631181578,0.000000000,-1.683947395,0.000000000,0.003872011,-0.011588918,-0.836848421,0.000000000,-0.838469995,0.000000000,0.010360952,-0.013112176,-0.560740414,0.000000000,-0.561248212,0.000000000,0.006179485,-0.000611298,-0.622789767,0.000000000,-0.622791705,0.000000000,0.000180075,0.003909086,-0.028268833,0.000000000,-0.029312781
0.134000000,0.000000000,-0.000163102,-0.000023090,0.019229140,0.000000000,0.017515961,0.000000000,-0.000669210,0.000996205,0.167361039,0.000000000,0.167686308,0.000000000,0.003846111,-0.011275821,-0.837123660,0.000000000,-0.838190110,0.000000000,0.010334951,-0.012765831,-0.560947962,0.000000000,-0.562067695,0.000000000,0.006175898,-0.000563898,-0.622761473,0.000000000,-0.622563940,0.000000000,0.000017289,-0.000063040,-0.001814971,0.000000000,-0.001568124,0.000000000,0.000157391,0.003233664,-0.033864869,0.000000000,-0.035062986,-0.008542000,-0.000184677,-0.028227987,-1.683947395,0.000000000,-1.737038566,0.000000000,0.003849569,-0.011228006,-0.838469995,0.000000000,-0.840254457,0.000000000,0.010335345,-0.012803808,-0.561248212,0.000000000,-0.561822585,0.000000000,0.006178350,-0.000567231,-0.622791705,0.000000000,-0.622802334,0.000000000,0.000188067,0.003996511,-0.029312781,0.000000000,-0.030369101
0.136000000,0.000000000,0.000163106,0.000286137,0.017515961,0.000000000,-0.019003920,0.000000000,-0.000667374,0.000944912,0.167686308,0.000000000,0.168324798,0.000000000,0.003824240,-0.010938234,-0.838190110,0.000000000,-0.839609195,0.000000000,0.010310137,-0.012407339,-0.562067695,0.000000000,-0.563048435,0.000000000,0.006174794,-0.000551594,-0.622563940,0.000000000,-0.622487427,0.000000000,0.000017217,-0.000036616,-0.001568124,0.000000000,-0.001635891,0.000000000,0.000164030,0.003323240,-0.035062986,0.000000000,-0.036277189,-0.008901000,-0.000243698,-0.029607572,-1.737038566,0.000000000,-1.791100997,0.000000000,0.003827846,-0.010868425,-0.840254457,0.000000000,-0.842213181,0.000000000,0.010310360,-0.012492484,-0.561822585,0.000000000,-0.562457301,0.000000000,0.006177303,-0.000523564,-0.622802334,0.000000000,-0.622820652,0.000000000,0.000196229,0.004080990,-0.030369101,0.000000000,-0.031434125
0.138000000,0.000000000,-0.000163113,-0.000188882,-0.019003920,0.000000000,0.018454659,0.000000000,-0.000665621,0.000902126,0.168324798,0.000000000,0.168794314,0.000000000,0.003803147,-0.010549058,-0.839609195,0.000000000,-0.842416393,0.000000000,0.010285787,-0.012174950,-0.563048435,0.000000000,-0.563162193,0.000000000,0.006173897,-0.000448686,-0.622487427,0.000000000,-0.622689300,0.000000000,0.000017308,0.000045769,-0.001635891,0.000000000,-0.001879309,0.000000000,0.000170848,0.003412553,-0.036277189,0.000000000,-0.037508989,-0.009269000,-0.000305645,-0.031034476,-1.791100997,0.000000000,-1.845820070,0.000000000,0.003806838,-0.010510831,-0.842213181,0.000000000,-0.844330164,0.000000000,0.010286004,-0.012177594,-0.562457301,0.000000000,-0.563157147,0.000000000,0.006176341,-0.000480853,-0.622820652,0.000000000,-0.622844886,0.000000000,0.000204558,0.004164677,-0.031434125,0.000000000,-0.032513816
0.140000000,0.000000000,0.000163119,0.000106257,0.018454659,0.000000000,-0.017988040,0.000000000,-0.000663946,0.000862849,0.168794314,0.000000000,0.169206504,0.000000000,0.003782716,-0.010218048,-0.842416393,0.000000000,-0.844096100,0.000000000,0.010262189,-0.011798742,-0.563162193,0.000000000,-0.564345747,0.000000000,0.006172985,-0.000456172,-0.622689300,0.000000000,-0.622575811,0.000000000,0.000017225,-0.000041309,-0.001879309,0.000000000,-0.001623447,0.000000000,0.000177847,0.003503176,-0.037508989,0.000000000,-0.038767563,-0.009645000,-0.000370580,-0.032509948,-1.845820070,0.000000000,-1.900864889,0.000000000,0.003786539,-0.010156034,-0.844330164,0.000000000,-0.846585546,0.000000000,0.010262287,-0.011858612,-0.563157147,0.000000000,-0.563926370,0.000000000,0.006175465,-0.000438356,-0.622844886,0.000000000,-0.622877099,0.000000000,0.000213050,0.004246139,-0.032513816,0.000000000,-0.033603649
0.142000000,0.000000000,-0.000163129,-0.000357724,-0.017988040,0.000000000,0.019411160,0.000000000,-0.000662347,0.000823539,0.169206504,0.000000000,0.169641169,0.000000000,0.003763045,-0.009837868,-0.844096100,0.000000000,-0.847104041,0.000000000,0.010239094,-0.011547915,-0.564345747,0.000000000,-0.564669777,0.000000000,0.006172251,-0.000366802,-0.622575811,0.000000000,-0.622755748,0.000000000,0.000017270,0.000022581,-0.001623447,0.000000000,-0.001809624,0.000000000,0.000185026,0.003592367,-0.038767563,0.000000000,-0.040037090,-0.010031000,-0.000438585,-0.034033105,-1.900864889,0.000000000,-1.956801098,0.000000000,0.003766948,-0.009802361,-0.846585546,0.000000000,-0.849016473,0.000000000,0.010239211,-0.011538023,-0.563926370,0.000000000,-0.564747519,0.000000000,0.006174672,-0.000396124,-0.622877099,0.000000000,-0.622917097,0.000000000,0.000221702,0.004326213,-0.033603649,0.000000000,-0.034705722
0.144000000,0.000000000,-0.000163137,-0.000039015,0.019411160,0.000000000,0.017609695,0.000000000,-0.000660826,0.000784112,0.169641169,0.000000000,0.170100541,0.000000000,0.003744022,-0.009514247,-0.847104041,0.000000000,-0.849016640,0.000000000,0.010216776,-0.011158593,-0.564669777,0.000000000,-0.566027409,0.000000000,0.006171490,-0.000380757,-0.622755748,0.000000000,-0.622639111,0.000000000,0.000017163,-0.000054017,-0.001809624,0.000000000,-0.001581005,0.000000000,0.000192384,0.003682395,-0.040037090,0.000000000,-0.041330589,-0.010426000,-0.000509750,-0.035605937,-1.956801098,0.000000000,-2.013273655,0.000000000,0.003748057,-0.009451928,-0.849016473,0.000000000,-0.851573265,0.000000000,0.010216785,-0.011213340,-0.564747519,0.000000000,-0.565638784,0.000000000,0.006173963,-0.000354753,-0.622917097,0.000000000,-0.622963008,0.000000000,0.000230511,0.004404540,-0.034705722,0.000000000,-0.035818663
0.146000000,0.000000000,-0.000163144,0.000271737,0.017609695,0.000000000,0.015853160,0.000000000,-0.000659400,0.000735345,0.170100541,0.000000000,0.170798260,0.000000000,0.003725656,-0.009185292,-0.849016640,0.000000000,-0.851236870,0.000000000,0.010195191,-0.010792441,-0.566027409,0.000000000,-0.567266608,0.000000000,0.006170769,-0.000360296,-0.622639111,0.000000000,-0.622624456,0.000000000,0.000017080,-0.000041659,-0.001581005,0.000000000,-0.001607771,0.000000000,0.000199921,0.003771305,-0.041330589,0.000000000,-0.042636751,-0.010830000,-0.000584169,-0.037227887,-2.013273655,0.000000000,-2.070268596,0.000000000,0.003729863,-0.009103097,-0.851573265,0.000000000,-0.854292066,0.000000000,0.010195010,-0.010887160,-0.565638784,0.000000000,-0.566581894,0.000000000,0.006173336,-0.000313591,-0.622963008,0.000000000,-0.623016647,0.000000000,0.000239474,0.004482042,-0.035818663,0.000000000,-0.036944928
0.148000000,0.000000000,0.000163156,0.000549421,0.015853160,0.000000000,-0.020498126,0.000000000,-0.000658069,0.000686409,0.170798260,0.000000000,0.171526852,0.000000000,0.003707959,-0.008850846,-0.851236870,0.000000000,-0.853771396,0.000000000,0.010174301,-0.010445022,-0.567266608,0.000000000,-0.568416546,0.000000000,0.006170129,-0.000319769,-0.622624456,0.000000000,-0.622675041,0.000000000,0.000017027,-0.000026548,-0.001607771,0.000000000,-0.001645400,0.000000000,0.000207635,0.003859725,-0.042636751,0.000000000,-0.043959024,-0.011244000,-0.000661939,-0.038899536,-2.070268596,0.000000000,-2.128029369,0.000000000,0.003712362,-0.008756909,-0.854292066,0.000000000,-0.857147824,0.000000000,0.010173894,-0.010558296,-0.566581894,0.000000000,-0.567585631,0.000000000,0.006172789,-0.000273261,-0.623016647,0.000000000,-0.623076072,0.000000000,0.000248588,0.004557115,-0.036944928,0.000000000,-0.038079462
0.150000000,0.000000000,0.000163169,0.000035983,-0.020498126,0.000000000,-0.017596033,0.000000000,-0.000656810,0.000648854,0.171526852,0.000000000,0.172018595,0.000000000,0.003691025,-0.008469187,-0.853771396,0.000000000,-0.857590767,0.000000000,0.010153874,-0.010213943,-0.568416546,0.000000000,-0.568768727,0.000000000,0.006169720,-0.000204695,-0.622675041,0.000000000,-0.622960821,0.000000000,0.000017097,0.000035158,-0.001645400,0.000000000,-0.001827892,0.000000000,0.000215525,0.003947237,-0.043959024,0.000000000,-0.045294852,-0.011667000,-0.000743157,-0.040621368,-2.128029369,0.000000000,-2.186233016,0.000000000,0.003695548,-0.008412971,-0.857147824,0.000000000,-0.860148124,0.000000000,0.010153438,-0.010227644,-0.567585631,0.000000000,-0.568643849,0.000000000,0.006172322,-0.000233478,-0.623076072,0.000000000,-0.623141981,0.000000000,0.000257851,0.004631377,-0.038079462,0.000000000,-0.039226703
0.152000000,0.000000000,0.000163180,-0.000451822,-0.017596033,0.000000000,-0.014838595,0.000000000,-0.000655603,0.000622981,0.172018595,0.000000000,0.172260590,0.000000000,0.003674821,-0.008103820,-0.857590767,0.000000000,-0.861249295,0.000000000,0.010133995,-0.009939259,-0.568768727,0.000000000,-0.569465553,0.000000000,0.006169434,-0.000142861,-0.622960821,0.000000000,-0.623107737,0.000000000,0.000017099,0.000000836,-0.001827892,0.000000000,-0.001730486,0.000000000,0.000223590,0.004034853,-0.045294852,0.000000000,-0.046649978,-0.012099000,-0.000827925,-0.042394083,-2.186233016,0.000000000,-2.244834833,0.000000000,0.003679416,-0.008072061,-0.860148124,0.000000000,-0.863273674,0.000000000,0.010133649,-0.009894541,-0.568643849,0.000000000,-0.569761568,0.000000000,0.006171934,-0.000194053,-0.623141981,0.000000000,-0.623214843,0.000000000,0.000267257,0.004702980,-0.039226703,0.000000000,-0.040380858
0.154000000,0.000000000,-0.000163202,-0.000879913,-0.014838595,0.000000000,0.022371900,0.000000000,-0.000654447,0.000596783,0.172260590,0.000000000,0.172524603,0.000000000,0.003659320,-0.007752743,-0.861249295,0.000000000,-0.864784136,0.000000000,0.010114730,-0.009632353,-0.569465553,0.000000000,-0.570430189,0.000000000,0.006169213,-0.000110519,-0.623107737,0.000000000,-0.623177346,0.000000000,0.000017052,-0.000023767,-0.001730486,0.000000000,-0.001655766,0.000000000,0.000231828,0.004121537,-0.046649978,0.000000000,-0.048018345,-0.012541000,-0.000916343,-0.044217683,-2.244834833,0.000000000,-2.304090691,0.000000000,0.003663961,-0.007733517,-0.863273674,0.000000000,-0.866538059,0.000000000,0.010114529,-0.009560213,-0.569761568,0.000000000,-0.570930227,0.000000000,0.006171624,-0.000154816,-0.623214843,0.000000000,-0.623295103,0.000000000,0.000276802,0.004772762,-0.040380858,0.000000000,-0.041543944
0.156000000,0.000000000,-0.000163227,-0.000492956,0.022371900,0.000000000,0.020186319,0.000000000,-0.000653366,0.000558677,0.172524603,0.000000000,0.173079342,0.000000000,0.003644411,-0.007456372,-0.864784136,0.000000000,-0.867250040,0.000000000,0.010096330,-0.009200188,-0.570430189,0.000000000,-0.572339756,0.000000000,0.006168899,-0.000157044,-0.623177346,0.000000000,-0.623013333,0.000000000,0.000016877,-0.000088087,-0.001655766,0.000000000,-0.001455212,0.000000000,0.000240239,0.004207614,-0.048018345,0.000000000,-0.049401653,-0.012992000,-0.001008515,-0.046093018,-2.304090691,0.000000000,-2.363667862,0.000000000,0.003649176,-0.007397937,-0.866538059,0.000000000,-0.869926111,0.000000000,0.010096081,-0.009224147,-0.570930227,0.000000000,-0.572153697,0.000000000,0.006171392,-0.000116157,-0.623295103,0.000000000,-0.623381530,0.000000000,0.000286484,0.004841284,-0.041543944,0.000000000,-0.042717299
0.158000000,0.000000000,-0.000163243,-0.000112912,0.020186319,0.000000000,0.018038926,0.000000000,-0.000652382,0.000509069,0.173079342,0.000000000,0.173921614,0.000000000,0.003630114,-0.007150441,-0.867250040,0.000000000,-0.870106051,0.000000000,0.010078719,-0.008805680,-0.572339756,0.000000000,-0.574031497,0.000000000,0.006168595,-0.000151923,-0.623013333,0.000000000,-0.622997184,0.000000000,0.000016766,-0.000055489,-0.001455212,0.000000000,-0.001536745,0.000000000,0.000248819,0.004291897,-0.049401653,0.000000000,-0.050792805,-0.013452000,-0.001104541,-0.048019529,-2.363667862,0.000000000,-2.423549722,0.000000000,0.003635058,-0.007064680,-0.869926111,0.000000000,-0.873450984,0.000000000,0.010078306,-0.008887436,-0.572153697,0.000000000,-0.573424290,0.000000000,0.006171236,-0.000078086,-0.623381530,0.000000000,-0.623473986,0.000000000,0.000296300,0.004907821,-0.042717299,0.000000000,-0.043898460
0.160000000,0.000000000,-0.000163250,0.000222528,0.018038926,0.000000000,0.016142714,0.000000000,-0.000651492,0.000460350,0.173921614,0.000000000,0.174770600,0.000000000,0.003616445,-0.006836541,-0.870106051,0.000000000,-0.873320740,0.000000000,0.010061840,-0.008439345,-0.574031497,0.000000000,-0.575569264,0.000000000,0.006168360,-0.000117588,-0.622997184,0.000000000,-0.623071029,0.000000000,0.000016700,-0.000033657,-0.001536745,0.000000000,-0.001592056,0.000000000,0.000257565,0.004375086,-0.050792805,0.000000000,-0.052195529,-0.013923000,-0.001204525,-0.049997580,-2.423549722,0.000000000,-2.484267503,0.000000000,0.003621599,-0.006734535,-0.873450984,0.000000000,-0.877093061,0.000000000,0.010061207,-0.008549282,-0.573424290,0.000000000,-0.574747860,0.000000000,0.006171155,-0.000040745,-0.623473986,0.000000000,-0.623571911,0.000000000,0.000306241,0.004970945,-0.043898460,0.000000000,-0.045082677
0.162000000,0.000000000,-0.000163253,0.000508107,0.016142714,0.000000000,0.014528107,0.000000000,-0.000650689,0.000415168,0.174770600,0.000000000,0.175564531,0.000000000,0.003603411,-0.006518894,-0.873320740,0.000000000,-0.876800723,0.000000000,0.010045661,-0.008089556,-0.575569264,0.000000000,-0.577033612,0.000000000,0.006168219,-0.000070337,-0.623071029,0.000000000,-0.623191148,0.000000000,0.000016634,-0.000032786,-0.001592056,0.000000000,-0.001587948,0.000000000,0.000266476,0.004457214,-0.052195529,0.000000000,-0.053609786,-0.014403000,-0.001308572,-0.052028158,-2.484267503,0.000000000,-2.545200703,0.000000000,0.003608795,-0.006407298,-0.877093061,0.000000000,-0.880855316,0.000000000,0.010044786,-0.008210357,-0.574747860,0.000000000,-0.576119721,0.000000000,0.006171147,-0.000003795,-0.623571911,0.000000000,-0.623676191,0.000000000,0.000316309,0.005033777,-0.045082677,0.000000000,-0.046278768
0.164000000,0.000000000,0.000163263,0.000752636,0.014528107,0.000000000,-0.021658729,0.000000000,-0.000649970,0.000372731,0.175564531,0.000000000,0.176319863,0.000000000,0.003591014,-0.006200176,-0.876800723,0.000000000,-0.880486077,0.000000000,0.010030163,-0.007749107,-0.577033612,0.000000000,-0.578474580,0.000000000,0.006168181,-0.000019077,-0.623191148,0.000000000,-0.623333023,0.000000000,0.000016557,-0.000039192,-0.001587948,0.000000000,-0.001561868,0.000000000,0.000275549,0.004538125,-0.053609786,0.000000000,-0.055034431,-0.014892000,-0.001416785,-0.054111096,-2.545200703,0.000000000,-2.606323425,0.000000000,0.003596639,-0.006083025,-0.880855316,0.000000000,-0.884734769,0.000000000,0.010029045,-0.007870838,-0.576119721,0.000000000,-0.577538700,0.000000000,0.006171213,0.000032781,-0.623676191,0.000000000,-0.623786804,0.000000000,0.000326497,0.005094229,-0.046278768,0.000000000,-0.047480312
0.166000000,0.000000000,0.000163284,0.000212370,-0.021658729,0.000000000,-0.018605679,0.000000000,-0.000649311,0.000341141,0.176319863,0.000000000,0.176847169,0.000000000,0.003579343,-0.005837192,-0.880486077,0.000000000,-0.885378977,0.000000000,0.010015123,-0.007519730,-0.578474580,0.000000000,-0.579155018,0.000000000,0.006168377,0.000097758,-0.623333023,0.000000000,-0.623684944,0.000000000,0.000016587,0.000015442,-0.001561868,0.000000000,-0.001720296,0.000000000,0.000284780,0.004617142,-0.055034431,0.000000000,-0.056465226,-0.015391000,-0.001529270,-0.056246145,-2.606323425,0.000000000,-2.667895772,0.000000000,0.003585126,-0.005761560,-0.884734769,0.000000000,-0.888733380,0.000000000,0.010013982,-0.007531142,-0.577538700,0.000000000,-0.579001856,0.000000000,0.006171350,0.000068797,-0.623786804,0.000000000,-0.623903103,0.000000000,0.000336801,0.005151937,-0.047480312,0.000000000,-0.048685718
0.168000000,0.000000000,-0.000163302,-0.000295090,-0.018605679,0.000000000,0.019075473,0.000000000,-0.000648693,0.000320300,0.176847169,0.000000000,0.177142971,0.000000000,0.003568361,-0.005492539,-0.885378977,0.000000000,-0.890053155,0.000000000,0.010000635,-0.007244158,-0.579155018,0.000000000,-0.580198629,0.000000000,0.006168690,0.000156395,-0.623684944,0.000000000,-0.623883263,0.000000000,0.000016553,-0.000017488,-0.001720296,0.000000000,-0.001623168,0.000000000,0.000294168,0.004695314,-0.056465226,0.000000000,-0.057907931,-0.015900001,-0.001646132,-0.058434245,-2.667895772,0.000000000,-2.729866875,0.000000000,0.003574248,-0.005443714,-0.888733380,0.000000000,-0.892830726,0.000000000,0.009999601,-0.007190527,-0.579001856,0.000000000,-0.580514566,0.000000000,0.006171559,0.000104321,-0.623903103,0.000000000,-0.624025185,0.000000000,0.000347215,0.005207198,-0.048685718,0.000000000,-0.049895341
0.170000000,0.000000000,0.000163321,0.000014167,0.019075473,0.000000000,-0.017488775,0.000000000,-0.000648137,0.000289619,0.177142971,0.000000000,0.177678670,0.000000000,0.003557948,-0.005208482,-0.890053155,0.000000000,-0.893518161,0.000000000,0.009986976,-0.006829527,-0.580198629,0.000000000,-0.582283055,0.000000000,0.006168923,0.000116789,-0.623883263,0.000000000,-0.623794269,0.000000000,0.000016355,-0.000099363,-0.001623168,0.000000000,-0.001370447,0.000000000,0.000303709,0.004772212,-0.057907931,0.000000000,-0.059359841,-0.016419001,-0.001767477,-0.060675622,-2.729866875,0.000000000,-2.792200581,0.000000000,0.003563999,-0.005129038,-0.892830726,0.000000000,-0.897035147,0.000000000,0.009985901,-0.006849963,-0.580514566,0.000000000,-0.582069938,0.000000000,0.006171838,0.000139724,-0.624025185,0.000000000,-0.624154081,0.000000000,0.000357737,0.005261055,-0.049895341,0.000000000,-0.051111856
0.172000000,0.000000000,-0.000163343,-0.000423645,-0.017488775,0.000000000,0.019806787,0.000000000,-0.000647645,0.000255720,0.177678670,0.000000000,0.178305671,0.000000000,0.003548203,-0.004873776,-0.893518161,0.000000000,-0.898319022,0.000000000,0.009973874,-0.006550664,-0.582283055,0.000000000,-0.583437671,0.000000000,0.006169293,0.000185041,-0.623794269,0.000000000,-0.624025711,0.000000000,0.000016331,-0.000012000,-0.001370447,0.000000000,-0.001616415,0.000000000,0.000313399,0.004846161,-0.059359841,0.000000000,-0.060810849,-0.016946999,-0.001893410,-0.062969657,-2.792200581,0.000000000,-2.854596681,0.000000000,0.003554374,-0.004816875,-0.897035147,0.000000000,-0.901360111,0.000000000,0.009972881,-0.006510394,-0.582069938,0.000000000,-0.583661140,0.000000000,0.006172187,0.000174347,-0.624154081,0.000000000,-0.624287755,0.000000000,0.000368365,0.005314101,-0.051111856,0.000000000,-0.052336792
0.174000000,0.000000000,-0.000163363,-0.000081945,0.019806787,0.000000000,0.017876551,0.000000000,-0.000647219,0.000222058,0.178305671,0.000000000,0.178946073,0.000000000,0.003539016,-0.004595169,-0.898319022,0.000000000,-0.902009314,0.000000000,0.009961593,-0.006140855,-0.583437671,0.000000000,-0.585574815,0.000000000,0.006169605,0.000156020,-0.624025711,0.000000000,-0.623974741,0.000000000,0.000016176,-0.000078379,-0.001616415,0.000000000,-0.001411966,0.000000000,0.000323235,0.004919544,-0.060810849,0.000000000,-0.062274323,-0.017485000,-0.002024039,-0.065317028,-2.854596681,0.000000000,-2.917294898,0.000000000,0.003545364,-0.004509030,-0.901360111,0.000000000,-0.905762309,0.000000000,0.009960541,-0.006169722,-0.583661140,0.000000000,-0.585303216,0.000000000,0.006172604,0.000208352,-0.624287755,0.000000000,-0.624426546,0.000000000,0.000379090,0.005362396,-0.052336792,0.000000000,-0.053557982
0.176000000,0.000000000,-0.000163380,0.000245788,0.017876551,0.000000000,0.016025041,0.000000000,-0.000646875,0.000180167,0.178946073,0.000000000,0.179795743,0.000000000,0.003530396,-0.004311257,-0.902009314,0.000000000,-0.905980965,0.000000000,0.009950073,-0.005760081,-0.585574815,0.000000000,-0.587553686,0.000000000,0.006169935,0.000164968,-0.623974741,0.000000000,-0.624033525,0.000000000,0.000016047,-0.000064977,-0.001411966,0.000000000,-0.001437027,0.000000000,0.000333213,0.004990304,-0.062274323,0.000000000,-0.063738060,-0.018033000,-0.002159469,-0.067717281,-2.917294898,0.000000000,-2.980274382,0.000000000,0.003536965,-0.004203774,-0.905762309,0.000000000,-0.910279394,0.000000000,0.009948880,-0.005830587,-0.585303216,0.000000000,-0.586977209,0.000000000,0.006173088,0.000242278,-0.624426546,0.000000000,-0.624571969,0.000000000,0.000389908,0.005409522,-0.053557982,0.000000000,-0.054785372
0.178000000,0.000000000,0.000163400,0.000536895,0.016025041,0.000000000,-0.020453272,0.000000000,-0.000646611,0.000138727,0.179795743,0.000000000,0.180658020,0.000000000,0.003522354,-0.004022250,-0.905980965,0.000000000,-0.910232145,0.000000000,0.009939267,-0.005402633,-0.587553686,0.000000000,-0.589411913,0.000000000,0.006170327,0.000195880,-0.624033525,0.000000000,-0.624161003,0.000000000,0.000015945,-0.000050970,-0.001437027,0.000000000,-0.001466624,0.000000000,0.000343329,0.005059103,-0.063738060,0.000000000,-0.065205393,-0.018591000,-0.002299807,-0.070170842,-2.980274382,0.000000000,-3.043495777,0.000000000,0.003529168,-0.003902168,-0.910279394,0.000000000,-0.914885261,0.000000000,0.009937897,-0.005491668,-0.586977209,0.000000000,-0.588692480,0.000000000,0.006173639,0.000275361,-0.624571969,0.000000000,-0.624721685,0.000000000,0.000400817,0.005454442,-0.054785372,0.000000000,-0.056015575
0.180000000,0.000000000,0.000163423,0.000034019,-0.020453272,0.000000000,-0.017611994,0.000000000,-0.000646403,0.000109145,0.180658020,0.000000000,0.181268206,0.000000000,0.003514983,-0.003686583,-0.910232145,0.000000000,-0.915729468,0.000000000,0.009928936,-0.005165464,-0.589411913,0.000000000,-0.590445160,0.000000000,0.006170932,0.000302334,-0.624161003,0.000000000,-0.624524761,0.000000000,0.000015967,0.000010683,-0.001466624,0.000000000,-0.001644048,0.000000000,0.000353578,0.005125525,-0.065205393,0.000000000,-0.066673450,-0.019159000,-0.002445158,-0.072677490,-3.043495777,0.000000000,-3.106933903,0.000000000,0.003521968,-0.003603803,-0.914885261,0.000000000,-0.919587333,0.000000000,0.009927589,-0.005153783,-0.588692480,0.000000000,-0.590443092,0.000000000,0.006174255,0.000307930,-0.624721685,0.000000000,-0.624876520,0.000000000,0.000411812,0.005497386,-0.056015575,0.000000000,-0.057248841
0.182000000,0.000000000,-0.000163446,-0.000444315,-0.017611994,0.000000000,0.019934643,0.000000000,-0.000646231,0.000091348,0.181268206,0.000000000,0.181621754,0.000000000,0.003508249,-0.003367984,-0.915729468,0.000000000,-0.921021826,0.000000000,0.009919160,-0.004887938,-0.590445160,0.000000000,-0.591800318,0.000000000,0.006171643,0.000355794,-0.624524761,0.000000000,-0.624748663,0.000000000,0.000015921,-0.000023107,-0.001644048,0.000000000,-0.001543349,0.000000000,0.000363957,0.005190624,-0.066673450,0.000000000,-0.068147918,-0.019737000,-0.002595630,-0.075237792,-3.106933903,0.000000000,-3.170544904,0.000000000,0.003515356,-0.003309422,-0.919587333,0.000000000,-0.924366567,0.000000000,0.009917957,-0.004816233,-0.590443092,0.000000000,-0.592233957,0.000000000,0.006174935,0.000340141,-0.624876520,0.000000000,-0.625036849,0.000000000,0.000422887,0.005537645,-0.057248841,0.000000000,-0.058482609
0.184000000,0.000000000,-0.000163468,-0.000110434,0.019934643,0.000000000,0.018048940,0.000000000,-0.000646113,0.000064105,0.181621754,0.000000000,0.182204359,0.000000000,0.003502032,-0.003109404,-0.921021826,0.000000000,-0.925103563,0.000000000,0.009910210,-0.004475116,-0.591800318,0.000000000,-0.594169319,0.000000000,0.006172270,0.000313472,-0.624748663,0.000000000,-0.624691704,0.000000000,0.000015708,-0.000107100,-0.001543349,0.000000000,-0.001283067,0.000000000,0.000374463,0.005253907,-0.068147918,0.000000000,-0.069625622,-0.020324999,-0.002751330,-0.077851747,-3.170544904,0.000000000,-3.234298844,0.000000000,0.003509326,-0.003018580,-0.924366567,0.000000000,-0.929230981,0.000000000,0.009908997,-0.004479921,-0.592233957,0.000000000,-0.594058519,0.000000000,0.006175680,0.000372289,-0.625036849,0.000000000,-0.625203496,0.000000000,0.000434039,0.005576121,-0.058482609,0.000000000,-0.059719086
0.186000000,0.000000000,-0.000163490,0.000225986,0.018048940,0.000000000,0.016148774,0.000000000,-0.000646071,0.000024642,0.182204359,0.000000000,0.183085157,0.000000000,0.003496345,-0.002844803,-0.925103563,0.000000000,-0.929471873,0.000000000,0.009902021,-0.004094788,-0.594169319,0.000000000,-0.596355391,0.000000000,0.006172898,0.000313816,-0.624691704,0.000000000,-0.624756115,0.000000000,0.000015548,-0.000080747,-0.001283067,0.000000000,-0.001341792,0.000000000,0.000385089,0.005314102,-0.069625622,0.000000000,-0.071098699,-0.020923000,-0.002912365,-0.080518769,-3.234298844,0.000000000,-3.298178823,0.000000000,0.003503870,-0.002730866,-0.929230981,0.000000000,-0.934188096,0.000000000,0.009900706,-0.004145458,-0.594058519,0.000000000,-0.595912187,0.000000000,0.006176487,0.000403778,-0.625203496,0.000000000,-0.625374637,0.000000000,0.000445265,0.005613175,-0.059719086,0.000000000,-0.060959010
0.188000000,0.000000000,0.000163516,0.000527124,0.016148774,0.000000000,-0.020410366,0.000000000,-0.000646106,-0.000014831,0.183085157,0.000000000,0.183987813,0.000000000,0.003491197,-0.002574686,-0.929471873,0.000000000,-0.934118465,0.000000000,0.009894540,-0.003740526,-0.596355391,0.000000000,-0.598400945,0.000000000,0.006173575,0.000338774,-0.624756115,0.000000000,-0.624895547,0.000000000,0.000015435,-0.000057114,-0.001341792,0.000000000,-0.001397526,0.000000000,0.000395832,0.005372062,-0.071098699,0.000000000,-0.072571508,-0.021530000,-0.003078840,-0.083238970,-3.298178823,0.000000000,-3.361867757,0.000000000,0.003498982,-0.002447099,-0.934188096,0.000000000,-0.939217161,0.000000000,0.009893082,-0.003811924,-0.595912187,0.000000000,-0.597801382,0.000000000,0.006177356,0.000434462,-0.625374637,0.000000000,-0.625549689,0.000000000,0.000456560,0.005647280,-0.060959010,0.000000000,-0.062197445
0.190000000,0.000000000,0.000163542,0.000030800,-0.020410366,0.000000000,-0.017606425,0.000000000,-0.000646192,-0.000041853,0.183987813,0.000000000,0.184623529,0.000000000,0.003486683,-0.002257686,-0.934118465,0.000000000,-0.940005683,0.000000000,0.009887522,-0.003508669,-0.598400945,0.000000000,-0.599605735,0.000000000,0.006174457,0.000440878,-0.624895547,0.000000000,-0.625274942,0.000000000,0.000015449,0.000007066,-0.001397526,0.000000000,-0.001581412,0.000000000,0.000406685,0.005427251,-0.072571508,0.000000000,-0.074040424,-0.022148000,-0.003250861,-0.086011630,-3.361867757,0.000000000,-3.425920215,0.000000000,0.003494654,-0.002166785,-0.939217161,0.000000000,-0.944327373,0.000000000,0.009886122,-0.003480215,-0.597801382,0.000000000,-0.599719520,0.000000000,0.006178286,0.000464787,-0.625549689,0.000000000,-0.625729850,0.000000000,0.000467915,0.005677693,-0.062197445,0.000000000,-0.063431531
0.192000000,0.000000000,0.000163565,-0.000443162,-0.017606425,0.000000000,-0.014928589,0.000000000,-0.000646308,-0.000056705,0.184623529,0.000000000,0.184992290,0.000000000,0.003482769,-0.001957707,-0.940005683,0.000000000,-0.945678373,0.000000000,0.009881046,-0.003237960,-0.599605735,0.000000000,-0.601120882,0.000000000,0.006175439,0.000490853,-0.625274942,0.000000000,-0.625516238,0.000000000,0.000015395,-0.000027216,-0.001581412,0.000000000,-0.001478489,0.000000000,0.000417644,0.005480719,-0.074040424,0.000000000,-0.075511016,-0.022776000,-0.003428534,-0.088837805,-3.425920215,0.000000000,-3.489998133,0.000000000,0.003490878,-0.001890674,-0.944327373,0.000000000,-0.949499379,0.000000000,0.009879822,-0.003149600,-0.599719520,0.000000000,-0.601671642,0.000000000,0.006179275,0.000494724,-0.625729850,0.000000000,-0.625914961,0.000000000,0.000479328,0.005706411,-0.063431531,0.000000000,-0.064666606
0.194000000,0.000000000,-0.000163598,-0.000859259,-0.014928589,0.000000000,0.022297332,0.000000000,-0.000646453,-0.000071670,0.184992290,0.000000000,0.185372021,0.000000000,0.003479425,-0.001672909,-0.945678373,0.000000000,-0.951169557,0.000000000,0.009875168,-0.002939157,-0.601120882,0.000000000,-0.602873474,0.000000000,0.006176462,0.000511777,-0.625516238,0.000000000,-0.625679169,0.000000000,0.000015292,-0.000051623,-0.001478489,0.000000000,-0.001398752,0.000000000,0.000428706,0.005531587,-0.075511016,0.000000000,-0.076977756,-0.023414001,-0.003611966,-0.091716982,-3.489998133,0.000000000,-3.554082981,0.000000000,0.003487646,-0.001618093,-0.949499379,0.000000000,-0.954746393,0.000000000,0.009874180,-0.002821201,-0.601671642,0.000000000,-0.603649497,0.000000000,0.006180324,0.000524477,-0.625914961,0.000000000,-0.626105562,0.000000000,0.000490795,0.005733598,-0.064666606,0.000000000,-0.065902821
0.196000000,0.000000000,-0.000163633,-0.000459754,0.022297332,0.000000000,0.020041895,0.000000000,-0.000646651,-0.000098634,0.185372021,0.000000000,0.186038301,0.000000000,0.003476538,-0.001443891,-0.951169557,0.000000000,-0.955529198,0.000000000,0.009870131,-0.002518601,-0.602873474,0.000000000,-0.605544608,0.000000000,0.006177370,0.000453747,-0.625679169,0.000000000,-0.625605907,0.000000000,0.000015063,-0.000115571,-0.001398752,0.000000000,-0.001193774,0.000000000,0.000439865,0.005580204,-0.076977756,0.000000000,-0.078442136,-0.024062000,-0.003801262,-0.094649135,-3.554082981,0.000000000,-3.618144676,0.000000000,0.003484952,-0.001349589,-0.954746393,0.000000000,-0.960053752,0.000000000,0.009869191,-0.002494440,-0.603649497,0.000000000,-0.605656994,0.000000000,0.006181432,0.000553750,-0.626105562,0.000000000,-0.626300716,0.000000000,0.000502312,0.005758290,-0.065902821,0.000000000,-0.067136937
0.198000000,0.000000000,-0.000163660,-0.000068327,0.020041895,0.000000000,0.017831194,0.000000000,-0.000646923,-0.000136950,0.186038301,0.000000000,0.186982428,0.000000000,0.003474127,-0.001206254,-0.955529198,0.000000000,-0.960218873,0.000000000,0.009865852,-0.002139348,-0.605544608,0.000000000,-0.607970077,0.000000000,0.006178265,0.000447425,-0.625605907,0.000000000,-0.625678373,0.000000000,0.000014900,-0.000081979,-0.001193774,0.000000000,-0.001272842,0.000000000,0.000451114,0.005625419,-0.078442136,0.000000000,-0.079896928,-0.024720000,-0.003996527,-0.097633471,-3.618144676,0.000000000,-3.682172046,0.000000000,0.003482787,-0.001084479,-0.960053752,0.000000000,-0.965434920,0.000000000,0.009864850,-0.002170351,-0.605656994,0.000000000,-0.607686435,0.000000000,0.006182597,0.000582486,-0.626300716,0.000000000,-0.626500151,0.000000000,0.000513873,0.005781007,-0.067136937,0.000000000,-0.068370026
0.200000000,0.000000000,-0.000163677,0.000277346,0.017831194,0.000000000,0.015878237,0.000000000,-0.000647268,-0.000174199,0.186982428,0.000000000,0.187922834,0.000000000,0.003472204,-0.000961588,-0.960218873,0.000000000,-0.965206559,0.000000000,0.009862269,-0.001791723,-0.607970077,0.000000000,-0.610214642,0.000000000,0.006179205,0.000470255,-0.625678373,0.000000000,-0.625838330,0.000000000,0.000014783,-0.000059044,-0.001272842,0.000000000,-0.001326214,0.000000000,0.000462449,0.005668039,-0.079896928,0.000000000,-0.081346137,-0.025388001,-0.004197865,-0.100670011,-3.682172046,0.000000000,-3.746134946,0.000000000,0.003481144,-0.000823527,-0.965434920,0.000000000,-0.970870308,0.000000000,0.009861154,-0.001848053,-0.607686435,0.000000000,-0.609743864,0.000000000,0.006183818,0.000610526,-0.626500151,0.000000000,-0.626703274,0.000000000,0.000525475,0.005800637,-0.068370026,0.000000000,-0.069598311
0.202000000,0.000000000,-0.000163692,0.000572095,0.015878237,0.000000000,0.014213103,0.000000000,-0.000647677,-0.000207714,0.187922834,0.000000000,0.188797253,0.000000000,0.003470777,-0.000714116,-0.965206559,0.000000000,-0.970398380,0.000000000,0.009859341,-0.001463940,-0.610214642,0.000000000,-0.612359586,0.000000000,0.006180217,0.000505871,-0.625838330,0.000000000,-0.626041838,0.000000000,0.000014670,-0.000057110,-0.001326214,0.000000000,-0.001320268,0.000000000,0.000473864,0.005708029,-0.081346137,0.000000000,-0.082789009,-0.026066000,-0.004405381,-0.103758552,-3.746134946,0.000000000,-3.810007876,0.000000000,0.003480014,-0.000566494,-0.970870308,0.000000000,-0.976363084,0.000000000,0.009858098,-0.001528116,-0.609743864,0.000000000,-0.611824930,0.000000000,0.006185094,0.000638306,-0.626703274,0.000000000,-0.626911273,0.000000000,0.000537110,0.005817671,-0.069598311,0.000000000,-0.070822655
0.204000000,0.000000000,0.000163719,0.000824872,0.014213103,0.000000000,-0.022115738,0.000000000,-0.000648146,-0.000238330,0.188797253,0.000000000,0.189623005,0.000000000,0.003469845,-0.000466496,-0.970398380,0.000000000,-0.975734266,0.000000000,0.009857043,-0.001148664,-0.612359586,0.000000000,-0.614455455,0.000000000,0.006181308,0.000545349,-0.626041838,0.000000000,-0.626264304,0.000000000,0.000014546,-0.000062466,-0.001320268,0.000000000,-0.001292523,0.000000000,0.000485353,0.005745234,-0.082789009,0.000000000,-0.084224065,-0.026753999,-0.004619177,-0.106898887,-3.810007876,0.000000000,-3.873766603,0.000000000,0.003479390,-0.000313397,-0.976363084,0.000000000,-0.981910585,0.000000000,0.009855677,-0.001210663,-0.611824930,0.000000000,-0.613928441,0.000000000,0.006186426,0.000665729,-0.626911273,0.000000000,-0.627123804,0.000000000,0.000548775,0.005832402,-0.070822655,0.000000000,-0.072043431
0.206000000,0.000000000,0.000163752,0.000289997,-0.022115738,0.000000000,-0.019094566,0.000000000,-0.000648652,-0.000257808,0.189623005,0.000000000,0.190207428,0.000000000,0.003469494,-0.000175389,-0.975734266,0.000000000,-0.982219234,0.000000000,0.009855148,-0.000947813,-0.614455455,0.000000000,-0.615763367,0.000000000,0.006182609,0.000650452,-0.626264304,0.000000000,-0.626694587,0.000000000,0.000014533,-0.000006451,-0.001292523,0.000000000,-0.001450488,0.000000000,0.000496910,0.005779112,-0.084224065,0.000000000,-0.085647535,-0.027451999,-0.004839356,-0.110090471,-3.873766603,0.000000000,-3.937394298,0.000000000,0.003479265,-0.000064059,-0.981910585,0.000000000,-0.987514729,0.000000000,0.009853885,-0.000896031,-0.613928441,0.000000000,-0.616051652,0.000000000,0.006187811,0.000692601,-0.627123804,0.000000000,-0.627340197,0.000000000,0.000560465,0.005844969,-0.072043431,0.000000000,-0.073260596
0.208000000,0.000000000,0.000163779,-0.000212655,-0.019094566,0.000000000,-0.016254916,0.000000000,-0.000649175,-0.000266434,0.190207428,0.000000000,0.190551282,0.000000000,0.003469687,0.000096465,-0.982219234,0.000000000,-0.988423225,0.000000000,0.009853741,-0.000703606,-0.615763367,0.000000000,-0.617410307,0.000000000,0.006184003,0.000697077,-0.626694587,0.000000000,-0.626968044,0.000000000,0.000014457,-0.000038346,-0.001450488,0.000000000,-0.001352128,0.000000000,0.000508531,0.005810778,-0.085647535,0.000000000,-0.087065258,-0.028161000,-0.005066022,-0.113333471,-3.937394298,0.000000000,-4.001142315,0.000000000,0.003479629,0.000180752,-0.987514729,0.000000000,-0.993155558,0.000000000,0.009852718,-0.000583409,-0.616051652,0.000000000,-0.618200068,0.000000000,0.006189249,0.000719075,-0.627340197,0.000000000,-0.627560808,0.000000000,0.000572173,0.005854389,-0.073260596,0.000000000,-0.074470718
0.210000000,0.000000000,-0.000163806,-0.000651788,-0.016254916,0.000000000,0.021146268,0.000000000,-0.000649717,-0.000275708,0.190551282,0.000000000,0.190915040,0.000000000,0.003470391,0.000351703,-0.988423225,0.000000000,-0.994396434,0.000000000,0.009852882,-0.000429106,-0.617410307,0.000000000,-0.619307242,0.000000000,0.006185426,0.000711508,-0.626968044,0.000000000,-0.627152889,0.000000000,0.000014340,-0.000059155,-0.001352128,0.000000000,-0.001281120,0.000000000,0.000520209,0.005839446,-0.087065258,0.000000000,-0.088472139,-0.028879000,-0.005299276,-0.116627683,-4.001142315,0.000000000,-4.064416990,0.000000000,0.003480475,0.000421773,-0.993155558,0.000000000,-0.998847562,0.000000000,0.009852170,-0.000273993,-0.618200068,0.000000000,-0.620364784,0.000000000,0.006190740,0.000745376,-0.627560808,0.000000000,-0.627786246,0.000000000,0.000583900,0.005863159,-0.074470718,0.000000000,-0.075680764
0.212000000,0.000000000,-0.000163835,-0.000271103,0.021146268,0.000000000,0.018996625,0.000000000,-0.000650301,-0.000297088,0.190915040,0.000000000,0.191564675,0.000000000,0.003471491,0.000550162,-0.994396434,0.000000000,-0.999198164,0.000000000,0.009852819,-0.000031867,-0.619307242,0.000000000,-0.622126792,0.000000000,0.006186717,0.000645600,-0.627152889,0.000000000,-0.627096007,0.000000000,0.000014100,-0.000121190,-0.001281120,0.000000000,-0.001080483,0.000000000,0.000531938,0.005865446,-0.088472139,0.000000000,-0.089869482,-0.029608000,-0.005539220,-0.119972379,-4.064416990,0.000000000,-4.127775227,0.000000000,0.003481793,0.000658466,-0.998847562,0.000000000,-1.004576135,0.000000000,0.009852236,0.000032852,-0.620364784,0.000000000,-0.622549986,0.000000000,0.006192282,0.000771297,-0.627786246,0.000000000,-0.628015844,0.000000000,0.000595636,0.005868178,-0.075680764,0.000000000,-0.076881164
0.214000000,0.000000000,-0.000163862,0.000103874,0.018996625,0.000000000,0.016878920,0.000000000,-0.000650949,-0.000329836,0.191564675,0.000000000,0.192489458,0.000000000,0.003473005,0.000756611,-0.999198164,0.000000000,-1.004297940,0.000000000,0.009853467,0.000324126,-0.622126792,0.000000000,-0.624698138,0.000000000,0.006187979,0.000631153,-0.627096007,0.000000000,-0.627182509,0.000000000,0.000013928,-0.000086726,-0.001080483,0.000000000,-0.001161100,0.000000000,0.000543713,0.005887675,-0.089869482,0.000000000,-0.091250244,-0.030346001,-0.005785953,-0.123367131,-4.127775227,0.000000000,-4.190629612,0.000000000,0.003483578,0.000891532,-1.004576135,0.000000000,-1.010355099,0.000000000,0.009852908,0.000336086,-0.622549986,0.000000000,-0.624747832,0.000000000,0.006193876,0.000796681,-0.628015844,0.000000000,-0.628249044,0.000000000,0.000607380,0.005872373,-0.076881164,0.000000000,-0.078080066
