sainanliu129-hub/model/applications/Body_GravityPara_Iden/data/excitation/excitation_trajectory_TLBO_E1_PD-M1-v0_multi_joint_20260324-083606.csv
time,cmd_leg_l1_joint,pos_leg_l1_joint,vel_leg_l1_joint,torque_leg_l1_joint,acc_leg_l1_joint,cmd_torque_leg_l1_joint,cmd_leg_l2_joint,pos_leg_l2_joint,vel_leg_l2_joint,torque_leg_l2_joint,acc_leg_l2_joint,cmd_torque_leg_l2_joint,cmd_leg_l3_joint,pos_leg_l3_joint,vel_leg_l3_joint,torque_leg_l3_joint,acc_leg_l3_joint,cmd_torque_leg_l3_joint,cmd_leg_l4_joint,pos_leg_l4_joint,vel_leg_l4_joint,torque_leg_l4_joint,acc_leg_l4_joint,cmd_torque_leg_l4_joint,cmd_leg_l5_joint,pos_leg_l5_joint,vel_leg_l5_joint,torque_leg_l5_joint,acc_leg_l5_joint,cmd_torque_leg_l5_joint,cmd_leg_l6_joint,pos_leg_l6_joint,vel_leg_l6_joint,torque_leg_l6_joint,acc_leg_l6_joint,cmd_torque_leg_l6_joint,cmd_leg_r1_joint,pos_leg_r1_joint,vel_leg_r1_joint,torque_leg_r1_joint,acc_leg_r1_joint,cmd_torque_leg_r1_joint,cmd_leg_r2_joint,pos_leg_r2_joint,vel_leg_r2_joint,torque_leg_r2_joint,acc_leg_r2_joint,cmd_torque_leg_r2_joint,cmd_leg_r3_joint,pos_leg_r3_joint,vel_leg_r3_joint,torque_leg_r3_joint,acc_leg_r3_joint,cmd_torque_leg_r3_joint,cmd_leg_r4_joint,pos_leg_r4_joint,vel_leg_r4_joint,torque_leg_r4_joint,acc_leg_r4_joint,cmd_torque_leg_r4_joint,cmd_leg_r5_joint,pos_leg_r5_joint,vel_leg_r5_joint,torque_leg_r5_joint,acc_leg_r5_joint,cmd_torque_leg_r5_joint,cmd_leg_r6_joint,pos_leg_r6_joint,vel_leg_r6_joint,torque_leg_r6_joint,acc_leg_r6_joint,cmd_torque_leg_r6_joint
0.000000000,0.000000000,0.000089758,-0.001411953,-0.001703151,0.000000000,-0.001582880,0.000000000,-0.009016171,0.029310771,1.898229768,0.000000000,1.899821117,0.000000000,0.008616199,-0.031107613,-1.746032421,0.000000000,-1.745488293,0.000000000,0.001737070,-0.003737045,-0.083627229,0.000000000,-0.083159101,0.000000000,0.006828508,-0.016631666,-0.642899951,0.000000000,-0.642839357,0.000000000,0.000038677,0.000038312,-0.004031551,0.000000000,-0.004017778,0.000000000,-0.000017225,0.000244135,0.000452621,0.000000000,0.000455453,-0.000000000,0.000868562,-0.001996645,-0.201635982,0.000000000,-0.201722361,0.000000000,0.006604302,-0.026399690,-1.277961930,0.000000000,-1.280105249,0.000000000,0.012461853,-0.008373657,-0.726876657,0.000000000,-0.727633001,0.000000000,0.006793271,-0.016494809,-0.639618891,0.000000000,-0.639667245,0.000000000,0.000004070,0.000015704,-0.000455501,0.000000000,-0.000455999
0.002000000,0.000000000,0.000086940,-0.001413319,-0.001582880,0.000000000,-0.001274769,0.000000000,-0.008957539,0.029315881,1.899821117,0.000000000,1.883039745,0.000000000,0.008553954,-0.031122634,-1.745488293,0.000000000,-1.727455635,0.000000000,0.001729493,-0.003788268,-0.083159101,0.000000000,-0.082316435,0.000000000,0.006795249,-0.016629719,-0.642839357,0.000000000,-0.639483527,0.000000000,0.000038753,0.000037985,-0.004017778,0.000000000,-0.004024525,0.000000000,-0.000016793,0.000245447,0.000455453,0.000000000,0.000401961,-0.000000000,0.000864569,-0.001997181,-0.201722361,0.000000000,-0.200575103,0.000000000,0.006551452,-0.026430238,-1.280105249,0.000000000,-1.264391957,0.000000000,0.012445026,-0.008413295,-0.727633001,0.000000000,-0.726288402,0.000000000,0.006760274,-0.016498780,-0.639667245,0.000000000,-0.636321054,0.000000000,0.000004098,0.000015681,-0.000455999,0.000000000,-0.000458733
0.004000000,0.000000000,0.000084095,-0.001426723,-0.001274769,0.000000000,-0.000895776,0.000000000,-0.008898931,0.029303875,1.883039745,0.000000000,1.866652342,0.000000000,0.008491790,-0.031081635,-1.727455635,0.000000000,-1.710713397,0.000000000,0.001721550,-0.003971607,-0.082316435,0.000000000,-0.080511531,0.000000000,0.006762614,-0.016317491,-0.639483527,0.000000000,-0.637072935,0.000000000,0.000038952,0.000099522,-0.004024525,0.000000000,-0.004219590,0.000000000,-0.000016323,0.000268257,0.000401961,0.000000000,0.000222862,-0.000000000,0.000860597,-0.001985970,-0.200575103,0.000000000,-0.199699882,0.000000000,0.006498720,-0.026371463,-1.264391957,0.000000000,-1.250732393,0.000000000,0.012427672,-0.008677081,-0.726288402,0.000000000,-0.723317237,0.000000000,0.006728162,-0.016055672,-0.636321054,0.000000000,-0.634335477,0.000000000,0.000004115,0.000009527,-0.000458733,0.000000000,-0.000442927
0.006000000,0.000000000,0.000081207,-0.001449136,-0.000895776,0.000000000,-0.000461142,0.000000000,-0.008840381,0.029275052,1.866652342,0.000000000,1.850661718,0.000000000,0.008429794,-0.030998017,-1.710713397,0.000000000,-1.694982694,0.000000000,0.001713050,-0.004250005,-0.080511531,0.000000000,-0.077995776,0.000000000,0.006731031,-0.015791212,-0.637072935,0.000000000,-0.635377269,0.000000000,0.000039325,0.000186899,-0.004219590,0.000000000,-0.004505779,0.000000000,-0.000015800,0.000300836,0.000222862,0.000000000,-0.000017086,-0.000001000,0.000856643,-0.001977403,-0.199699882,0.000000000,-0.199053954,0.000000000,0.006446188,-0.026270605,-1.250732393,0.000000000,-1.238082000,0.000000000,0.012409593,-0.009039696,-0.723317237,0.000000000,-0.719597780,0.000000000,0.006697373,-0.015394824,-0.634335477,0.000000000,-0.633102514,0.000000000,0.000004120,0.000003290,-0.000442927,0.000000000,-0.000425758
0.008000000,0.000000000,0.000078261,-0.001478123,-0.000461142,0.000000000,0.000016754,0.000000000,-0.008781920,0.029230382,1.850661718,0.000000000,1.835054942,0.000000000,0.008368035,-0.030879575,-1.694982694,0.000000000,-1.680107014,0.000000000,0.001703856,-0.004597177,-0.077995776,0.000000000,-0.074947312,0.000000000,0.006700792,-0.015119551,-0.635377269,0.000000000,-0.634230687,0.000000000,0.000039891,0.000282996,-0.004505779,0.000000000,-0.004836182,0.000000000,-0.000015223,0.000335987,-0.000017086,0.000000000,-0.000277359,-0.000002000,0.000852699,-0.001972348,-0.199053954,0.000000000,-0.198331467,0.000000000,0.006393909,-0.026144945,-1.238082000,0.000000000,-1.226064022,0.000000000,0.012390699,-0.009446892,-0.719597780,0.000000000,-0.715510009,0.000000000,0.006668121,-0.014625985,-0.633102514,0.000000000,-0.632331974,0.000000000,0.000004117,-0.000001857,-0.000425758,0.000000000,-0.000410766
0.010000000,0.000000000,0.000075249,-0.001511877,0.000016754,0.000000000,0.000528686,0.000000000,-0.008723579,0.029170577,1.835054942,0.000000000,1.819824493,0.000000000,0.008306570,-0.030732820,-1.680107014,0.000000000,-1.665955176,0.000000000,0.001693871,-0.004992399,-0.074947312,0.000000000,-0.071507383,0.000000000,0.006672080,-0.014356136,-0.634230687,0.000000000,-0.633499271,0.000000000,0.000040648,0.000378221,-0.004836182,0.000000000,-0.005183354,0.000000000,-0.000014597,0.000370258,-0.000277359,0.000000000,-0.000537907,-0.000004000,0.000848763,-0.001968658,-0.198331467,0.000000000,-0.197864432,0.000000000,0.006341913,-0.026003030,-1.226064022,0.000000000,-1.214494415,0.000000000,0.012370960,-0.009869542,-0.715510009,0.000000000,-0.711258990,0.000000000,0.006640502,-0.013809611,-0.632331974,0.000000000,-0.631861588,0.000000000,0.000004104,-0.000007039,-0.000410766,0.000000000,-0.000394746
0.012000000,0.000000000,0.000072164,-0.001549008,0.000528686,0.000000000,0.001067494,0.000000000,-0.008665387,0.029096173,1.819824493,0.000000000,1.804966536,0.000000000,0.008245444,-0.030562877,-1.665955176,0.000000000,-1.652424432,0.000000000,0.001683031,-0.005419708,-0.071507383,0.000000000,-0.067785400,0.000000000,0.006644996,-0.013541668,-0.633499271,0.000000000,-0.633077623,0.000000000,0.000041583,0.000467795,-0.005183354,0.000000000,-0.005532563,0.000000000,-0.000013930,0.000401984,-0.000537907,0.000000000,-0.000788401,-0.000007000,0.000844833,-0.001965244,-0.197864432,0.000000000,-0.197677359,0.000000000,0.006290223,-0.025849711,-1.214494415,0.000000000,-1.203269928,0.000000000,0.012350378,-0.010290814,-0.711258990,0.000000000,-0.706964548,0.000000000,0.006614536,-0.012982756,-0.631861588,0.000000000,-0.631588132,0.000000000,0.000004085,-0.000010806,-0.000394746,0.000000000,-0.000382079
0.014000000,0.000000000,0.000069002,-0.001588439,0.001067494,0.000000000,0.001627552,0.000000000,-0.008607372,0.029007620,1.804966536,0.000000000,1.790478994,0.000000000,0.008184696,-0.030373755,-1.652424432,0.000000000,-1.639435015,0.000000000,0.001671298,-0.005866882,-0.067785400,0.000000000,-0.063865725,0.000000000,0.006619583,-0.012706637,-0.633077623,0.000000000,-0.632883225,0.000000000,0.000042682,0.000549591,-0.005532563,0.000000000,-0.005876194,0.000000000,-0.000013233,0.000430512,-0.000788401,0.000000000,-0.001024027,-0.000012000,0.000840910,-0.001961802,-0.197677359,0.000000000,-0.198061350,0.000000000,0.006238858,-0.025687991,-1.203269928,0.000000000,-1.192327409,0.000000000,0.012328977,-0.010700771,-0.706964548,0.000000000,-0.702698748,0.000000000,0.006590198,-0.012169109,-0.631588132,0.000000000,-0.631441589,0.000000000,0.000004062,-0.000012722,-0.000382079,0.000000000,-0.000374336
0.016000000,0.000000000,0.000065760,-0.001629327,0.001627552,0.000000000,0.002204360,0.000000000,-0.008549561,0.028905296,1.790478994,0.000000000,1.776361087,0.000000000,0.008124359,-0.030168591,-1.639435015,0.000000000,-1.626925072,0.000000000,0.001658649,-0.006324605,-0.063865725,0.000000000,-0.059813247,0.000000000,0.006595836,-0.011873549,-0.632883225,0.000000000,-0.632851693,0.000000000,0.000043928,0.000622909,-0.005876194,0.000000000,-0.006210543,0.000000000,-0.000012517,0.000455827,-0.001024027,0.000000000,-0.001243476,-0.000018000,0.000836993,-0.001958887,-0.198061350,0.000000000,-0.198719335,0.000000000,0.006187829,-0.025519665,-1.192327409,0.000000000,-1.181630040,0.000000000,0.012306789,-0.011093916,-0.702698748,0.000000000,-0.698502777,0.000000000,0.006567431,-0.011383426,-0.631441589,0.000000000,-0.631374354,0.000000000,0.000004041,-0.000011360,-0.000374336,0.000000000,-0.000376157
0.018000000,0.000000000,0.000062437,-0.001671009,0.002204360,0.000000000,0.002794315,0.000000000,-0.008491982,0.028789576,1.776361087,0.000000000,1.762611970,0.000000000,0.008064459,-0.029949849,-1.626925072,0.000000000,-1.614846614,0.000000000,0.001645077,-0.006785805,-0.059813247,0.000000000,-0.055677783,0.000000000,0.006573719,-0.011058708,-0.632851693,0.000000000,-0.632932988,0.000000000,0.000045304,0.000687755,-0.006210543,0.000000000,-0.006533910,0.000000000,-0.000011796,0.000478217,-0.001243476,0.000000000,-0.001447009,-0.000025000,0.000833080,-0.001956603,-0.198719335,0.000000000,-0.199648593,0.000000000,0.006137148,-0.025345683,-1.181630040,0.000000000,-1.171159535,0.000000000,0.012283854,-0.011467604,-0.698502777,0.000000000,-0.694397903,0.000000000,0.006546163,-0.010634122,-0.631374354,0.000000000,-0.631355149,0.000000000,0.000004027,-0.000007917,-0.000376157,0.000000000,-0.000384506
0.020000000,0.000000000,0.000059032,-0.001712959,0.002794315,0.000000000,0.003394444,0.000000000,-0.008434660,0.028660804,1.762611970,0.000000000,1.749231284,0.000000000,0.008005021,-0.029719463,-1.614846614,0.000000000,-1.603162508,0.000000000,0.001630587,-0.007245156,-0.055677783,0.000000000,-0.051497439,0.000000000,0.006553172,-0.010273591,-0.632932988,0.000000000,-0.633088475,0.000000000,0.000046793,0.000744508,-0.006533910,0.000000000,-0.006845740,0.000000000,-0.000011082,0.000498042,-0.001447009,0.000000000,-0.001635181,-0.000034000,0.000829171,-0.001955174,-0.199648593,0.000000000,-0.201127823,0.000000000,0.006086825,-0.025166458,-1.171159535,0.000000000,-1.160909556,0.000000000,0.012260212,-0.011820931,-0.694397903,0.000000000,-0.690393119,0.000000000,0.006526312,-0.009925554,-0.631355149,0.000000000,-0.631363355,0.000000000,0.000004022,-0.000002688,-0.000384506,0.000000000,-0.000398862
0.022000000,0.000000000,0.000055547,-0.001754752,0.003394444,0.000000000,0.004002244,0.000000000,-0.008377622,0.028519298,1.749231284,0.000000000,1.736219072,0.000000000,0.007946063,-0.029478962,-1.603162508,0.000000000,-1.591843901,0.000000000,0.001615189,-0.007698668,-0.051497439,0.000000000,-0.047301298,0.000000000,0.006534120,-0.009525950,-0.633088475,0.000000000,-0.633288539,0.000000000,0.000048380,0.000793712,-0.006845740,0.000000000,-0.007146056,0.000000000,-0.000010392,0.000515785,-0.001635181,0.000000000,-0.001809045,-0.000045000,0.000825261,-0.001955242,-0.201127823,0.000000000,-0.203141621,0.000000000,0.006036872,-0.024982127,-1.160909556,0.000000000,-1.150879855,0.000000000,0.012235904,-0.012153932,-0.690393119,0.000000000,-0.686490741,0.000000000,0.006507793,-0.009259584,-0.631363355,0.000000000,-0.631385068,0.000000000,0.000004032,0.000005569,-0.000398862,0.000000000,-0.000423290
0.024000000,0.000000000,0.000051984,-0.001796045,0.004002244,0.000000000,0.004615597,0.000000000,-0.008320891,0.028365384,1.736219072,0.000000000,1.723575022,0.000000000,0.007887604,-0.029229569,-1.591843901,0.000000000,-1.580868218,0.000000000,0.001598903,-0.008143379,-0.047301298,0.000000000,-0.043111539,0.000000000,0.006516478,-0.008820690,-0.633288539,0.000000000,-0.633510668,0.000000000,0.000050052,0.000835945,-0.007146056,0.000000000,-0.007435088,0.000000000,-0.000009744,0.000532008,-0.001809045,0.000000000,-0.001969848,-0.000058000,0.000821347,-0.001957270,-0.203141621,0.000000000,-0.205678454,0.000000000,0.005987297,-0.024792705,-1.150879855,0.000000000,-1.141073026,0.000000000,0.012210970,-0.012467098,-0.686490741,0.000000000,-0.682689787,0.000000000,0.006490520,-0.008636439,-0.631385068,0.000000000,-0.631410987,0.000000000,0.000004061,0.000016911,-0.000423290,0.000000000,-0.000458509
0.026000000,0.000000000,0.000048344,-0.001836562,0.004615597,0.000000000,0.005232659,0.000000000,-0.008264492,0.028199385,1.723575022,0.000000000,1.711298683,0.000000000,0.007829659,-0.028972265,-1.580868218,0.000000000,-1.570217739,0.000000000,0.001581748,-0.008577111,-0.043111539,0.000000000,-0.038945027,0.000000000,0.006500157,-0.008160544,-0.633510668,0.000000000,-0.633737973,0.000000000,0.000051795,0.000871779,-0.007435088,0.000000000,-0.007713172,0.000000000,-0.000009159,0.000547258,-0.001969848,0.000000000,-0.002118435,-0.000074000,0.000817424,-0.001961675,-0.205678454,0.000000000,-0.209011729,0.000000000,0.005938112,-0.024598157,-1.141073026,0.000000000,-1.131492791,0.000000000,0.012185448,-0.012761125,-0.682689787,0.000000000,-0.678987730,0.000000000,0.006474409,-0.008055370,-0.631410987,0.000000000,-0.631434733,0.000000000,0.000004116,0.000031160,-0.000458509,0.000000000,-0.000504545
0.028000000,0.000000000,0.000044632,-0.001876072,0.005232659,0.000000000,0.005851760,0.000000000,-0.008208449,0.028021609,1.711298683,0.000000000,1.699389789,0.000000000,0.007772243,-0.028707850,-1.570217739,0.000000000,-1.559878424,0.000000000,0.001563752,-0.008998286,-0.038945027,0.000000000,-0.034814564,0.000000000,0.006485064,-0.007546605,-0.633737973,0.000000000,-0.633958005,0.000000000,0.000053599,0.000901770,-0.007713172,0.000000000,-0.007980707,0.000000000,-0.000008662,0.000562128,-0.002118435,0.000000000,-0.002255525,-0.000092000,0.000813486,-0.001969294,-0.209011729,0.000000000,-0.212836496,0.000000000,0.005889326,-0.024398449,-1.131492791,0.000000000,-1.122142800,0.000000000,0.012159374,-0.013036775,-0.678987730,0.000000000,-0.675381472,0.000000000,0.006459379,-0.007515092,-0.631434733,0.000000000,-0.631451718,0.000000000,0.000004203,0.000049489,-0.000504545,0.000000000,-0.000565491
0.030000000,0.000000000,0.000040852,-0.001914388,0.005851760,0.000000000,0.006471383,0.000000000,-0.008152784,0.027832386,1.699389789,0.000000000,1.687847397,0.000000000,0.007715369,-0.028436987,-1.559878424,0.000000000,-1.549838938,0.000000000,0.001544940,-0.009405776,-0.034814564,0.000000000,-0.030729895,0.000000000,0.006471106,-0.006978760,-0.633958005,0.000000000,-0.634161770,0.000000000,0.000055452,0.000926411,-0.007980707,0.000000000,-0.008238012,0.000000000,-0.000008280,0.000577171,-0.002255525,0.000000000,-0.002381285,-0.000113000,0.000809526,-0.001980397,-0.212836496,0.000000000,-0.217428856,0.000000000,0.005840949,-0.024193575,-1.122142800,0.000000000,-1.113026192,0.000000000,0.012132784,-0.013294775,-0.675381472,0.000000000,-0.671868080,0.000000000,0.006445351,-0.007013845,-0.631451718,0.000000000,-0.631459054,0.000000000,0.000004329,0.000070547,-0.000565491,0.000000000,-0.000638055
0.032000000,0.000000000,0.000037009,-0.001951350,0.006471383,0.000000000,0.007090034,0.000000000,-0.008097520,0.027632019,1.687847397,0.000000000,1.676670960,0.000000000,0.007659049,-0.028160229,-1.549838938,0.000000000,-1.540090124,0.000000000,0.001525343,-0.009798800,-0.030729895,0.000000000,-0.026698395,0.000000000,0.006458194,-0.006455999,-0.634161770,0.000000000,-0.634343029,0.000000000,0.000057344,0.000946179,-0.008238012,0.000000000,-0.008485460,0.000000000,-0.000008043,0.000592935,-0.002381285,0.000000000,-0.002495686,-0.000137000,0.000805535,-0.001995796,-0.217428856,0.000000000,-0.222768059,0.000000000,0.005792993,-0.023983542,-1.113026192,0.000000000,-1.104145683,0.000000000,0.012105713,-0.013535837,-0.671868080,0.000000000,-0.668444630,0.000000000,0.006432252,-0.006549743,-0.631459054,0.000000000,-0.631454597,0.000000000,0.000004500,0.000095253,-0.000638055,0.000000000,-0.000725598
0.034000000,0.000000000,0.000033110,-0.001986828,0.007090034,0.000000000,0.007706202,0.000000000,-0.008042679,0.027420823,1.676670960,0.000000000,1.665859550,0.000000000,0.007603293,-0.027878051,-1.540090124,0.000000000,-1.530624323,0.000000000,0.001504989,-0.010176833,-0.026698395,0.000000000,-0.022725700,0.000000000,0.006446241,-0.005976685,-0.634343029,0.000000000,-0.634497653,0.000000000,0.000059267,0.000961496,-0.008485460,0.000000000,-0.008723351,0.000000000,0.000007978,0.000610008,-0.002495686,0.000000000,-0.004300014,-0.000164000,0.000801504,-0.002016168,-0.222768059,0.000000000,-0.228835923,0.000000000,0.005745468,-0.023768399,-1.104145683,0.000000000,-1.095503096,0.000000000,0.012078192,-0.013760596,-0.668444630,0.000000000,-0.665108666,0.000000000,0.006420010,-0.006120732,-0.631454597,0.000000000,-0.631437092,0.000000000,0.000004724,0.000123553,-0.000725598,0.000000000,-0.000828729
0.036000000,0.000000000,0.000029166,-0.002020707,0.007706202,0.000000000,0.008318191,0.000000000,-0.007988280,0.027199084,1.665859550,0.000000000,1.655412661,0.000000000,0.007548111,-0.027590852,-1.530624323,0.000000000,-1.521435362,0.000000000,0.001483910,-0.010539547,-0.022725700,0.000000000,-0.018816066,0.000000000,0.006435164,-0.005538734,-0.634497653,0.000000000,-0.634623202,0.000000000,0.000061212,0.000972767,-0.008723351,0.000000000,-0.008952015,0.000000000,0.000008091,0.000590454,-0.004300014,0.000000000,-0.004201493,-0.000194000,0.000797421,-0.002041633,-0.228835923,0.000000000,-0.235626863,0.000000000,0.005698378,-0.023550417,-1.095503096,0.000000000,-1.087048675,0.000000000,0.012050263,-0.013964415,-0.665108666,0.000000000,-0.661895795,0.000000000,0.006408554,-0.005727928,-0.631437092,0.000000000,-0.631396049,0.000000000,0.000005012,0.000156873,-0.000828729,0.000000000,-0.000952564
0.038000000,0.000000000,0.000025191,-0.002052909,0.008318191,0.000000000,0.008924027,0.000000000,-0.007934346,0.026967177,1.655412661,0.000000000,1.645327597,0.000000000,0.007493513,-0.027299028,-1.521435362,0.000000000,-1.512516898,0.000000000,0.001462136,-0.010886729,-0.018816066,0.000000000,-0.014972976,0.000000000,0.006424884,-0.005139835,-0.634623202,0.000000000,-0.634718359,0.000000000,0.000063173,0.000980287,-0.008952015,0.000000000,-0.009171536,0.000000000,0.000008364,0.000578101,-0.004201493,0.000000000,-0.004160647,-0.000227000,0.000793276,-0.002073083,-0.235626863,0.000000000,-0.243117268,0.000000000,0.005651737,-0.023326639,-1.087048675,0.000000000,-1.078852594,0.000000000,0.012021952,-0.014155471,-0.661895795,0.000000000,-0.658749512,0.000000000,0.006397828,-0.005363229,-0.631396049,0.000000000,-0.631348816,0.000000000,0.000005367,0.000191022,-0.000952564,0.000000000,-0.001085492
0.040000000,0.000000000,0.000021208,-0.002083368,0.008924027,0.000000000,0.009520850,0.000000000,-0.007880895,0.026725386,1.645327597,0.000000000,1.635603540,0.000000000,0.007439507,-0.027002879,-1.512516898,0.000000000,-1.503864639,0.000000000,0.001439700,-0.011218310,-0.014972976,0.000000000,-0.011198887,0.000000000,0.006415329,-0.004777447,-0.634718359,0.000000000,-0.634782961,0.000000000,0.000065142,0.000984416,-0.009171536,0.000000000,-0.009382251,0.000000000,0.000008775,0.000571607,-0.004160647,0.000000000,-0.004167795,-0.000264000,0.000789054,-0.002111436,-0.243117268,0.000000000,-0.251566745,0.000000000,0.005605553,-0.023097452,-1.078852594,0.000000000,-1.070909188,0.000000000,0.011993285,-0.014333276,-0.658749512,0.000000000,-0.655674952,0.000000000,0.006387776,-0.005026005,-0.631348816,0.000000000,-0.631291638,0.000000000,0.000005795,0.000227962,-0.001085492,0.000000000,-0.001233750
0.042000000,0.000000000,0.000017259,-0.002112030,0.009520850,0.000000000,0.010103901,0.000000000,-0.007827947,0.026473997,1.635603540,0.000000000,1.626239499,0.000000000,0.007386102,-0.026702705,-1.503864639,0.000000000,-1.495474057,0.000000000,0.001416631,-0.011534282,-0.011198887,0.000000000,-0.007495832,0.000000000,0.006406431,-0.004448985,-0.634782961,0.000000000,-0.634817505,0.000000000,0.000067113,0.000985471,-0.009382251,0.000000000,-0.009584443,0.000000000,0.000009308,0.000570153,-0.004167795,0.000000000,-0.004216379,-0.000305000,0.000784739,-0.002157773,-0.251566745,0.000000000,-0.260946272,0.000000000,0.005559838,-0.022863267,-1.070909188,0.000000000,-1.063211976,0.000000000,0.011964290,-0.014497505,-0.655674952,0.000000000,-0.652676140,0.000000000,0.006378345,-0.004715142,-0.631291638,0.000000000,-0.631222351,0.000000000,0.000006305,0.000268963,-0.001233750,0.000000000,-0.001401847
0.044000000,0.000000000,0.000013431,-0.002138889,0.010103901,0.000000000,0.010663818,0.000000000,-0.007775521,0.026213325,1.626239499,0.000000000,1.617233625,0.000000000,0.007333304,-0.026398780,-1.495474057,0.000000000,-1.487341096,0.000000000,0.001392962,-0.011834693,-0.007495832,0.000000000,-0.003865438,0.000000000,0.006398127,-0.004151863,-0.634817505,0.000000000,-0.634823006,0.000000000,0.000069080,0.000983715,-0.009584443,0.000000000,-0.009778285,0.000000000,0.000009947,0.000573202,-0.004216379,0.000000000,-0.004301756,-0.000349000,0.000780314,-0.002212872,-0.260946272,0.000000000,-0.270949026,0.000000000,0.005514601,-0.022624387,-1.063211976,0.000000000,-1.055756791,0.000000000,0.011934994,-0.014648120,-0.652676140,0.000000000,-0.649755073,0.000000000,0.006369487,-0.004429050,-0.631222351,0.000000000,-0.631140467,0.000000000,0.000006905,0.000313651,-0.001401847,0.000000000,-0.001589536
0.046000000,0.000000000,0.000009939,-0.002164004,0.010663818,0.000000000,0.011178073,0.000000000,-0.007723633,0.025943698,1.617233625,0.000000000,1.608583594,0.000000000,0.007281122,-0.026091353,-1.487341096,0.000000000,-1.479462125,0.000000000,0.001368722,-0.012119638,-0.003865438,0.000000000,-0.000308974,0.000000000,0.006390360,-0.003883542,-0.634823006,0.000000000,-0.634800864,0.000000000,0.000071039,0.000979393,-0.009778285,0.000000000,-0.009963959,0.000000000,0.000010681,0.000580255,-0.004301756,0.000000000,-0.004419858,-0.000398000,0.000775761,-0.002277061,-0.270949026,0.000000000,-0.282130934,0.000000000,0.005469851,-0.022381053,-1.055756791,0.000000000,-1.048540720,0.000000000,0.011905424,-0.014785219,-0.649755073,0.000000000,-0.646912754,0.000000000,0.006361155,-0.004165936,-0.631140467,0.000000000,-0.631046440,0.000000000,0.000007599,0.000360200,-0.001589536,0.000000000,-0.001792065
0.048000000,0.000000000,0.000007373,-0.002187565,0.011178073,0.000000000,0.011584810,0.000000000,-0.007672302,0.025665401,1.608583594,0.000000000,1.600287868,0.000000000,0.007229561,-0.025780640,-1.479462125,0.000000000,-1.471834118,0.000000000,0.001343944,-0.012389271,-0.000308974,0.000000000,0.003172717,0.000000000,0.006383077,-0.003641543,-0.634800864,0.000000000,-0.634752801,0.000000000,0.000072984,0.000972802,-0.009963959,0.000000000,-0.010141849,0.000000000,0.000011501,0.000590973,-0.004419858,0.000000000,-0.004567846,-0.000451000,0.000771059,-0.002351663,-0.282130934,0.000000000,-0.294171889,0.000000000,0.005425596,-0.022133481,-1.048540720,0.000000000,-1.041561283,0.000000000,0.011875606,-0.014909004,-0.646912754,0.000000000,-0.644149439,0.000000000,0.006353307,-0.003924149,-0.631046440,0.000000000,-0.630940650,0.000000000,0.000008397,0.000410789,-0.001792065,0.000000000,-0.002016479
0.050000000,0.000000000,-0.000006954,-0.002210159,0.011584810,0.000000000,0.013239711,0.000000000,-0.007621545,0.025378752,1.600287868,0.000000000,1.592344017,0.000000000,0.007178627,-0.025466811,-1.471834118,0.000000000,-1.464454984,0.000000000,0.001318656,-0.012643827,0.003172717,0.000000000,0.006579392,0.000000000,0.006376230,-0.003423498,-0.634752801,0.000000000,-0.634680711,0.000000000,0.000074913,0.000964270,-0.010141849,0.000000000,-0.010312499,0.000000000,0.000012401,0.000605119,-0.004567846,0.000000000,-0.004743787,-0.000508000,0.000766186,-0.002437302,-0.294171889,0.000000000,-0.307051517,0.000000000,0.005381844,-0.021881881,-1.041561283,0.000000000,-1.034815993,0.000000000,0.011845566,-0.015019670,-0.644149439,0.000000000,-0.641465389,0.000000000,0.006345903,-0.003701923,-0.630940650,0.000000000,-0.630824171,0.000000000,0.000009303,0.000464177,-0.002016479,0.000000000,-0.002259838
0.052000000,0.000000000,-0.000009043,-0.002223968,0.013239711,0.000000000,0.013540441,0.000000000,-0.007571377,0.025084133,1.592344017,0.000000000,1.584747923,0.000000000,0.007128325,-0.025150962,-1.464454984,0.000000000,-1.457301115,0.000000000,0.001292893,-0.012881859,0.006579392,0.000000000,0.009898689,0.000000000,0.006369775,-0.003227577,-0.634680711,0.000000000,-0.634585325,0.000000000,0.000076816,0.000951488,-0.010312499,0.000000000,-0.010468483,0.000000000,0.000013378,0.000622444,-0.004743787,0.000000000,-0.004945912,-0.000570000,0.000761117,-0.002534683,-0.307051517,0.000000000,-0.321031424,0.000000000,0.005338603,-0.021626448,-1.034815993,0.000000000,-1.028302655,0.000000000,0.011815331,-0.015117445,-0.641465389,0.000000000,-0.638860621,0.000000000,0.006338908,-0.003497587,-0.630824171,0.000000000,-0.630698131,0.000000000,0.000010322,0.000519847,-0.002259838,0.000000000,-0.002521146
0.054000000,0.000000000,-0.000012463,-0.002237315,0.013540441,0.000000000,0.013980428,0.000000000,-0.007521813,0.024781694,1.584747923,0.000000000,1.577500646,0.000000000,0.007078660,-0.024832310,-1.457301115,0.000000000,-1.450391776,0.000000000,0.001266682,-0.013105449,0.009898689,0.000000000,0.013143582,0.000000000,0.006363673,-0.003051041,-0.634585325,0.000000000,-0.634470510,0.000000000,0.000078693,0.000938379,-0.010468483,0.000000000,-0.010620886,0.000000000,0.000014430,0.000642775,-0.004945912,0.000000000,-0.005173060,-0.000636000,0.000755829,-0.002644927,-0.321031424,0.000000000,-0.335794746,0.000000000,0.005295881,-0.021367341,-1.028302655,0.000000000,-1.022019734,0.000000000,0.011784926,-0.015202611,-0.638860621,0.000000000,-0.636334715,0.000000000,0.006332289,-0.003309634,-0.630698131,0.000000000,-0.630563506,0.000000000,0.000011462,0.000578830,-0.002521146,0.000000000,-0.002803994
0.056000000,0.000000000,-0.000016420,-0.002249295,0.013980428,0.000000000,0.014470012,0.000000000,-0.007472870,0.024471840,1.577500646,0.000000000,1.570597248,0.000000000,0.007029638,-0.024511146,-1.450391776,0.000000000,-1.443721863,0.000000000,0.001240053,-0.013314494,0.013143582,0.000000000,0.016311494,0.000000000,0.006357889,-0.002892030,-0.634470510,0.000000000,-0.634338010,0.000000000,0.000080541,0.000924070,-0.010620886,0.000000000,-0.010766987,0.000000000,0.000015558,0.000665969,-0.005173060,0.000000000,-0.005424398,-0.000707000,0.000750293,-0.002768593,-0.335794746,0.000000000,-0.351605408,0.000000000,0.005253683,-0.021104776,-1.022019734,0.000000000,-1.015964309,0.000000000,0.011754375,-0.015275341,-0.636334715,0.000000000,-0.633888015,0.000000000,0.006326016,-0.003136578,-0.630563506,0.000000000,-0.630421505,0.000000000,0.000012725,0.000639666,-0.002803994,0.000000000,-0.003104601
0.058000000,0.000000000,-0.000020620,-0.002259504,0.014470012,0.000000000,0.014975447,0.000000000,-0.007424560,0.024154848,1.570597248,0.000000000,1.564035491,0.000000000,0.006981263,-0.024187737,-1.443721863,0.000000000,-1.437286574,0.000000000,0.001213035,-0.013509031,0.016311494,0.000000000,0.019400853,0.000000000,0.006352391,-0.002748823,-0.634338010,0.000000000,-0.634189529,0.000000000,0.000082358,0.000908414,-0.010766987,0.000000000,-0.010906093,0.000000000,0.000016761,0.000691895,-0.005424398,0.000000000,-0.005699265,-0.000783000,0.000744481,-0.002906733,-0.351605408,0.000000000,-0.368431373,0.000000000,0.005212018,-0.020838916,-1.015964309,0.000000000,-1.010134568,0.000000000,0.011723704,-0.015335901,-0.633888015,0.000000000,-0.631520172,0.000000000,0.006320062,-0.002977090,-0.630421505,0.000000000,-0.630273172,0.000000000,0.000014117,0.000703183,-0.003104601,0.000000000,-0.003425845
0.060000000,0.000000000,-0.000024948,-0.002267773,0.014975447,0.000000000,0.015483523,0.000000000,-0.007376898,0.023831022,1.564035491,0.000000000,1.557812417,0.000000000,0.006933538,-0.023862299,-1.437286574,0.000000000,-1.431082171,0.000000000,0.001185656,-0.013689170,0.019400853,0.000000000,0.022410639,0.000000000,0.006347152,-0.002619774,-0.634189529,0.000000000,-0.634026880,0.000000000,0.000084140,0.000891426,-0.010906093,0.000000000,-0.011037976,0.000000000,0.000018042,0.000720487,-0.005699265,0.000000000,-0.005997449,-0.000864000,0.000738362,-0.003060261,-0.368431373,0.000000000,-0.386243275,0.000000000,0.005170890,-0.020569942,-1.010134568,0.000000000,-1.004528221,0.000000000,0.011692935,-0.015384515,-0.631520172,0.000000000,-0.629231096,0.000000000,0.006314402,-0.002829916,-0.630273172,0.000000000,-0.630119575,0.000000000,0.000015642,0.000769269,-0.003425845,0.000000000,-0.003767917
0.062000000,0.000000000,-0.000029351,-0.002274018,0.015483523,0.000000000,0.015988152,0.000000000,-0.007329897,0.023500664,1.557812417,0.000000000,1.551924896,0.000000000,0.006886468,-0.023535027,-1.431082171,0.000000000,-1.425105329,0.000000000,0.001157946,-0.013855059,0.022410639,0.000000000,0.025340086,0.000000000,0.006342145,-0.002503351,-0.634026880,0.000000000,-0.633851869,0.000000000,0.000085887,0.000873191,-0.011037976,0.000000000,-0.011162631,0.000000000,0.000019402,0.000751679,-0.005997449,0.000000000,-0.006318815,-0.000950000,0.000731903,-0.003230031,-0.386243275,0.000000000,-0.405012562,0.000000000,0.005130307,-0.020298020,-1.004528221,0.000000000,-0.999143120,0.000000000,0.011662092,-0.015421413,-0.629231096,0.000000000,-0.627020634,0.000000000,0.006309014,-0.002693886,-0.630119575,0.000000000,-0.629961793,0.000000000,0.000017306,0.000837615,-0.003767917,0.000000000,-0.004130376
0.064000000,0.000000000,-0.000033801,-0.002278198,0.015988152,0.000000000,0.016486076,0.000000000,-0.007283568,0.023164072,1.551924896,0.000000000,1.546369715,0.000000000,0.006840056,-0.023206099,-1.425105329,0.000000000,-1.419352916,0.000000000,0.001129932,-0.014006859,0.025340086,0.000000000,0.028188567,0.000000000,0.006337349,-0.002398141,-0.633851869,0.000000000,-0.633666244,0.000000000,0.000087594,0.000853821,-0.011162631,0.000000000,-0.011280142,0.000000000,0.000020844,0.000785394,-0.006318815,0.000000000,-0.006663200,-0.001042000,0.000725071,-0.003416880,-0.405012562,0.000000000,-0.424994824,0.000000000,0.005090273,-0.020023320,-0.999143120,0.000000000,-0.993977058,0.000000000,0.011631198,-0.015446819,-0.627020634,0.000000000,-0.624888655,0.000000000,0.006303878,-0.002567933,-0.629961793,0.000000000,-0.629800822,0.000000000,0.000019112,0.000907911,-0.004130376,0.000000000,-0.004512722
0.066000000,0.000000000,-0.000038279,-0.002280290,0.016486076,0.000000000,0.016975311,0.000000000,-0.007237925,0.022821532,1.546369715,0.000000000,1.541143836,0.000000000,0.006794305,-0.022875686,-1.419352916,0.000000000,-1.413821940,0.000000000,0.001101643,-0.014144744,0.028188567,0.000000000,0.030955560,0.000000000,0.006332743,-0.002302850,-0.633666244,0.000000000,-0.633471683,0.000000000,0.000089261,0.000833437,-0.011280142,0.000000000,-0.011390653,0.000000000,0.000022371,0.000821620,-0.006663200,0.000000000,-0.007030866,-0.001139000,0.000717829,-0.003622032,-0.424994824,0.000000000,-0.445867718,0.000000000,0.005050793,-0.019746006,-0.993977058,0.000000000,-0.989027795,0.000000000,0.011600276,-0.015460965,-0.624888655,0.000000000,-0.622834920,0.000000000,0.006298976,-0.002451128,-0.629800822,0.000000000,-0.629637453,0.000000000,0.000021065,0.000981215,-0.004512722,0.000000000,-0.004918550
0.068000000,0.000000000,-0.000042775,-0.002280291,0.016975311,0.000000000,0.017454567,0.000000000,-0.007192979,0.022473348,1.541143836,0.000000000,1.536243537,0.000000000,0.006749217,-0.022543951,-1.413821940,0.000000000,-1.408509446,0.000000000,0.001073105,-0.014268893,0.030955560,0.000000000,0.033640596,0.000000000,0.006328310,-0.002216304,-0.633471683,0.000000000,-0.633269750,0.000000000,0.000090886,0.000812133,-0.011390653,0.000000000,-0.011494242,0.000000000,0.000023987,0.000860318,-0.007030866,0.000000000,-0.007421934,-0.001242000,0.000710139,-0.003846120,-0.445867718,0.000000000,-0.467890430,0.000000000,0.005011873,-0.019466240,-0.989027795,0.000000000,-0.984293036,0.000000000,0.011569348,-0.015464060,-0.622834920,0.000000000,-0.620859349,0.000000000,0.006294291,-0.002342521,-0.629637453,0.000000000,-0.629472729,0.000000000,0.000023169,0.001056064,-0.004918550,0.000000000,-0.005344000
0.070000000,0.000000000,-0.000047280,-0.002278203,0.017454567,0.000000000,0.017922891,0.000000000,-0.007148739,0.022119801,1.536243537,0.000000000,1.531665522,0.000000000,0.006704795,-0.022211047,-1.408509446,0.000000000,-1.403412654,0.000000000,0.001044346,-0.014379493,0.033640596,0.000000000,0.036243304,0.000000000,0.006324035,-0.002137434,-0.633269750,0.000000000,-0.633061938,0.000000000,0.000092466,0.000790022,-0.011494242,0.000000000,-0.011591065,0.000000000,0.000025695,0.000901445,-0.007421934,0.000000000,-0.007836546,-0.001351000,0.000701961,-0.004090287,-0.467890430,0.000000000,-0.491025697,0.000000000,0.004973518,-0.019184174,-0.984293036,0.000000000,-0.979770671,0.000000000,0.011538435,-0.015456339,-0.620859349,0.000000000,-0.618961626,0.000000000,0.006289808,-0.002241339,-0.629472729,0.000000000,-0.629307349,0.000000000,0.000025429,0.001133297,-0.005344000,0.000000000,-0.005791931
0.072000000,0.000000000,-0.000051785,-0.002274040,0.017922891,0.000000000,0.018379570,0.000000000,-0.007105217,0.021761180,1.531665522,0.000000000,1.527406161,0.000000000,0.006661040,-0.021877122,-1.403412654,0.000000000,-1.398528784,0.000000000,0.001015393,-0.014476737,0.036243304,0.000000000,0.038763361,0.000000000,0.006319905,-0.002065277,-0.633061938,0.000000000,-0.632849626,0.000000000,0.000094000,0.000767194,-0.011591065,0.000000000,-0.011681237,0.000000000,0.000027498,0.000945003,-0.007836546,0.000000000,-0.008275096,-0.001465000,0.000693253,-0.004355530,-0.491025697,0.000000000,-0.514954746,0.000000000,0.004935730,-0.018899967,-0.979770671,0.000000000,-0.975458324,0.000000000,0.011507559,-0.015438018,-0.618961626,0.000000000,-0.617141568,0.000000000,0.006285514,-0.002146843,-0.629307349,0.000000000,-0.629142058,0.000000000,0.000027848,0.001212808,-0.005791931,0.000000000,-0.006262490
0.074000000,0.000000000,-0.000056285,-0.002267823,0.018379570,0.000000000,0.018824058,0.000000000,-0.007062421,0.021397783,1.527406161,0.000000000,1.523461404,0.000000000,0.006617956,-0.021542318,-1.398528784,0.000000000,-1.393855132,0.000000000,0.000986271,-0.014560820,0.038763361,0.000000000,0.041200493,0.000000000,0.006315907,-0.001998970,-0.632849626,0.000000000,-0.632634084,0.000000000,0.000095487,0.000743724,-0.011681237,0.000000000,-0.011764840,0.000000000,0.000029401,0.000990896,-0.008275096,0.000000000,-0.008737440,-0.001586000,0.000683971,-0.004642375,-0.514954746,0.000000000,-0.540221880,0.000000000,0.004898516,-0.018613767,-0.975458324,0.000000000,-0.971353764,0.000000000,0.011476741,-0.015409303,-0.617141568,0.000000000,-0.615399016,0.000000000,0.006281398,-0.002058307,-0.629142058,0.000000000,-0.628977721,0.000000000,0.000030428,0.001292926,-0.006262490,0.000000000,-0.006751037
0.076000000,0.000000000,-0.000060774,-0.002259572,0.018824058,0.000000000,0.019255862,0.000000000,-0.007020361,0.021029870,1.523461404,0.000000000,1.519827964,0.000000000,0.006575542,-0.021206766,-1.393855132,0.000000000,-1.389389139,0.000000000,0.000957007,-0.014631949,0.041200493,0.000000000,0.043554532,0.000000000,0.006312032,-0.001937728,-0.632634084,0.000000000,-0.632416523,0.000000000,0.000096927,0.000719716,-0.011764840,0.000000000,-0.011842060,0.000000000,0.000031407,0.001039106,-0.008737440,0.000000000,-0.009223887,-0.001712000,0.000674069,-0.004952306,-0.540221880,0.000000000,-0.566211978,0.000000000,0.004861877,-0.018325719,-0.971353764,0.000000000,-0.967454781,0.000000000,0.011446000,-0.015370439,-0.615399016,0.000000000,-0.613733517,0.000000000,0.006277447,-0.001975222,-0.628977721,0.000000000,-0.628814681,0.000000000,0.000033175,0.001375847,-0.006751037,0.000000000,-0.007264375
0.078000000,0.000000000,-0.000065246,-0.002249321,0.019255862,0.000000000,0.019674633,0.000000000,-0.006979046,0.020657744,1.519827964,0.000000000,1.516501371,0.000000000,0.006533801,-0.020870600,-1.389389139,0.000000000,-1.385128150,0.000000000,0.000927627,-0.014690326,0.043554532,0.000000000,0.045825307,0.000000000,0.006308270,-0.001880865,-0.632416523,0.000000000,-0.632198005,0.000000000,0.000098317,0.000695218,-0.011842060,0.000000000,-0.011912935,0.000000000,0.000033520,0.001089564,-0.009223887,0.000000000,-0.009734448,-0.001845000,0.000663501,-0.005285670,-0.566211978,0.000000000,-0.593472311,0.000000000,0.004825818,-0.018035974,-0.967454781,0.000000000,-0.963758877,0.000000000,0.011415357,-0.015321611,-0.613733517,0.000000000,-0.612145006,0.000000000,0.006273654,-0.001896942,-0.628814681,0.000000000,-0.628653803,0.000000000,0.000036089,0.001458958,-0.007264375,0.000000000,-0.007795106
0.080000000,0.000000000,-0.000069698,-0.002237099,0.019674633,0.000000000,0.020080021,0.000000000,-0.006938483,0.020281659,1.516501371,0.000000000,1.513478097,0.000000000,0.006492733,-0.020533939,-1.385128150,0.000000000,-1.381069751,0.000000000,0.000898154,-0.014736168,0.045825307,0.000000000,0.048012772,0.000000000,0.006304614,-0.001827756,-0.632198005,0.000000000,-0.631979551,0.000000000,0.000099658,0.000670320,-0.011912935,0.000000000,-0.011977643,0.000000000,0.000035744,0.001142227,-0.009734448,0.000000000,-0.010269280,-0.001984000,0.000652217,-0.005643855,-0.593472311,0.000000000,-0.621673186,0.000000000,0.004790341,-0.017744663,-0.963758877,0.000000000,-0.960264042,0.000000000,0.011384831,-0.015263077,-0.612145006,0.000000000,-0.610632878,0.000000000,0.006270007,-0.001823050,-0.628653803,0.000000000,-0.628495383,0.000000000,0.000039173,0.001544258,-0.007795106,0.000000000,-0.008349350
0.082000000,0.000000000,-0.000074124,-0.002222945,0.020080021,0.000000000,0.020471768,0.000000000,-0.006898679,0.019901903,1.513478097,0.000000000,1.510753781,0.000000000,0.006452339,-0.020196904,-1.381069751,0.000000000,-1.377211416,0.000000000,0.000868615,-0.014769689,0.048012772,0.000000000,0.050116888,0.000000000,0.006301059,-0.001777857,-0.631979551,0.000000000,-0.631762056,0.000000000,0.000100948,0.000645072,-0.011977643,0.000000000,-0.012036250,0.000000000,0.000038082,0.001197069,-0.010269280,0.000000000,-0.010828646,-0.002130000,0.000640166,-0.006027559,-0.621673186,0.000000000,-0.651068525,0.000000000,0.004755450,-0.017451929,-0.960264042,0.000000000,-0.956967786,0.000000000,0.011354440,-0.015195040,-0.610632878,0.000000000,-0.609196898,0.000000000,0.006266501,-0.001753053,-0.628495383,0.000000000,-0.628340039,0.000000000,0.000042430,0.001630502,-0.008349350,0.000000000,-0.008923751
0.084000000,0.000000000,-0.000078520,-0.002206896,0.020471768,0.000000000,0.020849636,0.000000000,-0.006859641,0.019518736,1.510753781,0.000000000,1.508324433,0.000000000,0.006412620,-0.019859606,-1.377211416,0.000000000,-1.373550788,0.000000000,0.000839033,-0.014791110,0.050116888,0.000000000,0.052137710,0.000000000,0.006297597,-0.001730681,-0.631762056,0.000000000,-0.631546355,0.000000000,0.000102187,0.000619541,-0.012036250,0.000000000,-0.012088890,0.000000000,0.000040539,0.001254072,-0.010828646,0.000000000,-0.011412856,-0.002283000,0.000627295,-0.006437950,-0.651068525,0.000000000,-0.681616795,0.000000000,0.004721147,-0.017157897,-0.956967786,0.000000000,-0.953868067,0.000000000,0.011324205,-0.015117748,-0.609196898,0.000000000,-0.607836462,0.000000000,0.006263128,-0.001686571,-0.628340039,0.000000000,-0.628188143,0.000000000,0.000045864,0.001718554,-0.008923751,0.000000000,-0.009521126
0.086000000,0.000000000,-0.000082883,-0.002188997,0.020849636,0.000000000,0.021213433,0.000000000,-0.006821376,0.019132427,1.508324433,0.000000000,1.506185758,0.000000000,0.006373576,-0.019522153,-1.373550788,0.000000000,-1.370085488,0.000000000,0.000809431,-0.014800656,0.052137710,0.000000000,0.054075332,0.000000000,0.006294226,-0.001685803,-0.631546355,0.000000000,-0.631333191,0.000000000,0.000103375,0.000593776,-0.012088890,0.000000000,-0.012135660,0.000000000,0.000043118,0.001313250,-0.011412856,0.000000000,-0.012022412,-0.002442000,0.000613548,-0.006876041,-0.681616795,0.000000000,-0.712995114,0.000000000,0.004687435,-0.016862696,-0.953868067,0.000000000,-0.950962596,0.000000000,0.011294142,-0.015031429,-0.607836462,0.000000000,-0.606551098,0.000000000,0.006259882,-0.001623229,-0.628188143,0.000000000,-0.628040122,0.000000000,0.000049478,0.001808324,-0.009521126,0.000000000,-0.010141563
0.088000000,0.000000000,-0.000087208,-0.002169296,0.021213433,0.000000000,0.021563019,0.000000000,-0.006783890,0.018743255,1.506185758,0.000000000,1.504333086,0.000000000,0.006335207,-0.019184650,-1.370085488,0.000000000,-1.366813189,0.000000000,0.000779834,-0.014798555,0.054075332,0.000000000,0.055929897,0.000000000,0.006290940,-0.001642855,-0.631333191,0.000000000,-0.631123223,0.000000000,0.000104510,0.000567817,-0.012135660,0.000000000,-0.012176630,0.000000000,0.000045823,0.001374513,-0.012022412,0.000000000,-0.012657204,-0.002608000,0.000598869,-0.007342378,-0.712995114,0.000000000,-0.745459318,0.000000000,0.004654315,-0.016566450,-0.950962596,0.000000000,-0.948249191,0.000000000,0.011264269,-0.014936299,-0.606551098,0.000000000,-0.605340382,0.000000000,0.006256756,-0.001562641,-0.628040122,0.000000000,-0.627896516,0.000000000,0.000053272,0.001898166,-0.010141563,0.000000000,-0.010780395
0.090000000,0.000000000,-0.000091491,-0.002147839,0.021563019,0.000000000,0.021898248,0.000000000,-0.006747187,0.018351468,1.504333086,0.000000000,1.502762281,0.000000000,0.006297512,-0.018847194,-1.366813189,0.000000000,-1.363731670,0.000000000,0.000750264,-0.014785041,0.055929897,0.000000000,0.057701637,0.000000000,0.006287737,-0.001601505,-0.631123223,0.000000000,-0.630917067,0.000000000,0.000105594,0.000541725,-0.012176630,0.000000000,-0.012211951,0.000000000,0.000048658,0.001437765,-0.012657204,0.000000000,-0.013317083,-0.002781000,0.000583200,-0.007838058,-0.745459318,0.000000000,-0.778967922,0.000000000,0.004621789,-0.016269280,-0.948249191,0.000000000,-0.945725616,0.000000000,0.011234604,-0.014832591,-0.605340382,0.000000000,-0.604203740,0.000000000,0.006253747,-0.001504577,-0.627896516,0.000000000,-0.627757473,0.000000000,0.000057247,0.001988946,-0.010780395,0.000000000,-0.011440264
0.092000000,0.000000000,-0.000095729,-0.002124674,0.021898248,0.000000000,0.022219017,0.000000000,-0.006711272,0.017957323,1.502762281,0.000000000,1.501468893,0.000000000,0.006260493,-0.018509882,-1.363731670,0.000000000,-1.360838669,0.000000000,0.000720743,-0.014760351,0.057701637,0.000000000,0.059390814,0.000000000,0.006284614,-0.001561472,-0.630917067,0.000000000,-0.630715259,0.000000000,0.000106625,0.000515544,-0.012211951,0.000000000,-0.012241724,0.000000000,0.000051626,0.001502958,-0.013317083,0.000000000,-0.014002161,-0.002961000,0.000566479,-0.008364013,-0.778967922,0.000000000,-0.813482685,0.000000000,0.004589859,-0.015971315,-0.945725616,0.000000000,-0.943389402,0.000000000,0.011205163,-0.014720521,-0.604203740,0.000000000,-0.603140686,0.000000000,0.006250850,-0.001448788,-0.627757473,0.000000000,-0.627623237,0.000000000,0.000061406,0.002080580,-0.011440264,0.000000000,-0.012121110
0.094000000,0.000000000,-0.000099919,-0.002099854,0.022219017,0.000000000,0.022525250,0.000000000,-0.006676150,0.017561075,1.501468893,0.000000000,1.500448329,0.000000000,0.006224147,-0.018172803,-1.360838669,0.000000000,-1.358131989,0.000000000,0.000691294,-0.014724723,0.059390814,0.000000000,0.060997747,0.000000000,0.006281569,-0.001522513,-0.630715259,0.000000000,-0.630518274,0.000000000,0.000107603,0.000489311,-0.012241724,0.000000000,-0.012266045,0.000000000,0.000054731,0.001570037,-0.014002161,0.000000000,-0.014712496,-0.003148000,0.000548645,-0.008921101,-0.813482685,0.000000000,-0.848966564,0.000000000,0.004558527,-0.015672671,-0.943389402,0.000000000,-0.941238342,0.000000000,0.011175963,-0.014600324,-0.603140686,0.000000000,-0.602150588,0.000000000,0.006248060,-0.001395025,-0.627623237,0.000000000,-0.627494107,0.000000000,0.000065750,0.002172779,-0.012121110,0.000000000,-0.012822215
0.096000000,0.000000000,-0.000104057,-0.002073434,0.022525250,0.000000000,0.022816895,0.000000000,-0.006641824,0.017162976,1.500448329,0.000000000,1.499695951,0.000000000,0.006188475,-0.017836047,-1.358131989,0.000000000,-1.355609466,0.000000000,0.000661937,-0.014678401,0.060997747,0.000000000,0.062522807,0.000000000,0.006278600,-0.001484419,-0.630518274,0.000000000,-0.630326531,0.000000000,0.000108529,0.000463061,-0.012266045,0.000000000,-0.012285016,0.000000000,0.000057977,0.001638923,-0.014712496,0.000000000,-0.015448009,-0.003342000,0.000529635,-0.009510149,-0.848966564,0.000000000,-0.885382760,0.000000000,0.004527793,-0.015373458,-0.941238342,0.000000000,-0.939270212,0.000000000,0.011147018,-0.014472231,-0.602150588,0.000000000,-0.601232800,0.000000000,0.006245374,-0.001343072,-0.627494107,0.000000000,-0.627370335,0.000000000,0.000070279,0.002265259,-0.012822215,0.000000000,-0.013542832
0.098000000,0.000000000,-0.000108139,-0.002045467,0.022816895,0.000000000,0.023093920,0.000000000,-0.006608298,0.016763273,1.499695951,0.000000000,1.499207086,0.000000000,0.006153476,-0.017499698,-1.355609466,0.000000000,-1.353268966,0.000000000,0.000632694,-0.014621628,0.062522807,0.000000000,0.063966416,0.000000000,0.006275706,-0.001447011,-0.630326531,0.000000000,-0.630140397,0.000000000,0.000109403,0.000436832,-0.012285016,0.000000000,-0.012298742,0.000000000,0.000061366,0.001709520,-0.015448009,0.000000000,-0.016208495,-0.003544000,0.000509382,-0.010131956,-0.885382760,0.000000000,-0.922978793,0.000000000,0.004497658,-0.015073791,-0.939270212,0.000000000,-0.937482720,0.000000000,0.011118345,-0.014336466,-0.601232800,0.000000000,-0.600386685,0.000000000,0.006242788,-0.001292745,-0.627370335,0.000000000,-0.627252114,0.000000000,0.000074992,0.002357762,-0.013542832,0.000000000,-0.014282228
0.100000000,0.000000000,-0.000112164,-0.002016007,0.023093920,0.000000000,0.023356298,0.000000000,-0.006575573,0.016362197,1.499207086,0.000000000,1.498977280,0.000000000,0.006119148,-0.017163834,-1.353268966,0.000000000,-1.351108392,0.000000000,0.000603585,-0.014554654,0.063966416,0.000000000,0.065329054,0.000000000,0.006272886,-0.001410135,-0.630140397,0.000000000,-0.629960204,0.000000000,0.000110224,0.000410664,-0.012298742,0.000000000,-0.012307353,0.000000000,0.000064902,0.001781801,-0.016208495,0.000000000,-0.016994134,-0.003753000,0.000487819,-0.010787697,-0.922978793,0.000000000,-0.961424715,0.000000000,0.004468123,-0.014773779,-0.937482720,0.000000000,-0.935873585,0.000000000,0.011089959,-0.014193274,-0.600386685,0.000000000,-0.599611458,0.000000000,0.006240300,-0.001243923,-0.627252114,0.000000000,-0.627139479,0.000000000,0.000079894,0.002451392,-0.014282228,0.000000000,-0.015043765
0.102000000,0.000000000,-0.000116127,-0.001985114,0.023356298,0.000000000,0.023604054,0.000000000,-0.006543653,0.015960001,1.498977280,0.000000000,1.499001456,0.000000000,0.006085491,-0.016828538,-1.351108392,0.000000000,-1.349125609,0.000000000,0.000574629,-0.014477725,0.065329054,0.000000000,0.066611216,0.000000000,0.006270138,-0.001373670,-0.629960204,0.000000000,-0.629786214,0.000000000,0.000110994,0.000384573,-0.012307353,0.000000000,-0.012310910,0.000000000,0.000068588,0.001855697,-0.016994134,0.000000000,-0.017804877,-0.003970000,0.000464878,-0.011477940,-0.961424715,0.000000000,-1.000972420,0.000000000,0.004439189,-0.014473529,-0.935873585,0.000000000,-0.934440489,0.000000000,0.011061873,-0.014042872,-0.599611458,0.000000000,-0.598906480,0.000000000,0.006237907,-0.001196401,-0.627139479,0.000000000,-0.627032758,0.000000000,0.000084982,0.002544738,-0.015043765,0.000000000,-0.015823378
0.104000000,0.000000000,-0.000120027,-0.001952843,0.023604054,0.000000000,0.023837202,0.000000000,-0.006512539,0.015556910,1.499001456,0.000000000,1.499275024,0.000000000,0.006052503,-0.016493882,-1.349125609,0.000000000,-1.347318593,0.000000000,0.000545847,-0.014391095,0.066611216,0.000000000,0.067813476,0.000000000,0.006267463,-0.001337508,-0.629786214,0.000000000,-0.629618674,0.000000000,0.000111711,0.000358598,-0.012310910,0.000000000,-0.012309547,0.000000000,0.000072426,0.001931146,-0.017804877,0.000000000,-0.018640675,-0.004195000,0.000440488,-0.012203758,-1.000972420,0.000000000,-1.041577553,0.000000000,0.004410855,-0.014173140,-0.934440489,0.000000000,-0.933181312,0.000000000,0.011034102,-0.013885509,-0.598906480,0.000000000,-0.598270865,0.000000000,0.006235607,-0.001150084,-0.627032758,0.000000000,-0.626931970,0.000000000,0.000090258,0.002638703,-0.015823378,0.000000000,-0.016623752
0.106000000,0.000000000,-0.000123859,-0.001919254,0.023837202,0.000000000,0.024055783,0.000000000,-0.006482233,0.015153155,1.499275024,0.000000000,1.499793125,0.000000000,0.006020183,-0.016159940,-1.347318593,0.000000000,-1.345685261,0.000000000,0.000517257,-0.014295015,0.067813476,0.000000000,0.068936427,0.000000000,0.006264860,-0.001301563,-0.629618674,0.000000000,-0.629457780,0.000000000,0.000112376,0.000332764,-0.012309547,0.000000000,-0.012303361,0.000000000,0.000076420,0.002008121,-0.018640675,0.000000000,-0.019501689,-0.004427000,0.000414577,-0.012966069,-1.041577553,0.000000000,-1.082914520,0.000000000,0.004383123,-0.013872717,-0.933181312,0.000000000,-0.932093659,0.000000000,0.011006659,-0.013721408,-0.598270865,0.000000000,-0.597703868,0.000000000,0.006233398,-0.001104860,-0.626931970,0.000000000,-0.626837218,0.000000000,0.000095723,0.002733244,-0.016623752,0.000000000,-0.017444888
0.108000000,0.000000000,-0.000127623,-0.001884407,0.024055783,0.000000000,0.024259875,0.000000000,-0.006452735,0.014748979,1.499793125,0.000000000,1.500550545,0.000000000,0.005988530,-0.015826784,-1.345685261,0.000000000,-1.344223550,0.000000000,0.000488877,-0.014189736,0.068936427,0.000000000,0.069980695,0.000000000,0.006262329,-0.001265771,-0.629457780,0.000000000,-0.629303686,0.000000000,0.000112990,0.000307082,-0.012303361,0.000000000,-0.012292420,0.000000000,0.000080572,0.002086494,-0.019501689,0.000000000,-0.020387481,-0.004667000,0.000387072,-0.013765314,-1.082914520,0.000000000,-1.125236928,0.000000000,0.004355990,-0.013572360,-0.932093659,0.000000000,-0.931175262,0.000000000,0.010979558,-0.013550785,-0.597703868,0.000000000,-0.597204787,0.000000000,0.006231276,-0.001060571,-0.626837218,0.000000000,-0.626748758,0.000000000,0.000101376,0.002826756,-0.017444888,0.000000000,-0.018282008
0.110000000,0.000000000,-0.000131314,-0.001848359,0.024259875,0.000000000,0.024449536,0.000000000,-0.006424046,0.014344591,1.500550545,0.000000000,1.501542636,0.000000000,0.005957541,-0.015494481,-1.344223550,0.000000000,-1.342931477,0.000000000,0.000460726,-0.014075515,0.069980695,0.000000000,0.070946973,0.000000000,0.006259869,-0.001230073,-0.629303686,0.000000000,-0.629156541,0.000000000,0.000113554,0.000281592,-0.012292420,0.000000000,-0.012276869,0.000000000,0.000084885,0.002166141,-0.020387481,0.000000000,-0.021297610,-0.004915000,0.000357898,-0.014602477,-1.125236928,0.000000000,-1.168501370,0.000000000,0.004329459,-0.013272165,-0.931175262,0.000000000,-0.930423821,0.000000000,0.010952810,-0.013373872,-0.597204787,0.000000000,-0.596772758,0.000000000,0.006229242,-0.001017191,-0.626748758,0.000000000,-0.626666483,0.000000000,0.000107215,0.002920146,-0.018282008,0.000000000,-0.019137664
0.112000000,0.000000000,-0.000134932,-0.001811170,0.024449536,0.000000000,0.024624851,0.000000000,-0.006396166,0.013940210,1.501542636,0.000000000,1.502764465,0.000000000,0.005927215,-0.015163097,-1.342931477,0.000000000,-1.341806986,0.000000000,0.000432821,-0.013952606,0.070946973,0.000000000,0.071835965,0.000000000,0.006257480,-0.001194428,-0.629156541,0.000000000,-0.629016452,0.000000000,0.000114066,0.000256313,-0.012276869,0.000000000,-0.012256808,0.000000000,0.000089361,0.002246990,-0.021297610,0.000000000,-0.022231907,-0.005172000,0.000326980,-0.015478378,-1.168501370,0.000000000,-1.212952064,0.000000000,0.004303526,-0.012972239,-0.930423821,0.000000000,-0.929836801,0.000000000,0.010926428,-0.013190886,-0.596772758,0.000000000,-0.596407023,0.000000000,0.006227293,-0.000974654,-0.626666483,0.000000000,-0.626590410,0.000000000,0.000113241,0.003013382,-0.019137664,0.000000000,-0.020011738
0.114000000,0.000000000,-0.000138474,-0.001772896,0.024624851,0.000000000,0.024785910,0.000000000,-0.006369094,0.013536041,1.502764465,0.000000000,1.504211256,0.000000000,0.005897549,-0.014832697,-1.341806986,0.000000000,-1.340848072,0.000000000,0.000405179,-0.013821263,0.071835965,0.000000000,0.072648423,0.000000000,0.006255162,-0.001158802,-0.629016452,0.000000000,-0.628883507,0.000000000,0.000114529,0.000231269,-0.012256808,0.000000000,-0.012232355,0.000000000,0.000094002,0.002329047,-0.022231907,0.000000000,-0.023190661,-0.005436000,0.000294242,-0.016394164,-1.212952064,0.000000000,-1.257973002,0.000000000,0.004278193,-0.012672670,-0.929836801,0.000000000,-0.929411976,0.000000000,0.010900424,-0.013002073,-0.596407023,0.000000000,-0.596106552,0.000000000,0.006225427,-0.000932916,-0.626590410,0.000000000,-0.626520501,0.000000000,0.000119455,0.003107582,-0.020011738,0.000000000,-0.020907600
0.116000000,0.000000000,-0.000141937,-0.001733603,0.024785910,0.000000000,0.024932862,0.000000000,-0.006342829,0.013132322,1.504211256,0.000000000,1.505877383,0.000000000,0.005868542,-0.014503346,-1.340848072,0.000000000,-1.340052659,0.000000000,0.000377815,-0.013681738,0.072648423,0.000000000,0.073385090,0.000000000,0.006252916,-0.001123184,-0.628883507,0.000000000,-0.628757740,0.000000000,0.000114942,0.000206455,-0.012232355,0.000000000,-0.012203539,0.000000000,0.000098811,0.002412185,-0.023190661,0.000000000,-0.024173372,-0.005708000,0.000259609,-0.017349969,-1.257973002,0.000000000,-1.303824093,0.000000000,0.004253459,-0.012373550,-0.929411976,0.000000000,-0.929147004,0.000000000,0.010874809,-0.012807634,-0.596106552,0.000000000,-0.595870636,0.000000000,0.006223643,-0.000891803,-0.626520501,0.000000000,-0.626457124,0.000000000,0.000125854,0.003200002,-0.020907600,0.000000000,-0.021817086
0.118000000,0.000000000,-0.000145320,-0.001693348,0.024932862,0.000000000,0.025065820,0.000000000,-0.006317370,0.012729248,1.505877383,0.000000000,1.507758072,0.000000000,0.005840192,-0.014175102,-1.340052659,0.000000000,-1.339418808,0.000000000,0.000350747,-0.013534287,0.073385090,0.000000000,0.074046793,0.000000000,0.006250741,-0.001087555,-0.628757740,0.000000000,-0.628639205,0.000000000,0.000115306,0.000181905,-0.012203539,0.000000000,-0.012170512,0.000000000,0.000103789,0.002496220,-0.024173372,0.000000000,-0.025179175,-0.005989000,0.000223009,-0.018346612,-1.303824093,0.000000000,-1.350750587,0.000000000,0.004229321,-0.012074965,-0.929147004,0.000000000,-0.929039656,0.000000000,0.010849593,-0.012607798,-0.595870636,0.000000000,-0.595698324,0.000000000,0.006221941,-0.000851325,-0.626457124,0.000000000,-0.626400126,0.000000000,0.000132437,0.003291382,-0.021817086,0.000000000,-0.022742095
0.120000000,0.000000000,-0.000148621,-0.001652185,0.025065820,0.000000000,0.025184898,0.000000000,-0.006292716,0.012327005,1.507758072,0.000000000,1.509848614,0.000000000,0.005812496,-0.013848025,-1.339418808,0.000000000,-1.338944490,0.000000000,0.000323988,-0.013379164,0.074046793,0.000000000,0.074634368,0.000000000,0.006248637,-0.001051905,-0.628639205,0.000000000,-0.628527935,0.000000000,0.000115621,0.000157647,-0.012170512,0.000000000,-0.012133411,0.000000000,0.000108937,0.002581103,-0.025179175,0.000000000,-0.026207972,-0.006278000,0.000184378,-0.019385195,-1.350750587,0.000000000,-1.398424855,0.000000000,0.004205779,-0.011777016,-0.929039656,0.000000000,-0.929087266,0.000000000,0.010824787,-0.012402782,-0.595698324,0.000000000,-0.595588737,0.000000000,0.006220318,-0.000811511,-0.626400126,0.000000000,-0.626349287,0.000000000,0.000139202,0.003383094,-0.022742095,0.000000000,-0.023686590
0.122000000,0.000000000,-0.000151838,-0.001610176,0.025184898,0.000000000,0.025290264,0.000000000,-0.006268865,0.011925807,1.509848614,0.000000000,1.512143611,0.000000000,0.005785452,-0.013522177,-1.338944490,0.000000000,-1.338627636,0.000000000,0.000297555,-0.013216618,0.074634368,0.000000000,0.075148650,0.000000000,0.006246604,-0.001016241,-0.628527935,0.000000000,-0.628423917,0.000000000,0.000115888,0.000133678,-0.012133411,0.000000000,-0.012092286,0.000000000,0.000114258,0.002666766,-0.026207972,0.000000000,-0.027259540,-0.006576000,0.000143674,-0.020466166,-1.398424855,0.000000000,-1.447109431,0.000000000,0.004182831,-0.011479793,-0.929087266,0.000000000,-0.929287421,0.000000000,0.010800402,-0.012192796,-0.595588737,0.000000000,-0.595541004,0.000000000,0.006218773,-0.000772253,-0.626349287,0.000000000,-0.626304803,0.000000000,0.000146149,0.003473793,-0.023686590,0.000000000,-0.024646539
0.124000000,0.000000000,-0.000154970,-0.001567378,0.025290264,0.000000000,0.025382063,0.000000000,-0.006245813,0.011525839,1.512143611,0.000000000,1.514638181,0.000000000,0.005759057,-0.013197612,-1.338627636,0.000000000,-1.338466274,0.000000000,0.000271461,-0.013046903,0.075148650,0.000000000,0.075590532,0.000000000,0.006244643,-0.000980562,-0.628423917,0.000000000,-0.628327151,0.000000000,0.000116108,0.000110020,-0.012092286,0.000000000,-0.012047267,0.000000000,0.000119752,0.002753153,-0.027259540,0.000000000,-0.028333704,-0.006882000,0.000100934,-0.021590489,-1.447109431,0.000000000,-1.496508774,0.000000000,0.004160476,-0.011183368,-0.929287421,0.000000000,-0.929637971,0.000000000,0.010776446,-0.011978082,-0.595541004,0.000000000,-0.595553999,0.000000000,0.006217306,-0.000733542,-0.626304803,0.000000000,-0.626266586,0.000000000,0.000153277,0.003564472,-0.024646539,0.000000000,-0.025624769
0.126000000,0.000000000,-0.000158015,-0.001523850,0.025382063,0.000000000,0.025460478,0.000000000,-0.006223559,0.011127300,1.514638181,0.000000000,1.517326976,0.000000000,0.005733308,-0.012874387,-1.338466274,0.000000000,-1.338458334,0.000000000,0.000245721,-0.012870266,0.075590532,0.000000000,0.075960897,0.000000000,0.006242754,-0.000944882,-0.628327151,0.000000000,-0.628237599,0.000000000,0.000116282,0.000086677,-0.012047267,0.000000000,-0.011998422,0.000000000,0.000125421,0.002840169,-0.028333704,0.000000000,-0.029430058,-0.007196000,0.000056612,-0.022758609,-1.496508774,0.000000000,-1.546741565,0.000000000,0.004138712,-0.010887832,-0.929637971,0.000000000,-0.930136406,0.000000000,0.010752928,-0.011758838,-0.595553999,0.000000000,-0.595626894,0.000000000,0.006215915,-0.000695309,-0.626266586,0.000000000,-0.626234742,0.000000000,0.000160585,0.003653962,-0.025624769,0.000000000,-0.026617709
0.128000000,0.000000000,-0.000160971,-0.001479648,0.025460478,0.000000000,0.025525677,0.000000000,-0.006202098,0.010730370,1.517326976,0.000000000,1.520205010,0.000000000,0.005708203,-0.012552557,-1.338458334,0.000000000,-1.338601814,0.000000000,0.000220347,-0.012686956,0.075960897,0.000000000,0.076260674,0.000000000,0.006240935,-0.000909211,-0.628237599,0.000000000,-0.628155234,0.000000000,0.000116409,0.000063668,-0.011998422,0.000000000,-0.011945875,0.000000000,0.000131266,0.002927700,-0.029430058,0.000000000,-0.030548060,-0.007520000,0.000018184,-0.023971267,-1.546741565,0.000000000,-1.600485106,0.000000000,0.004117537,-0.010593264,-0.930136406,0.000000000,-0.930780381,0.000000000,0.010729857,-0.011535281,-0.595626894,0.000000000,-0.595758685,0.000000000,0.006214600,-0.000657553,-0.626234742,0.000000000,-0.626209170,0.000000000,0.000168069,0.003742624,-0.026617709,0.000000000,-0.027626220
0.130000000,0.000000000,-0.000163839,-0.001434801,0.025525677,0.000000000,0.025577694,0.000000000,-0.006181428,0.010335124,1.520205010,0.000000000,1.523269682,0.000000000,0.005683739,-0.012232168,-1.338601814,0.000000000,-1.338894823,0.000000000,0.000195352,-0.012497234,0.076260674,0.000000000,0.076490901,0.000000000,0.006239188,-0.000873532,-0.628155234,0.000000000,-0.628080103,0.000000000,0.000116491,0.000041084,-0.011945875,0.000000000,-0.011889974,0.000000000,0.000137289,0.003016478,-0.030548060,0.000000000,-0.031692109,-0.007852000,-0.000047660,-0.025232989,-1.600485106,0.000000000,-1.647599695,0.000000000,0.004096949,-0.010299725,-0.930780381,0.000000000,-0.931567900,0.000000000,0.010707242,-0.011307792,-0.595758685,0.000000000,-0.595947159,0.000000000,0.006213359,-0.000620644,-0.626209170,0.000000000,-0.626188653,0.000000000,0.000175756,0.003843337,-0.027626220,0.000000000,-0.028689353
0.132000000,0.000000000,-0.000166615,-0.001389466,0.025577694,0.000000000,0.025617296,0.000000000,-0.006161543,0.009942158,1.523269682,0.000000000,1.526506149,0.000000000,0.005659912,-0.011913312,-1.338894823,0.000000000,-1.339334437,0.000000000,0.000170750,-0.012301280,0.076490901,0.000000000,0.076652079,0.000000000,0.006237512,-0.000837996,-0.628080103,0.000000000,-0.628011746,0.000000000,0.000116528,0.000018569,-0.011889974,0.000000000,-0.011829716,0.000000000,0.000143489,0.003104697,-0.031692109,0.000000000,-0.032851870,-0.008193000,-0.000099025,-0.026532374,-1.647599695,0.000000000,-1.700536080,0.000000000,0.004076946,-0.010007354,-0.931567900,0.000000000,-0.932495182,0.000000000,0.010685090,-0.011076028,-0.595947159,0.000000000,-0.596195305,0.000000000,0.006212193,-0.000582919,-0.626188653,0.000000000,-0.626178079,0.000000000,0.000183575,0.003909999,-0.028689353,0.000000000,-0.029669158
0.134000000,0.000000000,-0.000169300,-0.001343572,0.025617296,0.000000000,0.025643969,0.000000000,-0.006142441,0.009551113,1.526506149,0.000000000,1.529921497,0.000000000,0.005636720,-0.011595965,-1.339334437,0.000000000,-1.339920336,0.000000000,0.000146551,-0.012099435,0.076652079,0.000000000,0.076745888,0.000000000,0.006235907,-0.000802425,-0.628011746,0.000000000,-0.627950680,0.000000000,0.000116522,-0.000003305,-0.011829716,0.000000000,-0.011766860,0.000000000,0.000149865,0.003192179,-0.032851870,0.000000000,-0.034026173,-0.008542000,-0.000154246,-0.027880982,-1.700536080,0.000000000,-1.753537167,0.000000000,0.004057525,-0.009716133,-0.932495182,0.000000000,-0.933561937,0.000000000,0.010663408,-0.010840740,-0.596195305,0.000000000,-0.596498220,0.000000000,0.006211100,-0.000546651,-0.626178079,0.000000000,-0.626170696,0.000000000,0.000191562,0.003993645,-0.029669158,0.000000000,-0.030714156
0.136000000,0.000000000,-0.000171893,-0.001297216,0.025643969,0.000000000,0.025658166,0.000000000,-0.006124116,0.009162352,1.529921497,0.000000000,1.533506164,0.000000000,0.005614160,-0.011280246,-1.339920336,0.000000000,-1.340648863,0.000000000,0.000122767,-0.011891877,0.076745888,0.000000000,0.076772863,0.000000000,0.006234373,-0.000766942,-0.627950680,0.000000000,-0.627896537,0.000000000,0.000116472,-0.000024825,-0.011766860,0.000000000,-0.011700662,0.000000000,0.000156416,0.003279774,-0.034026173,0.000000000,-0.035219847,-0.008901000,-0.000212536,-0.029276600,-1.753537167,0.000000000,-1.807445062,0.000000000,0.004038683,-0.009426377,-0.933561937,0.000000000,-0.934760252,0.000000000,0.010642205,-0.010601723,-0.596498220,0.000000000,-0.596857838,0.000000000,0.006210078,-0.000511033,-0.626170696,0.000000000,-0.626168663,0.000000000,0.000199715,0.004076849,-0.030714156,0.000000000,-0.031774718
0.138000000,0.000000000,-0.000174392,-0.001250460,0.025658166,0.000000000,0.025660148,0.000000000,-0.006106564,0.008776073,1.533506164,0.000000000,1.537254301,0.000000000,0.005592227,-0.010966182,-1.340648863,0.000000000,-1.341518516,0.000000000,0.000099410,-0.011678854,0.076772863,0.000000000,0.076734084,0.000000000,0.006232910,-0.000731562,-0.627896537,0.000000000,-0.627849252,0.000000000,0.000116380,-0.000046002,-0.011700662,0.000000000,-0.011631157,0.000000000,0.000163144,0.003367539,-0.035219847,0.000000000,-0.036433246,-0.009269000,-0.000273819,-0.030719622,-1.807445062,0.000000000,-1.861987990,0.000000000,0.004020418,-0.009137940,-0.934760252,0.000000000,-0.936092676,0.000000000,0.010621486,-0.010359532,-0.596857838,0.000000000,-0.597270615,0.000000000,0.006209127,-0.000475625,-0.626168663,0.000000000,-0.626173190,0.000000000,0.000208034,0.004159314,-0.031774718,0.000000000,-0.032849853
0.140000000,0.000000000,-0.000176797,-0.001203357,0.025660148,0.000000000,0.025650136,0.000000000,-0.006089779,0.008392440,1.537254301,0.000000000,1.541160690,0.000000000,0.005570920,-0.010653823,-1.341518516,0.000000000,-1.342527192,0.000000000,0.000076488,-0.011460601,0.076734084,0.000000000,0.076630554,0.000000000,0.006231518,-0.000696307,-0.627849252,0.000000000,-0.627808738,0.000000000,0.000116246,-0.000066816,-0.011631157,0.000000000,-0.011558479,0.000000000,0.000170047,0.003455358,-0.036433246,0.000000000,-0.037665720,-0.009645000,-0.000338138,-0.032210437,-1.861987990,0.000000000,-1.916861240,0.000000000,0.004002727,-0.008850897,-0.936092676,0.000000000,-0.937556688,0.000000000,0.010601257,-0.010114324,-0.597270615,0.000000000,-0.597735810,0.000000000,0.006208246,-0.000440439,-0.626173190,0.000000000,-0.626184200,0.000000000,0.000216514,0.004240368,-0.032849853,0.000000000,-0.033937360
0.142000000,0.000000000,-0.000179107,-0.001155958,0.025650136,0.000000000,0.025628359,0.000000000,-0.006073756,0.008011609,1.541160690,0.000000000,1.545220181,0.000000000,0.005550233,-0.010343217,-1.342527192,0.000000000,-1.343672768,0.000000000,0.000054014,-0.011237349,0.076630554,0.000000000,0.076463289,0.000000000,0.006230195,-0.000661197,-0.627808738,0.000000000,-0.627774908,0.000000000,0.000116072,-0.000087249,-0.011558479,0.000000000,-0.011482752,0.000000000,0.000177126,0.003542964,-0.037665720,0.000000000,-0.038915712,-0.010031000,-0.000405563,-0.033749180,-1.916861240,0.000000000,-1.972609434,0.000000000,0.003985607,-0.008565347,-0.937556688,0.000000000,-0.939149221,0.000000000,0.010581525,-0.009866220,-0.597735810,0.000000000,-0.598252934,0.000000000,0.006207435,-0.000405535,-0.626184200,0.000000000,-0.626201460,0.000000000,0.000225151,0.004318664,-0.033937360,0.000000000,-0.035032854
0.144000000,0.000000000,-0.000181323,-0.001108305,0.025628359,0.000000000,0.025594998,0.000000000,-0.006058489,0.007633700,1.545220181,0.000000000,1.549428407,0.000000000,0.005530164,-0.010034412,-1.343672768,0.000000000,-1.344953181,0.000000000,0.000031995,-0.011009333,0.076463289,0.000000000,0.076233346,0.000000000,0.006228943,-0.000626243,-0.627774908,0.000000000,-0.627747700,0.000000000,0.000115857,-0.000107264,-0.011482752,0.000000000,-0.011404167,0.000000000,0.000184380,0.003630232,-0.038915712,0.000000000,-0.040182440,-0.010426000,-0.000476183,-0.035336908,-1.972609434,0.000000000,-2.028900039,0.000000000,0.003969054,-0.008281377,-0.939149221,0.000000000,-0.940867373,0.000000000,0.010562294,-0.009615400,-0.598252934,0.000000000,-0.598821045,0.000000000,0.006206692,-0.000371082,-0.626201460,0.000000000,-0.626224405,0.000000000,0.000233944,0.004396571,-0.035032854,0.000000000,-0.036142994
0.146000000,0.000000000,-0.000183442,-0.001060449,0.025594998,0.000000000,0.025550299,0.000000000,-0.006043971,0.007258871,1.549428407,0.000000000,1.553780072,0.000000000,0.005510709,-0.009727457,-1.344953181,0.000000000,-1.346366223,0.000000000,0.000010443,-0.010776776,0.076233346,0.000000000,0.075941695,0.000000000,0.006227760,-0.000591470,-0.627747700,0.000000000,-0.627727005,0.000000000,0.000115604,-0.000126874,-0.011404167,0.000000000,-0.011322771,0.000000000,0.000191809,0.003717097,-0.040182440,0.000000000,-0.041465442,-0.010830000,-0.000550089,-0.036973891,-2.028900039,0.000000000,-2.085700730,0.000000000,0.003953066,-0.007999074,-0.940867373,0.000000000,-0.942708289,0.000000000,0.010543570,-0.009362028,-0.598821045,0.000000000,-0.599439307,0.000000000,0.006206018,-0.000337034,-0.626224405,0.000000000,-0.626253078,0.000000000,0.000242889,0.004472900,-0.036142994,0.000000000,-0.037264073
0.148000000,0.000000000,-0.000185466,-0.001012438,0.025550299,0.000000000,0.025494499,0.000000000,-0.006030196,0.006887267,1.553780072,0.000000000,1.558270051,0.000000000,0.005491865,-0.009422400,-1.346366223,0.000000000,-1.347909790,0.000000000,-0.000010640,-0.010539903,0.075941695,0.000000000,0.075589708,0.000000000,0.006226646,-0.000556899,-0.627727005,0.000000000,-0.627712725,0.000000000,0.000115311,-0.000146076,-0.011322771,0.000000000,-0.011238653,0.000000000,0.000199410,0.003803433,-0.041465442,0.000000000,-0.042763900,-0.011244000,-0.000627377,-0.038660437,-2.085700730,0.000000000,-2.143261468,0.000000000,0.003937639,-0.007718493,-0.942708289,0.000000000,-0.944669691,0.000000000,0.010525357,-0.009106305,-0.599439307,0.000000000,-0.600106594,0.000000000,0.006205412,-0.000303355,-0.626253078,0.000000000,-0.626287512,0.000000000,0.000251984,0.004547223,-0.037264073,0.000000000,-0.038394477
0.150000000,0.000000000,-0.000187393,-0.000964315,0.025494499,0.000000000,0.025427818,0.000000000,-0.006017158,0.006519013,1.558270051,0.000000000,1.562893601,0.000000000,0.005473626,-0.009119285,-1.347909790,0.000000000,-1.349581722,0.000000000,-0.000031237,-0.010298933,0.075589708,0.000000000,0.075177890,0.000000000,0.006225601,-0.000522549,-0.627712725,0.000000000,-0.627704759,0.000000000,0.000114982,-0.000164857,-0.011238653,0.000000000,-0.011151938,0.000000000,0.000207183,0.003889187,-0.042763900,0.000000000,-0.044077382,-0.011667000,-0.000708145,-0.040397272,-2.143261468,0.000000000,-2.201253847,0.000000000,0.003922770,-0.007439700,-0.944669691,0.000000000,-0.946749081,0.000000000,0.010507660,-0.008848426,-0.600106594,0.000000000,-0.600821776,0.000000000,0.006204872,-0.000270082,-0.626287512,0.000000000,-0.626327514,0.000000000,0.000261225,0.004620742,-0.038394477,0.000000000,-0.039537456
0.152000000,0.000000000,-0.000189224,-0.000916129,0.025427818,0.000000000,0.025350514,0.000000000,-0.006004850,0.006154254,1.562893601,0.000000000,1.567645441,0.000000000,0.005455990,-0.008818159,-1.349581722,0.000000000,-1.351379846,0.000000000,-0.000051345,-0.010054085,0.075177890,0.000000000,0.074707632,0.000000000,0.006224624,-0.000488440,-0.627704759,0.000000000,-0.627703003,0.000000000,0.000114615,-0.000183224,-0.011151938,0.000000000,-0.011062685,0.000000000,0.000215126,0.003974268,-0.044077382,0.000000000,-0.045405233,-0.012099000,-0.000792492,-0.042184527,-2.201253847,0.000000000,-2.259646480,0.000000000,0.003908454,-0.007162764,-0.946749081,0.000000000,-0.948943848,0.000000000,0.010490483,-0.008588557,-0.600821776,0.000000000,-0.601583931,0.000000000,0.006204397,-0.000237158,-0.626327514,0.000000000,-0.626373182,0.000000000,0.000270609,0.004692182,-0.039537456,0.000000000,-0.040688968
0.154000000,0.000000000,-0.000190959,-0.000867923,0.025350514,0.000000000,0.025262831,0.000000000,-0.005993264,0.005793121,1.567645441,0.000000000,1.572520580,0.000000000,0.005438952,-0.008519067,-1.351379846,0.000000000,-1.353302011,0.000000000,-0.000070956,-0.009805574,0.074707632,0.000000000,0.074179949,0.000000000,0.006223715,-0.000454590,-0.627703003,0.000000000,-0.627707352,0.000000000,0.000114213,-0.000201173,-0.011062685,0.000000000,-0.010970992,0.000000000,0.000223239,0.004058518,-0.045405233,0.000000000,-0.046746369,-0.012541000,-0.000880518,-0.044022425,-2.259646480,0.000000000,-2.318690369,0.000000000,0.003894688,-0.006887745,-0.948943848,0.000000000,-0.951251554,0.000000000,0.010473830,-0.008326875,-0.601583931,0.000000000,-0.602392028,0.000000000,0.006203988,-0.000204574,-0.626373182,0.000000000,-0.626424467,0.000000000,0.000280131,0.004761211,-0.040688968,0.000000000,-0.041847578
0.156000000,0.000000000,-0.000192598,-0.000819736,0.025262831,0.000000000,0.025164993,0.000000000,-0.005982392,0.005435724,1.572520580,0.000000000,1.577514397,0.000000000,0.005422508,-0.008222052,-1.353302011,0.000000000,-1.355346048,0.000000000,-0.000090063,-0.009553614,0.074179949,0.000000000,0.073595919,0.000000000,0.006222873,-0.000421013,-0.627707352,0.000000000,-0.627717713,0.000000000,0.000113776,-0.000218688,-0.010970992,0.000000000,-0.010876994,0.000000000,0.000231518,0.004141856,-0.046746369,0.000000000,-0.048100149,-0.012992000,-0.000972325,-0.045911605,-2.318690369,0.000000000,-2.378057826,0.000000000,0.003881467,-0.006614709,-0.951251554,0.000000000,-0.953669551,0.000000000,0.010457702,-0.008063559,-0.602392028,0.000000000,-0.603245010,0.000000000,0.006203643,-0.000172393,-0.626424467,0.000000000,-0.626481113,0.000000000,0.000289789,0.004829068,-0.041847578,0.000000000,-0.043016573
0.158000000,0.000000000,-0.000194140,-0.000771613,0.025164993,0.000000000,0.025057262,0.000000000,-0.005972228,0.005082194,1.577514397,0.000000000,1.582621709,0.000000000,0.005406653,-0.007927160,-1.355346048,0.000000000,-1.357509714,0.000000000,-0.000108660,-0.009298409,0.073595919,0.000000000,0.072956592,0.000000000,0.006222097,-0.000387730,-0.627717713,0.000000000,-0.627733964,0.000000000,0.000113304,-0.000235780,-0.010876994,0.000000000,-0.010780744,0.000000000,0.000239962,0.004224180,-0.048100149,0.000000000,-0.049465766,-0.013452000,-0.001068016,-0.047852093,-2.378057826,0.000000000,-2.437718977,0.000000000,0.003868789,-0.006343724,-0.953669551,0.000000000,-0.956195165,0.000000000,0.010442105,-0.007798763,-0.603245010,0.000000000,-0.604141966,0.000000000,0.006203362,-0.000140559,-0.626481113,0.000000000,-0.626543205,0.000000000,0.000299578,0.004894482,-0.043016573,0.000000000,-0.044191844
0.160000000,0.000000000,-0.000195587,-0.000723593,0.025057262,0.000000000,0.024939889,0.000000000,-0.005962762,0.004732648,1.582621709,0.000000000,1.587837613,0.000000000,0.005391384,-0.007634432,-1.357509714,0.000000000,-1.359790831,0.000000000,-0.000126740,-0.009040167,0.072956592,0.000000000,0.072263048,0.000000000,0.006221388,-0.000354757,-0.627733964,0.000000000,-0.627756000,0.000000000,0.000112799,-0.000252445,-0.010780744,0.000000000,-0.010682340,0.000000000,0.000248569,0.004305320,-0.049465766,0.000000000,-0.050842014,-0.013923000,-0.001167692,-0.049844010,-2.437718977,0.000000000,-2.498210641,0.000000000,0.003856648,-0.006074844,-0.956195165,0.000000000,-0.958825946,0.000000000,0.010427040,-0.007532655,-0.604141966,0.000000000,-0.605081858,0.000000000,0.006203144,-0.000109066,-0.626543205,0.000000000,-0.626610696,0.000000000,0.000309492,0.004957127,-0.044191844,0.000000000,-0.045371908
0.162000000,0.000000000,-0.000196937,-0.000675710,0.024939889,0.000000000,0.024813088,0.000000000,-0.005953988,0.004387174,1.587837613,0.000000000,1.593157847,0.000000000,0.005376697,-0.007343909,-1.359790831,0.000000000,-1.362187221,0.000000000,-0.000144298,-0.008779092,0.072263048,0.000000000,0.071516390,0.000000000,0.006220744,-0.000322101,-0.627756000,0.000000000,-0.627783734,0.000000000,0.000112262,-0.000268660,-0.010682340,0.000000000,-0.010581937,0.000000000,0.000257335,0.004385282,-0.050842014,0.000000000,-0.052228670,-0.014403000,-0.001271459,-0.051888292,-2.498210641,0.000000000,-2.558913565,0.000000000,0.003845040,-0.005808129,-0.958825946,0.000000000,-0.961559317,0.000000000,0.010412509,-0.007265427,-0.605081858,0.000000000,-0.606063473,0.000000000,0.006202988,-0.000078010,-0.626610696,0.000000000,-0.626683221,0.000000000,0.000319531,0.005019621,-0.045371908,0.000000000,-0.046564177
0.164000000,0.000000000,-0.000198193,-0.000628006,0.024813088,0.000000000,0.024677141,0.000000000,-0.005945896,0.004045902,1.593157847,0.000000000,1.598577014,0.000000000,0.005362585,-0.007055638,-1.362187221,0.000000000,-1.364696565,0.000000000,-0.000161329,-0.008515378,0.071516390,0.000000000,0.070717660,0.000000000,0.006220164,-0.000289787,-0.627783734,0.000000000,-0.627817029,0.000000000,0.000111693,-0.000284452,-0.010581937,0.000000000,-0.010479542,0.000000000,0.000266260,0.004464014,-0.052228670,0.000000000,-0.053625171,-0.014892000,-0.001379419,-0.053984695,-2.558913565,0.000000000,-2.619803703,0.000000000,0.003833961,-0.005543641,-0.961559317,0.000000000,-0.964392626,0.000000000,0.010398514,-0.006997219,-0.606063473,0.000000000,-0.607085941,0.000000000,0.006202894,-0.000047271,-0.626683221,0.000000000,-0.626761058,0.000000000,0.000329690,0.005079562,-0.046564177,0.000000000,-0.047761302
0.166000000,0.000000000,-0.000199353,-0.000580520,0.024677141,0.000000000,0.024532305,0.000000000,-0.005938478,0.003708939,1.598577014,0.000000000,1.604090281,0.000000000,0.005349046,-0.006769657,-1.364696565,0.000000000,-1.367316689,0.000000000,-0.000177828,-0.008249223,0.070717660,0.000000000,0.069867949,0.000000000,0.006219648,-0.000257826,-0.627817029,0.000000000,-0.627855779,0.000000000,0.000111093,-0.000299818,-0.010479542,0.000000000,-0.010375255,0.000000000,0.000275339,0.004541327,-0.053625171,0.000000000,-0.055030156,-0.015391000,-0.001491677,-0.056133207,-2.619803703,0.000000000,-2.681135845,0.000000000,0.003823406,-0.005281422,-0.964392626,0.000000000,-0.967323598,0.000000000,0.010385058,-0.006728196,-0.607085941,0.000000000,-0.608148183,0.000000000,0.006202860,-0.000016833,-0.626761058,0.000000000,-0.626844190,0.000000000,0.000339963,0.005136439,-0.047761302,0.000000000,-0.048961216
0.168000000,0.000000000,-0.000200419,-0.000533281,0.024532305,0.000000000,0.024378809,0.000000000,-0.005931726,0.003376368,1.604090281,0.000000000,1.609693283,0.000000000,0.005336074,-0.006486006,-1.367316689,0.000000000,-1.370045369,0.000000000,-0.000193789,-0.007980820,0.069867949,0.000000000,0.068968356,0.000000000,0.006219196,-0.000226226,-0.627855779,0.000000000,-0.627899890,0.000000000,0.000110464,-0.000314740,-0.010375255,0.000000000,-0.010269216,0.000000000,0.000284570,0.004617111,-0.055030156,0.000000000,-0.056442673,-0.015900001,-0.001608339,-0.058334274,-2.681135845,0.000000000,-2.742870588,0.000000000,0.003813371,-0.005021536,-0.967323598,0.000000000,-0.970349475,0.000000000,0.010372141,-0.006458509,-0.608148183,0.000000000,-0.609249209,0.000000000,0.006202886,0.000013221,-0.626844190,0.000000000,-0.626932308,0.000000000,0.000350346,0.005191533,-0.048961216,0.000000000,-0.050167197
0.170000000,0.000000000,-0.000201392,-0.000486325,0.024378809,0.000000000,0.024216901,0.000000000,-0.005925629,0.003048281,1.609693283,0.000000000,1.615381356,0.000000000,0.005323665,-0.006204726,-1.370045369,0.000000000,-1.372880322,0.000000000,-0.000209210,-0.007710357,0.068968356,0.000000000,0.068019957,0.000000000,0.006218806,-0.000195000,-0.627899890,0.000000000,-0.627949250,0.000000000,0.000109805,-0.000329220,-0.010269216,0.000000000,-0.010161504,0.000000000,0.000293950,0.004691332,-0.056442673,0.000000000,-0.057862188,-0.016419001,-0.001729508,-0.060588136,-2.742870588,0.000000000,-2.804971718,0.000000000,0.003803850,-0.004764043,-0.970349475,0.000000000,-0.973467553,0.000000000,0.010359764,-0.006188309,-0.609249209,0.000000000,-0.610388025,0.000000000,0.006202972,0.000042895,-0.626932308,0.000000000,-0.627025342,0.000000000,0.000360835,0.005244972,-0.050167197,0.000000000,-0.051379274
0.172000000,0.000000000,-0.000202271,-0.000439683,0.024216901,0.000000000,0.024046836,0.000000000,-0.005920180,0.002724773,1.615381356,0.000000000,1.621149787,0.000000000,0.005311813,-0.005925856,-1.372880322,0.000000000,-1.375819291,0.000000000,-0.000224086,-0.007438020,0.068019957,0.000000000,0.067023832,0.000000000,0.006218478,-0.000164160,-0.627949250,0.000000000,-0.628003747,0.000000000,0.000109119,-0.000343264,-0.010161504,0.000000000,-0.010052193,0.000000000,0.000303475,0.004763954,-0.057862188,0.000000000,-0.059288160,-0.016946999,-0.001855292,-0.062894952,-2.804971718,0.000000000,-2.867121272,0.000000000,0.003794840,-0.004508987,-0.973467553,0.000000000,-0.976675438,0.000000000,0.010347929,-0.005917758,-0.610388025,0.000000000,-0.611563512,0.000000000,0.006203117,0.000072220,-0.627025342,0.000000000,-0.627123310,0.000000000,0.000371428,0.005296651,-0.051379274,0.000000000,-0.052596796
0.174000000,0.000000000,-0.000203057,-0.000393390,0.024046836,0.000000000,0.023868882,0.000000000,-0.005915368,0.002405941,1.621149787,0.000000000,1.626993679,0.000000000,0.005300514,-0.005649436,-1.375819291,0.000000000,-1.378859999,0.000000000,-0.000238414,-0.007163990,0.067023832,0.000000000,0.065981051,0.000000000,0.006218210,-0.000133719,-0.628003747,0.000000000,-0.628063260,0.000000000,0.000108405,-0.000356882,-0.010052193,0.000000000,-0.009941341,0.000000000,0.000313142,0.004834837,-0.059288160,0.000000000,-0.060719426,-0.017485000,-0.001985796,-0.065254449,-2.867121272,0.000000000,-2.929580829,0.000000000,0.003786334,-0.004256416,-0.976675438,0.000000000,-0.979970618,0.000000000,0.010336635,-0.005646990,-0.611563512,0.000000000,-0.612774748,0.000000000,0.006203319,0.000101251,-0.627123310,0.000000000,-0.627226311,0.000000000,0.000382119,0.005345133,-0.052596796,0.000000000,-0.053815027
0.176000000,0.000000000,-0.000203752,-0.000347473,0.023868882,0.000000000,0.023683270,0.000000000,-0.005911184,0.002091855,1.626993679,0.000000000,1.632908789,0.000000000,0.005289763,-0.005375501,-1.378859999,0.000000000,-1.382000221,0.000000000,-0.000252191,-0.006888448,0.065981051,0.000000000,0.064892717,0.000000000,0.006218003,-0.000103683,-0.628063260,0.000000000,-0.628127697,0.000000000,0.000107665,-0.000370058,-0.009941341,0.000000000,-0.009829081,0.000000000,0.000322947,0.004903864,-0.060719426,0.000000000,-0.062154927,-0.018033000,-0.002121125,-0.067666913,-2.929580829,0.000000000,-2.992312834,0.000000000,0.003778328,-0.004006379,-0.979970618,0.000000000,-0.983350548,0.000000000,0.010325883,-0.005376154,-0.612774748,0.000000000,-0.614020678,0.000000000,0.006203579,0.000129925,-0.627226311,0.000000000,-0.627334094,0.000000000,0.000392901,0.005391519,-0.053815027,0.000000000,-0.055036677
0.178000000,0.000000000,-0.000204356,-0.000301959,0.023683270,0.000000000,0.023490246,0.000000000,-0.005907619,0.001782591,1.632908789,0.000000000,1.638890658,0.000000000,0.005279555,-0.005104089,-1.382000221,0.000000000,-1.385237652,0.000000000,-0.000265414,-0.006611569,0.064892717,0.000000000,0.063759904,0.000000000,0.006217855,-0.000074059,-0.628127697,0.000000000,-0.628196948,0.000000000,0.000106899,-0.000382795,-0.009829081,0.000000000,-0.009715496,0.000000000,0.000332887,0.004970985,-0.062154927,0.000000000,-0.063593966,-0.018591000,-0.002261386,-0.070132459,-2.992312834,0.000000000,-3.055285008,0.000000000,0.003770817,-0.003758933,-0.983350548,0.000000000,-0.986812492,0.000000000,0.010315672,-0.005105383,-0.614020678,0.000000000,-0.615300355,0.000000000,0.006203895,0.000158234,-0.627334094,0.000000000,-0.627446562,0.000000000,0.000403773,0.005435948,-0.055036677,0.000000000,-0.056261746
0.180000000,0.000000000,-0.000204869,-0.000256878,0.023490246,0.000000000,0.023290061,0.000000000,-0.005904662,0.001478223,1.638890658,0.000000000,1.644934791,0.000000000,0.005269884,-0.004835238,-1.385237652,0.000000000,-1.388570009,0.000000000,-0.000278081,-0.006333527,0.063759904,0.000000000,0.062583689,0.000000000,0.006217765,-0.000044857,-0.628196948,0.000000000,-0.628270904,0.000000000,0.000106109,-0.000395097,-0.009715496,0.000000000,-0.009600661,0.000000000,0.000342957,0.005036153,-0.063593966,0.000000000,-0.065035876,-0.019159000,-0.002406684,-0.072651128,-3.055285008,0.000000000,-3.118466232,0.000000000,0.003763795,-0.003514119,-0.986812492,0.000000000,-0.990354004,0.000000000,0.010306002,-0.004834823,-0.615300355,0.000000000,-0.616612712,0.000000000,0.006204268,0.000186200,-0.627446562,0.000000000,-0.627563706,0.000000000,0.000414730,0.005478351,-0.056261746,0.000000000,-0.057489625
0.182000000,0.000000000,-0.000205294,-0.000212256,0.023290061,0.000000000,0.023082961,0.000000000,-0.005902305,0.001178824,1.644934791,0.000000000,1.651036755,0.000000000,0.005260746,-0.004568983,-1.388570009,0.000000000,-1.391995014,0.000000000,-0.000290190,-0.006054488,0.062583689,0.000000000,0.061365150,0.000000000,0.006217733,-0.000016084,-0.628270904,0.000000000,-0.628349454,0.000000000,0.000105295,-0.000406967,-0.009600661,0.000000000,-0.009484656,0.000000000,0.000353153,0.005099316,-0.065035876,0.000000000,-0.066479923,-0.019737000,-0.002557126,-0.075222935,-3.118466232,0.000000000,-3.181825488,0.000000000,0.003757257,-0.003271978,-0.990354004,0.000000000,-0.993972635,0.000000000,0.010296873,-0.004564615,-0.616612712,0.000000000,-0.617956707,0.000000000,0.006204695,0.000213838,-0.627563706,0.000000000,-0.627685503,0.000000000,0.000425767,0.005518664,-0.057489625,0.000000000,-0.058719709
0.184000000,0.000000000,-0.000205630,-0.000168117,0.023082961,0.000000000,0.022869193,0.000000000,-0.005900536,0.000884459,1.651036755,0.000000000,1.657192195,0.000000000,0.005252136,-0.004305359,-1.391995014,0.000000000,-1.395510379,0.000000000,-0.000301739,-0.005774621,0.061365150,0.000000000,0.060105361,0.000000000,0.006217757,0.000012254,-0.628349454,0.000000000,-0.628432494,0.000000000,0.000104458,-0.000418405,-0.009484656,0.000000000,-0.009367564,0.000000000,0.000363472,0.005160412,-0.066479923,0.000000000,-0.067925317,-0.020324999,-0.002712819,-0.077847869,-3.181825488,0.000000000,-3.245333322,0.000000000,0.003751198,-0.003032552,-0.993972635,0.000000000,-0.997665879,0.000000000,0.010288283,-0.004294889,-0.617956707,0.000000000,-0.619331347,0.000000000,0.006205178,0.000241150,-0.627685503,0.000000000,-0.627811898,0.000000000,0.000436881,0.005556836,-0.058719709,0.000000000,-0.059951425
0.186000000,0.000000000,-0.000205879,-0.000124485,0.022869193,0.000000000,0.022648999,0.000000000,-0.005899345,0.000595190,1.657192195,0.000000000,1.663396817,0.000000000,0.005244047,-0.004044400,-1.395510379,0.000000000,-1.399113816,0.000000000,-0.000312727,-0.005494087,0.060105361,0.000000000,0.058805394,0.000000000,0.006217838,0.000040149,-0.628432494,0.000000000,-0.628519916,0.000000000,0.000103600,-0.000429414,-0.009367564,0.000000000,-0.009249469,0.000000000,0.000373909,0.005219375,-0.067925317,0.000000000,-0.069371230,-0.020923000,-0.002873867,-0.080525897,-3.245333322,0.000000000,-3.308960339,0.000000000,0.003745612,-0.002795885,-0.997665879,0.000000000,-1.001431206,0.000000000,0.010280232,-0.004025771,-0.619331347,0.000000000,-0.620735656,0.000000000,0.006205714,0.000268139,-0.627811898,0.000000000,-0.627942825,0.000000000,0.000448066,0.005592820,-0.059951425,0.000000000,-0.061184195
0.188000000,0.000000000,-0.000206042,-0.000081384,0.022648999,0.000000000,0.022422620,0.000000000,-0.005898723,0.000311074,1.663396817,0.000000000,1.669646387,0.000000000,0.005236475,-0.003786139,-1.399113816,0.000000000,-1.402803033,0.000000000,-0.000323153,-0.005213046,0.058805394,0.000000000,0.057466319,0.000000000,0.006217973,0.000067597,-0.628519916,0.000000000,-0.628611615,0.000000000,0.000102720,-0.000439995,-0.009249469,0.000000000,-0.009130452,0.000000000,0.000384459,0.005276137,-0.069371230,0.000000000,-0.070816810,-0.021530000,-0.003040378,-0.083256953,-3.308960339,0.000000000,-3.372393534,0.000000000,0.003740493,-0.002562018,-1.001431206,0.000000000,-1.005266083,0.000000000,0.010272717,-0.003757386,-0.620735656,0.000000000,-0.622168667,0.000000000,0.006206304,0.000294802,-0.627942825,0.000000000,-0.628078218,0.000000000,0.000459319,0.005626563,-0.061184195,0.000000000,-0.062417413
0.190000000,0.000000000,-0.000206119,-0.000038837,0.022422620,0.000000000,0.022190311,0.000000000,-0.005898659,0.000032177,1.669646387,0.000000000,1.675936463,0.000000000,0.005229413,-0.003530611,-1.402803033,0.000000000,-1.406575722,0.000000000,-0.000333017,-0.004931653,0.057466319,0.000000000,0.056089193,0.000000000,0.006218162,0.000094590,-0.628611615,0.000000000,-0.628707476,0.000000000,0.000101819,-0.000450158,-0.009130452,0.000000000,-0.009010569,0.000000000,0.000395118,0.005330542,-0.070816810,0.000000000,-0.072260665,-0.022148000,-0.003212457,-0.086040540,-3.372393534,0.000000000,-3.436182434,0.000000000,0.003735836,-0.002330993,-1.005266083,0.000000000,-1.009167914,0.000000000,0.010265737,-0.003489834,-0.622168667,0.000000000,-0.623629555,0.000000000,0.006206946,0.000321181,-0.628078218,0.000000000,-0.628218133,0.000000000,0.000470632,0.005656655,-0.062417413,0.000000000,-0.063646334
0.192000000,0.000000000,-0.000206113,0.000003140,0.022190311,0.000000000,0.021952276,0.000000000,-0.005899142,-0.000241476,1.675936463,0.000000000,1.682263499,0.000000000,0.005222858,-0.003277843,-1.406575722,0.000000000,-1.410429651,0.000000000,-0.000342317,-0.004650065,0.056089193,0.000000000,0.054675106,0.000000000,0.006218404,0.000121133,-0.628707476,0.000000000,-0.628807420,0.000000000,0.000100900,-0.000459881,-0.009010569,0.000000000,-0.008889971,0.000000000,0.000405882,0.005382557,-0.072260665,0.000000000,-0.073702108,-0.022776000,-0.003390209,-0.088877107,-3.436182434,0.000000000,-3.500002972,0.000000000,0.003731635,-0.002102848,-1.009167914,0.000000000,-1.013134249,0.000000000,0.010259291,-0.003223260,-0.623629555,0.000000000,-0.625117169,0.000000000,0.006207640,0.000347173,-0.628218133,0.000000000,-0.628362205,0.000000000,0.000482003,0.005685565,-0.063646334,0.000000000,-0.064877739
0.194000000,0.000000000,-0.000206025,0.000044527,0.021952276,0.000000000,0.021708764,0.000000000,-0.005900162,-0.000509827,1.682263499,0.000000000,1.688623159,0.000000000,0.005216802,-0.003027871,-1.410429651,0.000000000,-1.414362454,0.000000000,-0.000351054,-0.004368428,0.054675106,0.000000000,0.053225096,0.000000000,0.006218699,0.000147214,-0.628807420,0.000000000,-0.628911326,0.000000000,0.000099961,-0.000469185,-0.008889971,0.000000000,-0.008768685,0.000000000,0.000416745,0.005432190,-0.073702108,0.000000000,-0.075140665,-0.023414001,-0.003573739,-0.091766367,-3.500002972,0.000000000,-3.563831666,0.000000000,0.003727884,-0.001877626,-1.013134249,0.000000000,-1.017162437,0.000000000,0.010253375,-0.002957768,-0.625117169,0.000000000,-0.626630635,0.000000000,0.006208386,0.000372841,-0.628362205,0.000000000,-0.628510541,0.000000000,0.000493428,0.005712310,-0.064877739,0.000000000,-0.066108396
0.196000000,0.000000000,-0.000205854,0.000085304,0.021708764,0.000000000,0.021460013,0.000000000,-0.005901707,-0.000772829,1.688623159,0.000000000,1.695011350,0.000000000,0.005211241,-0.002780724,-1.414362454,0.000000000,-1.418371870,0.000000000,-0.000359228,-0.004086890,0.053225096,0.000000000,0.051740221,0.000000000,0.006219044,0.000172832,-0.628911326,0.000000000,-0.629019091,0.000000000,0.000099005,-0.000478074,-0.008768685,0.000000000,-0.008646781,0.000000000,0.000427702,0.005479384,-0.075140665,0.000000000,-0.076575507,-0.024062000,-0.003763153,-0.094708099,-3.563831666,0.000000000,-3.627643196,0.000000000,0.003724578,-0.001655349,-1.017162437,0.000000000,-1.021250284,0.000000000,0.010247988,-0.002693487,-0.626630635,0.000000000,-0.628168872,0.000000000,0.006209183,0.000398217,-0.628510541,0.000000000,-0.628663177,0.000000000,0.000504901,0.005736651,-0.066108396,0.000000000,-0.067337137
0.198000000,0.000000000,-0.000205604,0.000125455,0.021460013,0.000000000,0.021206252,0.000000000,-0.005903768,-0.001030444,1.695011350,0.000000000,1.701424144,0.000000000,0.005206168,-0.002536430,-1.418371870,0.000000000,-1.422455616,0.000000000,-0.000366839,-0.003805595,0.051740221,0.000000000,0.050221532,0.000000000,0.006219440,0.000197982,-0.629019091,0.000000000,-0.629130612,0.000000000,0.000098032,-0.000486548,-0.008646781,0.000000000,-0.008524343,0.000000000,0.000438748,0.005524071,-0.076575507,0.000000000,-0.078005700,-0.024720000,-0.003958556,-0.097702102,-3.627643196,0.000000000,-3.691412918,0.000000000,0.003721710,-0.001436054,-1.021250284,0.000000000,-1.025395305,0.000000000,0.010243127,-0.002430525,-0.628168872,0.000000000,-0.629730961,0.000000000,0.006210029,0.000423295,-0.628663177,0.000000000,-0.628820035,0.000000000,0.000516418,0.005758567,-0.067337137,0.000000000,-0.068563416
0.200000000,0.000000000,-0.000205274,0.000164962,0.021206252,0.000000000,0.020947708,0.000000000,-0.005906333,-0.001282638,1.701424144,0.000000000,1.707857684,0.000000000,0.005201578,-0.002295019,-1.422455616,0.000000000,-1.426611402,0.000000000,-0.000373888,-0.003524682,0.050221532,0.000000000,0.048670077,0.000000000,0.006219886,0.000222664,-0.629130612,0.000000000,-0.629245790,0.000000000,0.000097043,-0.000494610,-0.008524343,0.000000000,-0.008401450,0.000000000,0.000449879,0.005566182,-0.078005700,0.000000000,-0.079430311,-0.025388001,-0.004160050,-0.100748155,-3.691412918,0.000000000,-3.755116218,0.000000000,0.003719274,-0.001219774,-1.025395305,0.000000000,-1.029594975,0.000000000,0.010238789,-0.002168982,-0.629730961,0.000000000,-0.631316000,0.000000000,0.006210925,0.000448067,-0.628820035,0.000000000,-0.628981031,0.000000000,0.000527974,0.005778052,-0.068563416,0.000000000,-0.069786724
0.202000000,0.000000000,-0.000204867,0.000203813,0.020947708,0.000000000,0.020684604,0.000000000,-0.005909392,-0.001529379,1.707857684,0.000000000,1.714308161,0.000000000,0.005197465,-0.002056518,-1.426611402,0.000000000,-1.430836946,0.000000000,-0.000380377,-0.003244289,0.048670077,0.000000000,0.047086898,0.000000000,0.006220379,0.000246875,-0.629245790,0.000000000,-0.629364522,0.000000000,0.000096038,-0.000502261,-0.008401450,0.000000000,-0.008278176,0.000000000,0.000461089,0.005605655,-0.079430311,0.000000000,-0.080848430,-0.026066000,-0.004367740,-0.103846009,-3.755116218,0.000000000,-3.818728804,0.000000000,0.003717265,-0.001006545,-1.029594975,0.000000000,-1.033846813,0.000000000,0.010234971,-0.001908961,-0.631316000,0.000000000,-0.632923068,0.000000000,0.006211870,0.000472532,-0.628981031,0.000000000,-0.629146099,0.000000000,0.000539564,0.005795085,-0.069786724,0.000000000,-0.071006499
0.204000000,0.000000000,-0.000204383,0.000241992,0.020684604,0.000000000,0.020417162,0.000000000,-0.005912933,-0.001770640,1.714308161,0.000000000,1.720771823,0.000000000,0.005193823,-0.001820954,-1.430836946,0.000000000,-1.435129969,0.000000000,-0.000386306,-0.002964551,0.047086898,0.000000000,0.045473032,0.000000000,0.006220921,0.000270613,-0.629364522,0.000000000,-0.629486709,0.000000000,0.000095019,-0.000509506,-0.008278176,0.000000000,-0.008154593,0.000000000,0.000472373,0.005642434,-0.080848430,0.000000000,-0.082259160,-0.026753999,-0.004581729,-0.106995381,-3.818728804,0.000000000,-3.882228265,0.000000000,0.003715675,-0.000796395,-1.033846813,0.000000000,-1.038148382,0.000000000,0.010231670,-0.001650565,-0.632923068,0.000000000,-0.634551237,0.000000000,0.006212864,0.000496694,-0.629146099,0.000000000,-0.629315189,0.000000000,0.000551184,0.005809640,-0.071006499,0.000000000,-0.072222176
0.206000000,0.000000000,-0.000203825,0.000279487,0.020417162,0.000000000,0.020145599,0.000000000,-0.005916946,-0.002006395,1.720771823,0.000000000,1.727244978,0.000000000,0.005190646,-0.001588353,-1.435129969,0.000000000,-1.439488199,0.000000000,-0.000391677,-0.002685599,0.045473032,0.000000000,0.043829511,0.000000000,0.006221508,0.000293878,-0.629486709,0.000000000,-0.629612251,0.000000000,0.000093987,-0.000516348,-0.008154593,0.000000000,-0.008030773,0.000000000,0.000483725,0.005676466,-0.082259160,0.000000000,-0.083661614,-0.027451999,-0.004802120,-0.110195968,-3.882228265,0.000000000,-3.945592373,0.000000000,0.003714499,-0.000589354,-1.038148382,0.000000000,-1.042497266,0.000000000,0.010228882,-0.001393892,-0.634551237,0.000000000,-0.636199577,0.000000000,0.006213905,0.000520557,-0.629315189,0.000000000,-0.629488252,0.000000000,0.000562827,0.005821713,-0.072222176,0.000000000,-0.073433235
0.208000000,0.000000000,-0.000203193,0.000316286,0.020145599,0.000000000,0.019870133,0.000000000,-0.005921419,-0.002236623,1.727244978,0.000000000,1.733724003,0.000000000,0.005187929,-0.001358741,-1.439488199,0.000000000,-1.443909367,0.000000000,-0.000396492,-0.002407560,0.043829511,0.000000000,0.042157360,0.000000000,0.006222142,0.000316667,-0.629612251,0.000000000,-0.629741048,0.000000000,0.000092941,-0.000522790,-0.008030773,0.000000000,-0.007906785,0.000000000,0.000495139,0.005707700,-0.083661614,0.000000000,-0.085054914,-0.028161000,-0.005029013,-0.113447442,-3.945592373,0.000000000,-4.009083925,0.000000000,0.003713731,-0.000385449,-1.042497266,0.000000000,-1.046891067,0.000000000,0.010226604,-0.001139040,-0.636199577,0.000000000,-0.637867167,0.000000000,0.006214993,0.000544126,-0.629488252,0.000000000,-0.629665243,0.000000000,0.000574489,0.005831305,-0.073433235,0.000000000,-0.074639179
0.210000000,0.000000000,-0.000202489,0.000352381,0.019870133,0.000000000,0.019590959,0.000000000,-0.005926342,-0.002461317,1.733724003,0.000000000,1.740205599,0.000000000,0.005185664,-0.001132141,-1.443909367,0.000000000,-1.448391230,0.000000000,-0.000400753,-0.002130562,0.042157360,0.000000000,0.040457611,0.000000000,0.006222820,0.000338983,-0.629741048,0.000000000,-0.629873011,0.000000000,0.000091883,-0.000528830,-0.007906785,0.000000000,-0.007782724,0.000000000,0.000506610,0.005736181,-0.085054914,0.000000000,-0.086438722,-0.028879000,-0.005262512,-0.116749859,-4.009083925,0.000000000,-4.072103565,0.000000000,0.003713364,-0.000184702,-1.046891067,0.000000000,-1.051327490,0.000000000,0.010224832,-0.000886124,-0.637867167,0.000000000,-0.639552950,0.000000000,0.006216128,0.000567366,-0.629665243,0.000000000,-0.629845999,0.000000000,0.000586169,0.005839781,-0.074639179,0.000000000,-0.075843666
0.212000000,0.000000000,-0.000201714,0.000387755,0.019590959,0.000000000,0.019308321,0.000000000,-0.005931703,-0.002680438,1.740205599,0.000000000,1.746685697,0.000000000,0.005183847,-0.000908578,-1.448391230,0.000000000,-1.452931471,0.000000000,-0.000404463,-0.001854723,0.040457611,0.000000000,0.038731250,0.000000000,0.006223541,0.000360817,-0.629873011,0.000000000,-0.630008018,0.000000000,0.000090814,-0.000534494,-0.007782724,0.000000000,-0.007658586,0.000000000,0.000518133,0.005761830,-0.086438722,0.000000000,-0.087811989,-0.029608000,-0.005502715,-0.120102271,-4.072103565,0.000000000,-4.135213422,0.000000000,0.003713392,0.000012859,-1.051327490,0.000000000,-1.055804098,0.000000000,0.010223562,-0.000635209,-0.639552950,0.000000000,-0.641256209,0.000000000,0.006217309,0.000590386,-0.629845999,0.000000000,-0.630030777,0.000000000,0.000597858,0.005844634,-0.075843666,0.000000000,-0.077038833
0.214000000,0.000000000,-0.000200870,0.000422406,0.019308321,0.000000000,0.019022394,0.000000000,-0.005937491,-0.002893997,1.746685697,0.000000000,1.753161408,0.000000000,0.005182471,-0.000688072,-1.452931471,0.000000000,-1.457527937,0.000000000,-0.000407623,-0.001580165,0.038731250,0.000000000,0.036979319,0.000000000,0.006224306,0.000382178,-0.630008018,0.000000000,-0.630145998,0.000000000,0.000089735,-0.000539760,-0.007658586,0.000000000,-0.007534512,0.000000000,0.000529701,0.005784627,-0.087811989,0.000000000,-0.089173988,-0.030346001,-0.005749724,-0.123504828,-4.135213422,0.000000000,-4.197813014,0.000000000,0.003713809,0.000207222,-1.055804098,0.000000000,-1.060318785,0.000000000,0.010222789,-0.000386415,-0.641256209,0.000000000,-0.642975818,0.000000000,0.006218535,0.000613091,-0.630030777,0.000000000,-0.630219253,0.000000000,0.000609555,0.005848186,-0.077038833,0.000000000,-0.078231019
