sainanliu129-hub/model/applications/Body_GravityPara_Iden/data/excitation/PD-M1-v0_multi_joint_20260305-195346_exctra_sim.csv
time,cmd_leg_l1_joint,pos_leg_l1_joint,vel_leg_l1_joint,torque_leg_l1_joint,cmd_leg_l2_joint,pos_leg_l2_joint,vel_leg_l2_joint,torque_leg_l2_joint,cmd_leg_l3_joint,pos_leg_l3_joint,vel_leg_l3_joint,torque_leg_l3_joint,cmd_leg_l4_joint,pos_leg_l4_joint,vel_leg_l4_joint,torque_leg_l4_joint,cmd_leg_l5_joint,pos_leg_l5_joint,vel_leg_l5_joint,torque_leg_l5_joint,cmd_leg_l6_joint,pos_leg_l6_joint,vel_leg_l6_joint,torque_leg_l6_joint,cmd_leg_r1_joint,pos_leg_r1_joint,vel_leg_r1_joint,torque_leg_r1_joint,cmd_leg_r2_joint,pos_leg_r2_joint,vel_leg_r2_joint,torque_leg_r2_joint,cmd_leg_r3_joint,pos_leg_r3_joint,vel_leg_r3_joint,torque_leg_r3_joint,cmd_leg_r4_joint,pos_leg_r4_joint,vel_leg_r4_joint,torque_leg_r4_joint,cmd_leg_r5_joint,pos_leg_r5_joint,vel_leg_r5_joint,torque_leg_r5_joint,cmd_leg_r6_joint,pos_leg_r6_joint,vel_leg_r6_joint,torque_leg_r6_joint
0.000000000,0.000000000,0.000166152,0.166529733,0.959596721,0.000000000,-0.000764523,0.000307147,0.210888872,0.000000000,0.004787397,-0.000558092,-1.379774910,0.000000000,0.012166083,-0.000103641,-0.742913999,0.000000000,0.006757592,-0.016172230,-0.644695649,0.000000000,0.000009922,-0.001945848,-0.006230711,0.000000000,-0.000008181,-0.008167987,-0.000599524,-0.000000000,0.000748510,-0.000356641,-0.204995228,0.000000000,0.004785371,0.000158917,-1.364422811,0.000000000,0.012168078,-0.001808161,-0.755455051,0.000000000,0.006761971,-0.014859211,-0.641157720,0.000000000,0.000002141,0.000041729,-0.000303493
0.002000000,0.000000000,-0.000167055,-0.166603355,-0.959436152,0.000000000,-0.000763956,0.000283396,0.210364377,0.000000000,0.004788955,0.000779081,-1.348170050,0.000000000,0.012158854,-0.003614651,-0.767733974,0.000000000,0.006730500,-0.013545738,-0.636978355,0.000000000,0.000013338,0.001708178,0.004529312,0.000000000,0.000008183,0.008182048,0.047061960,-0.000000000,0.000747793,-0.000358237,-0.204693346,0.000000000,0.004785780,0.000204405,-1.363812256,0.000000000,0.012163989,-0.002044441,-0.755744222,0.000000000,0.006732436,-0.014767254,-0.641153864,0.000000000,0.000002246,0.000052585,-0.000335036
0.004000000,0.000000000,0.000166123,0.166589059,0.959948706,0.000000000,-0.000763346,0.000305116,0.210740487,0.000000000,0.004787706,-0.000624448,-1.378858463,0.000000000,0.012158287,-0.000283512,-0.742321075,0.000000000,0.006698776,-0.015862238,-0.641707471,0.000000000,0.000009455,-0.001941305,-0.006204360,0.000000000,-0.000008164,-0.008173763,-0.047141773,-0.000000000,0.000747069,-0.000362085,-0.204453581,0.000000000,0.004785936,0.000078232,-1.364957333,0.000000000,0.012160105,-0.001941764,-0.753806474,0.000000000,0.006703203,-0.014616566,-0.638430391,0.000000000,0.000002454,0.000104018,-0.000376529
0.006000000,0.000000000,-0.000167193,-0.166658201,-0.959768592,0.000000000,-0.000762780,0.000282961,0.210075758,0.000000000,0.004789177,0.000735407,-1.346757056,0.000000000,0.012150505,-0.003890718,-0.765962995,0.000000000,0.006673322,-0.012726790,-0.631915426,0.000000000,0.000012896,0.001720101,0.004563518,0.000000000,0.000008212,0.008188081,0.047092860,-0.000001000,0.000746360,-0.000354753,-0.204160691,0.000000000,0.004786232,0.000147970,-1.362147920,0.000000000,0.012155535,-0.002285218,-0.754290999,0.000000000,0.006675226,-0.013988381,-0.635904352,0.000000000,0.000002612,0.000078752,-0.000543779
0.008000000,0.000000000,0.000166097,0.166644933,0.960273600,0.000000000,-0.000762174,0.000302948,0.210416028,0.000000000,0.004787838,-0.000669189,-1.377933689,0.000000000,0.012149347,-0.000579244,-0.739831455,0.000000000,0.006643849,-0.014736511,-0.638257039,0.000000000,0.000009048,-0.001923938,-0.006193545,0.000000000,0.000008161,-0.000025730,-0.047178942,-0.000002000,0.000745646,-0.000357040,-0.204409116,0.000000000,0.004786284,0.000026005,-1.363809424,0.000000000,0.012151101,-0.002216881,-0.751561032,0.000000000,0.006648207,-0.013509504,-0.634862808,0.000000000,0.000002846,0.000116850,-0.000487866
0.010000000,0.000000000,-0.000167328,-0.166712627,-0.960081730,0.000000000,-0.000761616,0.000278686,0.209791711,0.000000000,0.004789202,0.000681726,-1.345782716,0.000000000,0.012141000,-0.004173572,-0.763296241,0.000000000,0.006621019,-0.011415077,-0.629564710,0.000000000,0.000012515,0.001733785,0.004555344,0.000000000,-0.000008206,-0.008183122,-0.000724350,-0.000004000,0.000744974,-0.000335688,-0.204438660,0.000000000,0.004786338,0.000027005,-1.361065491,0.000000000,0.012146286,-0.002407581,-0.751766716,0.000000000,0.006622655,-0.012776207,-0.633493581,0.000000000,0.000003055,0.000104528,-0.000619797
0.012000000,0.000000000,-0.000166081,0.000623788,0.960595810,0.000000000,-0.000761016,0.000300413,0.210182073,0.000000000,0.004787732,-0.000734951,-1.376726612,0.000000000,0.012139334,-0.000832935,-0.737220508,0.000000000,0.006594379,-0.013320014,-0.636700218,0.000000000,0.000008706,-0.001904662,-0.006194012,0.000000000,0.000008167,0.008186476,0.047150210,-0.000007000,0.000744251,-0.000361557,-0.205299276,0.000000000,0.004786405,0.000033344,-1.361103465,0.000000000,0.012140975,-0.002655459,-0.750107071,0.000000000,0.006598775,-0.011939903,-0.632995889,0.000000000,0.000003120,0.000032880,-0.000605894
0.014000000,0.000000000,0.000167413,0.166747151,0.014175362,0.000000000,-0.000760909,0.000053362,0.209519835,0.000000000,0.004786429,-0.000651251,-1.344264980,0.000000000,0.012136490,-0.001421851,-0.760860528,0.000000000,0.006570776,-0.011801575,-0.628592109,0.000000000,0.000009016,0.000155215,0.004535082,0.000000000,-0.000008202,-0.008184843,-0.047165092,-0.000012000,0.000743553,-0.000348933,-0.205361326,0.000000000,0.004786276,-0.000064183,-1.361265807,0.000000000,0.012135781,-0.002596926,-0.748009689,0.000000000,0.006576108,-0.011333576,-0.632960090,0.000000000,0.000003365,0.000122299,-0.000408844
0.016000000,0.000000000,0.000166133,-0.000640064,-0.960800113,0.000000000,-0.000760445,0.000231823,0.215077558,0.000000000,0.004787844,0.000707409,-1.345787951,0.000000000,0.012126682,-0.004904297,-0.756494897,0.000000000,0.006553336,-0.008719913,-0.630523578,0.000000000,0.000012783,0.001883156,-0.001352521,0.000000000,0.000008152,0.008177355,0.047159598,-0.000018000,0.000742849,-0.000351919,-0.206869740,0.000000000,0.004786188,-0.000044207,-1.359023345,0.000000000,0.012130097,-0.002842058,-0.748097675,0.000000000,0.006555143,-0.010482534,-0.632393019,0.000000000,0.000003458,0.000046391,-0.000687783
0.018000000,0.000000000,-0.000167415,-0.166774121,-0.014088927,0.000000000,-0.000759390,0.000527490,0.210909150,0.000000000,0.004788787,0.000471360,-1.376921654,0.000000000,0.012118055,-0.004313305,-0.731122105,0.000000000,0.006535285,-0.009025386,-0.637522185,0.000000000,0.000011612,-0.000585194,-0.006645699,0.000000000,-0.000008205,-0.008178440,-0.047111921,-0.000025000,0.000742147,-0.000351121,-0.208307607,0.000000000,0.004785825,-0.000181249,-1.359450044,0.000000000,0.012124675,-0.002710844,-0.745996239,0.000000000,0.006535365,-0.009888785,-0.632693697,0.000000000,0.000003662,0.000101971,-0.000481354
0.020000000,0.000000000,-0.000166071,0.000671770,0.960952778,0.000000000,-0.000758695,0.000347416,0.203921578,0.000000000,0.004786741,-0.001023100,-1.371850420,0.000000000,0.012116325,-0.000865012,-0.734777980,0.000000000,0.006513681,-0.010802244,-0.634829425,0.000000000,0.000007327,-0.002142578,0.000490104,0.000000000,0.000008164,0.008184276,0.047123617,-0.000034000,0.000741404,-0.000371539,-0.210115765,0.000000000,0.004785488,-0.000168866,-1.356247252,0.000000000,0.012118808,-0.002933763,-0.746586445,0.000000000,0.006517280,-0.009042650,-0.632382906,0.000000000,0.000003726,0.000032111,-0.000659979
0.022000000,0.000000000,0.000167262,0.166666915,0.013903019,0.000000000,-0.000758629,0.000033131,0.207797166,0.000000000,0.004784902,-0.000919438,-1.337465608,0.000000000,0.012113339,-0.001493067,-0.759179172,0.000000000,0.006495330,-0.009175234,-0.627594361,0.000000000,0.000008205,0.000439051,0.005350825,0.000000000,-0.000008225,-0.008194510,-0.047152298,-0.000045000,0.000740676,-0.000363903,-0.212000915,0.000000000,0.004784918,-0.000284980,-1.356431349,0.000000000,0.012113186,-0.002810977,-0.744631312,0.000000000,0.006500279,-0.008500663,-0.632960676,0.000000000,0.000004000,0.000137067,-0.000467857
0.024000000,0.000000000,0.000166098,-0.000582221,-0.960330284,0.000000000,-0.000758218,0.000205528,0.214887164,0.000000000,0.004785796,0.000447243,-1.339287650,0.000000000,0.012103378,-0.004980302,-0.754526334,0.000000000,0.006483147,-0.006091467,-0.630365358,0.000000000,0.000012362,0.002078492,-0.002077491,0.000000000,-0.000008149,0.000038208,0.047216675,-0.000058000,0.000739930,-0.000373390,-0.215093458,0.000000000,0.004784365,-0.000276359,-1.353642966,0.000000000,0.012107177,-0.003004543,-0.745148964,0.000000000,0.006484808,-0.007735516,-0.632783307,0.000000000,0.000004121,0.000060468,-0.000793954
0.026000000,0.000000000,-0.000167444,-0.166770998,-0.014412266,0.000000000,-0.000757197,0.000510529,0.210870861,0.000000000,0.004786228,0.000215677,-1.370454862,0.000000000,0.012094616,-0.004381118,-0.729109910,0.000000000,0.006470245,-0.006450895,-0.637901241,0.000000000,0.000011312,-0.000525297,-0.007158547,0.000000000,0.000008187,0.008167709,0.000652511,-0.000074000,0.000739135,-0.000397500,-0.218361790,0.000000000,0.004783649,-0.000358010,-1.353680857,0.000000000,0.012101223,-0.002976969,-0.743393534,0.000000000,0.006470494,-0.007156806,-0.633395039,0.000000000,0.000004305,0.000091847,-0.000588405
0.028000000,0.000000000,-0.000166045,0.000699326,0.960938211,0.000000000,-0.000756530,0.000333460,0.203681827,0.000000000,0.004783674,-0.001276671,-1.365339666,0.000000000,0.012092787,-0.000914548,-0.732815439,0.000000000,0.006453608,-0.008318733,-0.635575467,0.000000000,0.000007027,-0.002142341,0.000350203,0.000000000,-0.000008164,-0.008175370,-0.047061048,-0.000092000,0.000738318,-0.000408332,-0.222138383,0.000000000,0.004782672,-0.000488523,-1.351630473,0.000000000,0.012095579,-0.002821741,-0.743213450,0.000000000,0.006457137,-0.006678813,-0.633593706,0.000000000,0.000004635,0.000165201,-0.000696179
0.030000000,0.000000000,0.000167214,0.166629596,0.013744412,0.000000000,-0.000756482,0.000023876,0.207497363,0.000000000,0.004781337,-0.001168662,-1.330858467,0.000000000,0.012089733,-0.001527060,-0.757340288,0.000000000,0.006440003,-0.006802420,-0.628583739,0.000000000,0.000007903,0.000438213,0.005380489,0.000000000,0.000008165,0.008164583,0.047101925,-0.000113000,0.000737459,-0.000429567,-0.226777643,0.000000000,0.004781744,-0.000464044,-1.348400680,0.000000000,0.012089534,-0.003022637,-0.743960341,0.000000000,0.006445149,-0.005994006,-0.633602653,0.000000000,0.000004862,0.000113348,-0.000938117
0.032000000,0.000000000,0.000166068,-0.000572771,-0.960114063,0.000000000,-0.000756098,0.000192337,0.214486272,0.000000000,0.004781736,0.000199272,-1.332637169,0.000000000,0.012079751,-0.004990951,-0.752793636,0.000000000,0.006432308,-0.003847681,-0.631519643,0.000000000,0.000012068,0.002082476,-0.002044601,0.000000000,-0.000008174,-0.008169512,-0.047041067,-0.000137000,0.000736582,-0.000438253,-0.232022281,0.000000000,0.004780560,-0.000591849,-1.348690551,0.000000000,0.012083836,-0.002848995,-0.742150523,0.000000000,0.006433908,-0.005620406,-0.634337989,0.000000000,0.000005298,0.000218003,-0.000813610
0.034000000,0.000000000,-0.000167393,-0.166730577,-0.014462540,0.000000000,-0.000755100,0.000499048,0.210566528,0.000000000,0.004781683,-0.000026479,-1.363691735,0.000000000,0.012070994,-0.004378635,-0.727541796,0.000000000,0.006423633,-0.004337427,-0.639142235,0.000000000,0.000011053,-0.000507682,-0.007140170,0.000000000,0.000008143,0.008158517,0.047069853,-0.000164000,0.000735616,-0.000483375,-0.238398546,0.000000000,0.004779375,-0.000592586,-1.345463286,0.000000000,0.012077828,-0.003003760,-0.743024855,0.000000000,0.006423896,-0.005005738,-0.634264082,0.000000000,0.000005574,0.000137851,-0.001155209
0.036000000,0.000000000,-0.000166011,0.000690809,0.960704179,0.000000000,-0.000754459,0.000320497,0.203345315,0.000000000,0.004778654,-0.001514117,-1.358570435,0.000000000,0.012069199,-0.000897234,-0.731340981,0.000000000,0.006410951,-0.006340996,-0.636873162,0.000000000,0.000006798,-0.002127372,0.000326267,0.000000000,-0.000008220,-0.008181509,-0.047004419,-0.000194000,0.000734574,-0.000520546,-0.244777760,0.000000000,0.004777940,-0.000717617,-1.345109731,0.000000000,0.012072169,-0.002829572,-0.741545324,0.000000000,0.006414539,-0.004678595,-0.634999772,0.000000000,0.000006105,0.000265865,-0.000955201
0.038000000,0.000000000,0.000167238,0.166624723,0.013788936,0.000000000,-0.000754437,0.000010663,0.207201769,0.000000000,0.004775855,-0.001399629,-1.324060790,0.000000000,0.012066201,-0.001498989,-0.755973432,0.000000000,0.006401034,-0.004958575,-0.629895311,0.000000000,0.000007690,0.000446032,0.005361050,0.000000000,-0.000008144,0.000038046,0.047142597,-0.000227000,0.000733438,-0.000568309,-0.252168398,0.000000000,0.004776561,-0.000689517,-1.341873683,0.000000000,0.012066146,-0.003011596,-0.742425991,0.000000000,0.006406258,-0.004140534,-0.634984157,0.000000000,0.000006569,0.000231876,-0.001372884
0.040000000,0.000000000,0.000166041,-0.000598515,-0.960089105,0.000000000,-0.000754078,0.000179878,0.214203839,0.000000000,0.004775807,-0.000024270,-1.325854709,0.000000000,0.012056291,-0.004955002,-0.751506791,0.000000000,0.006396764,-0.002134832,-0.632823257,0.000000000,0.000011876,0.002092734,-0.002045294,0.000000000,0.000008159,0.008151440,0.000652897,-0.000264000,0.000732200,-0.000618763,-0.260145068,0.000000000,0.004775062,-0.000749596,-1.342117301,0.000000000,0.012060203,-0.002971720,-0.740751708,0.000000000,0.006398631,-0.003813711,-0.635676937,0.000000000,0.000007178,0.000304339,-0.001323124
0.042000000,0.000000000,-0.000167272,-0.166656441,-0.014314064,0.000000000,-0.000753110,0.000483748,0.210274101,0.000000000,0.004775321,-0.000242985,-1.356950171,0.000000000,0.012047622,-0.004334619,-0.726315484,0.000000000,0.006391259,-0.002752523,-0.640419643,0.000000000,0.000010878,-0.000498964,-0.007149872,0.000000000,-0.000008137,-0.008148340,-0.046966102,-0.000305000,0.000730859,-0.000670525,-0.269169154,0.000000000,0.004773298,-0.000881849,-1.340332238,0.000000000,0.012054647,-0.002777750,-0.740659731,0.000000000,0.006391480,-0.003575209,-0.635835230,0.000000000,0.000007923,0.000372435,-0.001590650
0.044000000,0.000000000,-0.000165973,0.000649198,0.960272028,0.000000000,-0.000752493,0.000308285,0.203125867,0.000000000,0.004771880,-0.001720121,-1.351864903,0.000000000,0.012045914,-0.000854022,-0.730177575,0.000000000,0.006381509,-0.004875115,-0.638107180,0.000000000,0.000006651,-0.002113220,0.000319181,0.000000000,0.000008158,0.008147884,0.046946253,-0.000349000,0.000729351,-0.000754035,-0.279271204,0.000000000,0.004771584,-0.000857125,-1.336839478,0.000000000,0.012048743,-0.002952289,-0.741687556,0.000000000,0.006385284,-0.003098162,-0.635790634,0.000000000,0.000008565,0.000321070,-0.001859529
0.046000000,0.000000000,0.000167330,0.166651752,0.014020206,0.000000000,-0.000752504,-0.000005029,0.206919397,0.000000000,0.004768683,-0.001598844,-1.317475712,0.000000000,0.012043016,-0.001448836,-0.754809768,0.000000000,0.006374285,-0.003612035,-0.631087246,0.000000000,0.000007548,0.000448294,0.005335656,0.000000000,-0.000008136,-0.008146905,-0.046945896,-0.000398000,0.000727712,-0.000819645,-0.289460415,0.000000000,0.004769669,-0.000957355,-1.336911460,0.000000000,0.012043162,-0.002790490,-0.740073970,0.000000000,0.006379421,-0.002931623,-0.636520647,0.000000000,0.000009535,0.000485039,-0.001778395
0.048000000,0.000000000,0.000166023,-0.000653810,-0.960251760,0.000000000,-0.000752170,0.000166819,0.214009116,0.000000000,0.004768257,-0.000212636,-1.319309944,0.000000000,0.012033201,-0.004907659,-0.750398802,0.000000000,0.006372493,-0.000895837,-0.633948081,0.000000000,0.000011752,0.002101903,-0.002037341,0.000000000,0.000008138,0.008136718,0.046937927,-0.000451000,0.000725891,-0.000910670,-0.301438431,0.000000000,0.004767808,-0.000930503,-1.334100104,0.000000000,0.012037258,-0.002951745,-0.740871515,0.000000000,0.006374338,-0.002541453,-0.636401549,0.000000000,0.000010401,0.000433286,-0.002342600
0.050000000,0.000000000,-0.000167098,-0.166560276,-0.013999392,0.000000000,-0.000751231,0.000469518,0.210027252,0.000000000,0.004767411,-0.000423465,-1.350543696,0.000000000,0.012024632,-0.004284501,-0.725193504,0.000000000,0.006369254,-0.001619405,-0.641489155,0.000000000,0.000010768,-0.000491928,-0.007163411,0.000000000,-0.000008114,-0.008126037,-0.046880580,-0.000508000,0.000723872,-0.001009267,-0.313926797,0.000000000,0.004765703,-0.001052502,-1.334178484,0.000000000,0.012031748,-0.002755022,-0.739352417,0.000000000,0.006369498,-0.002419873,-0.636997098,0.000000000,0.000011515,0.000556579,-0.002283045
0.052000000,0.000000000,0.000165941,0.166519524,0.959709696,0.000000000,-0.000750644,0.000293508,0.202913586,0.000000000,0.004763630,-0.001890365,-1.345534215,0.000000000,0.012023017,-0.000807264,-0.729081649,0.000000000,0.006361579,-0.003837509,-0.639104723,0.000000000,0.000006557,-0.002105664,0.000310284,0.000000000,0.000008184,0.008149293,0.046817643,-0.000570000,0.000721592,-0.001140003,-0.327324854,0.000000000,0.004763661,-0.001020891,-1.330820651,0.000000000,0.012025901,-0.002923379,-0.740402683,0.000000000,0.006365394,-0.002051810,-0.636853622,0.000000000,0.000012563,0.000524102,-0.002746070
0.054000000,0.000000000,-0.000167107,-0.166523958,-0.959355942,0.000000000,-0.000750242,0.000201099,0.206727901,0.000000000,0.004762615,-0.000507556,-1.311279761,0.000000000,0.012014283,-0.004367248,-0.753695864,0.000000000,0.006359947,-0.000816198,-0.632022975,0.000000000,0.000010630,0.002036728,0.005323753,0.000000000,0.000008099,-0.000042557,-0.046956653,-0.000636000,0.000719097,-0.001247262,-0.341342835,0.000000000,0.004761449,-0.001106110,-1.330955298,0.000000000,0.012020367,-0.002767328,-0.738836695,0.000000000,0.006361424,-0.001985333,-0.637485291,0.000000000,0.000013975,0.000705945,-0.002759674
0.056000000,0.000000000,0.000165917,0.166511797,0.959505267,0.000000000,-0.000749815,0.000213319,0.208703766,0.000000000,0.004758822,-0.001896493,-1.342268969,0.000000000,0.012012332,-0.000975195,-0.727839788,0.000000000,0.006353638,-0.003154551,-0.640447587,0.000000000,0.000007335,-0.001647392,-0.006864750,0.000000000,-0.000008109,-0.008104084,-0.000622662,-0.000707000,0.000716310,-0.001393697,-0.356967858,0.000000000,0.004759132,-0.001158677,-1.328398916,0.000000000,0.012014865,-0.002750639,-0.739596310,0.000000000,0.006357890,-0.001766857,-0.637272991,0.000000000,0.000015332,0.000678686,-0.003419345
0.058000000,0.000000000,-0.000167032,-0.166474341,-0.959309655,0.000000000,-0.000749419,0.000197809,0.208306091,0.000000000,0.004757750,-0.000535718,-1.309774467,0.000000000,0.012003405,-0.004463729,-0.751827305,0.000000000,0.006353037,-0.000300186,-0.633162019,0.000000000,0.000011011,0.001837735,0.003942189,0.000000000,0.000008185,0.008146940,0.046692936,-0.000783000,0.000713210,-0.001549814,-0.373044758,0.000000000,0.004756942,-0.001094793,-1.326551201,0.000000000,0.012008973,-0.002946245,-0.739367444,0.000000000,0.006354935,-0.001477641,-0.637536984,0.000000000,0.000016764,0.000716075,-0.003479032
0.060000000,0.000000000,0.000165906,0.166469050,0.959216693,0.000000000,-0.000748981,0.000219405,0.208544471,0.000000000,0.004753878,-0.001936196,-1.340249277,0.000000000,0.012001351,-0.001026760,-0.726466900,0.000000000,0.006347552,-0.002742788,-0.641216300,0.000000000,0.000007336,-0.001837522,-0.006337487,0.000000000,0.000008141,-0.000022167,-0.046943407,-0.000864000,0.000709751,-0.001729586,-0.390235105,0.000000000,0.004754500,-0.001221045,-1.327373813,0.000000000,0.012003521,-0.002725892,-0.737604880,0.000000000,0.006351986,-0.001474219,-0.638060548,0.000000000,0.000018479,0.000857625,-0.003730069
0.062000000,0.000000000,-0.000166978,-0.166442334,-0.959066789,0.000000000,-0.000748587,0.000196571,0.207931253,0.000000000,0.004752719,-0.000579435,-1.307471174,0.000000000,0.011992372,-0.004489947,-0.750767162,0.000000000,0.006347633,0.000040500,-0.633717584,0.000000000,0.000010911,0.001787574,0.004482685,0.000000000,0.000008099,-0.000020956,-0.000742378,-0.000950000,0.000705953,-0.001898999,-0.408209433,0.000000000,0.004752067,-0.001216646,-1.323823983,0.000000000,0.011997967,-0.002776868,-0.738826782,0.000000000,0.006349387,-0.001299438,-0.637772294,0.000000000,0.000020288,0.000904458,-0.004305847
0.064000000,0.000000000,0.000165896,0.166436981,0.959030002,0.000000000,-0.000748160,0.000213618,0.208335996,0.000000000,0.004748757,-0.001981092,-1.337830347,0.000000000,0.011990295,-0.001038334,-0.725583614,0.000000000,0.006342722,-0.002455307,-0.641638659,0.000000000,0.000007267,-0.001822142,-0.006184783,0.000000000,0.000008102,0.000001756,-0.000744763,-0.001042000,0.000701720,-0.002116537,-0.427742986,0.000000000,0.004749546,-0.001260322,-1.323231835,0.000000000,0.011992455,-0.002756418,-0.738113646,0.000000000,0.006347064,-0.001161776,-0.638006539,0.000000000,0.000022159,0.000935183,-0.004621813
0.066000000,0.000000000,-0.000166917,-0.166406241,-0.958884301,0.000000000,-0.000747784,0.000188120,0.207828969,0.000000000,0.004747507,-0.000625030,-1.305000031,0.000000000,0.011981315,-0.004490162,-0.749986511,0.000000000,0.006343293,0.000285386,-0.634046788,0.000000000,0.000010873,0.001803258,0.004445948,0.000000000,0.000008091,-0.000005505,-0.000873572,-0.001139000,0.000697061,-0.002329371,-0.447769802,0.000000000,0.004747038,-0.001253828,-1.321527446,0.000000000,0.011986859,-0.002797922,-0.737910784,0.000000000,0.006344991,-0.001036340,-0.638163085,0.000000000,0.000024241,0.001041248,-0.004898190
0.068000000,0.000000000,0.000165887,0.166401789,0.958819340,0.000000000,-0.000747374,0.000204961,0.208298769,0.000000000,0.004743458,-0.002024489,-1.335317470,0.000000000,0.011979245,-0.001035008,-0.724883675,0.000000000,0.006338810,-0.002241192,-0.641896264,0.000000000,0.000007246,-0.001813653,-0.006225556,0.000000000,0.000008134,0.000021204,-0.000831335,-0.001242000,0.000691885,-0.002588008,-0.469203252,0.000000000,0.004744443,-0.001297598,-1.320961535,0.000000000,0.011981324,-0.002767411,-0.737262311,0.000000000,0.006343114,-0.000938738,-0.638310224,0.000000000,0.000026414,0.001086590,-0.005410202
0.070000000,0.000000000,-0.000166850,-0.166368083,-0.958684337,0.000000000,-0.000747014,0.000180029,0.207801313,0.000000000,0.004742125,-0.000666267,-1.302512199,0.000000000,0.011970277,-0.004483769,-0.749312156,0.000000000,0.006339757,0.000473350,-0.634260191,0.000000000,0.000010856,0.001805296,0.004423916,0.000000000,0.000008194,0.000030226,-0.000986895,-0.001351000,0.000686204,-0.002840531,-0.491159110,0.000000000,0.004741864,-0.001289577,-1.319233826,0.000000000,0.011975717,-0.002803493,-0.737129582,0.000000000,0.006341427,-0.000843378,-0.638397957,0.000000000,0.000028800,0.001192674,-0.005758742
0.072000000,0.000000000,0.000165880,0.166364832,0.958596371,0.000000000,-0.000746620,0.000196860,0.208262906,0.000000000,0.004738000,-0.002062718,-1.332855074,0.000000000,0.011968221,-0.001028183,-0.724231929,0.000000000,0.006335609,-0.002074273,-0.642073311,0.000000000,0.000007232,-0.001812367,-0.006229661,0.000000000,0.000008382,0.000093971,-0.001044360,-0.001465000,0.000679923,-0.003140502,-0.514815196,0.000000000,0.004739202,-0.001331135,-1.318682139,0.000000000,0.011970177,-0.002769829,-0.736518947,0.000000000,0.006339887,-0.000770086,-0.638498593,0.000000000,0.000031279,0.001239410,-0.006301414
0.074000000,0.000000000,-0.000166778,-0.166329078,-0.958474653,0.000000000,-0.000746276,0.000172119,0.207770297,0.000000000,0.004736596,-0.000701990,-1.300096097,0.000000000,0.011959270,-0.004475547,-0.748664342,0.000000000,0.006336851,0.000620993,-0.634411146,0.000000000,0.000010843,0.001805778,0.004421689,0.000000000,0.000008681,0.000149541,-0.001424870,-0.001586000,0.000673051,-0.003436153,-0.538648720,0.000000000,0.004736560,-0.001320844,-1.316985416,0.000000000,0.011964570,-0.002803476,-0.736408314,0.000000000,0.006338496,-0.000695306,-0.638551305,0.000000000,0.000033974,0.001347912,-0.006684804
0.076000000,0.000000000,0.000165876,0.166327184,0.958368174,0.000000000,-0.000745899,0.000188699,0.208232072,0.000000000,0.004732405,-0.002095326,-1.330475331,0.000000000,0.011957229,-0.001020469,-0.723595087,0.000000000,0.006332966,-0.001942412,-0.642199307,0.000000000,0.000007221,-0.001811039,-0.006229700,0.000000000,0.000009239,0.000278848,-0.001770996,-0.001712000,0.000665488,-0.003781346,-0.564401621,0.000000000,0.004733840,-0.001360222,-1.316467295,0.000000000,0.011959035,-0.002767612,-0.735814990,0.000000000,0.006337216,-0.000639837,-0.638623364,0.000000000,0.000036772,0.001398631,-0.007265731
0.078000000,0.000000000,-0.000166704,-0.166290028,-0.958261353,0.000000000,-0.000745570,0.000164097,0.207749777,0.000000000,0.004730941,-0.000732122,-1.297768301,0.000000000,0.011948295,-0.004466910,-0.748024859,0.000000000,0.006334441,0.000737802,-0.634518927,0.000000000,0.000010834,0.001806366,0.004418976,0.000000000,0.000010013,0.000387110,-0.002561673,-0.001845000,0.000657241,-0.004123917,-0.590258921,0.000000000,0.004731143,-0.001348059,-1.314803336,0.000000000,0.011953438,-0.002798737,-0.735720274,0.000000000,0.006336055,-0.000580762,-0.638651732,0.000000000,0.000039793,0.001510853,-0.007692631
0.080000000,0.000000000,0.000165876,0.166289701,0.958139429,0.000000000,-0.000745210,0.000180458,0.208212957,0.000000000,0.004726696,-0.002122436,-1.328186404,0.000000000,0.011946270,-0.001012565,-0.722963254,0.000000000,0.006330766,-0.001837854,-0.642287909,0.000000000,0.000007214,-0.001809942,-0.006230425,0.000000000,0.000011138,0.000562471,-0.003256424,-0.001984000,0.000648205,-0.004517536,-0.617970478,0.000000000,0.004728372,-0.001385733,-1.314312096,0.000000000,0.011947917,-0.002760308,-0.735145474,0.000000000,0.006334977,-0.000538937,-0.638702293,0.000000000,0.000042922,0.001564343,-0.008317065
0.082000000,0.000000000,-0.000166628,-0.166251770,-0.958049316,0.000000000,-0.000744897,0.000156029,0.207740303,0.000000000,0.004725182,-0.000756899,-1.295532309,0.000000000,0.011937353,-0.004458133,-0.747388819,0.000000000,0.006332426,0.000830317,-0.634593833,0.000000000,0.000010827,0.001806705,0.004416582,0.000000000,0.000012502,0.000682226,-0.004368002,-0.002130000,0.000638385,-0.004910440,-0.646009095,0.000000000,0.004725628,-0.001372017,-1.312672172,0.000000000,0.011942339,-0.002788871,-0.735069919,0.000000000,0.006333994,-0.000491733,-0.638712266,0.000000000,0.000046282,0.001679969,-0.008785339
0.084000000,0.000000000,0.000165878,0.166253165,0.957914993,0.000000000,-0.000744553,0.000172188,0.208204145,0.000000000,0.004720893,-0.002144370,-1.325989109,0.000000000,0.011935344,-0.001004442,-0.722334528,0.000000000,0.006328916,-0.001754994,-0.642347274,0.000000000,0.000007209,-0.001809149,-0.006230737,0.000000000,0.000014211,0.000854411,-0.005190655,-0.002283000,0.000627672,-0.005356137,-0.675830215,0.000000000,0.004722812,-0.001408022,-1.312202436,0.000000000,0.011936842,-0.002748456,-0.734514579,0.000000000,0.006333074,-0.000459851,-0.638747073,0.000000000,0.000049754,0.001736261,-0.009453634
0.086000000,0.000000000,-0.000166552,-0.166215024,-0.957843004,0.000000000,-0.000744257,0.000147947,0.207740761,0.000000000,0.004719340,-0.000776678,-1.293386852,0.000000000,0.011926446,-0.004449035,-0.746756469,0.000000000,0.006330723,0.000903448,-0.634642499,0.000000000,0.000010823,0.001806866,0.004414821,0.000000000,0.000016115,0.000951833,-0.006346508,-0.002442000,0.000616066,-0.005803283,-0.706193570,0.000000000,0.004720027,-0.001392492,-1.310587592,0.000000000,0.011931291,-0.002775633,-0.734454634,0.000000000,0.006332232,-0.000421020,-0.638744764,0.000000000,0.000053465,0.001855444,-0.009964625
0.088000000,0.000000000,0.000165885,0.166218254,0.957699062,0.000000000,-0.000743929,0.000163921,0.208204960,0.000000000,0.004715017,-0.002161508,-1.323881136,0.000000000,0.011924455,-0.000995817,-0.721710260,0.000000000,0.006327344,-0.001689490,-0.642383063,0.000000000,0.000007206,-0.001808578,-0.006230732,0.000000000,0.000018318,0.001101276,-0.007100343,-0.002608000,0.000603456,-0.006304784,-0.737975438,0.000000000,0.004717174,-0.001426454,-1.310147233,0.000000000,0.011925822,-0.002734534,-0.733910813,0.000000000,0.006331440,-0.000396072,-0.638770059,0.000000000,0.000057292,0.001913483,-0.010678504
0.090000000,0.000000000,-0.000166476,-0.166180406,-0.957646271,0.000000000,-0.000743650,0.000139893,0.207750456,0.000000000,0.004713433,-0.000791836,-1.291328877,0.000000000,0.011915576,-0.004439306,-0.746129930,0.000000000,0.006329266,0.000961091,-0.634669846,0.000000000,0.000010819,0.001806882,0.004413544,0.000000000,0.000020668,0.001175002,-0.008180216,-0.002781000,0.000589837,-0.006809431,-0.770232477,0.000000000,0.004714356,-0.001408750,-1.308568141,0.000000000,0.011920299,-0.002761449,-0.733857495,0.000000000,0.006330713,-0.000363226,-0.638760928,0.000000000,0.000061360,0.002033655,-0.011230279
0.092000000,0.000000000,0.000165895,0.166185549,0.957495227,0.000000000,-0.000743338,0.000155680,0.208214417,0.000000000,0.004709085,-0.002174221,-1.321859326,0.000000000,0.011913603,-0.000986357,-0.721092791,0.000000000,0.006325991,-0.001637838,-0.642399710,0.000000000,0.000007203,-0.001808190,-0.006230434,0.000000000,0.000023279,0.001305893,-0.008847631,-0.002961000,0.000575096,-0.007370472,-0.804121123,0.000000000,0.004711476,-0.001440445,-1.308167720,0.000000000,0.011914858,-0.002720384,-0.733317323,0.000000000,0.006330026,-0.000343634,-0.638780891,0.000000000,0.000065547,0.002093446,-0.011982992
0.094000000,0.000000000,-0.000166402,-0.166148431,-0.957462418,0.000000000,-0.000743074,0.000131863,0.207768825,0.000000000,0.004707480,-0.000802725,-1.289355151,0.000000000,0.011904746,-0.004428632,-0.745511750,0.000000000,0.006328004,0.001006422,-0.634679898,0.000000000,0.000010817,0.001806813,0.004412705,0.000000000,0.000026009,0.001364849,-0.009866217,-0.003148000,0.000559223,-0.007936486,-0.838405002,0.000000000,0.004708635,-0.001420481,-1.306631924,0.000000000,0.011909364,-0.002747398,-0.733265550,0.000000000,0.006329395,-0.000315663,-0.638767131,0.000000000,0.000069977,0.002215010,-0.012576125
0.096000000,0.000000000,0.000165909,0.166155518,0.957306496,0.000000000,-0.000742780,0.000147475,0.208232592,0.000000000,0.004703114,-0.002182851,-1.319920679,0.000000000,0.011902795,-0.000975746,-0.720484591,0.000000000,0.006324809,-0.001597182,-0.642400959,0.000000000,0.000007201,-0.001807936,-0.006229960,0.000000000,0.000028979,0.001484906,-0.010490572,-0.003342000,0.000542102,-0.008560544,-0.874244327,0.000000000,0.004705735,-0.001449931,-1.306275963,0.000000000,0.011903951,-0.002706428,-0.732726457,0.000000000,0.006328793,-0.000300543,-0.638782849,0.000000000,0.000074528,0.002275612,-0.013369452
0.098000000,0.000000000,-0.000166330,-0.166119497,-0.957294104,0.000000000,-0.000742532,0.000123881,0.207795628,0.000000000,0.004701495,-0.000809666,-1.287462681,0.000000000,0.011893961,-0.004416722,-0.744904435,0.000000000,0.006326893,0.001042025,-0.634676076,0.000000000,0.000010814,0.001806676,0.004412210,0.000000000,0.000032051,0.001536246,-0.011486055,-0.003544000,0.000523720,-0.009191204,-0.910405741,0.000000000,0.004702879,-0.001427792,-1.304785555,0.000000000,0.011898484,-0.002733429,-0.732675770,0.000000000,0.006328240,-0.000276717,-0.638765085,0.000000000,0.000079323,0.002397452,-0.014001712
0.100000000,0.000000000,0.000165927,0.166128516,0.957135196,0.000000000,-0.000742253,0.000139319,0.208258877,0.000000000,0.004697119,-0.002187706,-1.318062464,0.000000000,0.011892034,-0.000963708,-0.719888015,0.000000000,0.006323763,-0.001565196,-0.642389964,0.000000000,0.000007199,-0.001807798,-0.006229317,0.000000000,0.000035353,0.001650763,-0.012103884,-0.003753000,0.000503956,-0.009881803,-0.948333188,0.000000000,0.004699969,-0.001455135,-1.304474639,0.000000000,0.011893099,-0.002692339,-0.732138530,0.000000000,0.006327709,-0.000265488,-0.638776891,0.000000000,0.000084241,0.002459180,-0.014832700
0.102000000,0.000000000,-0.000166260,-0.166093891,-0.957143327,0.000000000,-0.000742021,0.000115948,0.207830486,0.000000000,0.004695493,-0.000812950,-1.285648876,0.000000000,0.011883227,-0.004403328,-0.744310291,0.000000000,0.006325903,0.001070000,-0.634661262,0.000000000,0.000010812,0.001806504,0.004412042,0.000000000,0.000038750,0.001698795,-0.013103393,-0.003970000,0.000482795,-0.010580715,-0.986502021,0.000000000,0.004697107,-0.001430981,-1.303028940,0.000000000,0.011887661,-0.002719079,-0.732090477,0.000000000,0.006327219,-0.000245238,-0.638755150,0.000000000,0.000089405,0.002581850,-0.015505267
0.104000000,0.000000000,0.000165949,0.166104786,0.956983014,0.000000000,-0.000741759,0.000131227,0.208293181,0.000000000,0.004691115,-0.002189067,-1.316282336,0.000000000,0.011881327,-0.000950009,-0.719305199,0.000000000,0.006322823,-0.001539998,-0.642369402,0.000000000,0.000007196,-0.001807754,-0.006228564,0.000000000,0.000042372,0.001810911,-0.013737172,-0.004195000,0.000460113,-0.011341071,-1.026359459,0.000000000,0.004694194,-0.001456379,-1.302761788,0.000000000,0.011882306,-0.002677610,-0.731556907,0.000000000,0.006326744,-0.000237265,-0.638763153,0.000000000,0.000094693,0.002643915,-0.016375889
0.106000000,0.000000000,-0.000166194,-0.166071794,-0.957011457,0.000000000,-0.000741543,0.000108083,0.207873002,0.000000000,0.004689489,-0.000812839,-1.283911484,0.000000000,0.011872551,-0.004388245,-0.743731375,0.000000000,0.006325007,0.001092042,-0.634637901,0.000000000,0.000010809,0.001806303,0.004412170,0.000000000,0.000046088,0.001858004,-0.014757244,-0.004427000,0.000435889,-0.012111644,-1.066668843,0.000000000,0.004691333,-0.001430365,-1.301359365,0.000000000,0.011876898,-0.002703861,-0.731513404,0.000000000,0.006326304,-0.000220008,-0.638737860,0.000000000,0.000100228,0.002767798,-0.017086754
0.108000000,0.000000000,0.000165975,0.166084470,0.956851023,0.000000000,-0.000741296,0.000123215,0.208335046,0.000000000,0.004685115,-0.002187182,-1.314578288,0.000000000,0.011870682,-0.000934461,-0.718738029,0.000000000,0.006321967,-0.001520069,-0.642341523,0.000000000,0.000007193,-0.001807794,-0.006227700,0.000000000,0.000050027,0.001969450,-0.015419654,-0.004667000,0.000410000,-0.012944777,-1.108298702,0.000000000,0.004688425,-0.001453978,-1.301134631,0.000000000,0.011871575,-0.002661782,-0.730985237,0.000000000,0.006325875,-0.000214684,-0.638742453,0.000000000,0.000105887,0.002829449,-0.017998409
0.110000000,0.000000000,-0.000166132,-0.166053296,-0.956899276,0.000000000,-0.000741096,0.000100317,0.207922735,0.000000000,0.004683496,-0.000809571,-1.282248629,0.000000000,0.011861939,-0.004371307,-0.743169473,0.000000000,0.006324186,0.001109507,-0.634608039,0.000000000,0.000010805,0.001806069,0.004412587,0.000000000,0.000054061,0.002016697,-0.016469733,-0.004915000,0.000382421,-0.013789347,-1.150313880,0.000000000,0.004685573,-0.001426256,-1.299773956,0.000000000,0.011866200,-0.002687317,-0.730948069,0.000000000,0.006325475,-0.000199794,-0.638714194,0.000000000,0.000111792,0.002952243,-0.018745598
0.112000000,0.000000000,0.000166003,0.166067626,0.956739766,0.000000000,-0.000740865,0.000115301,0.208383626,0.000000000,0.004679131,-0.002182276,-1.312948585,0.000000000,0.011860105,-0.000916918,-0.718188150,0.000000000,0.006321177,-0.001504198,-0.642308189,0.000000000,0.000007189,-0.001807908,-0.006226686,0.000000000,0.000058317,0.002128204,-0.017166844,-0.005172000,0.000353026,-0.014697792,-1.193864215,0.000000000,0.004682677,-0.001448231,-1.299590197,0.000000000,0.011860911,-0.002644439,-0.730427077,0.000000000,0.006325082,-0.000196645,-0.638716143,0.000000000,0.000117819,0.003013712,-0.019691438
0.114000000,0.000000000,-0.000166074,-0.166038396,-0.956807074,0.000000000,-0.000740680,0.000092634,0.207979154,0.000000000,0.004677525,-0.000803356,-1.280658758,0.000000000,0.011851401,-0.004352388,-0.742626110,0.000000000,0.006323424,0.001123489,-0.634573384,0.000000000,0.000010801,0.001805844,0.004413281,0.000000000,0.000062669,0.002176212,-0.018251115,-0.005436000,0.000321787,-0.015619081,-1.238011489,0.000000000,0.004679839,-0.001418944,-1.298269833,0.000000000,0.011855573,-0.002669113,-0.730397782,0.000000000,0.006324714,-0.000183708,-0.638685347,0.000000000,0.000124094,0.003137464,-0.020475357
0.116000000,0.000000000,0.000166035,0.166054215,0.956649277,0.000000000,-0.000740465,0.000107485,0.208439194,0.000000000,0.004673176,-0.002174552,-1.311391861,0.000000000,0.011849606,-0.000897270,-0.717656953,0.000000000,0.006320442,-0.001491409,-0.642270989,0.000000000,0.000007185,-0.001808063,-0.006225631,0.000000000,0.000067246,0.002288329,-0.018986536,-0.005708000,0.000288579,-0.016604319,-1.283334283,0.000000000,0.004676960,-0.001439406,-1.298125613,0.000000000,0.011850322,-0.002625317,-0.729885211,0.000000000,0.006324350,-0.000182189,-0.638684993,0.000000000,0.000130491,0.003198334,-0.021461357
0.118000000,0.000000000,-0.000166019,-0.166027010,-0.956734611,0.000000000,-0.000740295,0.000085081,0.208042186,0.000000000,0.004671587,-0.000794390,-1.279140559,0.000000000,0.011840943,-0.004331395,-0.742102575,0.000000000,0.006322711,0.001134839,-0.634535373,0.000000000,0.000010796,0.001805600,0.004414172,0.000000000,0.000071921,0.002337230,-0.020108391,-0.005989000,0.000253376,-0.017601547,-1.328924494,0.000000000,0.004674143,-0.001408661,-1.296844506,0.000000000,0.011845024,-0.002649007,-0.729864856,0.000000000,0.006324009,-0.000170605,-0.638652486,0.000000000,0.000137130,0.003319613,-0.022280890
0.120000000,0.000000000,0.000166069,0.166044128,0.956579088,0.000000000,-0.000740095,0.000099795,0.208500581,0.000000000,0.004667258,-0.002164192,-1.309906853,0.000000000,0.011839192,-0.000875445,-0.717145631,0.000000000,0.006319749,-0.001480949,-0.642231184,0.000000000,0.000007180,-0.001808278,-0.006224439,0.000000000,0.000076820,0.002449920,-0.020883189,-0.006278000,0.000216055,-0.018660604,-1.376234741,0.000000000,0.004671287,-0.001427717,-1.296739117,0.000000000,0.011839816,-0.002604193,-0.729361816,0.000000000,0.006323668,-0.000170380,-0.638650936,0.000000000,0.000143890,0.003380333,-0.023296681
0.122000000,0.000000000,-0.000165969,-0.166018983,-0.956681216,0.000000000,-0.000739940,0.000077630,0.208111025,0.000000000,0.004665693,-0.000782845,-1.277692965,0.000000000,0.011830576,-0.004308269,-0.741599931,0.000000000,0.006322038,0.001144240,-0.634495153,0.000000000,0.000010790,0.001805377,0.004415323,0.000000000,0.000081820,0.002499776,-0.022042732,-0.006576000,0.000176604,-0.019725033,-1.423818266,0.000000000,0.004668496,-0.001395633,-1.295496431,0.000000000,0.011834562,-0.002626823,-0.729351368,0.000000000,0.006323348,-0.000159916,-0.638617137,0.000000000,0.000150894,0.003501933,-0.024152574
0.124000000,0.000000000,0.000166105,0.166037178,0.956528336,0.000000000,-0.000739755,0.000092213,0.208568241,0.000000000,0.004661390,-0.002151364,-1.308492614,0.000000000,0.011828873,-0.000851396,-0.716655158,0.000000000,0.006319093,-0.001472208,-0.642189849,0.000000000,0.000007173,-0.001808503,-0.006223219,0.000000000,0.000087046,0.002613279,-0.022857580,-0.006882000,0.000134944,-0.020830361,-1.473233455,0.000000000,0.004665669,-0.001413380,-1.295428739,0.000000000,0.011829400,-0.002580955,-0.728858665,0.000000000,0.006323027,-0.000160618,-0.638614563,0.000000000,0.000158021,0.003563532,-0.025206129
0.126000000,0.000000000,-0.000165923,-0.166014079,-0.956645795,0.000000000,-0.000739615,0.000070279,0.208185965,0.000000000,0.004659852,-0.000768884,-1.276315062,0.000000000,0.011820307,-0.004282972,-0.741119050,0.000000000,0.006321398,0.001152219,-0.634453710,0.000000000,0.000010784,0.001805184,0.004416596,0.000000000,0.000092375,0.002664427,-0.024056550,-0.007196000,0.000091206,-0.021869014,-1.523369146,0.000000000,0.004662909,-0.001380018,-1.294223832,0.000000000,0.011824195,-0.002602559,-0.728858642,0.000000000,0.006322725,-0.000150955,-0.638580100,0.000000000,0.000165398,0.003688256,-0.026101551
0.128000000,0.000000000,0.000166144,0.166033097,0.956495681,0.000000000,-0.000739445,0.000084687,0.208642132,0.000000000,0.004655580,-0.002136215,-1.307148277,0.000000000,0.011818657,-0.000825106,-0.716186345,0.000000000,0.006318469,-0.001464709,-0.642147855,0.000000000,0.000007166,-0.001808704,-0.006222000,0.000000000,0.000097935,0.002779665,-0.024913805,-0.007520000,0.000046157,-0.022524176,-1.576696491,0.000000000,0.004660116,-0.001396497,-1.294193932,0.000000000,0.011819084,-0.002555763,-0.728376300,0.000000000,0.006322420,-0.000152469,-0.638577060,0.000000000,0.000172918,0.003759877,-0.027201650
0.130000000,0.000000000,-0.000165880,-0.166011908,-0.956626771,0.000000000,-0.000739320,0.000062610,0.208268095,0.000000000,0.004654075,-0.000752623,-1.275006196,0.000000000,0.011810146,-0.004255501,-0.740660615,0.000000000,0.006320787,0.001159291,-0.634411866,0.000000000,0.000010777,0.001805356,0.004417877,0.000000000,0.000103608,0.002836593,-0.026158058,-0.007852000,-0.000018722,-0.032439601,-1.641168046,0.000000000,0.004657392,-0.001361769,-1.293027288,0.000000000,0.011813929,-0.002577171,-0.728386056,0.000000000,0.006322131,-0.000144812,-0.638541935,0.000000000,0.000180809,0.003945488,-0.028165253
0.132000000,0.000000000,0.000166184,0.166032044,0.956478887,0.000000000,-0.000739152,0.000083900,0.208731866,0.000000000,0.004649836,-0.002119461,-1.305873809,0.000000000,0.011808553,-0.000796338,-0.715739773,0.000000000,0.006317867,-0.001459865,-0.642106225,0.000000000,0.000007148,-0.001814336,-0.006221809,0.000000000,0.000109413,0.002902349,-0.027084702,-0.008193000,-0.000060767,-0.021022436,-1.492818852,0.000000000,0.004654635,-0.001378933,-1.293038649,0.000000000,0.011808895,-0.002517068,-0.727908317,0.000000000,0.006321897,-0.000116572,-0.638534435,0.000000000,0.000186921,0.003056424,-0.029490444
0.134000000,0.000000000,-0.000165843,-0.166013564,-0.956625111,0.000000000,-0.000739049,0.000051568,0.208202602,0.000000000,0.004648368,-0.000733563,-1.273752400,0.000000000,0.011800101,-0.004226315,-0.740226903,0.000000000,0.006320200,0.001166438,-0.634364885,0.000000000,0.000010765,0.001808227,0.004435704,0.000000000,0.000115303,0.002945435,-0.028075284,-0.008542000,-0.000114290,-0.026761671,-1.836040200,0.000000000,0.004651950,-0.001342076,-1.291866496,0.000000000,0.011803801,-0.002546871,-0.728017545,0.000000000,0.006321569,-0.000164171,-0.638591159,0.000000000,0.000195707,0.004392925,-0.027580632
0.136000000,0.000000000,0.000166223,0.166033159,0.956484313,0.000000000,-0.000738912,0.000068598,0.208904612,0.000000000,0.004644169,-0.002099799,-1.304683008,0.000000000,0.011798569,-0.000765649,-0.715312711,0.000000000,0.006317297,-0.001451462,-0.642067235,0.000000000,0.000007154,-0.001805301,-0.006228739,0.000000000,0.000121486,0.003091327,-0.028946854,-0.008901000,-0.000171404,-0.028557069,-1.790212244,0.000000000,0.004649228,-0.001361361,-1.291937207,0.000000000,0.011798819,-0.002491388,-0.727483961,0.000000000,0.006321269,-0.000150042,-0.638422651,0.000000000,0.000204124,0.004208261,-0.032268245
0.138000000,0.000000000,-0.000165808,-0.166015355,-0.956635591,0.000000000,-0.000738813,0.000049486,0.208480421,0.000000000,0.004642741,-0.000713984,-1.272586403,0.000000000,0.011790181,-0.004194030,-0.739814402,0.000000000,0.006319640,0.001171366,-0.634331161,0.000000000,0.000010763,0.001804456,0.004409428,0.000000000,0.000127795,0.003154300,-0.030430894,-0.009269000,-0.000231595,-0.030095417,-1.835411607,0.000000000,0.004646590,-0.001319067,-1.290727099,0.000000000,0.011793782,-0.002518493,-0.727563596,0.000000000,0.006321025,-0.000122199,-0.638432492,0.000000000,0.000212547,0.004211485,-0.032593861
0.140000000,0.000000000,0.000166262,0.166035087,0.956490642,0.000000000,-0.000738685,0.000064069,0.208884567,0.000000000,0.004638584,-0.002078237,-1.303526266,0.000000000,0.011788715,-0.000732921,-0.714915643,0.000000000,0.006316746,-0.001446959,-0.642024629,0.000000000,0.000007140,-0.001811668,-0.006217846,0.000000000,0.000134332,0.003268725,-0.031459454,-0.009645000,-0.000294925,-0.031664884,-1.888108919,0.000000000,0.004643927,-0.001331231,-1.290933858,0.000000000,0.011788844,-0.002468734,-0.727052778,0.000000000,0.006320779,-0.000122801,-0.638486950,0.000000000,0.000221042,0.004247839,-0.033454294
0.142000000,0.000000000,-0.000165777,-0.166019671,-0.956650699,0.000000000,-0.000738599,0.000042956,0.208518300,0.000000000,0.004637201,-0.000691771,-1.271486764,0.000000000,0.011780395,-0.004160029,-0.739424615,0.000000000,0.006319098,0.001176185,-0.634288257,0.000000000,0.000010746,0.001803070,0.004428985,0.000000000,0.000140967,0.003317552,-0.032803367,-0.010031000,-0.000361402,-0.033238557,-1.941484124,0.000000000,0.004641338,-0.001294436,-1.289901930,0.000000000,0.011783877,-0.002483440,-0.727094584,0.000000000,0.006320543,-0.000118068,-0.638460415,0.000000000,0.000229759,0.004358454,-0.034416266
0.144000000,0.000000000,0.000166302,0.166039473,0.956511767,0.000000000,-0.000738485,0.000056866,0.208971426,0.000000000,0.004633090,-0.002055244,-1.302453971,0.000000000,0.011779000,-0.000697800,-0.714539195,0.000000000,0.006316215,-0.001441696,-0.641983599,0.000000000,0.000007125,-0.001810243,-0.006212169,0.000000000,0.000147824,0.003428359,-0.033786732,-0.010426000,-0.000431157,-0.034877490,-1.996711897,0.000000000,0.004638723,-0.001307607,-1.289998332,0.000000000,0.011779017,-0.002430090,-0.726676321,0.000000000,0.006320297,-0.000123044,-0.638450006,0.000000000,0.000238561,0.004400824,-0.035611717
0.146000000,0.000000000,-0.000165749,-0.166025760,-0.956679722,0.000000000,-0.000738413,0.000036199,0.208624478,0.000000000,0.004631755,-0.000667791,-1.270445186,0.000000000,0.011770751,-0.004124103,-0.739060559,0.000000000,0.006318578,0.001181693,-0.634249552,0.000000000,0.000010734,0.001804274,0.004426386,0.000000000,0.000154778,0.003476921,-0.035144221,-0.010830000,-0.000504220,-0.036531632,-2.052090130,0.000000000,0.004636184,-0.001269490,-1.288957055,0.000000000,0.011774127,-0.002445006,-0.726748544,0.000000000,0.006320066,-0.000115392,-0.638410990,0.000000000,0.000247559,0.004499091,-0.036621715
0.148000000,0.000000000,0.000166340,0.166044957,0.956543276,0.000000000,-0.000738312,0.000050255,0.209071354,0.000000000,0.004627694,-0.002030457,-1.301448367,0.000000000,0.011769430,-0.000660750,-0.714185406,0.000000000,0.006315706,-0.001436457,-0.641946705,0.000000000,0.000007114,-0.001810108,-0.006214386,0.000000000,0.000161952,0.003587139,-0.036160059,-0.011244000,-0.000580737,-0.038258516,-2.108742296,0.000000000,0.004633622,-0.001281180,-1.289097528,0.000000000,0.011769343,-0.002391797,-0.726333640,0.000000000,0.006319831,-0.000117479,-0.638409420,0.000000000,0.000256630,0.004535395,-0.037810488
0.150000000,0.000000000,-0.000165725,-0.166032638,-0.956714831,0.000000000,-0.000738252,0.000029918,0.208724866,0.000000000,0.004626410,-0.000642165,-1.269471929,0.000000000,0.011761258,-0.004086125,-0.738719443,0.000000000,0.006318079,0.001186848,-0.634212953,0.000000000,0.000010722,0.001803995,0.004427180,0.000000000,0.000169221,0.003634489,-0.037548062,-0.011667000,-0.000660750,-0.040006651,-2.165609725,0.000000000,0.004631138,-0.001241931,-1.288104761,0.000000000,0.011764531,-0.002406138,-0.726409695,0.000000000,0.006319614,-0.000108518,-0.638379741,0.000000000,0.000265899,0.004634418,-0.038830441
0.152000000,0.000000000,0.000166377,0.166050983,0.956579544,0.000000000,-0.000738165,0.000043897,0.209167857,0.000000000,0.004622401,-0.002004122,-1.300508631,0.000000000,0.011760014,-0.000621635,-0.713855682,0.000000000,0.006315216,-0.001431503,-0.641910907,0.000000000,0.000007101,-0.001810545,-0.006212356,0.000000000,0.000176707,0.003743055,-0.038590645,-0.012099000,-0.000744412,-0.041830821,-2.223560967,0.000000000,0.004628632,-0.001252747,-1.288286523,0.000000000,0.011759827,-0.002351909,-0.726003793,0.000000000,0.006319393,-0.000110234,-0.638383281,0.000000000,0.000275243,0.004671918,-0.040048719
0.154000000,0.000000000,-0.000165703,-0.166040033,-0.956752819,0.000000000,-0.000738117,0.000023813,0.208826700,0.000000000,0.004621171,-0.000615027,-1.268563211,0.000000000,0.011751922,-0.004046175,-0.738402741,0.000000000,0.006317600,0.001191896,-0.634177585,0.000000000,0.000010708,0.001803734,0.004429745,0.000000000,0.000184284,0.003788660,-0.040002544,-0.012541000,-0.000831768,-0.043677831,-2.281313364,0.000000000,0.004626207,-0.001212728,-1.287329691,0.000000000,0.011755097,-0.002365102,-0.726092134,0.000000000,0.006319191,-0.000101094,-0.638356123,0.000000000,0.000284781,0.004769052,-0.041099666
0.156000000,0.000000000,0.000166412,0.166057284,0.956619030,0.000000000,-0.000738042,0.000037723,0.209267464,0.000000000,0.004617219,-0.001976312,-1.299633502,0.000000000,0.011750761,-0.000580610,-0.713549960,0.000000000,0.006314747,-0.001426568,-0.641876825,0.000000000,0.000007087,-0.001810809,-0.006210236,0.000000000,0.000192075,0.003895265,-0.041068119,-0.012992000,-0.000922972,-0.045602194,-2.340341772,0.000000000,0.004623761,-0.001222797,-1.287545463,0.000000000,0.011750478,-0.002309744,-0.725699573,0.000000000,0.006318986,-0.000102668,-0.638361673,0.000000000,0.000294389,0.004804295,-0.042339786
0.158000000,0.000000000,-0.000165683,-0.166047555,-0.956792129,0.000000000,-0.000738006,0.000017894,0.208931384,0.000000000,0.004616046,-0.000586458,-1.267719090,0.000000000,0.011742752,-0.004004367,-0.738109849,0.000000000,0.006317141,0.001196958,-0.634144180,0.000000000,0.000010694,0.001803547,0.004431926,0.000000000,0.000199953,0.003938895,-0.042501384,-0.013452000,-0.001018073,-0.047550435,-2.399084814,0.000000000,0.004621397,-0.001182056,-1.286622556,0.000000000,0.011745834,-0.002321834,-0.725801272,0.000000000,0.006318799,-0.000093326,-0.638336446,0.000000000,0.000304186,0.004898533,-0.043411072
0.160000000,0.000000000,0.000166443,0.166063439,0.956659489,0.000000000,-0.000737942,0.000031761,0.209369707,0.000000000,0.004612151,-0.001947125,-1.298822800,0.000000000,0.011741677,-0.000537760,-0.713267908,0.000000000,0.006314298,-0.001421622,-0.641844805,0.000000000,0.000007072,-0.001811039,-0.006208238,0.000000000,0.000208039,0.004043246,-0.043587820,-0.013923000,-0.001117226,-0.049576347,-2.458738249,0.000000000,0.004619014,-0.001191420,-1.286872091,0.000000000,0.011741303,-0.002265377,-0.725422015,0.000000000,0.006318610,-0.000094618,-0.638344140,0.000000000,0.000314044,0.004929027,-0.044669132
0.162000000,0.000000000,-0.000165666,-0.166054784,-0.956830319,0.000000000,-0.000737918,0.000012180,0.209038004,0.000000000,0.004611038,-0.000556563,-1.266938962,0.000000000,0.011733755,-0.003960772,-0.737840619,0.000000000,0.006316702,0.001202035,-0.634112832,0.000000000,0.000010678,0.001803344,0.004434095,0.000000000,0.000216208,0.004084570,-0.045039878,-0.014403000,-0.001220481,-0.051627399,-2.518609774,0.000000000,0.004616714,-0.001149999,-1.285982976,0.000000000,0.011736750,-0.002276409,-0.725537130,0.000000000,0.006318440,-0.000085076,-0.638321343,0.000000000,0.000324086,0.005020714,-0.045752133
0.164000000,0.000000000,0.000166472,0.166069048,0.956698523,0.000000000,-0.000737866,0.000025989,0.209473973,0.000000000,0.004607205,-0.001916657,-1.298075678,0.000000000,0.011732769,-0.000493171,-0.713009481,0.000000000,0.006313868,-0.001416643,-0.641814855,0.000000000,0.000007056,-0.001811225,-0.006206106,0.000000000,0.000224581,0.004186538,-0.046144329,-0.014892000,-0.001327994,-0.053756896,-2.579304936,0.000000000,0.004614397,-0.001158710,-1.286266125,0.000000000,0.011732313,-0.002218901,-0.725171137,0.000000000,0.006318268,-0.000086156,-0.638331274,0.000000000,0.000334183,0.005048785,-0.047027634
0.166000000,0.000000000,-0.000165651,-0.166061329,-0.956865080,0.000000000,-0.000737853,0.000006679,0.209146863,0.000000000,0.004606154,-0.000525444,-1.266222109,0.000000000,0.011724938,-0.003915471,-0.737594887,0.000000000,0.006316283,0.001207138,-0.634083608,0.000000000,0.000010662,0.001803127,0.004436217,0.000000000,0.000233032,0.004225359,-0.047613462,-0.015391000,-0.001439817,-0.055911388,-2.639573454,0.000000000,0.004612164,-0.001116660,-1.285410371,0.000000000,0.011727855,-0.002228887,-0.725299585,0.000000000,0.006318115,-0.000076260,-0.638310787,0.000000000,0.000344454,0.005135086,-0.048127952
0.168000000,0.000000000,0.000166497,0.166073743,0.956733892,0.000000000,-0.000737812,0.000020449,0.209579840,0.000000000,0.004602384,-0.001885006,-1.297391256,0.000000000,0.011724044,-0.000446938,-0.712774538,0.000000000,0.006313459,-0.001411628,-0.641787014,0.000000000,0.000007039,-0.001811397,-0.006203851,0.000000000,0.000241681,0.004324512,-0.048733773,-0.015900001,-0.001556107,-0.058144787,-2.700894142,0.000000000,0.004609914,-0.001124757,-1.285726703,0.000000000,0.011723514,-0.002170349,-0.724947030,0.000000000,0.006317961,-0.000077057,-0.638323509,0.000000000,0.000354771,0.005158487,-0.049411259
0.170000000,0.000000000,-0.000165637,-0.166066836,-0.956894279,0.000000000,-0.000737809,0.000001383,0.209256740,0.000000000,0.004601398,-0.000493193,-1.265567714,0.000000000,0.011716307,-0.003868554,-0.737372413,0.000000000,0.006315884,0.001212270,-0.634056532,0.000000000,0.000010645,0.001802898,0.004438377,0.000000000,0.000250402,0.004360467,-0.050216402,-0.016419001,-0.001676915,-0.060403931,-2.762003250,0.000000000,0.004607750,-0.001082138,-1.284904128,0.000000000,0.011719155,-0.002179314,-0.725088938,0.000000000,0.006317827,-0.000066946,-0.638305666,0.000000000,0.000365254,0.005241503,-0.050520473
0.172000000,0.000000000,0.000166517,0.166077189,0.956763564,0.000000000,-0.000737779,0.000015109,0.209687219,0.000000000,0.004597693,-0.001852262,-1.296768742,0.000000000,0.011715508,-0.000399155,-0.712562850,0.000000000,0.006313071,-0.001406560,-0.641761310,0.000000000,0.000007022,-0.001811505,-0.006201482,0.000000000,0.000259315,0.004456668,-0.051349311,-0.016946999,-0.001802399,-0.062742387,-2.824087795,0.000000000,0.004605570,-0.001089683,-1.285252958,0.000000000,0.011714916,-0.002119780,-0.724749904,0.000000000,0.006317692,-0.000067500,-0.638320881,0.000000000,0.000375777,0.005261612,-0.051815955
0.174000000,0.000000000,-0.000165624,-0.166070976,-0.956915972,0.000000000,-0.000737786,-0.000003701,0.209368163,0.000000000,0.004596773,-0.000459908,-1.264974985,0.000000000,0.011707868,-0.003820109,-0.737172908,0.000000000,0.006315506,0.001217433,-0.634031667,0.000000000,0.000010627,0.001802658,0.004440424,0.000000000,0.000268295,0.004489594,-0.052843418,-0.017485000,-0.001932612,-0.065106515,-2.885606741,0.000000000,0.004603477,-0.001046533,-1.284462816,0.000000000,0.011710660,-0.002127771,-0.724905279,0.000000000,0.006317578,-0.000057046,-0.638305661,0.000000000,0.000386456,0.005339788,-0.052936653
0.176000000,0.000000000,0.000166534,0.166079080,0.956785649,0.000000000,-0.000737766,0.000010001,0.209795715,0.000000000,0.004593136,-0.001818516,-1.296207170,0.000000000,0.011707168,-0.000349922,-0.712374174,0.000000000,0.006312703,-0.001401448,-0.641737759,0.000000000,0.000007004,-0.001811586,-0.006199013,0.000000000,0.000277460,0.004582505,-0.053986722,-0.018033000,-0.002067712,-0.067549967,-2.948044176,0.000000000,0.004601370,-0.001053562,-1.284843879,0.000000000,0.011706526,-0.002067275,-0.724579676,0.000000000,0.006317463,-0.000057270,-0.638323853,0.000000000,0.000397166,0.005354697,-0.054238238
0.178000000,0.000000000,-0.000165613,-0.166073462,-0.956928394,0.000000000,-0.000737783,-0.000008567,0.209480122,0.000000000,0.004592285,-0.000425679,-1.264443010,0.000000000,0.011699628,-0.003770231,-0.736996056,0.000000000,0.006315148,0.001222615,-0.634009006,0.000000000,0.000010609,0.001802395,0.004442459,0.000000000,0.000286684,0.004612056,-0.055489048,-0.018591000,-0.002207751,-0.070019515,-3.010140383,0.000000000,0.004599350,-0.001009934,-1.284085954,0.000000000,0.011702377,-0.002074320,-0.724748526,0.000000000,0.006317370,-0.000046545,-0.638311640,0.000000000,0.000408024,0.005428914,-0.055362969
0.180000000,0.000000000,0.000166545,0.166079157,0.956798511,0.000000000,-0.000737773,0.000005102,0.209904982,0.000000000,0.004588717,-0.001783857,-1.295705602,0.000000000,0.011699029,-0.000299338,-0.712208212,0.000000000,0.006312355,-0.001396288,-0.641716345,0.000000000,0.000006986,-0.001811606,-0.006196405,0.000000000,0.000296087,0.004701490,-0.056639379,-0.019159000,-0.002352888,-0.072568540,-3.073085002,0.000000000,0.004597317,-0.001016503,-1.284498630,0.000000000,0.011698351,-0.002012896,-0.724436399,0.000000000,0.006317277,-0.000046495,-0.638332721,0.000000000,0.000418904,0.005439917,-0.056671315
0.182000000,0.000000000,-0.000165603,-0.166074048,-0.956930043,0.000000000,-0.000737800,-0.000013225,0.209592906,0.000000000,0.004587936,-0.000390595,-1.263970874,0.000000000,0.011691591,-0.003719012,-0.736841500,0.000000000,0.006314811,0.001227814,-0.633988570,0.000000000,0.000010590,0.001802122,0.004444377,0.000000000,0.000305542,0.004727546,-0.058147407,-0.019737000,-0.002503176,-0.075143733,-3.135625440,0.000000000,0.004595373,-0.000972441,-1.283772168,0.000000000,0.011694313,-0.002019048,-0.724618712,0.000000000,0.006317206,-0.000035449,-0.638323466,0.000000000,0.000429924,0.005510098,-0.057802168
0.184000000,0.000000000,0.000166551,0.166077201,0.956800736,0.000000000,-0.000737799,0.000000421,0.210014957,0.000000000,0.004584439,-0.001748370,-1.295263001,0.000000000,0.011691096,-0.000247503,-0.712064635,0.000000000,0.006312029,-0.001391089,-0.641697070,0.000000000,0.000006967,-0.001811577,-0.006193713,0.000000000,0.000315169,0.004813366,-0.059302596,-0.020324999,-0.002658773,-0.077798400,-3.198952105,0.000000000,0.004593415,-0.000978583,-1.284216001,0.000000000,0.011690400,-0.001956756,-0.724319919,0.000000000,0.006317136,-0.000035067,-0.638347706,0.000000000,0.000440958,0.005516937,-0.059115448
0.186000000,0.000000000,-0.000165594,-0.166072535,-0.956919655,0.000000000,-0.000737834,-0.000017666,0.209706051,0.000000000,0.004583730,-0.000354745,-1.263557561,0.000000000,0.011683763,-0.003666549,-0.736708857,0.000000000,0.006314495,0.001233013,-0.633970349,0.000000000,0.000010571,0.001801822,0.004446206,0.000000000,0.000324840,0.004835760,-0.060814041,-0.020923000,-0.002819731,-0.080479201,-3.261814597,0.000000000,0.004591547,-0.000934125,-1.283520763,0.000000000,0.011686476,-0.001962056,-0.724515495,0.000000000,0.006317089,-0.000023674,-0.638341704,0.000000000,0.000452123,0.005582860,-0.060250028
0.188000000,0.000000000,0.000166552,0.166073044,0.956791183,0.000000000,-0.000737842,-0.000004037,0.210125199,0.000000000,0.004580306,-0.001712142,-1.294878297,0.000000000,0.011683374,-0.000194516,-0.711943078,0.000000000,0.006311723,-0.001385861,-0.641679900,0.000000000,0.000006948,-0.001811502,-0.006190888,0.000000000,0.000334676,0.004917782,-0.061971582,-0.021530000,-0.002986210,-0.083239372,-3.325404537,0.000000000,0.004589667,-0.000939885,-1.283995299,0.000000000,0.011682678,-0.001898929,-0.724229952,0.000000000,0.006317043,-0.000022958,-0.638369307,0.000000000,0.000463294,0.005585329,-0.061565914
0.190000000,0.000000000,-0.000165585,-0.166068778,-0.956896252,0.000000000,-0.000737886,-0.000021878,0.209819220,0.000000000,0.004579669,-0.000318215,-1.263202006,0.000000000,0.011676148,-0.003612939,-0.736597720,0.000000000,0.006314200,0.001238200,-0.633954319,0.000000000,0.000010550,0.001801488,0.004447951,0.000000000,0.000344548,0.004936237,-0.063483813,-0.022148000,-0.003158260,-0.086025123,-3.388188394,0.000000000,0.004587877,-0.000895085,-1.283330714,0.000000000,0.011678871,-0.001903390,-0.724438767,0.000000000,0.006317021,-0.000011180,-0.638366704,0.000000000,0.000474585,0.005645425,-0.062701894
0.192000000,0.000000000,0.000166548,0.166066574,0.956769026,0.000000000,-0.000737902,-0.000008264,0.210235211,0.000000000,0.004576319,-0.001675255,-1.294550345,0.000000000,0.011675867,-0.000140478,-0.711843146,0.000000000,0.006311438,-0.001380614,-0.641664799,0.000000000,0.000006928,-0.001811382,-0.006187914,0.000000000,0.000354576,0.005014132,-0.064640498,-0.022776000,-0.003336040,-0.088890187,-3.451936359,0.000000000,0.004586076,-0.000900511,-1.283835203,0.000000000,0.011675192,-0.001839450,-0.724166601,0.000000000,0.006317000,-0.000010152,-0.638397928,0.000000000,0.000485871,0.005643115,-0.064013857
0.194000000,0.000000000,-0.000165577,-0.166062687,-0.956859196,0.000000000,-0.000737954,-0.000025888,0.209931979,0.000000000,0.004575756,-0.000281084,-1.262903085,0.000000000,0.011668751,-0.003558280,-0.736507653,0.000000000,0.006313925,0.001243370,-0.633940450,0.000000000,0.000010530,0.001801147,0.004449610,0.000000000,0.000364633,0.005028496,-0.066149930,-0.023414001,-0.003519602,-0.091781001,-3.515104185,0.000000000,0.004584365,-0.000855418,-1.283200535,0.000000000,0.011671506,-0.001843124,-0.724388715,0.000000000,0.006317004,0.000001905,-0.638398799,0.000000000,0.000497271,0.005699924,-0.065147931
0.196000000,0.000000000,0.000166538,0.166057733,0.956733756,0.000000000,-0.000737979,-0.000012283,0.210345318,0.000000000,0.004572481,-0.001637791,-1.294278032,0.000000000,0.011668580,-0.000085488,-0.711764400,0.000000000,0.006311174,-0.001375351,-0.641651756,0.000000000,0.000006908,-0.001811193,-0.006184876,0.000000000,0.000374838,0.005102256,-0.067303154,-0.024062000,-0.003709104,-0.094750614,-3.578888775,0.000000000,0.004582644,-0.000860555,-1.283734183,0.000000000,0.011667949,-0.001778424,-0.724129754,0.000000000,0.006317011,0.000003293,-0.638433462,0.000000000,0.000508657,0.005693095,-0.066461566
0.198000000,0.000000000,-0.000165570,-0.166054223,-0.956808141,0.000000000,-0.000738038,-0.000029676,0.210044571,0.000000000,0.004571994,-0.000243438,-1.262659624,0.000000000,0.011661574,-0.003502668,-0.736438204,0.000000000,0.006313671,0.001248508,-0.633928735,0.000000000,0.000010509,0.001800777,0.004451101,0.000000000,0.000385063,0.005112427,-0.068807983,-0.024720000,-0.003904595,-0.097745559,-3.642044899,0.000000000,0.004581014,-0.000815199,-1.283128789,0.000000000,0.011664386,-0.001781368,-0.724364971,0.000000000,0.006317042,0.000015747,-0.638438074,0.000000000,0.000520147,0.005745133,-0.067592897
0.200000000,0.000000000,0.000166523,0.166046514,0.956685145,0.000000000,-0.000738070,-0.000016074,0.210454862,0.000000000,0.004568794,-0.001599829,-1.294060096,0.000000000,0.011661515,-0.000029645,-0.711706394,0.000000000,0.006310931,-0.001370089,-0.641640725,0.000000000,0.000006887,-0.001810965,-0.006181720,0.000000000,0.000395427,0.005181858,-0.069955389,-0.025388001,-0.004106233,-0.100818876,-3.705768050,0.000000000,0.004579374,-0.000820080,-1.283691261,0.000000000,0.011660954,-0.001715951,-0.724119009,0.000000000,0.006317077,0.000017504,-0.638476664,0.000000000,0.000531614,0.005733497,-0.068902104
0.202000000,0.000000000,-0.000165564,-0.166043409,-0.956743054,0.000000000,-0.000738137,-0.000033246,0.210156346,0.000000000,0.004568384,-0.000205354,-1.262470394,0.000000000,0.011654623,-0.003446203,-0.736388901,0.000000000,0.006313438,0.001253601,-0.633919118,0.000000000,0.000010488,0.001800378,0.004452514,0.000000000,0.000405802,0.005187637,-0.071452713,-0.026066000,-0.004314067,-0.103917059,-3.768813936,0.000000000,0.004577825,-0.000774514,-1.283114637,0.000000000,0.011657518,-0.001718183,-0.724367216,0.000000000,0.006317138,0.000030326,-0.638485196,0.000000000,0.000543176,0.005780705,-0.070027934
0.204000000,0.000000000,0.000166502,0.166032974,0.956623325,0.000000000,-0.000738176,-0.000019646,0.210563641,0.000000000,0.004565261,-0.001561449,-1.293895293,0.000000000,0.011654677,0.000026955,-0.711668645,0.000000000,0.006310709,-0.001364838,-0.641631661,0.000000000,0.000006867,-0.001810686,-0.006178444,0.000000000,0.000416307,0.005252560,-0.072591314,-0.026753999,-0.004528253,-0.107093079,-3.832378187,0.000000000,0.004576266,-0.000779190,-1.283705002,0.000000000,0.011654214,-0.001652077,-0.724134295,0.000000000,0.006317203,0.000032437,-0.638527780,0.000000000,0.000554704,0.005764184,-0.071330600
0.206000000,0.000000000,-0.000165559,-0.166030323,-0.956664260,0.000000000,-0.000738249,-0.000036601,0.210267195,0.000000000,0.004564927,-0.000166909,-1.262334103,0.000000000,0.011647899,-0.003388982,-0.736359256,0.000000000,0.006313226,0.001258644,-0.633911562,0.000000000,0.000010467,0.001799959,0.004453804,0.000000000,0.000426814,0.005253782,-0.074078215,-0.027451999,-0.004748840,-0.110293382,-3.895218916,0.000000000,0.004574799,-0.000733459,-1.283156280,0.000000000,0.011650907,-0.001653633,-0.724395469,0.000000000,0.006317294,0.000045631,-0.638540338,0.000000000,0.000566317,0.005806485,-0.072448746
0.208000000,0.000000000,0.000166476,0.166017226,0.956548760,0.000000000,-0.000738295,-0.000022999,0.210671502,0.000000000,0.004561881,-0.001522727,-1.293782328,0.000000000,0.011648067,0.000084214,-0.711650647,0.000000000,0.006310507,-0.001359608,-0.641624530,0.000000000,0.000006846,-0.001810356,-0.006175085,0.000000000,0.000437443,0.005314046,-0.075205145,-0.028161000,-0.004975981,-0.113570887,-3.958533626,0.000000000,0.004573323,-0.000737971,-1.283773706,0.000000000,0.011647733,-0.001586879,-0.724175508,0.000000000,0.006317390,0.000048106,-0.638587072,0.000000000,0.000577887,0.005785044,-0.073742672
0.210000000,0.000000000,-0.000165555,-0.166015101,-0.956572415,0.000000000,-0.000738375,-0.000039753,0.210376927,0.000000000,0.004561625,-0.000128177,-1.262249426,0.000000000,0.011641405,-0.003331104,-0.736348765,0.000000000,0.006313034,0.001263628,-0.633906025,0.000000000,0.000010445,0.001799529,0.004454968,0.000000000,0.000448064,0.005310652,-0.076678807,-0.028879000,-0.005209726,-0.116872407,-4.021365812,0.000000000,0.004571939,-0.000692114,-1.283252123,0.000000000,0.011644557,-0.001587818,-0.724449520,0.000000000,0.006317514,0.000061642,-0.638603830,0.000000000,0.000589535,0.005823799,-0.074851047
0.212000000,0.000000000,0.000166444,0.165999437,0.956462228,0.000000000,-0.000738427,-0.000026144,0.210778473,0.000000000,0.004558658,-0.001483737,-1.293719891,0.000000000,0.011641689,0.000142040,-0.711651867,0.000000000,0.006310325,-0.001354405,-0.641619301,0.000000000,0.000006825,-0.001809974,-0.006171673,0.000000000,0.000458796,0.005366267,-0.077791765,-0.029608000,-0.005450227,-0.120250234,-4.084335691,0.000000000,0.004570546,-0.000696499,-1.283895890,0.000000000,0.011641516,-0.001520472,-0.724242256,0.000000000,0.006317643,0.000064513,-0.638654774,0.000000000,0.000601130,0.005797662,-0.076138392
0.214000000,0.000000000,-0.000165552,-0.165997932,-0.956468477,0.000000000,-0.000738512,-0.000042689,0.210485532,0.000000000,0.004558479,-0.000089231,-1.262214984,0.000000000,0.011635144,-0.003272664,-0.736356915,0.000000000,0.006312862,0.001268542,-0.633902466,0.000000000,0.000010423,0.001799071,0.004455992,0.000000000,0.000469513,0.005358180,-0.079250269,-0.030346001,-0.005697529,-0.123651281,-4.146786229,0.000000000,0.004569245,-0.000650552,-1.283400758,0.000000000,0.011638475,-0.001520836,-0.724528870,0.000000000,0.006317800,0.000078471,-0.638675977,0.000000000,0.000612793,0.005831542,-0.077235967
0.216000000,0.000000000,0.000166408,0.165979828,0.956364819,0.000000000,-0.000738570,-0.000029071,0.210884022,0.000000000,0.004555590,-0.001444553,-1.293706581,0.000000000,0.011635544,0.000200339,-0.711671767,0.000000000,0.006310164,-0.001349247,-0.641615917,0.000000000,0.000006804,-0.001809560,-0.006168169,0.000000000,0.000480331,0.005408998,-0.080346816,-0.031095000,-0.005951785,-0.127127839,-4.209336371,0.000000000,0.004567935,-0.000654848,-1.284070202,0.000000000,0.011635569,-0.001452933,-0.724334160,0.000000000,0.006317963,0.000081728,-0.638731519,0.000000000,0.000624394,0.005800553,-0.078511016
0.218000000,0.000000000,-0.000165550,-0.165979065,-0.956353731,0.000000000,-0.000738661,-0.000045416,0.210592529,0.000000000,0.004555490,-0.000050142,-1.262229354,0.000000000,0.011629117,-0.003213759,-0.736383178,0.000000000,0.006312711,0.001273380,-0.633900818,0.000000000,0.000010401,0.001798595,0.004456935,0.000000000,0.000491123,0.005396079,-0.081787303,-0.031854000,-0.006213038,-0.130626782,-4.271328528,0.000000000,0.004566718,-0.000608861,-1.283600762,0.000000000,0.011632663,-0.001452742,-0.724633264,0.000000000,0.006318155,0.000096073,-0.638757298,0.000000000,0.000636054,0.005829614,-0.079595381
0.220000000,0.000000000,0.000166367,0.165958679,0.956257960,0.000000000,-0.000738725,-0.000031798,0.210988051,0.000000000,0.004552679,-0.001405244,-1.293741014,0.000000000,0.011629635,0.000259021,-0.711709777,0.000000000,0.006310022,-0.001344139,-0.641614334,0.000000000,0.000006783,-0.001809096,-0.006164598,0.000000000,0.000502007,0.005442070,-0.082864600,-0.032623000,-0.006481440,-0.134200749,-4.333667875,0.000000000,0.004565491,-0.000613109,-1.284294798,0.000000000,0.011629895,-0.001384335,-0.724451093,0.000000000,0.006318354,0.000099663,-0.638817502,0.000000000,0.000647644,0.005795181,-0.080856342
0.222000000,0.000000000,-0.000165550,-0.165958795,-0.956229786,0.000000000,-0.000738821,-0.000047947,0.210698091,0.000000000,0.004552657,-0.000010978,-1.262291091,0.000000000,0.011623326,-0.003154485,-0.736427015,0.000000000,0.006312579,0.001278139,-0.633901039,0.000000000,0.000010379,0.001798116,0.004457739,0.000000000,0.000512856,0.005424365,-0.084284844,-0.033402000,-0.006757032,-0.137796004,-4.395121082,0.000000000,0.004564357,-0.000567121,-1.283850170,0.000000000,0.011627127,-0.001383643,-0.724762453,0.000000000,0.006318583,0.000114426,-0.638847854,0.000000000,0.000659283,0.005819685,-0.081929827
0.224000000,0.000000000,0.000166322,0.165936313,0.956143356,0.000000000,-0.000738889,-0.000034312,0.211090635,0.000000000,0.004549926,-0.001365883,-1.293821771,0.000000000,0.011623962,0.000317997,-0.711765312,0.000000000,0.006309900,-0.001339094,-0.641614524,0.000000000,0.000006762,-0.001808605,-0.006161016,0.000000000,0.000523787,0.005465497,-0.085341112,-0.034192000,-0.007039962,-0.141465282,-4.456890969,0.000000000,0.004563214,-0.000571352,-1.284567963,0.000000000,0.011624498,-0.001314775,-0.724592571,0.000000000,0.006318820,0.000118427,-0.638912952,0.000000000,0.000670844,0.005780528,-0.083175826
0.226000000,0.000000000,-0.000165553,-0.165937467,-0.956098517,0.000000000,-0.000738990,-0.000050282,0.210801726,0.000000000,0.004549982,0.000028198,-1.262398669,0.000000000,0.011617772,-0.003094937,-0.736487885,0.000000000,0.006312466,0.001282812,-0.633903061,0.000000000,0.000010357,0.001797626,0.004458464,0.000000000,0.000534673,0.005442987,-0.086738865,-0.034991000,-0.007330273,-0.145155266,-4.518027510,0.000000000,0.004562164,-0.000525397,-1.284147451,0.000000000,0.011621870,-0.001313638,-0.724915993,0.000000000,0.006319087,0.000133557,-0.638948266,0.000000000,0.000682448,0.005801736,-0.084232920
0.228000000,0.000000000,0.000166274,0.165913104,0.956022995,0.000000000,-0.000739063,-0.000036629,0.211191542,0.000000000,0.004547329,-0.001326536,-1.293947419,0.000000000,0.011618526,0.000377182,-0.711837771,0.000000000,0.006309798,-0.001334120,-0.641616434,0.000000000,0.000006741,-0.001808082,-0.006157404,0.000000000,0.000545631,0.005479304,-0.087771930,-0.035799999,-0.007628109,-0.148918077,-4.579156266,0.000000000,0.004561104,-0.000529654,-1.284888240,0.000000000,0.011619382,-0.001244346,-0.724758120,0.000000000,0.006319363,0.000137960,-0.639018275,0.000000000,0.000693964,0.005758177,-0.085465921
0.230000000,0.000000000,-0.000165557,-0.165915475,-0.955962075,0.000000000,-0.000739168,-0.000052405,0.210903543,0.000000000,0.004547464,0.000067318,-1.262550571,0.000000000,0.011612456,-0.003035206,-0.736565236,0.000000000,0.006312373,0.001287391,-0.633906830,0.000000000,0.000010335,0.001797117,0.004459090,0.000000000,0.000556535,0.005451881,-0.089145405,-0.036619999,-0.007933509,-0.152700089,-4.639340726,0.000000000,0.004560137,-0.000483772,-1.284490841,0.000000000,0.011616896,-0.001242779,-0.725093453,0.000000000,0.006319670,0.000153551,-0.639058680,0.000000000,0.000705511,0.005773473,-0.086505983
0.232000000,0.000000000,0.000166222,0.165889471,0.955899135,0.000000000,-0.000739246,-0.000038744,0.211290179,0.000000000,0.004544889,-0.001287268,-1.294116431,0.000000000,0.011613329,0.000436490,-0.711926550,0.000000000,0.006309714,-0.001329230,-0.641620006,0.000000000,0.000006720,-0.001807540,-0.006153741,0.000000000,0.000567502,0.005483247,-0.090152581,-0.037448999,-0.008246618,-0.156554404,-4.700067749,0.000000000,0.004559161,-0.000488092,-1.285253620,0.000000000,0.011614550,-0.001173105,-0.724947589,0.000000000,0.006319987,0.000158275,-0.639134043,0.000000000,0.000716964,0.005726573,-0.087716461
0.234000000,0.000000000,-0.000165565,-0.165893254,-0.955822887,0.000000000,-0.000739354,-0.000054348,0.211003205,0.000000000,0.004545102,0.000106325,-1.262745256,0.000000000,0.011607378,-0.002975385,-0.736658502,0.000000000,0.006312298,0.001291880,-0.633912275,0.000000000,0.000010313,0.001796622,0.004459657,0.000000000,0.000578403,0.005450942,-0.091498895,-0.038288999,-0.008567471,-0.160426660,-4.759526478,0.000000000,0.004558276,-0.000442335,-1.284878430,0.000000000,0.011612208,-0.001171146,-0.725294635,0.000000000,0.006320335,0.000174249,-0.639179463,0.000000000,0.000728440,0.005737667,-0.088740638
0.236000000,0.000000000,0.000166167,0.165865871,0.955774280,0.000000000,-0.000739436,-0.000040665,0.211387035,0.000000000,0.004542605,-0.001248143,-1.294327367,0.000000000,0.011608370,0.000495840,-0.712031014,0.000000000,0.006309649,-0.001324431,-0.641625217,0.000000000,0.000006700,-0.001806975,-0.006150128,0.000000000,0.000589358,0.005477400,-0.092478263,-0.039138000,-0.008896211,-0.164370008,-4.819505004,0.000000000,0.004557382,-0.000446754,-1.285661956,0.000000000,0.011610005,-0.001101133,-0.725160607,0.000000000,0.006320694,0.000179364,-0.639260098,0.000000000,0.000739812,0.005686422,-0.089931931
0.238000000,0.000000000,-0.000165576,-0.165871273,-0.955683591,0.000000000,-0.000739548,-0.000056100,0.211100663,0.000000000,0.004542896,0.000145158,-1.262981102,0.000000000,0.011602539,-0.002915566,-0.736767124,0.000000000,0.006312242,0.001296272,-0.633919338,0.000000000,0.000010292,0.001796130,0.004460142,0.000000000,0.000600239,0.005440202,-0.093795578,-0.039997999,-0.009232872,-0.168330104,-4.878192037,0.000000000,0.004556580,-0.000401147,-1.285308030,0.000000000,0.011607808,-0.001098840,-0.725519153,0.000000000,0.006321086,0.000195741,-0.639310897,0.000000000,0.000751199,0.005693278,-0.090935639
0.240000000,0.000000000,0.000166110,0.165842793,0.955651128,0.000000000,-0.000739633,-0.000042395,0.211481674,0.000000000,0.004540477,-0.001209223,-1.294578707,0.000000000,0.011603649,0.000555153,-0.712150527,0.000000000,0.006309602,-0.001319734,-0.641632015,0.000000000,0.000006679,-0.001806401,-0.006146536,0.000000000,0.000611162,0.005461746,-0.094744990,-0.040867001,-0.009577592,-0.172360075,-4.937374823,0.000000000,0.004555769,-0.000405703,-1.286111556,0.000000000,0.011605751,-0.001028525,-0.725396636,0.000000000,0.006321488,0.000201230,-0.639397022,0.000000000,0.000762475,0.005637897,-0.092105911
0.242000000,0.000000000,-0.000165590,-0.165850034,-0.955547014,0.000000000,-0.000739748,-0.000057669,0.211195783,0.000000000,0.004540845,0.000183762,-1.263256523,0.000000000,0.011597937,-0.002855835,-0.736890531,0.000000000,0.006312203,0.001300568,-0.633927949,0.000000000,0.000010270,0.001795648,0.004460587,0.000000000,0.000622002,0.005419667,-0.096031175,-0.041747000,-0.009930403,-0.176405552,-4.995245447,0.000000000,0.004555048,-0.000360287,-1.285777864,0.000000000,0.011603699,-0.001025937,-0.725766497,0.000000000,0.006321924,0.000217994,-0.639453302,0.000000000,0.000773756,0.005640740,-0.093088054
0.244000000,0.000000000,0.000166051,0.165820757,0.955532568,0.000000000,-0.000739836,-0.000043941,0.211574058,0.000000000,0.004538504,-0.001170567,-1.294868922,0.000000000,0.011599166,0.000614352,-0.712284449,0.000000000,0.006309573,-0.001315148,-0.641640354,0.000000000,0.000006659,-0.001805821,-0.006142994,0.000000000,0.000632874,0.005436329,-0.096948606,-0.042636000,-0.010291442,-0.180519631,-5.053591403,0.000000000,0.004554318,-0.000365015,-1.286600313,0.000000000,0.011601788,-0.000955366,-0.725655290,0.000000000,0.006322372,0.000223849,-0.639545026,0.000000000,0.000784919,0.005581444,-0.094236297
0.246000000,0.000000000,-0.000165609,-0.165830066,-0.955416161,0.000000000,-0.000739954,-0.000059062,0.211288516,0.000000000,0.004538948,0.000222082,-1.263569888,0.000000000,0.011593573,-0.002796280,-0.737028151,0.000000000,0.006312183,0.001304767,-0.633938043,0.000000000,0.000010249,0.001795185,0.004460994,0.000000000,0.000643653,0.005389420,-0.098201770,-0.043535002,-0.010660738,-0.184647919,-5.110605110,0.000000000,0.004553678,-0.000319824,-1.286285855,0.000000000,0.011599883,-0.000952529,-0.726036218,0.000000000,0.006322854,0.000240997,-0.639606917,0.000000000,0.000796080,0.005580495,-0.095195898
0.248000000,0.000000000,0.000165992,0.165800307,0.955421634,0.000000000,-0.000740045,-0.000045299,0.211664113,0.000000000,0.004536683,-0.001132234,-1.295196479,0.000000000,0.011594920,0.000673363,-0.712432124,0.000000000,0.006309561,-0.001310683,-0.641650191,0.000000000,0.000006639,-0.001805250,-0.006139528,0.000000000,0.000654455,0.005401184,-0.099085433,-0.044443998,-0.011038424,-0.188843090,-5.167793679,0.000000000,0.004553029,-0.000324761,-1.287126222,0.000000000,0.011598120,-0.000881730,-0.725936050,0.000000000,0.006323348,0.000247249,-0.639704381,0.000000000,0.000807112,0.005516168,-0.096321184
0.250000000,0.000000000,-0.000165632,-0.165811921,-0.955294167,0.000000000,-0.000740165,-0.000060275,0.211378556,0.000000000,0.004537203,0.000260067,-1.263919539,0.000000000,0.011589446,-0.002736985,-0.737179408,0.000000000,0.006312179,0.001308865,-0.633949541,0.000000000,0.000010228,0.001794740,0.004461404,0.000000000,0.000665154,0.005349384,-0.100303407,-0.045364000,-0.011424527,-0.193051298,-5.223925539,0.000000000,0.004552469,-0.000279832,-1.286829918,0.000000000,0.011596362,-0.000878681,-0.726327896,0.000000000,0.006323878,0.000264748,-0.639772133,0.000000000,0.000818135,0.005511485,-0.097253287
0.252000000,0.000000000,0.000165932,0.165782003,0.955321497,0.000000000,-0.000740258,-0.000046499,0.211751582,0.000000000,0.004535015,-0.001094276,-1.295559833,0.000000000,0.011590910,0.000732111,-0.712592894,0.000000000,0.006309566,-0.001306341,-0.641661476,0.000000000,0.000006619,-0.001804670,-0.006136136,0.000000000,0.000675867,0.005356389,-0.101150884,-0.046292000,-0.011819178,-0.197325468,-5.280498156,0.000000000,0.004551899,-0.000285012,-1.287687090,0.000000000,0.011594747,-0.000807721,-0.726238570,0.000000000,0.006324420,0.000271282,-0.639875397,0.000000000,0.000829026,0.005445115,-0.098354009
0.254000000,0.000000000,-0.000165660,-0.165796157,-0.955184280,0.000000000,-0.000740381,-0.000061327,0.211466404,0.000000000,0.004535610,0.000297666,-1.264303872,0.000000000,0.011585554,-0.002678032,-0.737343718,0.000000000,0.006312192,0.001312868,-0.633962394,0.000000000,0.000010207,0.001794333,0.004461763,0.000000000,0.000686467,0.005299903,-0.102332390,-0.047231000,-0.012222399,-0.201610716,-5.335422394,0.000000000,0.004551419,-0.000240378,-1.287407905,0.000000000,0.011593138,-0.000804508,-0.726640909,0.000000000,0.006324999,0.000289204,-0.639948805,0.000000000,0.000839898,0.005436030,-0.099265941
0.256000000,0.000000000,0.000165872,0.165766414,0.955235371,0.000000000,-0.000740476,-0.000047511,0.211836660,0.000000000,0.004533497,-0.001056749,-1.295957414,0.000000000,0.011587135,0.000790530,-0.712766102,0.000000000,0.006309588,-0.001302141,-0.641674176,0.000000000,0.000006599,-0.001804127,-0.006132890,0.000000000,0.000697071,0.005302130,-0.103142818,-0.048179999,-0.012634320,-0.205960260,-5.390786853,0.000000000,0.004550927,-0.000245823,-1.288280830,0.000000000,0.011591671,-0.000733424,-0.726562119,0.000000000,0.006325591,0.000296125,-0.640058214,0.000000000,0.000850628,0.005364974,-0.100338896
0.258000000,0.000000000,-0.000165694,-0.165783349,-0.955089786,0.000000000,-0.000740600,-0.000062221,0.211551174,0.000000000,0.004534166,0.000334834,-1.264721159,0.000000000,0.011581896,-0.002619504,-0.737520510,0.000000000,0.006312221,0.001316774,-0.633976504,0.000000000,0.000010187,0.001793958,0.004462199,0.000000000,0.000707553,0.005240983,-0.104285742,-0.049137998,-0.013054960,-0.210320092,-5.445066426,0.000000000,0.004550524,-0.000201513,-1.288017926,0.000000000,0.011590211,-0.000730103,-0.726974728,0.000000000,0.006326220,0.000314323,-0.640137746,0.000000000,0.000861336,0.005354105,-0.101221307
0.260000000,0.000000000,0.000165814,0.165754119,0.955166554,0.000000000,-0.000740697,-0.000048369,0.211919263,0.000000000,0.004532127,-0.001019703,-1.296387718,0.000000000,0.011583594,0.000848551,-0.712951070,0.000000000,0.006309625,-0.001298083,-0.641688239,0.000000000,0.000006580,-0.001803597,-0.006129770,0.000000000,0.000718030,0.005238610,-0.105057247,-0.050106000,-0.013484444,-0.214742258,-5.499193053,0.000000000,0.004550109,-0.000207268,-1.288905610,0.000000000,0.011588893,-0.000658926,-0.726906098,0.000000000,0.006326863,0.000321592,-0.640253017,0.000000000,0.000871894,0.005279086,-0.102272631
0.262000000,0.000000000,-0.000165734,-0.165774072,-0.955014024,0.000000000,-0.000740823,-0.000062945,0.211633444,0.000000000,0.004532870,0.000371523,-1.265169759,0.000000000,0.011578471,-0.002561475,-0.737709201,0.000000000,0.006312266,0.001320582,-0.633991818,0.000000000,0.000010167,0.001793617,0.004462639,0.000000000,0.000728376,0.005172844,-0.106160618,-0.051084001,-0.013922790,-0.219172993,-5.552238899,0.000000000,0.004549783,-0.000163312,-1.288657612,0.000000000,0.011587582,-0.000655531,-0.727328786,0.000000000,0.006327543,0.000340166,-0.640338686,0.000000000,0.000882422,0.005264002,-0.103126414
0.264000000,0.000000000,0.000165757,0.165745693,0.955118342,0.000000000,-0.000740921,-0.000049066,0.211998927,0.000000000,0.004530904,-0.000983186,-1.296849113,0.000000000,0.011580283,0.000906110,-0.713147145,0.000000000,0.006309678,-0.001294179,-0.641703611,0.000000000,0.000006561,-0.001803102,-0.006126783,0.000000000,0.000738708,0.005165887,-0.106891477,-0.052071001,-0.014370120,-0.223664825,-5.605414190,0.000000000,0.004549444,-0.000169400,-1.289559011,0.000000000,0.011586413,-0.000584315,-0.727270102,0.000000000,0.006328239,0.000347702,-0.640460251,0.000000000,0.000892795,0.005186271,-0.104147541
0.266000000,0.000000000,-0.000165781,-0.165768896,-0.954960327,0.000000000,-0.000741048,-0.000063521,0.211712903,0.000000000,0.004531719,0.000407693,-1.265648025,0.000000000,0.011575275,-0.002504022,-0.737909203,0.000000000,0.006312326,0.001324296,-0.634008255,0.000000000,0.000010147,0.001793329,0.004463149,0.000000000,0.000748899,0.005095600,-0.107953418,-0.053068001,-0.014826447,-0.228163391,-5.657212275,0.000000000,0.004549192,-0.000125840,-1.289324994,0.000000000,0.011585251,-0.000580876,-0.727702488,0.000000000,0.006328972,0.000366604,-0.640551957,0.000000000,0.000903130,0.005167514,-0.104974854
0.268000000,0.000000000,0.000165703,0.165741708,0.955094019,0.000000000,-0.000741147,-0.000049605,0.212075960,0.000000000,0.004529825,-0.000947245,-1.297340072,0.000000000,0.011577201,0.000963144,-0.713353654,0.000000000,0.006309746,-0.001290436,-0.641720257,0.000000000,0.000006542,-0.001802647,-0.006123989,0.000000000,0.000759067,0.005084114,-0.108642246,-0.054074001,-0.015291890,-0.232721340,-5.709142705,0.000000000,0.004548928,-0.000132294,-1.290238733,0.000000000,0.011584232,-0.000509658,-0.727653551,0.000000000,0.006329721,0.000374438,-0.640679797,0.000000000,0.000913302,0.005086046,-0.105966038
0.270000000,0.000000000,-0.000165834,-0.165768385,-0.954931993,0.000000000,-0.000741275,-0.000063947,0.211789395,0.000000000,0.004530711,0.000443302,-1.266154248,0.000000000,0.011572307,-0.002447219,-0.738119942,0.000000000,0.006312401,0.001327916,-0.634025741,0.000000000,0.000010128,0.001793092,0.004463741,0.000000000,0.000769086,0.005009324,-0.109661143,-0.055091001,-0.015766458,-0.237284337,-5.759697094,0.000000000,0.004548749,-0.000089159,-1.290017549,0.000000000,0.011583220,-0.000506220,-0.728095386,0.000000000,0.006330508,0.000393637,-0.640777753,0.000000000,0.000923429,0.005063762,-0.106762467
0.272000000,0.000000000,0.000165652,0.165742719,0.955096818,0.000000000,-0.000741375,-0.000050005,0.212150138,0.000000000,0.004528887,-0.000911922,-1.297859037,0.000000000,0.011574346,0.001019593,-0.713569928,0.000000000,0.006309828,-0.001286857,-0.641738125,0.000000000,0.000006524,-0.001802229,-0.006121383,0.000000000,0.000779073,0.004993441,-0.110306113,-0.056116000,-0.016250269,-0.241905435,-5.810670206,0.000000000,0.004548557,-0.000096008,-1.290942537,0.000000000,0.011582350,-0.000435053,-0.728055871,0.000000000,0.006331311,0.000401685,-0.640911902,0.000000000,0.000933390,0.004980301,-0.107722651
0.274000000,0.000000000,-0.000165895,-0.165773080,-0.954932242,0.000000000,-0.000741504,-0.000064241,0.211863222,0.000000000,0.004529844,0.000478313,-1.266686797,0.000000000,0.011569564,-0.002391134,-0.738340831,0.000000000,0.006312491,0.001331448,-0.634044215,0.000000000,0.000010110,0.001792926,0.004464398,0.000000000,0.000788901,0.004914374,-0.111280820,-0.057151001,-0.016743328,-0.246529705,-5.859975535,0.000000000,0.004548451,-0.000053322,-1.290733049,0.000000000,0.011581486,-0.000431676,-0.728506766,0.000000000,0.006332154,0.000421182,-0.641015977,0.000000000,0.000943300,0.004955085,-0.108492040
0.276000000,0.000000000,0.000165604,0.165749260,0.955129842,0.000000000,-0.000741604,-0.000050250,0.212221739,0.000000000,0.004528089,-0.000877263,-1.298404448,0.000000000,0.011571714,0.001075401,-0.713795311,0.000000000,0.006309924,-0.001283454,-0.641757181,0.000000000,0.000006506,-0.001801876,-0.006119032,0.000000000,0.000798690,0.004894174,-0.111881361,-0.058196001,-0.017245748,-0.251209939,-5.909423399,0.000000000,0.004548329,-0.000060589,-1.291668245,0.000000000,0.011580765,-0.000360595,-0.728476235,0.000000000,0.006333013,0.000429533,-0.641156538,0.000000000,0.000953035,0.004867301,-0.109421923
0.278000000,0.000000000,-0.000165963,-0.165783505,-0.954964154,0.000000000,-0.000741733,-0.000064399,0.211933848,0.000000000,0.004529115,0.000512690,-1.267243965,0.000000000,0.011567043,-0.002335836,-0.738571300,0.000000000,0.006312593,0.001334891,-0.634063590,0.000000000,0.000010092,0.001792820,0.004465204,0.000000000,0.000808311,0.004810877,-0.112810490,-0.059250001,-0.017757533,-0.255892220,-5.957786809,0.000000000,0.004548293,-0.000018375,-1.291469415,0.000000000,0.011580050,-0.000357333,-0.728935928,0.000000000,0.006333911,0.000449229,-0.641267101,0.000000000,0.000962716,0.004840519,-0.110156181
0.280000000,0.000000000,0.000165561,0.165761842,0.955196092,0.000000000,-0.000741834,-0.000050373,0.212290504,0.000000000,0.004527428,-0.000843303,-1.298974772,0.000000000,0.011569304,0.001130513,-0.714029138,0.000000000,0.006310033,-0.001280228,-0.641777367,0.000000000,0.000006489,-0.001801570,-0.006116899,0.000000000,0.000817885,0.004786583,-0.113365048,-0.060313001,-0.018278790,-0.260628637,-6.006000404,0.000000000,0.004548241,-0.000026094,-1.292413827,0.000000000,0.011579478,-0.000286384,-0.728913971,0.000000000,0.006334827,0.000457785,-0.641413902,0.000000000,0.000972216,0.004750388,-0.111058453
0.282000000,0.000000000,-0.000166040,-0.165800149,-0.955030685,0.000000000,-0.000741962,-0.000064422,0.212001873,0.000000000,0.004528521,0.000546398,-1.267824152,0.000000000,0.011564741,-0.002281388,-0.738810764,0.000000000,0.006312709,0.001338247,-0.634083812,0.000000000,0.000010074,0.001792783,0.004466102,0.000000000,0.000827283,0.004699209,-0.114248087,-0.061386000,-0.018809520,-0.265364941,-6.052855158,0.000000000,0.004548272,0.000015623,-1.292224397,0.000000000,0.011578911,-0.000283270,-0.729382100,0.000000000,0.006335782,0.000477768,-0.641530758,0.000000000,0.000981656,0.004719916,-0.111762407
0.284000000,0.000000000,0.000165522,0.165780942,0.955298383,0.000000000,-0.000742063,-0.000050358,0.212356277,0.000000000,0.004526901,-0.000810080,-1.299568407,0.000000000,0.011567111,0.001184875,-0.714270770,0.000000000,0.006310155,-0.001277188,-0.641798634,0.000000000,0.000006471,-0.001801340,-0.006115016,0.000000000,0.000836625,0.004670869,-0.114755786,-0.062468000,-0.019349828,-0.270153857,-6.099862011,0.000000000,0.004548287,0.000007436,-1.293176871,0.000000000,0.011578486,-0.000212504,-0.729368442,0.000000000,0.006336755,0.000486495,-0.641684141,0.000000000,0.000990911,0.004627419,-0.112629813
0.286000000,0.000000000,-0.000166125,-0.165823474,-0.955134602,0.000000000,-0.000742192,-0.000064329,0.212066794,0.000000000,0.004528060,0.000579405,-1.268425708,0.000000000,0.011562655,-0.002227851,-0.739058647,0.000000000,0.006312838,0.001341519,-0.634104794,0.000000000,0.000010057,0.001792827,0.004467178,0.000000000,0.000845784,0.004579569,-0.115591278,-0.063559003,-0.019899710,-0.274940992,-6.145514656,0.000000000,0.004548384,0.000048626,-1.292995920,0.000000000,0.011578067,-0.000209584,-0.729844604,0.000000000,0.006337769,0.000506654,-0.641807287,0.000000000,0.001000101,0.004595043,-0.113302183
0.288000000,0.000000000,0.000165489,0.165807003,0.955439355,0.000000000,-0.000742292,-0.000050219,0.212419382,0.000000000,0.004526504,-0.000777631,-1.300183867,0.000000000,0.011565132,0.001238438,-0.714519552,0.000000000,0.006310289,-0.001274338,-0.641820942,0.000000000,0.000006455,-0.001801178,-0.006113423,0.000000000,0.000854879,0.004547355,-0.116051262,-0.064658999,-0.020459267,-0.279778642,-6.191045514,0.000000000,0.004548464,0.000039942,-1.293955223,0.000000000,0.011577789,-0.000139034,-0.729838882,0.000000000,0.006338800,0.000515566,-0.641967009,0.000000000,0.001009100,0.004499453,-0.114138933
0.290000000,0.000000000,-0.000166219,-0.165853902,-0.955278465,0.000000000,-0.000742420,-0.000064109,0.212128763,0.000000000,0.004527728,0.000611682,-1.269046993,0.000000000,0.011560781,-0.002175283,-0.739314382,0.000000000,0.006312979,0.001344708,-0.634126476,0.000000000,0.000010041,0.001792945,0.004468406,0.000000000,0.000863783,0.004452181,-0.116838516,-0.065768003,-0.021028492,-0.284612565,-6.235239799,0.000000000,0.004548625,0.000080583,-1.293781506,0.000000000,0.011577516,-0.000136348,-0.730322787,0.000000000,0.006339871,0.000535918,-0.642096558,0.000000000,0.001018028,0.004464023,-0.114776645
0.292000000,0.000000000,0.000165462,0.165840428,0.955621419,0.000000000,-0.000742520,-0.000049955,0.212479399,0.000000000,0.004526236,-0.000745986,-1.300819591,0.000000000,0.011563364,0.001291153,-0.714774851,0.000000000,0.006310436,-0.001271685,-0.641844231,0.000000000,0.000006438,-0.001801099,-0.006112093,0.000000000,0.000872615,0.004416115,-0.117249444,-0.066886999,-0.021607482,-0.289495127,-6.279330744,0.000000000,0.004548768,0.000071373,-1.294746577,0.000000000,0.011577384,-0.000066046,-0.730324652,0.000000000,0.006340961,0.000544944,-0.642262742,0.000000000,0.001026759,0.004365578,-0.115578230
0.294000000,0.000000000,-0.000166321,-0.165891810,-0.955464610,0.000000000,-0.000742648,-0.000063787,0.212187642,0.000000000,0.004527522,0.000643201,-1.269686425,0.000000000,0.011559116,-0.002123740,-0.739577391,0.000000000,0.006313131,0.001347820,-0.634148781,0.000000000,0.000010025,0.001793160,0.004469830,0.000000000,0.000881250,0.004317218,-0.117986936,-0.068014003,-0.022196227,-0.294372468,-6.322385788,0.000000000,0.004548991,0.000111439,-1.294578828,0.000000000,0.011577257,-0.000063645,-0.730816018,0.000000000,0.006342092,0.000565386,-0.642398554,0.000000000,0.001035417,0.004328930,-0.116180765
0.296000000,0.000000000,0.000165442,0.165881570,0.955846744,0.000000000,-0.000742747,-0.000049589,0.212536773,0.000000000,0.004526092,-0.000715175,-1.301474091,0.000000000,0.011561802,0.001342976,-0.715036037,0.000000000,0.006310593,-0.001269225,-0.641868466,0.000000000,0.000006423,-0.001801088,-0.006111099,0.000000000,0.000889805,0.004277561,-0.118348034,-0.069150999,-0.022794820,-0.299296405,-6.365062838,0.000000000,0.004549194,0.000101686,-1.295548454,0.000000000,0.011577269,0.000006349,-0.730825042,0.000000000,0.006343241,0.000574516,-0.642570951,0.000000000,0.001043874,0.004228300,-0.116951582
0.298000000,0.000000000,-0.000166433,-0.165937522,-0.955695085,0.000000000,-0.000742874,-0.000063357,0.212243808,0.000000000,0.004527440,0.000673936,-1.270342419,0.000000000,0.011557656,-0.002073273,-0.739847112,0.000000000,0.006313294,0.001350854,-0.634171661,0.000000000,0.000010009,0.001793462,0.004471402,0.000000000,0.000898155,0.004175139,-0.119035681,-0.070295997,-0.023403246,-0.304213200,-6.406726690,0.000000000,0.004549476,0.000141169,-1.295385653,0.000000000,0.011577286,0.000008407,-0.731323367,0.000000000,0.006344431,0.000595092,-0.642713035,0.000000000,0.001052253,0.004189554,-0.117520157
0.300000000,0.000000000,0.000165428,0.165930727,0.956117174,0.000000000,-0.000742972,-0.000049114,0.212591251,0.000000000,0.004526069,-0.000685226,-1.302145835,0.000000000,0.011560443,0.001393862,-0.715302498,0.000000000,0.006310760,-0.001266967,-0.641893593,0.000000000,0.000006407,-0.001801172,-0.006110418,0.000000000,0.000906419,0.004132041,-0.119346559,-0.071450002,-0.024021596,-0.309174754,-6.448031421,0.000000000,0.004549738,0.000130860,-1.296358971,0.000000000,0.011577442,0.000078044,-0.731339052,0.000000000,0.006345640,0.000604283,-0.642891819,0.000000000,0.001060427,0.004087022,-0.118256839
0.302000000,0.000000000,-0.000166554,-0.165991313,-0.955971623,0.000000000,-0.000743098,-0.000062819,0.212296998,0.000000000,0.004527477,0.000703862,-1.271013425,0.000000000,0.011556395,-0.002023930,-0.740122978,0.000000000,0.006313468,0.001353810,-0.634195036,0.000000000,0.000009995,0.001793848,0.004473199,0.000000000,0.000914471,0.004026182,-0.119983723,-0.072613001,-0.024649850,-0.314126918,-6.488063582,0.000000000,0.004550077,0.000169730,-1.296200175,0.000000000,0.011577602,0.000079737,-0.731843894,0.000000000,0.006346890,0.000624967,-0.643040093,0.000000000,0.001068518,0.004045340,-0.118791450
0.304000000,0.000000000,0.000165422,0.165988152,0.956434279,0.000000000,-0.000743195,-0.000048534,0.212642717,0.000000000,0.004526165,-0.000656163,-1.302833327,0.000000000,0.011559283,0.001443770,-0.715573632,0.000000000,0.006310938,-0.001264913,-0.641919550,0.000000000,0.000006392,-0.001801349,-0.006110033,0.000000000,0.000922431,0.003979715,-0.120243408,-0.073785000,-0.025288094,-0.319122193,-6.528049048,0.000000000,0.004550395,0.000158841,-1.297175873,0.000000000,0.011577900,0.000148984,-0.731865999,0.000000000,0.006348158,0.000634147,-0.643225222,0.000000000,0.001076400,0.003941200,-0.119490631
0.306000000,0.000000000,-0.000166685,-0.166053405,-0.956295686,0.000000000,-0.000743319,-0.000062198,0.212347193,0.000000000,0.004527631,0.000732959,-1.271697901,0.000000000,0.011555331,-0.001975757,-0.740404431,0.000000000,0.006313652,0.001356695,-0.634218843,0.000000000,0.000009981,0.001794342,0.004475217,0.000000000,0.000930172,0.003870617,-0.120829049,-0.074965000,-0.025936307,-0.324106274,-6.566777917,0.000000000,0.004550789,0.000197081,-1.297019866,0.000000000,0.011578200,0.000150256,-0.732377027,0.000000000,0.006349468,0.000654841,-0.643379499,0.000000000,0.001084197,0.003898401,-0.119991195
0.308000000,0.000000000,-0.000165423,0.000630885,0.956799317,0.000000000,-0.000743415,-0.000047860,0.212691617,0.000000000,0.004526375,-0.000628011,-1.303535125,0.000000000,0.011558317,0.001492661,-0.715848839,0.000000000,0.006311126,-0.001263063,-0.641946304,0.000000000,0.000006378,-0.001801614,-0.006110021,0.000000000,0.000937814,0.003821004,-0.121037254,-0.076154001,-0.026594569,-0.329131269,-6.605201075,0.000000000,0.004551161,0.000185595,-1.297996864,0.000000000,0.011578638,0.000219068,-0.732405052,0.000000000,0.006350796,0.000664032,-0.643570696,0.000000000,0.001091781,0.003791986,-0.120657503
0.310000000,0.000000000,0.000166730,0.166076701,0.014065127,0.000000000,-0.000743994,-0.000289301,0.212394526,0.000000000,0.004525399,-0.000487802,-1.272394330,0.000000000,0.011560370,0.001026850,-0.740690921,0.000000000,0.006310154,-0.000485646,-0.634243028,0.000000000,0.000006794,0.000208293,0.004477440,0.000000000,0.000945256,0.003721114,-0.121571271,-0.077352002,-0.027262869,-0.334149819,-6.642400439,0.000000000,0.004551594,0.000216618,-1.297842579,0.000000000,0.011579093,0.000227495,-0.732921841,0.000000000,0.006352171,0.000687723,-0.643731046,0.000000000,0.001099263,0.003740947,-0.121121438
0.312000000,0.000000000,0.000165483,-0.000623742,-0.956935893,0.000000000,-0.000744197,-0.000101799,0.218020122,0.000000000,0.004527251,0.000926186,-1.275288420,0.000000000,0.011555699,-0.002335853,-0.737509662,0.000000000,0.006313854,0.001849793,-0.636355062,0.000000000,0.000010666,0.001936127,-0.001278826,0.000000000,0.000952507,0.003625345,-0.121799672,-0.078557998,-0.027941230,-0.339180531,-6.679450876,0.000000000,0.004552054,0.000230029,-1.298667433,0.000000000,0.011579621,0.000263974,-0.733010480,0.000000000,0.006353552,0.000690563,-0.643937409,0.000000000,0.001106590,0.003663576,-0.121732494
0.314000000,0.000000000,-0.000166808,-0.166145183,-0.014111882,0.000000000,-0.000743802,0.000197338,0.213836893,0.000000000,0.004528767,0.000757752,-1.307797929,0.000000000,0.011552373,-0.001662792,-0.713312476,0.000000000,0.006315508,0.000827006,-0.643368614,0.000000000,0.000009666,-0.000500072,-0.006582408,0.000000000,0.000959630,0.003561331,-0.122030967,-0.079773001,-0.028629701,-0.344235569,-6.715638716,0.000000000,0.004552513,0.000229519,-1.299101545,0.000000000,0.011580252,0.000315121,-0.733303123,0.000000000,0.006354967,0.000707448,-0.644085066,0.000000000,0.001113717,0.003563509,-0.122253046
0.316000000,0.000000000,-0.000165447,0.000680099,0.957331401,0.000000000,-0.000743781,0.000010789,0.206958539,0.000000000,0.004527440,-0.000663189,-1.304418892,0.000000000,0.011556064,0.001845570,-0.717886538,0.000000000,0.006312220,-0.001643844,-0.640627994,0.000000000,0.000005534,-0.002065972,0.000444786,0.000000000,0.000966603,0.003486819,-0.122428184,-0.080995999,-0.029328308,-0.349303587,-6.750962977,0.000000000,0.004552996,0.000241658,-1.299220469,0.000000000,0.011580943,0.000345634,-0.733706485,0.000000000,0.006356436,0.000734215,-0.644276069,0.000000000,0.001120705,0.003494113,-0.122688849
0.318000000,0.000000000,0.000166564,0.166005847,0.013789411,0.000000000,-0.000744375,-0.000297295,0.211171946,0.000000000,0.004526465,-0.000487942,-1.271901633,0.000000000,0.011558617,0.001276374,-0.743057125,0.000000000,0.006310832,-0.000694102,-0.633271097,0.000000000,0.000006444,0.000454796,0.005314234,0.000000000,0.000973360,0.003378183,-0.122750151,-0.082226999,-0.030037043,-0.354367362,-6.785384921,0.000000000,0.004553527,0.000265539,-1.299632429,0.000000000,0.011581669,0.000363236,-0.733967034,0.000000000,0.006357927,0.000745435,-0.644500573,0.000000000,0.001127583,0.003439007,-0.123197821
0.320000000,0.000000000,-0.000165478,-0.166021134,-0.956517520,0.000000000,-0.000744607,-0.000115624,0.218309511,0.000000000,0.004528355,0.000945184,-1.275588151,0.000000000,0.011554321,-0.002147787,-0.739172524,0.000000000,0.006314303,0.001735285,-0.635830914,0.000000000,0.000010658,0.002107204,-0.001944239,0.000000000,0.000979916,0.003278001,-0.122855993,-0.083466999,-0.030755916,-0.359436528,-6.819298646,0.000000000,0.004554080,0.000276452,-1.300323563,0.000000000,0.011582470,0.000400239,-0.734138039,0.000000000,0.006359423,0.000747964,-0.644683147,0.000000000,0.001134282,0.003349719,-0.123736278
0.322000000,0.000000000,0.000166610,0.166044075,0.956488176,0.000000000,-0.000744677,-0.000034978,0.214266035,0.000000000,0.004527433,-0.000460772,-1.308541350,0.000000000,0.011557205,0.001441581,-0.714562254,0.000000000,0.006312150,-0.001076298,-0.643088415,0.000000000,0.000006565,-0.002046648,-0.007067962,0.000000000,0.000986359,0.003221866,-0.122988282,-0.084715001,-0.031484984,-0.364534001,-6.852766926,0.000000000,0.004554618,0.000268690,-1.300727561,0.000000000,0.011583383,0.000456799,-0.734451614,0.000000000,0.006360961,0.000769255,-0.644841522,0.000000000,0.001140763,0.003240070,-0.124159514
0.324000000,0.000000000,-0.000165491,-0.166050359,-0.956738590,0.000000000,-0.000744762,-0.000042465,0.212461786,0.000000000,0.004529235,0.000900998,-1.276478081,0.000000000,0.011553392,-0.001906290,-0.740257600,0.000000000,0.006315035,0.001442752,-0.634877533,0.000000000,0.000009836,0.001635485,0.005155128,0.000000000,0.000992558,0.003099247,-0.123357685,-0.085970998,-0.032224212,-0.369614036,-6.884971595,0.000000000,0.004555228,0.000305121,-1.300704737,0.000000000,0.011584291,0.000453987,-0.734911353,0.000000000,0.006362541,0.000789960,-0.645057541,0.000000000,0.001147162,0.003199464,-0.124502697
