sainanliu129-hub/model/applications/Body_GravityPara_Iden/data/excitation/PD-M1-v0_multi_joint_20260305-195729_real_run.csv
time,cmd_leg_l1_joint,pos_leg_l1_joint,vel_leg_l1_joint,torque_leg_l1_joint,cmd_leg_l2_joint,pos_leg_l2_joint,vel_leg_l2_joint,torque_leg_l2_joint,cmd_leg_l3_joint,pos_leg_l3_joint,vel_leg_l3_joint,torque_leg_l3_joint,cmd_leg_l4_joint,pos_leg_l4_joint,vel_leg_l4_joint,torque_leg_l4_joint,cmd_leg_l5_joint,pos_leg_l5_joint,vel_leg_l5_joint,torque_leg_l5_joint,cmd_leg_l6_joint,pos_leg_l6_joint,vel_leg_l6_joint,torque_leg_l6_joint,cmd_leg_r1_joint,pos_leg_r1_joint,vel_leg_r1_joint,torque_leg_r1_joint,cmd_leg_r2_joint,pos_leg_r2_joint,vel_leg_r2_joint,torque_leg_r2_joint,cmd_leg_r3_joint,pos_leg_r3_joint,vel_leg_r3_joint,torque_leg_r3_joint,cmd_leg_r4_joint,pos_leg_r4_joint,vel_leg_r4_joint,torque_leg_r4_joint,cmd_leg_r5_joint,pos_leg_r5_joint,vel_leg_r5_joint,torque_leg_r5_joint,cmd_leg_r6_joint,pos_leg_r6_joint,vel_leg_r6_joint,torque_leg_r6_joint
0.000000000,0.000000000,-0.003623962,0.004396439,0.550662231,0.000000000,0.003623962,-0.057142258,-1.120880127,-0.006823000,-0.006294250,0.030769348,-1.419790649,0.424885005,0.314526558,0.426374435,4.029296875,-0.396259993,-0.369458515,-0.355881154,-1.487741950,0.000000000,-0.002633476,-0.061135133,0.084911469,0.000000000,-0.003623962,-0.039560318,0.550662231,0.000000000,0.001335144,-0.013187408,0.523086548,0.065402001,0.054360390,-0.013187408,3.960433960,0.276596010,0.183299065,0.197801590,3.589752197,-0.291951001,-0.263443841,-0.294437395,-2.082817414,0.000000000,-0.000856190,0.137316276,0.265997666
0.001999820,-0.000031000,-0.003623962,0.004396439,0.550662231,0.000016000,0.003623962,0.013187408,-2.316494751,-0.006821000,-0.006294250,0.030769348,-1.419790649,0.424870014,0.316052437,0.399999619,2.710632324,-0.396315992,-0.370031173,-0.355902735,-1.686094559,0.000000000,-0.001313820,-0.060997819,0.171290333,-0.000017000,-0.003623962,0.013187408,0.550662231,-0.000004000,0.001335144,-0.013187408,-1.718673706,0.065428004,0.054360390,0.065933228,2.764846802,0.276553988,0.184062004,0.197801590,3.443237305,-0.291940987,-0.264206528,-0.303221189,-1.785276728,0.000004000,-0.000856328,0.117714295,0.221604054
0.003999639,-0.000061000,-0.004005432,-0.013187408,0.330416107,0.000031000,0.003623962,-0.021978378,-1.419790649,-0.006816000,-0.006294250,-0.057142258,-0.672528076,0.424854010,0.316433907,0.329669952,3.882781982,-0.396375000,-0.370984382,-0.364703471,-1.487765442,0.000000000,-0.001754274,-0.020490258,0.171133249,-0.000034000,-0.003623962,-0.004396439,0.330416107,-0.000010000,0.001335144,-0.004396439,-1.270321655,0.065458000,0.054360390,0.021978378,2.914288330,0.276510000,0.184443474,0.180219650,3.443237305,-0.291929990,-0.264778582,-0.298819753,-1.586861509,0.000007000,-0.000430494,0.166862035,0.132993268
0.005999459,-0.000091000,-0.003623962,0.030769348,0.330416107,0.000045000,0.003623962,-0.048351288,-1.270321655,-0.006810000,-0.006294250,0.013187408,-0.224176025,0.424836993,0.317196846,0.285715103,3.296691895,-0.396436006,-0.371556192,-0.377888950,-1.487848758,0.000000000,-0.002194768,-0.010407340,0.256826309,-0.000051000,-0.003623962,-0.021978378,0.550662231,-0.000016000,0.001335144,0.030769348,-0.523086548,0.065490000,0.054360390,0.065933228,4.109902954,0.276464999,0.184443474,0.153846741,3.736267090,-0.291918993,-0.265350591,-0.303195653,-1.289315092,0.000010000,-0.000004510,0.137472477,0.088761438
0.007999279,-0.000120000,-0.003623962,0.004396439,0.550662231,0.000057000,0.003623962,-0.013187408,-2.017584229,-0.006802000,-0.006294250,-0.004396439,-0.672528076,0.424820006,0.317578316,0.276922226,3.589752197,-0.396499991,-0.372318888,-0.408630078,-1.487930348,0.000000000,-0.002195218,-0.040879803,0.342652092,-0.000069000,-0.003623962,-0.013187408,0.550662231,-0.000024000,0.001335144,-0.101099014,-0.523086548,0.065523997,0.054360390,0.004396439,3.063729858,0.276419014,0.184824944,0.171428680,3.443237305,-0.291909009,-0.266113278,-0.311983686,-1.586844135,0.000013000,-0.000004451,0.137504288,0.044370468
0.009999099,-0.000148000,-0.003623962,0.039560318,0.550662231,0.000069000,0.003623962,0.013187408,-1.569232178,-0.006792000,-0.006294250,-0.039560318,-0.224176025,0.424802989,0.318341255,0.250549316,4.029296875,-0.396566004,-0.373272470,-0.408672972,-1.388729872,0.000000000,-0.001755310,0.040383681,0.385697050,-0.000088000,-0.003623962,0.021978378,0.550662231,-0.000033000,0.001335144,0.030769348,-0.971438599,0.065560997,0.054360390,-0.013187408,3.063729858,0.276371002,0.185206413,0.162637711,3.882781982,-0.291898012,-0.266685241,-0.333939870,-1.487667710,0.000015000,0.000421781,0.127748504,0.000161818
0.011998918,-0.000176000,-0.003623962,0.013187408,0.550662231,0.000079000,0.003623962,-0.065933228,-1.569232178,-0.006781000,-0.006294250,-0.013187408,-0.224176025,0.424784988,0.318722725,0.320878983,3.736267090,-0.396634012,-0.374035166,-0.399884005,-1.686283467,0.000000000,-0.001755657,0.040395981,0.428380504,-0.000106000,-0.003623962,0.013187408,0.550662231,-0.000043000,0.001335144,0.030769348,-2.316494751,0.065600999,0.054360390,0.021978378,3.512081909,0.276322007,0.185587883,0.162637711,4.322357178,-0.291887999,-0.267447929,-0.338340177,-1.388497007,0.000017000,0.000421939,0.078649213,-0.044201226
0.013998738,-0.000202000,-0.003623962,0.004396439,0.770939636,0.000089000,0.003623962,0.004396439,-2.167025757,-0.006769000,-0.006294250,-0.004396439,-1.270321655,0.424766988,0.319485664,0.347251892,3.589752197,-0.396703988,-0.374797863,-0.399894489,-1.686236133,0.000000000,-0.001756003,0.060721256,0.342465225,-0.000125000,-0.003623962,0.030769348,0.770939636,-0.000055000,0.001335144,-0.048351288,-0.074734497,0.065641999,0.054360390,0.021978378,2.914288330,0.276271999,0.185969353,0.180219650,3.589752197,-0.291877002,-0.268019847,-0.338331590,-1.586878382,0.000018000,0.000848419,0.078706889,-0.132688057
0.015998558,-0.000228000,-0.003623962,0.013187408,0.770939636,0.000097000,0.003623962,0.021978378,-1.868142700,-0.006755000,-0.006294250,-0.004396439,-0.523086548,0.424748003,0.320248604,0.399999619,4.175811768,-0.396777004,-0.375560560,-0.408682502,-1.785389105,0.000000000,-0.001756351,0.060730935,0.299440191,-0.000145000,-0.003623962,0.030769348,0.550662231,-0.000067000,0.001335144,0.004396439,-0.523086548,0.065686002,0.054741859,0.074726105,3.063729858,0.276219994,0.186350822,0.145055771,3.589752197,-0.291866988,-0.268973063,-0.325162464,-1.487702128,0.000019000,0.001275227,0.009956030,-0.088176844
0.017998378,-0.000252000,-0.003623962,0.030769348,0.991217041,0.000104000,0.003623962,-0.048351288,-1.270321655,-0.006740000,-0.006294250,-0.057142258,-0.821969604,0.424728990,0.321011543,0.452747345,3.003662109,-0.396851003,-0.376323257,-0.369139330,-1.785436729,0.000000000,-0.001756699,0.070928986,0.385137989,-0.000164000,-0.003623962,-0.013187408,0.770939636,-0.000080000,0.001335144,0.013187408,-0.373617554,0.065732002,0.054741859,0.074726105,3.063729858,0.276167989,0.186732292,0.180219650,3.589752197,-0.291855991,-0.269545370,-0.351530805,-1.487667525,0.000020000,-0.000004190,-0.049161021,-0.088648375
0.019998197,-0.000276000,-0.003623962,-0.004396439,0.550662231,0.000111000,0.003623962,-0.065933228,-1.419790649,-0.006724000,-0.006294250,-0.013187408,0.074734497,0.424708992,0.321774483,0.435165405,3.296691895,-0.396926999,-0.377085954,-0.355924843,-1.785389352,0.000000000,-0.001757047,-0.000197221,0.299294904,-0.000184000,-0.003623962,0.030769348,0.550662231,-0.000093000,0.001335144,-0.048351288,-1.569232178,0.065779001,0.054741859,0.039560318,3.213198853,0.276113987,0.187113762,0.180219650,3.443237305,-0.291846007,-0.270498679,-0.360326344,-1.785202413,0.000021000,0.000422565,-0.068797825,-0.044116408
0.021998017,-0.000298000,-0.003623962,-0.013187408,0.330416107,0.000116000,0.003623962,-0.004396439,-2.017584229,-0.006707000,-0.006294250,-0.004396439,-0.971438599,0.424688995,0.322537422,0.338460922,3.443237305,-0.397004992,-0.378229526,-0.342747905,-1.587026650,0.000000000,-0.002639892,0.009882193,0.213175844,-0.000205000,-0.003623962,0.013187408,0.550662231,-0.000108000,0.001335144,0.013187408,-1.419790649,0.065828003,0.054741859,-0.039560318,4.259344482,0.276059002,0.187495232,0.171428680,3.443237305,-0.291835994,-0.271070744,-0.355924837,-1.884373051,0.000022000,-0.000004077,-0.118037573,0.000000205
0.023997837,-0.000319000,-0.003623962,0.013187408,0.991217041,0.000121000,0.003623962,-0.013187408,-2.017584229,-0.006690000,-0.006294250,-0.057142258,-0.224176025,0.424668998,0.323681831,0.268131256,3.296691895,-0.397085011,-0.378992224,-0.320727624,-1.487814424,0.000000000,-0.002640453,-0.061288816,0.170344898,-0.000225000,-0.003623962,-0.030769348,0.550662231,-0.000123000,0.001335144,-0.057142258,-0.821969604,0.065879002,0.054741859,0.048351288,3.063729858,0.276003003,0.187876701,0.180219650,3.150177002,-0.291826010,-0.272214629,-0.360356325,-2.082770856,0.000022000,0.000849822,-0.167186495,-0.088130825
0.025997657,-0.000339000,-0.003623962,0.013187408,0.991217041,0.000124000,0.003623962,-0.013187408,-2.017584229,-0.006671000,-0.006294250,-0.057142258,-0.224176025,0.424647987,0.323681831,0.268131256,3.296691895,-0.397166014,-0.378992224,-0.320727624,-1.487814424,0.000000000,-0.002640453,-0.061288816,0.170344898,-0.000246000,-0.003623962,-0.030769348,0.550662231,-0.000138000,0.001335144,-0.057142258,-0.821969604,0.065931000,0.054741859,0.048351288,3.063729858,0.275945991,0.187876701,0.180219650,3.150177002,-0.291815996,-0.272214629,-0.360356325,-2.082770856,0.000022000,0.000849822,-0.167186495,-0.088130825
0.027997476,-0.000357000,-0.003623962,0.004396439,0.110138702,0.000127000,0.003623962,0.013187408,-0.971438599,-0.006653000,-0.006294250,-0.057142258,-0.224176025,0.424627006,0.325970650,0.320878983,3.736267090,-0.397249013,-0.380327697,-0.311991642,-1.190135285,0.000000000,0.000448700,-0.081352281,0.042972658,-0.000267000,-0.003623962,0.039560318,0.550662231,-0.000154000,0.001335144,-0.013187408,-0.224176025,0.065985002,0.055123329,0.013187408,3.661550903,0.275887996,0.189784050,0.171428680,3.443237305,-0.291806012,-0.275074850,-0.263648712,-1.686020256,0.000022000,-0.000431071,0.009813664,-0.000184227
0.029997296,-0.000374000,-0.003623962,0.030769348,0.550662231,0.000129000,0.003623962,0.039560318,-1.569232178,-0.006634000,-0.006294250,0.013187408,0.373617554,0.424605995,0.326733589,0.391208649,4.175811768,-0.397332996,-0.382043019,-0.290005443,-1.289390039,0.000000000,-0.002642709,-0.010422384,0.084702972,-0.000289000,-0.003623962,-0.021978378,0.330416107,-0.000170000,0.001335144,-0.013187408,-1.569232178,0.066040002,0.055123329,-0.013187408,3.362640381,0.275828987,0.190165520,0.153846741,3.882781982,-0.291795999,-0.275646818,-0.232901486,-1.785208212,0.000023000,-0.000858458,0.059040724,0.043851737
0.031997116,-0.000390000,-0.003623962,0.021978378,0.991217041,0.000130000,0.003623962,-0.021978378,-0.523086548,-0.006614000,-0.006294250,-0.004396439,-0.821969604,0.424584001,0.327496529,0.452747345,3.003662109,-0.397419006,-0.382805718,-0.272441927,-1.289461684,0.000000000,-0.002643276,0.009954726,0.170276194,-0.000311000,-0.003623962,0.004396439,0.770939636,-0.000187000,0.001335144,-0.021978378,-0.672528076,0.066096000,0.055123329,0.021978378,2.615377808,0.275768995,0.190165520,0.145055771,3.882781982,-0.291785985,-0.276028161,-0.232893821,-1.388548958,0.000023000,-0.000858532,0.019641272,0.220882158
0.033996936,-0.000404000,-0.003623962,-0.004396439,0.770939636,0.000130000,0.003623962,0.039560318,-1.569232178,-0.006594000,-0.006294250,-0.039560318,-0.523086548,0.424562007,0.328259468,0.426374435,3.296691895,-0.397507012,-0.383377427,-0.259320884,-0.991914088,0.000000000,-0.003085580,0.081224131,0.127548521,-0.000333000,-0.003623962,0.013187408,0.330416107,-0.000204000,0.001335144,0.030769348,-0.373617554,0.066152997,0.055123329,0.004396439,3.512081909,0.275707990,0.190546989,0.127471924,3.296691895,-0.291776001,-0.276409504,-0.206533089,-1.388548956,0.000022000,-0.000858606,0.039356934,0.220856420
0.035996755,-0.000416000,-0.003623962,0.021978378,0.110138702,0.000128000,0.003623962,-0.004396439,-1.419790649,-0.006572000,-0.006294250,-0.039560318,-0.523086548,0.424539000,0.329403877,0.303297043,3.443237305,-0.397601008,-0.383950241,-0.254893429,-1.091060438,0.000000000,-0.001760214,0.071163217,0.170612926,-0.000356000,-0.003623962,-0.004396439,0.550662231,-0.000223000,0.001335144,-0.004396439,-0.672528076,0.066214003,0.055123329,0.083517075,4.259344482,0.275644988,0.190928459,0.118680954,3.882781982,-0.291765004,-0.276790847,-0.188961346,-1.388548955,0.000019000,-0.000858680,0.059072740,0.220830682
0.037996575,-0.000428000,-0.003623962,-0.021978378,0.550662231,0.000125000,0.003623962,0.021978378,-1.718673706,-0.006546000,-0.006294250,0.030769348,-0.373617554,0.424515009,0.329785347,0.285715103,3.296691895,-0.397702008,-0.384522055,-0.224147906,-1.091144178,0.000000000,-0.002202517,0.081350056,0.256000339,-0.000379000,-0.003623962,0.021978378,0.550662231,-0.000244000,0.001335144,-0.004396439,-0.971438599,0.066279002,0.055504799,0.057142258,3.063729858,0.275579005,0.190928459,0.127471924,3.443237305,-0.291752994,-0.277172189,-0.188961351,-1.091008318,0.000012000,-0.000858754,0.059079591,0.176648300
0.039996395,-0.000438000,-0.003623962,0.004396439,0.330416107,0.000120000,0.003623962,-0.039560318,-1.868142700,-0.006518000,-0.006294250,-0.004396439,-0.672528076,0.424488991,0.330548286,0.250549316,3.589752197,-0.397810012,-0.384903405,-0.232960938,-0.991937758,0.000000000,-0.002202748,0.122112903,0.213258854,-0.000403000,-0.003623962,-0.021978378,0.770939636,-0.000267000,0.001335144,0.004396439,-0.821969604,0.066347003,0.055504799,0.013187408,3.661550903,0.275510013,0.191309929,0.118680954,3.736267090,-0.291741014,-0.277362908,-0.171375710,-1.190167424,0.000002000,-0.000431216,0.039397786,0.220965476
0.041996215,-0.000448000,-0.003623962,0.021978378,1.211463165,0.000114000,0.003623962,0.039560318,-0.672528076,-0.006487000,-0.006294250,0.013187408,0.224176025,0.424463004,0.330929756,0.215385437,3.736267090,-0.397922993,-0.385475641,-0.219758781,-0.991907788,0.000000000,-0.001760928,0.111981354,0.213337863,-0.000427000,-0.003623962,0.004396439,0.550662231,-0.000291000,0.001335144,-0.048351288,-0.672528076,0.066418998,0.055504799,-0.004396439,3.362640381,0.275438994,0.191691399,0.118680954,3.736267090,-0.291729003,-0.277744251,-0.158186113,-0.991814707,-0.000012000,-0.000431240,-0.029589379,0.220961496
0.043996034,-0.000457000,-0.003623962,-0.013187408,0.550662231,0.000107000,0.003623962,0.013187408,-2.316494751,-0.006453000,-0.005912781,0.048351288,-1.419790649,0.424436003,0.331311226,0.268131256,3.150177002,-0.398039013,-0.385856991,-0.206562343,-1.091108320,0.000000000,-0.001761107,0.081425358,0.256021147,-0.000452000,-0.003623962,-0.004396439,0.110138702,-0.000318000,0.001335144,-0.004396439,-0.971438599,0.066494003,0.055504799,0.057142258,2.167025757,0.275366008,0.192072868,0.145055771,3.736267090,-0.291716009,-0.278126070,-0.166971973,-0.793462063,-0.000028000,-0.000432335,-0.049308736,0.220957279
0.045995854,-0.000466000,-0.003623962,-0.021978378,0.991217041,0.000098000,0.003242493,-0.030769348,-0.971438599,-0.006417000,-0.005912781,-0.039560318,-0.672528076,0.424407989,0.331692696,0.276922226,3.150177002,-0.398158014,-0.386238341,-0.202153900,-1.190356554,0.000000000,-0.001761286,0.050857074,0.384195911,-0.000477000,-0.003623962,0.021978378,0.550662231,-0.000346000,0.001335144,-0.004396439,-1.270321655,0.066573001,0.055504799,0.013187408,2.914288330,0.275292009,0.192072868,0.145055771,3.589752197,-0.291703999,-0.278507890,-0.153787904,-0.991814703,-0.000047000,-0.000431291,-0.059173324,0.220910067
0.047995674,-0.000474000,-0.003623962,0.013187408,0.330416107,0.000088000,0.003242493,-0.065933228,-1.270321655,-0.006380000,-0.006294250,-0.074726105,0.523086548,0.424380004,0.332455635,0.312088013,3.443237305,-0.398279011,-0.386619691,-0.193365900,-1.190308918,0.000000000,-0.001761465,0.050868110,0.298657751,-0.000503000,-0.003623962,-0.021978378,0.110138702,-0.000375000,0.001335144,-0.074726105,-0.672528076,0.066653997,0.055504799,0.013187408,2.914288330,0.275216013,0.192454338,0.127471924,3.296691895,-0.291691989,-0.278889090,-0.158165655,-0.793554245,-0.000069000,-0.001286866,-0.069081283,0.309130603
0.049995494,-0.000482000,-0.003623962,-0.013187408,0.770939636,0.000077000,0.003623962,0.013187408,-1.270321655,-0.006340000,-0.005912781,0.039560318,-0.373617554,0.424351990,0.333218575,0.391208649,3.150177002,-0.398400992,-0.387001042,-0.197744491,-1.289461775,0.000000000,-0.001761645,0.020281621,0.255833964,-0.000529000,-0.003623962,0.039560318,0.330416107,-0.000405000,0.001335144,-0.021978378,0.074734497,0.066737004,0.055504799,0.021978378,2.167025757,0.275139987,0.192835808,0.162637711,3.296691895,-0.291680008,-0.279270432,-0.149377616,-0.892678672,-0.000093000,-0.001286991,-0.069085866,0.176480930
0.051995313,-0.000490000,-0.003623962,-0.004396439,0.770939636,0.000065000,0.003623962,0.021978378,-1.120880127,-0.006300000,-0.005912781,0.065933228,-1.270321655,0.424324006,0.333981514,0.364835739,3.150177002,-0.398521990,-0.387382392,-0.171380479,-1.190309026,0.000000000,-0.001761825,0.020298775,0.298585108,-0.000555000,-0.003623962,0.004396439,0.550662231,-0.000436000,0.001335144,0.030769348,-0.523086548,0.066822998,0.055886269,0.057142258,3.063729858,0.275063008,0.193217278,0.171428680,2.857147217,-0.291667998,-0.279651775,-0.136198808,-0.793484995,-0.000118000,-0.001287117,-0.059226841,0.132304428
0.053995133,-0.000498000,-0.003623962,0.013187408,0.330416107,0.000053000,0.003242493,0.021978378,-1.419790649,-0.006258000,-0.005912781,0.004396439,-0.523086548,0.424295992,0.334744453,0.373626709,3.003662109,-0.398642004,-0.387763742,-0.166981653,-1.289461880,0.000000000,-0.001762006,0.010105215,0.255771636,-0.000582000,-0.003623962,0.004396439,0.550662231,-0.000469000,0.001335144,0.039560318,-1.419790649,0.066910997,0.055886269,0.057142258,2.914288330,0.274984986,0.193598747,0.162637711,3.443237305,-0.291658014,-0.279842303,-0.140599288,-0.892747923,-0.000146000,-0.001715078,-0.029662879,0.264724540
0.055994953,-0.000506000,-0.003623962,-0.013187408,0.550662231,0.000040000,0.003242493,-0.039560318,-1.419790649,-0.006215000,-0.005912781,0.057142258,-1.270321655,0.424268007,0.335507393,0.294506073,3.003662109,-0.398759007,-0.388145093,-0.149395994,-1.388662461,0.000000000,-0.001762186,-0.010283138,0.298418619,-0.000608000,-0.003623962,0.021978378,0.550662231,-0.000501000,0.001335144,-0.013187408,-1.270321655,0.067001000,0.055886269,0.039560318,3.063729858,0.274908006,0.193980217,0.162637711,3.150177002,-0.291648000,-0.280033117,-0.127410771,-0.892713314,-0.000175000,-0.001287243,-0.059230279,0.264806558
0.057994773,-0.000515000,-0.003623962,0.021978378,0.110138702,0.000026000,0.003242493,-0.030769348,-1.569232178,-0.006172000,-0.005912781,0.057142258,-1.270321655,0.424239993,0.336270332,0.241758347,3.003662109,-0.398871988,-0.388335926,-0.123010554,-1.289425877,0.000000000,-0.001319710,-0.071455593,0.255878444,-0.000635000,-0.003623962,0.004396439,0.550662231,-0.000535000,0.001335144,-0.021978378,-0.523086548,0.067092001,0.055886269,0.109889984,3.063729858,0.274830997,0.194361687,0.180219650,3.443237305,-0.291639000,-0.280414460,-0.114231014,-0.892713321,-0.000205000,-0.001287369,-0.049365677,0.264775693
0.059994592,-0.000524000,-0.003623962,-0.021978378,0.991217041,0.000012000,0.003242493,-0.013187408,-1.419790649,-0.006128000,-0.005912781,-0.013187408,0.224176025,0.424214005,0.336651802,0.224176407,3.443237305,-0.398979992,-0.388716908,-0.096604461,-1.388644927,0.000000000,-0.002205079,-0.112289324,0.212764227,-0.000662000,-0.003623962,0.021978378,0.550662231,-0.000568000,0.001335144,-0.057142258,-0.821969604,0.067184001,0.055886269,0.039560318,3.213198853,0.274753988,0.194743156,0.180219650,3.296691895,-0.291631997,-0.280604988,-0.118623919,-0.991901235,-0.000236000,-0.001715430,-0.039520892,0.220443359
0.061994412,-0.000533000,-0.003623962,0.013187408,0.550662231,-0.000002000,0.003242493,0.004396439,-1.270321655,-0.006084000,-0.005912781,-0.013187408,-0.672528076,0.424187988,0.337033272,0.189010620,3.443237305,-0.399082005,-0.388716908,-0.092215546,-1.289498126,0.000000000,-0.002205079,-0.102082465,0.255540090,-0.000688000,-0.003623962,0.004396439,0.330416107,-0.000602000,0.001335144,-0.004396439,-1.419790649,0.067276999,0.055886269,0.083517075,3.512081909,0.274679005,0.195124626,0.171428680,3.150177002,-0.291626990,-0.280986330,-0.118649927,-1.190207821,-0.000267000,-0.001715606,0.019669751,0.131989035
0.063994232,-0.000543000,-0.003623962,0.039560318,1.211463165,-0.000016000,0.003242493,-0.004396439,-1.868142700,-0.006040000,-0.005912781,0.057142258,-0.971438599,0.424163014,0.337414742,0.232967377,4.029296875,-0.399177015,-0.389098259,-0.079039560,-1.289498187,0.000000000,-0.002205314,-0.091882809,0.255508880,-0.000715000,-0.003623962,0.013187408,0.550662231,-0.000636000,0.001335144,0.030769348,-1.569232178,0.067371003,0.056267738,0.039560318,3.810992432,0.274603993,0.195506096,0.153846741,3.150177002,-0.291622996,-0.280986330,-0.092319573,-1.190207821,-0.000300000,-0.001715606,0.098612655,0.131989035
0.065994052,-0.000554000,-0.003623962,-0.004396439,0.550662231,-0.000031000,0.003242493,0.013187408,-1.120880127,-0.005996000,-0.005912781,-0.030769348,-1.270321655,0.424138993,0.337796211,0.241758347,3.296691895,-0.399264008,-0.389288671,-0.057065894,-1.587122446,0.000000000,-0.002648134,-0.081677864,0.297846958,-0.000742000,-0.003623962,0.021978378,0.770939636,-0.000670000,0.001335144,0.048351288,0.224176025,0.067465998,0.056267738,0.039560318,2.764846802,0.274531990,0.195506096,0.118680954,3.003662109,-0.291621000,-0.281177144,-0.079143916,-1.289349496,-0.000332000,-0.001287622,0.147970302,0.087911116
0.067993871,-0.000566000,-0.003623962,-0.013187408,0.330416107,-0.000045000,0.003242493,0.039560318,-1.270321655,-0.005953000,-0.005912781,-0.004396439,-0.373617554,0.424116999,0.338177681,0.259340286,3.443237305,-0.399342000,-0.389288671,-0.043904695,-1.388746933,0.000000000,-0.002648134,-0.051054204,0.297978378,-0.000769000,-0.003623962,-0.021978378,0.330416107,-0.000703000,0.001335144,0.030769348,-0.523086548,0.067561999,0.056267738,0.057142258,2.764846802,0.274461001,0.195887566,0.127471924,3.296691895,-0.291624010,-0.281367912,-0.061554023,-1.388525828,-0.000366000,-0.000859587,0.167728303,0.132191079
0.069993691,-0.000578000,-0.003623962,-0.004396439,0.330416107,-0.000063000,0.003242493,-0.039560318,-1.270321655,-0.005907000,-0.005912781,0.048351288,-0.971438599,0.424095988,0.338940620,0.303297043,3.736267090,-0.399416000,-0.389288671,-0.017555200,-1.289606131,0.000000000,-0.002648134,-0.030625139,0.340758122,-0.000797000,-0.003623962,-0.013187408,0.550662231,-0.000738000,0.001335144,-0.048351288,-0.672528076,0.067662999,0.056267738,0.048351288,3.512081909,0.274392992,0.196269035,0.127471924,3.150177002,-0.291637003,-0.281558633,-0.052754999,-1.190132580,-0.000407000,-0.000431501,0.226955765,-0.044293237
0.071993511,-0.000589000,-0.003623962,0.013187408,0.770939636,-0.000082000,0.003242493,-0.013187408,-1.868142700,-0.005858000,-0.005912781,-0.030769348,-0.971438599,0.424077004,0.339703560,0.364835739,3.443237305,-0.399484992,-0.389288671,0.000036251,-1.388840842,0.000000000,-0.002648134,-0.051019498,0.383406447,-0.000825000,-0.003623962,0.013187408,0.330416107,-0.000775000,0.001335144,-0.004396439,-1.270321655,0.067768998,0.056267738,0.048351288,3.512081909,0.274327010,0.196650505,0.127471924,3.150177002,-0.291660994,-0.281558633,-0.057147933,-1.090962029,-0.000453000,-0.000431501,0.217087523,-0.000119674
0.073993331,-0.000600000,-0.003623962,0.004396439,0.330416107,-0.000104000,0.003242493,-0.004396439,-2.017584229,-0.005808000,-0.005912781,0.039560318,-0.523086548,0.424057990,0.340466499,0.347251892,3.003662109,-0.399549991,-0.389097680,0.013166030,-1.190519451,0.000000000,-0.003090668,0.020418670,0.383418857,-0.000855000,-0.003623962,0.004396439,0.330416107,-0.000812000,0.001335144,-0.030769348,-0.672528076,0.067878999,0.056649208,0.092308044,1.868142700,0.274262011,0.196650505,0.109889984,3.589752197,-0.291693985,-0.281939935,-0.070285480,-1.190144098,-0.000505000,0.000424825,0.187523897,-0.044026021
0.075993150,-0.000612000,-0.003623962,0.004396439,0.770939636,-0.000128000,0.003242493,-0.021978378,-0.523086548,-0.005756000,-0.005912781,0.057142258,-1.569232178,0.424039990,0.341229439,0.347251892,3.296691895,-0.399612010,-0.389097680,0.013148159,-1.091300870,0.000000000,-0.003090668,0.040826625,0.340789354,-0.000885000,-0.003623962,0.004396439,0.550662231,-0.000851000,0.001335144,0.004396439,-1.419790649,0.067992002,0.056649208,0.048351288,3.512081909,0.274199009,0.197031975,0.101099014,3.150177002,-0.291736990,-0.281939935,-0.074683716,-1.190155534,-0.000562000,0.000424825,0.157915740,-0.132340670
0.077992970,-0.000623000,-0.003623962,-0.030769348,0.330416107,-0.000153000,0.003242493,-0.021978378,-1.120880127,-0.005703000,-0.005912781,0.057142258,-1.569232178,0.424023002,0.341992378,0.259340286,3.003662109,-0.399672002,-0.389288671,0.021956449,-1.190465329,0.000000000,-0.002648134,0.020425374,0.383537866,-0.000916000,-0.003623962,-0.013187408,0.770939636,-0.000890000,0.001335144,-0.039560318,-0.224176025,0.068108000,0.056649208,0.039560318,2.465936279,0.274136990,0.197413445,0.101099014,3.296691895,-0.291786999,-0.282130515,-0.043912836,-1.289337732,-0.000623000,0.000853065,0.128318705,-0.088025127
0.079992790,-0.000636000,-0.003623962,0.030769348,0.330416107,-0.000180000,0.003242493,0.004396439,-1.569232178,-0.005649000,-0.005912781,-0.004396439,-1.419790649,0.424005985,0.342373848,0.232967377,3.150177002,-0.399729997,-0.389288671,0.021926495,-1.091324527,0.000000000,-0.002648134,0.061241414,0.426317611,-0.000947000,-0.003623962,0.030769348,0.770939636,-0.000930000,0.001335144,0.039560318,-0.523086548,0.068226002,0.056649208,0.039560318,2.764846802,0.274073988,0.197413445,0.101099014,3.296691895,-0.291844010,-0.282130515,-0.030740711,-1.388502609,-0.000688000,0.000853065,0.078965829,-0.043848632
0.081992610,-0.000648000,-0.003623962,0.021978378,0.550662231,-0.000207000,0.003242493,0.013187408,-1.120880127,-0.005595000,-0.005912781,-0.021978378,-0.074734497,0.423988998,0.342755318,0.215385437,3.443237305,-0.399785995,-0.389288671,0.017510746,-1.091252758,0.000000000,-0.002648134,0.091848093,0.340899057,-0.000977000,-0.003623962,0.030769348,0.770939636,-0.000970000,0.001335144,0.004396439,-1.718673706,0.068346001,0.056649208,-0.013187408,3.213198853,0.274010986,0.197794914,0.092308044,3.589752197,-0.291907012,-0.282130515,-0.021971033,-1.190195815,-0.000756000,0.000853065,0.000005712,-0.220510900
0.083992429,-0.000662000,-0.003623962,0.004396439,0.770939636,-0.000235000,0.003242493,-0.048351288,-0.523086548,-0.005540000,-0.005912781,0.013187408,-0.523086548,0.423972011,0.343136787,0.180219650,3.296691895,-0.399841994,-0.388907320,0.039503462,-1.190465246,0.000000000,-0.002647846,0.061246546,0.383584616,-0.001007000,-0.003623962,0.030769348,0.770939636,-0.001011000,0.001335144,-0.065933228,-0.821969604,0.068466000,0.056649208,0.021978378,3.512081909,0.273948014,0.197794914,0.083517075,3.882781982,-0.291976005,-0.282321049,0.000003263,-1.289418291,-0.000825000,0.001281356,0.009872204,-0.264485591
0.085992249,-0.000677000,-0.003623962,0.021978378,0.550662231,-0.000264000,0.003242493,0.048351288,-1.569232178,-0.005485000,-0.005912781,0.057142258,-0.672528076,0.423954993,0.343518257,0.206592560,3.296691895,-0.399897009,-0.388907320,0.048277918,-1.190393489,0.000000000,-0.002647846,0.081660584,0.298155718,-0.001037000,-0.003623962,-0.013187408,0.550662231,-0.001053000,0.001335144,-0.048351288,-0.373617554,0.068585999,0.057030678,0.004396439,3.213198853,0.273882985,0.198176384,0.092308044,3.736267090,-0.292048991,-0.282130515,0.004385315,-1.190195815,-0.000896000,0.000853065,-0.039481129,-0.220510900
0.087992069,-0.000692000,-0.003623962,0.004396439,0.550662231,-0.000293000,0.003242493,-0.057142258,-1.718673706,-0.005430000,-0.005531311,-0.021978378,-1.569232178,0.423936993,0.343900681,0.215385437,3.296691895,-0.399953008,-0.388716908,0.043874550,-1.190351325,0.000000000,-0.002205079,0.112252450,0.298315953,-0.001066000,-0.003623962,0.030769348,0.330416107,-0.001094000,0.001335144,-0.004396439,-1.120880127,0.068705998,0.057030678,0.004396439,3.213198853,0.273817003,0.198557854,0.109889984,3.443237305,-0.292126000,-0.282130515,0.008781506,-1.190195815,-0.000968000,0.000853065,-0.029612810,-0.220510900
0.089991889,-0.000710000,-0.003623962,0.013187408,0.770939636,-0.000322000,0.003242493,-0.039560318,-0.971438599,-0.005376000,-0.005912781,0.013187408,0.821969604,0.423918009,0.344282150,0.215385437,3.736267090,-0.400009006,-0.388716908,0.048299689,-1.289498126,0.000000000,-0.002205079,0.061245449,0.255540090,-0.001094000,-0.003623962,-0.004396439,0.330416107,-0.001135000,0.001335144,0.021978378,-1.120880127,0.068824001,0.057412148,0.092308044,3.063729858,0.273748010,0.198557854,0.109889984,3.736267090,-0.292205006,-0.282130515,0.013178651,-0.991843101,-0.001041000,0.000853065,-0.019742350,-0.220554614
0.091991708,-0.000728000,-0.003623962,0.004396439,0.550662231,-0.000351000,0.003242493,-0.021978378,-1.419790649,-0.005324000,-0.005531311,0.039560318,-1.120880127,0.423898011,0.344663620,0.232967377,3.443237305,-0.400068015,-0.388716908,0.030722735,-0.991997978,0.000000000,-0.002205079,0.061230943,0.298433329,-0.001120000,-0.003623962,0.004396439,0.550662231,-0.001176000,0.001335144,0.057142258,-1.718673706,0.068939999,0.057412148,0.092308044,3.063729858,0.273676008,0.198939323,0.083517075,3.296691895,-0.292286992,-0.282130515,0.026367224,-0.991843101,-0.001112000,0.000853065,0.009862607,-0.220554614
0.093991528,-0.000748000,-0.003623962,0.021978378,0.991217041,-0.000379000,0.003242493,-0.021978378,-1.120880127,-0.005272000,-0.005531311,-0.039560318,-0.373617554,0.423877001,0.345426559,0.268131256,2.857147217,-0.400128007,-0.388716908,0.013170881,-0.991938233,0.000000000,-0.002205079,0.020412363,0.212998980,-0.001145000,-0.003623962,0.013187408,0.110138702,-0.001217000,0.001335144,-0.039560318,-1.569232178,0.069054000,0.057412148,0.057142258,2.316494751,0.273602009,0.198939323,0.101099014,3.150177002,-0.292369992,-0.282130515,0.017570492,-1.190172855,-0.001183000,0.000853065,-0.029612954,-0.132201623
0.095991348,-0.000770000,-0.003623962,0.030769348,0.550662231,-0.000406000,0.003242493,0.021978378,-2.167025757,-0.005222000,-0.005531311,-0.021978378,-1.270321655,0.423853993,0.345808029,0.303297043,3.150177002,-0.400191009,-0.388716908,-0.008806113,-0.991938233,0.000000000,-0.002205079,0.030600784,0.212998980,-0.001169000,-0.003623962,0.021978378,0.550662231,-0.001257000,0.001335144,-0.013187408,-0.074734497,0.069164000,0.057412148,0.057142258,3.362640381,0.273523003,0.199320793,0.109889984,3.150177002,-0.292452008,-0.282130515,0.008786810,-1.090985018,-0.001252000,0.000853065,-0.009871746,-0.088068842
0.097991168,-0.000794000,-0.003623962,0.004396439,0.770939636,-0.000432000,0.003242493,0.039560318,-0.373617554,-0.005174000,-0.005531311,-0.004396439,-0.821969604,0.423828989,0.346570969,0.276922226,3.150177002,-0.400258005,-0.388716908,-0.013170881,-1.190291580,0.000000000,-0.002205079,-0.020412363,0.212881603,-0.001191000,-0.003623962,-0.021978378,0.110138702,-0.001297000,0.001335144,0.021978378,-0.672528076,0.069270998,0.057412148,0.013187408,2.615377808,0.273440987,0.199320793,0.118680954,3.296691895,-0.292535007,-0.282130515,0.004389665,-1.090985018,-0.001318000,0.000853065,-0.019742207,-0.088068842
0.099990987,-0.000820000,-0.003623962,0.013187408,0.550662231,-0.000457000,0.003242493,-0.048351288,-0.971438599,-0.005128000,-0.005531311,-0.004396439,-0.821969604,0.423803002,0.347333908,0.268131256,2.271057129,-0.400328994,-0.388716908,-0.013170881,-1.091085034,0.000000000,-0.002205079,-0.020412363,0.170223117,-0.001210000,-0.003623962,-0.004396439,0.550662231,-0.001336000,0.001335144,-0.013187408,-1.270321655,0.069371998,0.057793617,0.109889984,2.615377808,0.273353994,0.199702263,0.118680954,2.857147217,-0.292614996,-0.281939935,0.004394970,-0.892632190,-0.001381000,0.000424825,-0.000000569,-0.176530819
0.101990807,-0.000854000,-0.003623962,0.021978378,0.330416107,-0.000480000,0.003242493,0.030769348,-1.569232178,-0.005084000,-0.005531311,0.021978378,-0.373617554,0.423774004,0.347715378,0.232967377,2.417572021,-0.400402993,-0.388716908,-0.035146920,-1.091085034,0.000000000,-0.002205079,-0.010226155,0.170223117,-0.001228000,-0.003623962,0.004396439,0.330416107,-0.001375000,0.001335144,-0.030769348,-1.270321655,0.069471002,0.057793617,-0.048351288,2.764846802,0.273259997,0.200083733,0.092308044,3.003662109,-0.292699993,-0.281939935,0.000001089,-1.090984898,-0.001442000,0.000424825,0.009871003,-0.176508936
0.103990627,-0.000900000,-0.003623962,-0.013187408,0.991217041,-0.000504000,0.003242493,0.013187408,-1.419790649,-0.005040000,-0.005531311,-0.013187408,-0.672528076,0.423741013,0.348096848,0.197801590,2.417572021,-0.400480986,-0.388716908,-0.008782917,-1.091144779,0.000000000,-0.002205079,-0.010207718,0.255657466,-0.001244000,-0.003623962,0.004396439,0.550662231,-0.001415000,0.001335144,0.039560318,-0.672528076,0.069569997,0.057793617,0.039560318,2.914288330,0.273160011,0.200083733,0.109889984,2.710632324,-0.292793989,-0.281939935,-0.004391839,-0.892632190,-0.001503000,0.000424825,0.019740433,-0.176530819
0.105990447,-0.000959000,-0.004005432,-0.039560318,0.550662231,-0.000528000,0.003242493,-0.013187408,-0.971438599,-0.004998000,-0.005531311,-0.013187408,-1.718673706,0.423705995,0.348478317,0.189010620,3.150177002,-0.400563002,-0.388716908,-0.004394954,-1.289498126,0.000000000,-0.002205079,-0.000003073,0.255540090,-0.001259000,-0.003623962,0.013187408,0.330416107,-0.001455000,0.001335144,-0.039560318,-1.419790649,0.069669001,0.058175087,0.065933228,2.167025757,0.273054004,0.200465202,0.109889984,3.150177002,-0.292896003,-0.281939935,0.008787897,-0.991802826,-0.001565000,0.000424825,-0.009870000,-0.132362553
0.107990266,-0.001028000,-0.003623962,0.021978378,1.431740570,-0.000551000,0.003242493,0.030769348,-1.419790649,-0.004956000,-0.005531311,0.021978378,-0.074734497,0.423667997,0.348859787,0.189010620,2.564117432,-0.400647014,-0.388716908,0.004369852,-1.190291580,0.000000000,-0.002205079,0.040811575,0.212881603,-0.001272000,-0.003623962,-0.013187408,0.330416107,-0.001496000,0.001335144,0.004396439,-1.718673706,0.069766998,0.058175087,0.065933228,2.167025757,0.272942007,0.200846672,0.109889984,3.150177002,-0.293006003,-0.281939935,0.008787897,-0.991802826,-0.001626000,0.000424825,-0.009870000,-0.132362553
0.109990086,-0.001107000,-0.004005432,-0.013187408,0.550662231,-0.000575000,0.003242493,0.021978378,-1.419790649,-0.004914000,-0.005531311,0.048351288,-0.672528076,0.423628002,0.349241257,0.162637711,2.857147217,-0.400732994,-0.388716908,0.008782917,-1.289498126,0.000000000,-0.002205079,0.010207718,0.255540090,-0.001285000,-0.003623962,0.021978378,0.550662231,-0.001537000,0.000953674,-0.065933228,0.224176025,0.069863997,0.058175087,0.065933228,2.615377808,0.272825003,0.200846672,0.101099014,3.003662109,-0.293121994,-0.281939935,-0.000001089,-1.190144098,-0.001687000,0.000424825,-0.009871003,-0.044026021
0.111989906,-0.001196000,-0.004005432,-0.048351288,0.110138702,-0.000598000,0.003242493,0.021978378,-1.419790649,-0.004873000,-0.005149841,0.092308044,0.373617554,0.423586011,0.349622726,0.153846741,3.003662109,-0.400821000,-0.388716908,0.004381925,-1.190351325,0.000000000,-0.002205079,0.020408431,0.298315953,-0.001298000,-0.003623962,0.030769348,0.330416107,-0.001578000,0.001335144,0.048351288,-1.868142700,0.069959998,0.058175087,0.039560318,3.661550903,0.272702992,0.201228142,0.092308044,3.003662109,-0.293242991,-0.281939935,0.004396194,-0.892632190,-0.001748000,0.000424825,0.019739295,-0.176530819
0.113989726,-0.001292000,-0.004005432,0.039560318,0.550662231,-0.000621000,0.003242493,-0.013187408,-1.270321655,-0.004833000,-0.005149841,0.004396439,-0.224176025,0.423541009,0.350004196,0.171428680,3.150177002,-0.400911003,-0.388716908,-0.013195028,-1.190291580,0.000000000,-0.002205079,0.020393925,0.212881603,-0.001309000,-0.003623962,0.030769348,0.330416107,-0.001619000,0.001335144,0.013187408,-1.270321655,0.070054002,0.058175087,0.092308044,2.914288330,0.272576988,0.201228142,0.109889984,3.150177002,-0.293368995,-0.281939935,0.013183002,-1.190144098,-0.001808000,0.000424825,-0.000001707,-0.044026021
0.115989545,-0.001396000,-0.004005432,0.004396439,0.991217041,-0.000644000,0.003242493,0.039560318,-0.523086548,-0.004794000,-0.005149841,0.004396439,-0.224176025,0.423494011,0.350385666,0.180219650,3.443237305,-0.401001990,-0.388716908,-0.004394954,-1.289498126,0.000000000,-0.002205079,-0.000003073,0.255540090,-0.001321000,-0.003623962,0.021978378,0.550662231,-0.001660000,0.001335144,-0.004396439,-0.971438599,0.070147000,0.058556557,0.118680954,2.914288330,0.272446990,0.201609612,0.083517075,3.003662109,-0.293498009,-0.281939935,0.008787897,-0.991802826,-0.001869000,0.000424825,-0.009870000,-0.132362553
0.117989365,-0.001506000,-0.004005432,-0.021978378,0.110138702,-0.000666000,0.003242493,0.021978378,-2.017584229,-0.004755000,-0.005149841,-0.013187408,-0.224176025,0.423446000,0.350767136,0.180219650,3.736267090,-0.401093990,-0.388716908,0.008794991,-1.091144779,0.000000000,-0.002205079,-0.010195426,0.255657466,-0.001332000,-0.003623962,-0.021978378,0.770939636,-0.001700000,0.001335144,-0.021978378,-0.821969604,0.070238002,0.058556557,0.030769348,3.362640381,0.272312999,0.201609612,0.074726105,3.150177002,-0.293628991,-0.282130515,-0.013178651,-0.991820141,-0.001930000,0.000853065,0.019742350,-0.132245338
0.119989185,-0.001622000,-0.003623962,0.057142258,0.330416107,-0.000689000,0.003242493,0.039560318,-0.971438599,-0.004716000,-0.005149841,-0.013187408,-0.373617554,0.423395991,0.351148605,0.180219650,3.736267090,-0.401185989,-0.388716908,-0.004406075,-1.091144779,0.000000000,-0.002205079,0.020402285,0.255657466,-0.001344000,-0.003623962,0.004396439,0.550662231,-0.001739000,0.000953674,-0.083517075,-1.569232178,0.070326999,0.058556557,0.092308044,3.063729858,0.272177011,0.201991081,0.057142258,3.443237305,-0.293761998,-0.281939935,-0.004394970,-1.190155534,-0.001990000,0.000424825,0.000000569,-0.132340670
0.121989005,-0.001742000,-0.003623962,0.013187408,0.770939636,-0.000711000,0.003242493,-0.039560318,-0.821969604,-0.004678000,-0.005149841,0.013187408,-0.672528076,0.423345000,0.351530075,0.206592560,3.443237305,-0.401279002,-0.388716908,-0.004406075,-1.289498126,0.000000000,-0.002205079,0.020402285,0.255540090,-0.001356000,-0.003623962,-0.004396439,0.550662231,-0.001777000,0.000953674,0.004396439,-1.120880127,0.070413999,0.058556557,0.021978378,2.764846802,0.272038013,0.201991081,0.048351288,3.443237305,-0.293895990,-0.281939935,0.004396194,-1.090984898,-0.002050000,0.000424825,0.019739295,-0.176508936
0.123988824,-0.001865000,-0.003623962,-0.030769348,-0.110138702,-0.000733000,0.003242493,-0.013187408,-2.017584229,-0.004641000,-0.005149841,0.057142258,-0.523086548,0.423292011,0.351911545,0.224176407,3.150177002,-0.401371002,-0.388716908,0.008769889,-1.190351325,0.000000000,-0.002205079,0.030613076,0.298315953,-0.001368000,-0.003623962,-0.048351288,-0.110138702,-0.001814000,0.001335144,-0.048351288,-2.316494751,0.070497997,0.058938026,0.057142258,2.764846802,0.271896988,0.201991081,0.039560318,3.443237305,-0.294028014,-0.281939935,0.000001089,-1.289337606,-0.002110000,0.000424825,0.009871003,-0.176487052
0.125988644,-0.001991000,-0.003623962,0.039560318,0.770939636,-0.000755000,0.003242493,0.004396439,-1.569232178,-0.004603000,-0.005149841,0.004396439,-1.120880127,0.423238993,0.352293015,0.224176407,3.589752197,-0.401463002,-0.388716908,0.000006038,-1.289498126,0.000000000,-0.002205079,-0.010203786,0.255540090,-0.001382000,-0.003623962,0.048351288,0.110138702,-0.001850000,0.001335144,-0.057142258,-1.419790649,0.070579000,0.058938026,0.030769348,2.615377808,0.271755010,0.202372551,0.039560318,3.443237305,-0.294160008,-0.281939935,-0.004391839,-1.090996334,-0.002170000,0.000424825,0.019740433,-0.264823584
0.127988464,-0.002119000,-0.003623962,0.013187408,0.330416107,-0.000776000,0.003242493,-0.013187408,-2.167025757,-0.004567000,-0.005149841,0.021978378,-0.672528076,0.423184991,0.352674484,0.241758347,3.003662109,-0.401553005,-0.388716908,-0.000006038,-1.190291580,0.000000000,-0.002205079,0.010203786,0.212881603,-0.001396000,-0.003623962,0.004396439,0.550662231,-0.001884000,0.000953674,-0.021978378,-0.971438599,0.070657000,0.058938026,0.030769348,2.615377808,0.271611989,0.202372551,0.039560318,3.296691895,-0.294288993,-0.281939935,-0.004391839,-1.090996334,-0.002229000,0.000424825,0.019740433,-0.264823584
0.129988284,-0.002248000,-0.003623962,-0.004396439,0.550662231,-0.000797000,0.003242493,-0.030769348,-1.120880127,-0.004530000,-0.005149841,-0.021978378,-0.373617554,0.423130006,0.353437424,0.250549316,2.857147217,-0.401641995,-0.388716908,-0.000006038,-1.289438381,0.000000000,-0.002205079,0.010203786,0.170105740,-0.001412000,-0.003623962,0.039560318,0.550662231,-0.001917000,0.000953674,0.013187408,-0.672528076,0.070731997,0.058938026,0.021978378,3.213198853,0.271468997,0.202372551,0.030769348,3.443237305,-0.294414014,-0.281939935,0.000003267,-1.388508242,-0.002288000,0.000424825,0.029608726,-0.132318786
0.131988103,-0.002377000,-0.003623962,0.013187408,0.770939636,-0.000818000,0.003242493,-0.039560318,-2.316494751,-0.004494000,-0.005149841,-0.039560318,-0.971438599,0.423074991,0.353818893,0.215385437,3.150177002,-0.401730001,-0.388716908,-0.004406075,-1.388644927,0.000000000,-0.002205079,0.020402285,0.212764227,-0.001429000,-0.003623962,0.021978378,0.770939636,-0.001947000,0.000953674,0.030769348,-0.672528076,0.070803002,0.059319496,0.074726105,1.569232178,0.271324992,0.202372551,0.048351288,3.150177002,-0.294535011,-0.281939935,-0.000001089,-1.190166970,-0.002347000,0.000424825,-0.009871003,-0.220655318
0.133987923,-0.002505000,-0.004005432,-0.021978378,0.550662231,-0.000839000,0.003242493,0.004396439,-1.120880127,-0.004458000,-0.005149841,0.030769348,-0.224176025,0.423018992,0.354200363,0.189010620,3.003662109,-0.401814997,-0.388716908,0.000006038,-1.289498126,0.000000000,-0.002205079,-0.010203786,0.255540090,-0.001447000,-0.003623962,0.039560318,0.330416107,-0.001976000,0.000953674,-0.083517075,-1.270321655,0.070871003,0.059319496,0.030769348,2.017584229,0.271180987,0.202372551,0.030769348,3.443237305,-0.294651002,-0.281939935,0.004396194,-1.190166970,-0.002406000,0.000424825,0.019739295,-0.220655318
0.135987743,-0.002641000,-0.004005432,-0.021978378,0.770939636,-0.000858000,0.003242493,-0.004396439,-1.270321655,-0.004423000,-0.005149841,0.004396439,-0.074734497,0.422962993,0.354581833,0.171428680,2.564117432,-0.401901007,-0.388716908,0.008769889,-1.289438381,0.000000000,-0.002205079,0.030613076,0.170105740,-0.001467000,-0.003623962,0.021978378,0.330416107,-0.002003000,0.000953674,-0.004396439,-1.868142700,0.070935003,0.059319496,0.048351288,3.213198853,0.271032989,0.202754021,0.039560318,3.443237305,-0.294766992,-0.281939935,-0.000001089,-1.289349042,-0.002464000,0.000424825,-0.009871003,-0.264801701
0.137987563,-0.002788000,-0.004005432,-0.021978378,0.550662231,-0.000877000,0.003242493,-0.021978378,-0.821969604,-0.004387000,-0.005149841,0.004396439,-0.074734497,0.422904015,0.354963303,0.171428680,3.003662109,-0.401988000,-0.388716908,0.017570918,-1.388644927,0.000000000,-0.002205079,0.010213864,0.212764227,-0.001488000,-0.003623962,-0.004396439,0.330416107,-0.002030000,0.000953674,-0.004396439,-0.971438599,0.070995003,0.059319496,0.004396439,3.362640381,0.270877987,0.202754021,0.039560318,3.443237305,-0.294885993,-0.281939935,-0.008784766,-1.090996334,-0.002521000,0.000424825,0.029609864,-0.264823584
0.139987382,-0.002945000,-0.003623962,0.021978378,0.110138702,-0.000895000,0.003242493,-0.039560318,-2.465936279,-0.004352000,-0.005149841,-0.013187408,0.373617554,0.422845006,0.355344772,0.145055771,2.857147217,-0.402076006,-0.388716908,-0.000006038,-1.190351325,0.000000000,-0.002205079,0.010203786,0.298315953,-0.001511000,-0.003623962,-0.004396439,0.550662231,-0.002056000,0.000953674,-0.013187408,-0.672528076,0.071053997,0.059700966,0.101099014,2.316494751,0.270716995,0.202754021,0.039560318,3.443237305,-0.295004994,-0.281939935,0.008790075,-1.289349042,-0.002577000,0.000424825,0.009867723,-0.264801701
0.141987202,-0.003109000,-0.004005432,-0.004396439,0.330416107,-0.000912000,0.003242493,-0.013187408,-1.569232178,-0.004317000,-0.004768372,-0.004396439,-1.569232178,0.422782987,0.355726242,0.127471924,2.710632324,-0.402164996,-0.388716908,0.004394954,-1.289498126,0.000000000,-0.002205079,0.000003073,0.255540090,-0.001534000,-0.003623962,-0.004396439,0.550662231,-0.002081000,0.000953674,-0.039560318,-1.569232178,0.071108997,0.059700966,0.101099014,1.718673706,0.270552009,0.202754021,0.021978378,3.443237305,-0.295125991,-0.281939935,0.000003267,-1.190178406,-0.002633000,0.000424825,0.029608726,-0.308969967
0.143987022,-0.003282000,-0.004005432,-0.004396439,0.770939636,-0.000929000,0.003242493,-0.004396439,-1.419790649,-0.004282000,-0.004768372,0.004396439,-1.270321655,0.422719985,0.355726242,0.145055771,2.417572021,-0.402253002,-0.388716908,0.004406075,-1.289498126,0.000000000,-0.002205079,-0.020402285,0.255540090,-0.001559000,-0.003623962,0.021978378,0.330416107,-0.002105000,0.000953674,-0.057142258,-1.569232178,0.071162999,0.059700966,0.004396439,2.764846802,0.270384014,0.202754021,0.021978378,3.296691895,-0.295246005,-0.281939935,-0.008787897,-1.388519678,-0.002688000,0.000424825,0.009870000,-0.220633435
0.145986842,-0.003461000,-0.004005432,-0.021978378,0.330416107,-0.000946000,0.003242493,-0.004396439,-1.718673706,-0.004247000,-0.004768372,-0.021978378,-0.224176025,0.422654986,0.356107712,0.136262894,3.003662109,-0.402341008,-0.388716908,0.008782917,-1.289498126,0.000000000,-0.002205079,0.010207718,0.255540090,-0.001586000,-0.003623962,0.030769348,0.330416107,-0.002128000,0.000953674,0.013187408,-0.672528076,0.071214996,0.060082436,0.074726105,2.167025757,0.270213008,0.203135490,0.013187408,4.029296875,-0.295365989,-0.281939935,0.008790075,-1.190178406,-0.002743000,0.000424825,0.009867723,-0.308969967
0.147986661,-0.003645000,-0.004005432,0.021978378,0.330416107,-0.000962000,0.003242493,0.048351288,-1.569232178,-0.004213000,-0.004768372,-0.057142258,-0.074734497,0.422589004,0.356489182,0.136262894,2.710632324,-0.402429014,-0.388716908,-0.000006038,-1.190351325,0.000000000,-0.002205079,0.010203786,0.298315953,-0.001613000,-0.003623962,0.013187408,0.550662231,-0.002151000,0.000953674,-0.004396439,-1.270321655,0.071266003,0.060082436,0.074726105,2.465936279,0.270040989,0.203135490,0.013187408,3.443237305,-0.295484990,-0.281939935,0.004394970,-1.388519678,-0.002799000,0.000424825,-0.000000569,-0.220633435
0.149986481,-0.003834000,-0.004005432,0.013187408,0.770939636,-0.000979000,0.002861023,-0.030769348,-1.270321655,-0.004180000,-0.004768372,0.065933228,-1.120880127,0.422520012,0.356489182,0.145055771,2.710632324,-0.402516007,-0.388716908,-0.008794991,-1.388704673,0.000000000,-0.002205079,0.010195426,0.298198577,-0.001642000,-0.003623962,0.013187408,0.110138702,-0.002174000,0.000953674,-0.039560318,-1.868142700,0.071315996,0.060082436,0.074726105,2.465936279,0.269867003,0.203135490,0.013187408,3.443237305,-0.295601994,-0.281939935,0.004394970,-1.487701750,-0.002854000,0.000424825,-0.000000569,-0.264779818
0.151986301,-0.004026000,-0.004005432,0.048351288,0.330416107,-0.000996000,0.002861023,-0.030769348,-1.868142700,-0.004147000,-0.004768372,-0.004396439,0.373617554,0.422450006,0.356870651,0.136262894,3.003662109,-0.402601004,-0.388716908,0.013182955,-1.388644927,0.000000000,-0.002205079,0.000009219,0.212764227,-0.001672000,-0.003623962,0.013187408,0.330416107,-0.002195000,0.000953674,0.039560318,-0.523086548,0.071364999,0.060463905,0.092308044,3.512081909,0.269694000,0.203135490,0.013187408,3.589752197,-0.295717001,-0.281939935,0.004391839,-1.091007771,-0.002909000,0.000424825,-0.019740433,-0.353138233
0.153986121,-0.004221000,-0.004005432,0.013187408,0.330416107,-0.001013000,0.002861023,0.004396439,-2.017584229,-0.004114000,-0.004768372,0.013187408,0.373617554,0.422376990,0.357252121,0.136262894,3.003662109,-0.402684987,-0.388716908,0.004418149,-1.487851474,0.000000000,-0.002205079,-0.040805429,0.255422714,-0.001704000,-0.003623962,-0.021978378,0.330416107,-0.002216000,0.000953674,-0.021978378,-0.523086548,0.071414001,0.060463905,0.074726105,2.615377808,0.269522011,0.203135490,0.013187408,3.296691895,-0.295830011,-0.281939935,-0.013183002,-1.289360478,-0.002965000,0.000424825,0.000001707,-0.353116350
0.155985940,-0.004418000,-0.004005432,0.021978378,0.330416107,-0.001031000,0.002861023,-0.021978378,-0.672528076,-0.004082000,-0.004768372,0.092308044,-1.270321655,0.422302991,0.357252121,0.136262894,2.564117432,-0.402767003,-0.388716908,0.000006038,-1.388644927,0.000000000,-0.002205079,-0.010203786,0.212764227,-0.001737000,-0.003623962,-0.004396439,0.330416107,-0.002237000,0.000953674,-0.101099014,-2.017584229,0.071462996,0.060845375,0.074726105,2.316494751,0.269351006,0.203135490,0.004396439,3.296691895,-0.295938998,-0.281939935,0.004396194,-1.289360478,-0.003021000,0.000424825,0.019739295,-0.353116350
0.157985760,-0.004616000,-0.004005432,0.013187408,0.110138702,-0.001050000,0.002861023,-0.004396439,-2.316494751,-0.004051000,-0.004768372,0.092308044,-1.270321655,0.422226995,0.358015060,0.162637711,3.150177002,-0.402846992,-0.388716908,-0.004394954,-1.487851474,0.000000000,-0.002205079,-0.000003073,0.255422714,-0.001772000,-0.003623962,0.030769348,0.550662231,-0.002257000,0.000953674,0.057142258,-0.523086548,0.071512997,0.060845375,0.048351288,2.316494751,0.269183993,0.203135490,0.013187408,3.296691895,-0.296043009,-0.281939935,-0.004394970,-1.091007771,-0.003078000,0.000424825,0.000000569,-0.353138233
0.159985580,-0.004813000,-0.004005432,-0.039560318,-0.330416107,-0.001069000,0.002861023,-0.030769348,-1.270321655,-0.004021000,-0.004768372,0.013187408,0.074734497,0.422147989,0.358015060,0.162637711,2.857147217,-0.402925014,-0.388716908,-0.017582992,-1.388644927,0.000000000,-0.002205079,0.010189280,0.212764227,-0.001808000,-0.003623962,-0.021978378,0.550662231,-0.002277000,0.000953674,-0.039560318,-1.120880127,0.071562998,0.060845375,0.083517075,1.868142700,0.269019991,0.203135490,0.021978378,3.296691895,-0.296144009,-0.281939935,-0.004394970,-1.388531114,-0.003135000,0.000424825,0.000000569,-0.308948084
0.161985400,-0.005009000,-0.004005432,0.013187408,0.550662231,-0.001090000,0.002861023,0.048351288,-1.868142700,-0.003991000,-0.004768372,-0.057142258,-0.373617554,0.422066987,0.358396530,0.153846741,2.857147217,-0.402999014,-0.388716908,0.000006038,-1.388704673,0.000000000,-0.002205079,-0.010203786,0.298198577,-0.001845000,-0.003623962,0.021978378,0.550662231,-0.002296000,0.000953674,0.004396439,-1.270321655,0.071615003,0.061226845,0.057142258,2.465936279,0.268860996,0.203135490,0.004396439,3.443237305,-0.296238989,-0.281939935,-0.013183002,-1.388564684,-0.003194000,0.000424825,0.000001707,-0.397272584
0.163985219,-0.005203000,-0.004005432,-0.004396439,-0.330416107,-0.001112000,0.002861023,-0.004396439,-1.270321655,-0.003963000,-0.004768372,-0.004396439,-0.672528076,0.421983987,0.358778000,0.136262894,3.150177002,-0.403070003,-0.388716908,-0.000006038,-1.388704673,0.000000000,-0.002205079,0.010203786,0.298198577,-0.001884000,-0.003623962,0.013187408,0.550662231,-0.002315000,0.000953674,-0.048351288,-2.017584229,0.071667999,0.061226845,0.048351288,2.167025757,0.268707991,0.203516960,0.021978378,3.443237305,-0.296328992,-0.281939935,-0.008790075,-1.487701750,-0.003253000,0.000424825,-0.009867723,-0.264779818
0.165985039,-0.005393000,-0.004005432,-0.021978378,0.110138702,-0.001135000,0.002861023,-0.021978378,-1.868142700,-0.003935000,-0.004768372,0.057142258,-0.523086548,0.421898991,0.359159470,0.162637711,2.417572021,-0.403138012,-0.388716908,0.000006038,-1.487851474,0.000000000,-0.002205079,-0.010203786,0.255422714,-0.001924000,-0.003623962,0.013187408,0.550662231,-0.002333000,0.000953674,-0.109889984,-2.316494751,0.071722999,0.061226845,0.065933228,2.764846802,0.268561006,0.203516960,0.021978378,3.003662109,-0.296411991,-0.281939935,0.004396194,-1.487701750,-0.003314000,0.000424825,0.019739295,-0.264779818
0.167984859,-0.005581000,-0.004005432,0.030769348,0.330416107,-0.001160000,0.002861023,-0.013187408,-1.419790649,-0.003908000,-0.004768372,0.013187408,0.074734497,0.421810001,0.359540939,0.162637711,3.003662109,-0.403203011,-0.388716908,-0.004406075,-1.388704673,0.000000000,-0.002205079,0.020402285,0.298198577,-0.001966000,-0.003623962,-0.004396439,0.550662231,-0.002352000,0.000953674,-0.065933228,-1.120880127,0.071778998,0.061608315,0.057142258,2.465936279,0.268418014,0.203516960,0.004396439,3.296691895,-0.296489000,-0.281939935,-0.004394970,-1.487701750,-0.003376000,0.000424825,0.000000569,-0.264779818
0.169984679,-0.005771000,-0.004005432,0.057142258,0.550662231,-0.001188000,0.002861023,-0.013187408,-0.971438599,-0.003882000,-0.004386902,0.030769348,-1.270321655,0.421716988,0.359540939,0.136262894,2.417572021,-0.403266996,-0.388716908,0.008769889,-1.289498126,0.000000000,-0.002205079,0.030613076,0.255540090,-0.002013000,-0.003623962,-0.004396439,0.550662231,-0.002371000,0.000953674,0.004396439,-1.868142700,0.071836002,0.061608315,0.057142258,2.465936279,0.268270999,0.203516960,0.021978378,3.150177002,-0.296564013,-0.281939935,0.000001089,-1.487701750,-0.003440000,0.000424825,0.009871003,-0.264779818
0.171984498,-0.005962000,-0.004005432,-0.013187408,-0.110138702,-0.001217000,0.002861023,-0.021978378,-2.017584229,-0.003856000,-0.004386902,-0.004396439,-0.672528076,0.421618998,0.359922409,0.118680954,2.564117432,-0.403329998,-0.388716908,-0.000006038,-1.388704673,0.000000000,-0.002205079,0.010203786,0.298198577,-0.002063000,-0.003623962,0.004396439,0.330416107,-0.002391000,0.000953674,0.013187408,-2.167025757,0.071893997,0.061608315,0.083517075,2.465936279,0.268119991,0.203516960,0.004396439,3.150177002,-0.296636999,-0.281939935,-0.004391839,-1.487701750,-0.003504000,0.000424825,0.019740433,-0.264779818
0.173984318,-0.006154000,-0.004005432,-0.004396439,-0.330416107,-0.001248000,0.002861023,0.021978378,-1.868142700,-0.003831000,-0.004386902,0.013187408,-0.373617554,0.421516001,0.359922409,0.109889984,2.857147217,-0.403391987,-0.388716908,-0.000006038,-1.388704673,0.000000000,-0.002205079,0.010203786,0.298198577,-0.002117000,-0.003623962,-0.021978378,0.330416107,-0.002412000,0.000953674,-0.092308044,-1.270321655,0.071951002,0.061989784,0.057142258,1.718673706,0.267967999,0.203516960,-0.004396439,2.564117432,-0.296707004,-0.281939935,-0.000003267,-1.190178406,-0.003571000,0.000424825,-0.029608726,-0.308969967
0.175984138,-0.006348000,-0.004005432,0.021978378,0.330416107,-0.001281000,0.002861023,-0.013187408,-0.971438599,-0.003806000,-0.004386902,0.013187408,-0.373617554,0.421409994,0.360303879,0.101099014,2.710632324,-0.403452992,-0.388716908,0.008806113,-1.487851474,0.000000000,-0.002205079,-0.030600784,0.255422714,-0.002175000,-0.003623962,0.021978378,0.330416107,-0.002433000,0.000953674,0.030769348,-0.224176025,0.072008997,0.061989784,0.092308044,2.465936279,0.267814010,0.203516960,0.004396439,3.150177002,-0.296775997,-0.282130650,-0.013182061,-1.487667168,-0.003638000,-0.000003341,-0.039479790,-0.264928799
0.177983957,-0.006543000,-0.004005432,-0.039560318,0.330416107,-0.001316000,0.002861023,0.004396439,-0.971438599,-0.003782000,-0.004386902,-0.013187408,-0.821969604,0.421299011,0.360685349,0.101099014,2.710632324,-0.403513014,-0.388716908,-0.004394954,-1.487851474,0.000000000,-0.002205079,-0.000003073,0.255422714,-0.002235000,-0.003623962,-0.021978378,0.110138702,-0.002453000,0.000953674,-0.021978378,-1.120880127,0.072067000,0.061989784,0.004396439,2.017584229,0.267661005,0.203516960,-0.004396439,3.443237305,-0.296842009,-0.282130650,-0.017577022,-1.289314377,-0.003705000,-0.000003341,-0.009869426,-0.353238609
0.179983777,-0.006739000,-0.004005432,-0.057142258,-0.550662231,-0.001351000,0.002861023,0.030769348,-1.419790649,-0.003758000,-0.004386902,-0.013187408,-0.821969604,0.421186000,0.360685349,0.092308044,2.710632324,-0.403571993,-0.388716908,-0.004394954,-1.487851474,0.000000000,-0.002205079,-0.000003073,0.255422714,-0.002300000,-0.003623962,-0.004396439,0.550662231,-0.002474000,0.000953674,0.030769348,-2.167025757,0.072126001,0.061989784,0.083517075,2.316494751,0.267509997,0.203516960,-0.004396439,3.150177002,-0.296905994,-0.282130650,-0.021970100,-1.190138067,-0.003774000,-0.000003341,-0.059218617,-0.309083764
0.181983597,-0.006935000,-0.004005432,-0.013187408,-0.110138702,-0.001388000,0.002861023,-0.065933228,-0.971438599,-0.003735000,-0.004386902,0.021978378,-0.672528076,0.421068996,0.361066818,0.092308044,2.710632324,-0.403629005,-0.388716908,-0.000006038,-1.388704673,0.000000000,-0.002205079,0.010203786,0.298198577,-0.002367000,-0.003623962,-0.021978378,0.330416107,-0.002493000,0.000953674,-0.057142258,-1.120880127,0.072186001,0.062371254,0.092308044,1.718673706,0.267363012,0.203516960,-0.004396439,3.003662109,-0.296968013,-0.282130650,-0.021971048,-1.090961757,-0.003843000,-0.000003341,-0.039477657,-0.264928919
0.183983417,-0.007133000,-0.004005432,-0.030769348,0.110138702,-0.001426000,0.002861023,-0.048351288,-1.270321655,-0.003712000,-0.004386902,0.013187408,-1.120880127,0.420949012,0.361066818,0.101099014,2.710632324,-0.403683990,-0.388716908,0.008794991,-1.487851474,0.000000000,-0.002205079,-0.010195426,0.255422714,-0.002437000,-0.003623962,0.013187408,0.330416107,-0.002512000,0.000953674,-0.065933228,-1.419790649,0.072245002,0.062371254,0.109889984,2.914288330,0.267221004,0.203516960,-0.004396439,3.150177002,-0.297028005,-0.282130650,-0.017576087,-1.487689215,-0.003913000,-0.000003341,-0.069088022,-0.353248403
0.185983236,-0.007330000,-0.004005432,-0.021978378,0.110138702,-0.001465000,0.002861023,-0.013187408,-2.017584229,-0.003689000,-0.004386902,-0.021978378,-0.672528076,0.420828015,0.361448288,0.101099014,2.710632324,-0.403737992,-0.388716908,-0.000006038,-1.388704673,0.000000000,-0.002205079,0.010203786,0.298198577,-0.002509000,-0.003623962,0.030769348,0.330416107,-0.002530000,0.000953674,-0.030769348,-1.270321655,0.072305001,0.062371254,0.074726105,2.764846802,0.267084986,0.203516960,-0.004396439,3.003662109,-0.297086000,-0.282321319,-0.030756901,-1.388462064,-0.003982000,-0.000431556,-0.019743958,-0.220914492
0.187983056,-0.007529000,-0.004005432,-0.013187408,-0.330416107,-0.001505000,0.002861023,-0.021978378,-2.167025757,-0.003667000,-0.004386902,-0.083517075,0.672528076,0.420704007,0.361448288,0.083517075,2.710632324,-0.403789014,-0.388716908,-0.004394954,-1.388704673,0.000000000,-0.002205079,-0.000003073,0.298198577,-0.002585000,-0.003623962,0.004396439,0.550662231,-0.002546000,0.000953674,0.039560318,-1.120880127,0.072365999,0.062752724,0.065933228,2.465936279,0.266957998,0.203516960,0.004396439,3.003662109,-0.297141999,-0.282321319,-0.026361802,-1.388450455,-0.004052000,-0.000431556,-0.029613338,-0.309219335
0.189982876,-0.007727000,-0.004005432,-0.039560318,0.110138702,-0.001545000,0.002861023,0.004396439,-1.270321655,-0.003646000,-0.004386902,0.030769348,-0.971438599,0.420578003,0.361829758,0.083517075,2.564117432,-0.403838009,-0.388716908,-0.000006038,-1.487851474,0.000000000,-0.002205079,0.010203786,0.255422714,-0.002662000,-0.003623962,0.013187408,0.330416107,-0.002560000,0.000953674,-0.004396439,-1.270321655,0.072428003,0.062752724,0.065933228,2.465936279,0.266840011,0.203516960,0.004396439,3.150177002,-0.297196001,-0.282321319,-0.013183002,-1.487643136,-0.004122000,-0.000431556,-0.000001733,-0.353392497
0.191982696,-0.007925000,-0.004005432,-0.013187408,-0.550662231,-0.001586000,0.002861023,-0.021978378,-0.971438599,-0.003624000,-0.004386902,0.021978378,0.373617554,0.420450985,0.361829758,0.083517075,2.710632324,-0.403885007,-0.388716908,0.004381925,-1.487851474,0.000000000,-0.002205079,0.020408431,0.255422714,-0.002742000,-0.003623962,-0.021978378,0.330416107,-0.002572000,0.000572205,-0.109889984,-0.224176025,0.072489999,0.063134193,0.101099014,1.718673706,0.266732991,0.203516960,-0.004396439,3.003662109,-0.297248006,-0.282321319,-0.004394970,-1.289291514,-0.004191000,-0.000431556,-0.000000578,-0.176751186
0.193982515,-0.008124000,-0.004005432,0.004396439,0.330416107,-0.001626000,0.002861023,-0.021978378,-2.017584229,-0.003603000,-0.004386902,0.021978378,0.523086548,0.420323998,0.361829758,0.083517075,2.857147217,-0.403928995,-0.388716908,-0.000006038,-1.686226960,0.000000000,-0.002205079,0.010203786,0.255314857,-0.002823000,-0.003623962,-0.021978378,0.110138702,-0.002583000,0.000572205,-0.013187408,-2.316494751,0.072552003,0.063134193,-0.004396439,1.419790649,0.266638011,0.203516960,-0.004396439,3.150177002,-0.297298014,-0.282321319,-0.017578102,-1.487632613,-0.004260000,-0.000431556,0.009867647,-0.265077798
0.195982335,-0.008321000,-0.004005432,-0.021978378,0.110138702,-0.001667000,0.002861023,0.013187408,-2.017584229,-0.003583000,-0.004386902,0.021978378,0.074734497,0.420195013,0.362211227,0.092308044,2.710632324,-0.403970987,-0.388716908,0.008769889,-1.487851474,0.000000000,-0.002205079,0.030613076,0.255422714,-0.002906000,-0.003623962,-0.004396439,0.110138702,-0.002590000,0.000953674,-0.048351288,-2.316494751,0.072616003,0.063134193,0.021978378,1.270321655,0.266557992,0.203516960,0.004396439,2.857147217,-0.297347009,-0.282321319,-0.017578102,-1.685995844,-0.004328000,-0.000431556,0.009867647,-0.353414266
0.197982155,-0.008519000,-0.004005432,0.030769348,0.110138702,-0.001707000,0.002861023,-0.048351288,-0.821969604,-0.003562000,-0.004386902,0.021978378,0.074734497,0.420065999,0.362592697,0.101099014,2.857147217,-0.404009014,-0.388716908,0.008769889,-1.487851474,0.000000000,-0.002205079,0.030613076,0.255422714,-0.002991000,-0.003623962,-0.004396439,0.110138702,-0.002595000,0.000572205,-0.004396439,-0.373617554,0.072679996,0.063134193,0.074726105,2.914288330,0.266492993,0.203516960,-0.004396439,3.296691895,-0.297394007,-0.282321319,-0.013180836,-1.586825294,-0.004395000,-0.000431556,-0.019741648,-0.309250960
0.199981975,-0.008716000,-0.004005432,0.004396439,-0.110138702,-0.001748000,0.002861023,0.021978378,-0.821969604,-0.003542000,-0.004386902,0.030769348,-1.120880127,0.419937998,0.362592697,0.109889984,3.003662109,-0.404044986,-0.388716908,-0.000006038,-1.388704673,0.000000000,-0.002205079,0.010203786,0.298198577,-0.003078000,-0.003623962,0.021978378,0.330416107,-0.002596000,0.000572205,-0.048351288,-2.017584229,0.072743997,0.063134193,-0.004396439,2.017584229,0.266443998,0.203516960,0.004396439,3.150177002,-0.297439009,-0.282321319,-0.004391850,-1.487632613,-0.004462000,-0.000431556,-0.019742634,-0.265077798
0.201981794,-0.008910000,-0.004005432,-0.004396439,-0.110138702,-0.001789000,0.002861023,0.021978378,-2.167025757,-0.003521000,-0.004386902,-0.039560318,0.074734497,0.419806987,0.362974167,0.109889984,2.710632324,-0.404076993,-0.388716908,-0.008806113,-1.586998275,-0.000001000,-0.002205079,0.030600784,0.212646851,-0.003168000,-0.003623962,0.004396439,0.110138702,-0.002596000,0.000572205,-0.030769348,-2.017584229,0.072811998,0.063515663,0.048351288,2.316494751,0.266406000,0.203516960,-0.004396439,3.150177002,-0.297482014,-0.282511940,-0.008786816,-1.388409162,-0.004528000,-0.000859819,-0.009872809,-0.397664763
0.203981614,-0.009102000,-0.004005432,0.004396439,-0.330416107,-0.001833000,0.002861023,-0.030769348,-1.569232178,-0.003500000,-0.004386902,0.101099014,0.523086548,0.419672012,0.362974167,0.109889984,3.003662109,-0.404105991,-0.388716908,0.004394954,-1.487851474,-0.000002000,-0.002205079,0.000003073,0.255422714,-0.003265000,-0.003623962,-0.021978378,0.330416107,-0.002595000,0.000572205,-0.109889984,-1.120880127,0.072881997,0.063515663,0.048351288,1.868142700,0.266368002,0.203516960,-0.004396439,3.150177002,-0.297520995,-0.282511940,-0.013178662,-1.487597084,-0.004595000,-0.000859819,-0.019744466,-0.353536601
0.205981434,-0.009292000,-0.004005432,-0.030769348,-0.330416107,-0.001880000,0.002861023,-0.004396439,-0.523086548,-0.003479000,-0.004386902,-0.057142258,-0.821969604,0.419533014,0.363355637,0.092308044,3.150177002,-0.404132009,-0.388716908,-0.000006038,-1.487851474,-0.000004000,-0.002205079,0.010203786,0.255422714,-0.003368000,-0.003623962,-0.039560318,0.330416107,-0.002592000,0.000572205,0.013187408,-1.419790649,0.072956003,0.063515663,0.048351288,2.316494751,0.266330987,0.203516960,-0.004396439,3.150177002,-0.297558993,-0.282511940,-0.013183001,-1.190057450,-0.004662000,-0.000859819,-0.000003454,-0.309311374
0.207981254,-0.009480000,-0.004005432,0.004396439,-0.330416107,-0.001928000,0.002861023,-0.004396439,-2.017584229,-0.003457000,-0.004386902,0.048351288,0.224176025,0.419391990,0.363355637,0.083517075,3.003662109,-0.404155999,-0.388716908,-0.000006038,-1.487851474,-0.000008000,-0.002205079,0.010203786,0.255422714,-0.003476000,-0.003623962,0.030769348,0.330416107,-0.002589000,0.000572205,0.004396439,-1.270321655,0.073032998,0.063897133,0.039560318,1.120880127,0.266297013,0.203516960,-0.004396439,2.857147217,-0.297594011,-0.282511940,-0.017579187,-1.586785007,-0.004729000,-0.000859819,0.009865902,-0.309408438
0.209981073,-0.009667000,-0.004005432,0.021978378,-0.330416107,-0.001977000,0.002861023,-0.048351288,-1.868142700,-0.003434000,-0.004386902,-0.030769348,-0.373617554,0.419247001,0.363355637,0.083517075,3.003662109,-0.404177994,-0.388716908,0.004394954,-1.586998275,-0.000012000,-0.002205079,0.000003073,0.212646851,-0.003590000,-0.003623962,-0.004396439,-0.110138702,-0.002586000,0.000572205,-0.074726105,-1.868142700,0.073110998,0.063897133,0.136262894,1.270321655,0.266263992,0.203516960,-0.004396439,3.150177002,-0.297627002,-0.282511940,-0.021971033,-1.487598087,-0.004796000,-0.000859819,-0.000005756,-0.265226815
0.211980893,-0.009854000,-0.004005432,0.004396439,0.110138702,-0.002027000,0.002861023,-0.021978378,-1.569232178,-0.003413000,-0.004386902,0.057142258,-0.672528076,0.419101000,0.363737106,0.083517075,3.736267090,-0.404199004,-0.388716908,0.004369852,-1.586998275,-0.000018000,-0.002205079,0.040811575,0.212646851,-0.003707000,-0.003623962,-0.004396439,0.330416107,-0.002581000,0.000572205,0.021978378,-0.672528076,0.073190004,0.063897133,0.109889984,2.017584229,0.266232014,0.203516960,-0.004396439,3.003662109,-0.297659010,-0.282511940,-0.021957061,-1.289245373,-0.004863000,-0.000859819,-0.059230935,-0.265183211
0.213980713,-0.010042000,-0.004005432,-0.013187408,-0.550662231,-0.002077000,0.002861023,-0.004396439,-1.868142700,-0.003391000,-0.004386902,-0.004396439,0.672528076,0.418951988,0.363737106,0.074726105,3.003662109,-0.404217988,-0.388716908,-0.013206150,-1.686226960,-0.000024000,-0.002205079,0.040799284,0.255314857,-0.003828000,-0.003623962,-0.004396439,0.330416107,-0.002576000,0.000572205,0.004396439,-1.569232178,0.073269002,0.063897133,0.109889984,2.017584229,0.266202986,0.203516960,-0.004396439,3.296691895,-0.297690004,-0.282702514,-0.039514523,-1.289210864,-0.004929000,-0.001288132,-0.098730367,-0.265310406
0.215980533,-0.010230000,-0.004005432,0.004396439,-0.770939636,-0.002127000,0.002861023,-0.030769348,-2.167025757,-0.003370000,-0.004386902,0.013187408,-0.523086548,0.418803006,0.364118576,0.065933228,3.296691895,-0.404237986,-0.388716908,-0.008782917,-1.586998275,-0.000031000,-0.002205079,-0.010207718,0.212646851,-0.003952000,-0.003623962,0.013187408,0.330416107,-0.002570000,0.000572205,-0.048351288,-1.718673706,0.073348999,0.064278603,0.057142258,2.017584229,0.266175985,0.203516960,0.004396439,3.296691895,-0.297719985,-0.282702514,-0.061475784,-1.289210864,-0.004996000,-0.001288132,-0.128350017,-0.265310406
0.217980352,-0.010420000,-0.004005432,0.013187408,-0.110138702,-0.002177000,0.002479553,-0.039560318,-1.120880127,-0.003350000,-0.004386902,0.048351288,-0.821969604,0.418653011,0.364118576,0.057142258,3.003662109,-0.404256999,-0.388716908,0.000006038,-1.388644927,-0.000039000,-0.002205079,-0.010203786,0.212764227,-0.004079000,-0.003623962,0.004396439,0.330416107,-0.002563000,0.000572205,-0.013187408,-2.017584229,0.073426999,0.064278603,0.039560318,1.419790649,0.266151011,0.203516960,-0.004396439,3.150177002,-0.297751009,-0.282893040,-0.052682295,-1.289176379,-0.005061000,-0.001716493,-0.108617396,-0.265437612
0.219980172,-0.010613000,-0.004005432,-0.021978378,-0.330416107,-0.002226000,0.002861023,0.057142258,-1.868142700,-0.003331000,-0.004386902,0.048351288,-0.821969604,0.418502986,0.364118576,0.030769348,3.296691895,-0.404278010,-0.388716908,-0.004394954,-1.388644927,-0.000047000,-0.002205079,-0.000003073,0.212764227,-0.004207000,-0.003623962,0.030769348,0.110138702,-0.002556000,0.000572205,-0.039560318,-0.224176025,0.073504001,0.064278603,-0.004396439,1.120880127,0.266128004,0.203516960,-0.004396439,3.443237305,-0.297780991,-0.283083519,-0.048281736,-1.487459089,-0.005127000,-0.002144903,-0.098755315,-0.353968968
0.221979992,-0.010808000,-0.004005432,0.013187408,-0.110138702,-0.002273000,0.002479553,-0.048351288,-1.718673706,-0.003313000,-0.004386902,0.013187408,0.074734497,0.418352991,0.364118576,0.030769348,3.150177002,-0.404298991,-0.388716908,-0.008806113,-1.586998275,-0.000057000,-0.002205079,0.030600784,0.212646851,-0.004337000,-0.003623962,0.004396439,0.330416107,-0.002549000,0.000572205,0.048351288,-1.868142700,0.073578000,0.064660072,0.039560318,2.017584229,0.266108990,0.203516960,-0.004396439,3.150177002,-0.297812998,-0.283083519,-0.043904018,-1.388347151,-0.005191000,-0.002144903,-0.069135970,-0.221476836
0.223979812,-0.011007000,-0.004005432,-0.004396439,-0.550662231,-0.002319000,0.002479553,0.004396439,-1.569232178,-0.003296000,-0.004386902,0.048351288,-0.971438599,0.418204010,0.364118576,0.021978378,3.150177002,-0.404321015,-0.388716908,-0.008782917,-1.586998275,-0.000067000,-0.002205079,-0.010207718,0.212646851,-0.004467000,-0.003623962,-0.013187408,0.110138702,-0.002540000,0.000572205,-0.004396439,-1.419790649,0.073650002,0.064660072,-0.004396439,1.270321655,0.266092002,0.203516960,-0.004396439,3.003662109,-0.297845006,-0.283083519,-0.043893154,-1.487494674,-0.005255000,-0.002144903,-0.088880285,-0.265673973
0.225979631,-0.011210000,-0.004005432,-0.013187408,-0.550662231,-0.002362000,0.002479553,-0.021978378,-1.868142700,-0.003282000,-0.004386902,0.039560318,0.971438599,0.418056995,0.364118576,0.004396439,3.296691895,-0.404345989,-0.388716908,0.008769889,-1.487851474,-0.000079000,-0.002205079,0.030613076,0.255422714,-0.004597000,-0.003623962,-0.004396439,0.110138702,-0.002531000,0.000572205,0.013187408,-1.569232178,0.073717996,0.064660072,0.048351288,1.718673706,0.266077995,0.203516960,-0.004396439,3.150177002,-0.297879010,-0.283273951,-0.039507944,-1.487529499,-0.005317000,-0.002573362,-0.059267275,-0.177542879
0.227979451,-0.011419000,-0.004005432,-0.013187408,-0.330416107,-0.002402000,0.002479553,-0.004396439,-1.419790649,-0.003269000,-0.004386902,0.021978378,0.821969604,0.417910993,0.364118576,0.004396439,3.736267090,-0.404372990,-0.388716908,-0.004406075,-1.487851474,-0.000091000,-0.002205079,0.020402285,0.255422714,-0.004727000,-0.003623962,0.021978378,0.330416107,-0.002522000,0.000572205,-0.048351288,-1.419790649,0.073781997,0.064660072,0.057142258,0.821969604,0.266066998,0.203516960,-0.013187408,3.003662109,-0.297915012,-0.283464861,-0.048303451,-1.586699890,-0.005379000,-0.002145131,-0.059273577,-0.221560568
0.229979271,-0.011632000,-0.004005432,0.021978378,-0.991217041,-0.002439000,0.002479553,-0.004396439,-1.868142700,-0.003258000,-0.004005432,0.074726105,-1.120880127,0.417768002,0.364118576,-0.004396439,3.443237305,-0.404404014,-0.388716908,0.004381925,-1.487851474,-0.000103000,-0.002205079,0.020408431,0.255422714,-0.004856000,-0.003623962,0.030769348,-0.110138702,-0.002512000,0.000572205,0.004396439,-1.718673706,0.073840998,0.065041542,0.074726105,2.465936279,0.266059011,0.203516960,-0.013187408,2.857147217,-0.297953993,-0.283655292,-0.021930924,-1.685835138,-0.005439000,-0.002573640,-0.059262521,-0.265933453
0.231979091,-0.011852000,-0.004005432,-0.013187408,-0.550662231,-0.002473000,0.002479553,-0.101099014,-1.868142700,-0.003249000,-0.004386902,-0.021978378,0.224176025,0.417627007,0.364118576,-0.004396439,3.443237305,-0.404437006,-0.388716908,0.004394954,-1.487851474,-0.000117000,-0.002205079,0.000003073,0.255422714,-0.004984000,-0.003623962,0.004396439,0.330416107,-0.002502000,0.000572205,-0.013187408,-1.120880127,0.073895000,0.065041542,0.074726105,2.465936279,0.266054988,0.203516960,-0.004396439,2.857147217,-0.297995001,-0.283655292,0.000006524,-1.586671247,-0.005498000,-0.002573640,-0.009875999,-0.221723110
0.233978910,-0.012080000,-0.004005432,-0.030769348,-0.770939636,-0.002502000,0.002479553,-0.057142258,-2.017584229,-0.003243000,-0.004005432,-0.021978378,-0.224176025,0.417490005,0.364118576,-0.013187408,3.443237305,-0.404475003,-0.388716908,0.013195028,-1.586998275,-0.000132000,-0.002205079,-0.020393925,0.212646851,-0.005109000,-0.003623962,-0.013187408,-0.330416107,-0.002492000,0.000572205,0.057142258,-1.718673706,0.073942997,0.065041542,0.013187408,1.569232178,0.266054988,0.203516960,0.004396439,2.710632324,-0.298038989,-0.283655292,0.008782456,-1.785046151,-0.005555000,-0.002573640,0.009880752,-0.221864010
0.235978730,-0.012321000,-0.004005432,0.004396439,-0.550662231,-0.002531000,0.002479553,-0.057142258,-1.419790649,-0.003238000,-0.004386902,-0.004396439,-0.074734497,0.417353988,0.364118576,-0.004396439,3.443237305,-0.404518992,-0.388716908,0.004394954,-1.586998275,-0.000160000,-0.002205079,0.000003073,0.212646851,-0.005234000,-0.003623962,0.021978378,0.110138702,-0.002477000,0.000572205,0.004396439,-0.523086548,0.073990002,0.065423012,0.057142258,1.419790649,0.266066998,0.203516960,-0.004396439,3.003662109,-0.298083991,-0.283655292,0.013155945,-1.487529481,-0.005612000,-0.002573640,0.039507912,-0.177522631
0.237978550,-0.012576000,-0.004005432,-0.013187408,-0.330416107,-0.002560000,0.002479553,0.004396439,-2.017584229,-0.003233000,-0.004005432,-0.048351288,-0.074734497,0.417219996,0.364118576,-0.013187408,3.296691895,-0.404569000,-0.388716908,0.004381925,-1.686226960,-0.000205000,-0.002205079,0.020408431,0.255314857,-0.005361000,-0.003623962,0.021978378,-0.110138702,-0.002456000,0.000572205,0.057142258,-1.270321655,0.074037999,0.065423012,0.030769348,2.017584229,0.266093999,0.203516960,-0.004396439,2.857147217,-0.298130989,-0.283655292,0.008768455,-1.785046151,-0.005668000,-0.002573640,0.029630608,-0.221864010
0.239978370,-0.012842000,-0.004005432,-0.004396439,-0.991217041,-0.002590000,0.002479553,-0.030769348,-1.569232178,-0.003228000,-0.004005432,-0.048351288,-0.074734497,0.417086989,0.364118576,-0.004396439,3.150177002,-0.404624999,-0.388716908,0.004381925,-1.686226960,-0.000265000,-0.002205079,0.020408431,0.255314857,-0.005488000,-0.003623962,0.057142258,-0.110138702,-0.002432000,0.000572205,-0.039560318,-1.419790649,0.074086003,0.065423012,0.057142258,2.017584229,0.266133010,0.203516960,-0.013187408,2.857147217,-0.298177987,-0.283655292,0.008782456,-1.685882260,-0.005723000,-0.002573640,0.009880752,-0.177653668
0.241978189,-0.013119000,-0.004005432,0.004396439,-0.550662231,-0.002619000,0.002479553,0.004396439,-1.868142700,-0.003223000,-0.004005432,-0.004396439,-0.074734497,0.416954011,0.364118576,-0.004396439,3.150177002,-0.404686987,-0.388716908,0.004369852,-1.587080159,-0.000339000,-0.002205079,0.040811575,0.298090720,-0.005617000,-0.003623962,-0.013187408,0.330416107,-0.002402000,0.000190735,-0.057142258,0.224176025,0.074133001,0.065423012,0.092308044,1.419790649,0.266184986,0.203516960,-0.004396439,3.296691895,-0.298227012,-0.283464335,0.008796585,-1.388289853,-0.005778000,-0.003001869,-0.009865220,-0.221758124
0.243978009,-0.013403000,-0.004005432,0.021978378,-0.330416107,-0.002647000,0.002479553,-0.021978378,-1.718673706,-0.003218000,-0.004005432,0.013187408,-0.523086548,0.416823000,0.364118576,-0.013187408,3.296691895,-0.404754013,-0.388716908,-0.000006038,-1.487851474,-0.000428000,-0.002205079,0.010203786,0.255422714,-0.005746000,-0.003623962,-0.013187408,0.110138702,-0.002369000,0.000572205,0.048351288,-1.270321655,0.074180000,0.065423012,-0.004396439,2.017584229,0.266247988,0.203516960,-0.004396439,2.564117432,-0.298278004,-0.283464335,0.004409231,-1.586642659,-0.005831000,-0.003001869,-0.019744646,-0.221910988
0.245977829,-0.013692000,-0.004386902,-0.039560318,-0.550662231,-0.002675000,0.002479553,-0.048351288,-1.718673706,-0.003214000,-0.004005432,-0.004396439,-0.074734497,0.416691989,0.364118576,-0.004396439,3.150177002,-0.404826999,-0.388716908,0.004394954,-1.686226960,-0.000529000,-0.002205079,0.000003073,0.255314857,-0.005875000,-0.003623962,0.030769348,0.330416107,-0.002332000,0.000572205,-0.039560318,-1.120880127,0.074225001,0.065804482,0.004396439,2.316494751,0.266319990,0.203516960,0.004396439,2.857147217,-0.298330992,-0.283464335,0.008765194,-1.685800801,-0.005885000,-0.003001869,0.029629969,-0.266134899
0.247977649,-0.013985000,-0.004386902,0.057142258,-0.991217041,-0.002702000,0.002479553,-0.101099014,-1.718673706,-0.003210000,-0.004005432,-0.030769348,-0.971438599,0.416561991,0.364118576,0.004396439,3.296691895,-0.404904991,-0.388716908,0.000018112,-1.586998275,-0.000643000,-0.002205079,-0.030606930,0.212646851,-0.006006000,-0.003623962,0.004396439,0.110138702,-0.002292000,0.000572205,0.013187408,-1.120880127,0.074268997,0.065804482,0.065933228,1.270321655,0.266402006,0.203516960,-0.004396439,3.003662109,-0.298384994,-0.283655292,-0.013182991,-1.487460234,-0.005937000,-0.002573640,-0.000010342,-0.265792552
0.249977468,-0.014279000,-0.004386902,0.021978378,-0.770939636,-0.002727000,0.002098083,-0.013187408,-1.419790649,-0.003206000,-0.004005432,-0.021978378,-0.074734497,0.416433007,0.364118576,0.004396439,3.150177002,-0.404987007,-0.388716908,0.004394954,-1.487791728,-0.000769000,-0.002205079,0.000003073,0.169988364,-0.006137000,-0.003623962,-0.013187408,-0.110138702,-0.002249000,0.000572205,-0.013187408,-0.821969604,0.074309997,0.065804482,0.039560318,2.465936279,0.266492009,0.203516960,-0.004396439,2.857147217,-0.298442990,-0.283464335,0.004394964,-1.487425871,-0.005989000,-0.003001869,0.000004021,-0.265972168
0.251977288,-0.014573000,-0.004386902,0.013187408,-0.330416107,-0.002750000,0.002098083,-0.004396439,-2.316494751,-0.003203000,-0.004005432,-0.013187408,-0.821969604,0.416303992,0.364118576,0.004396439,3.296691895,-0.405074000,-0.388716908,0.004381925,-1.686226960,-0.000905000,-0.002205079,0.020408431,0.255314857,-0.006268000,-0.003623962,0.004396439,0.110138702,-0.002204000,0.000572205,-0.039560318,-2.316494751,0.074349001,0.065804482,0.083517075,1.868142700,0.266588002,0.203516960,-0.004396439,3.150177002,-0.298503011,-0.283464335,0.013167769,-1.487425871,-0.006040000,-0.003001869,0.019758586,-0.265972168
0.253977108,-0.014864000,-0.004386902,0.004396439,-0.770939636,-0.002772000,0.002098083,-0.057142258,-2.167025757,-0.003200000,-0.004005432,0.013187408,0.074734497,0.416175991,0.364118576,0.004396439,3.150177002,-0.405166000,-0.388716908,0.004381925,-1.785373761,-0.001051000,-0.002205079,0.020408431,0.212538994,-0.006400000,-0.003623962,-0.021978378,0.550662231,-0.002156000,0.000572205,0.004396439,-0.971438599,0.074383996,0.065804482,0.083517075,1.868142700,0.266690999,0.203516960,-0.004396439,2.271057129,-0.298566014,-0.283464335,0.000007611,-1.487425871,-0.006090000,-0.003001869,-0.009875404,-0.265972168
0.255976928,-0.015150000,-0.004386902,0.004396439,-0.330416107,-0.002791000,0.002098083,-0.057142258,-1.718673706,-0.003197000,-0.004005432,-0.004396439,0.224176025,0.416049004,0.364118576,0.021978378,3.003662109,-0.405261993,-0.388716908,0.004381925,-1.686226960,-0.001206000,-0.002205079,0.020408431,0.255314857,-0.006532000,-0.003623962,0.039560318,-0.110138702,-0.002106000,0.000572205,0.004396439,-1.270321655,0.074415997,0.066185951,0.030769348,1.569232178,0.266797990,0.203516960,0.004396439,2.857147217,-0.298633009,-0.283464335,0.000007611,-1.388289853,-0.006140000,-0.003001869,-0.009875404,-0.221758124
0.257976747,-0.015429000,-0.004386902,0.039560318,-0.550662231,-0.002807000,0.002098083,-0.021978378,-2.316494751,-0.003195000,-0.004005432,0.013187408,-0.224176025,0.415921986,0.364118576,0.013187408,3.003662109,-0.405360997,-0.388716908,0.008794991,-1.586998275,-0.001370000,-0.002205079,-0.010195426,0.212646851,-0.006665000,-0.003623962,0.048351288,0.110138702,-0.002056000,0.000572205,-0.004396439,-0.971438599,0.074442998,0.066185951,-0.030769348,1.419790649,0.266909987,0.203516960,-0.004396439,3.003662109,-0.298703015,-0.283464335,0.008765194,-1.289153834,-0.006189000,-0.003001869,0.029629969,-0.177544080
0.259976567,-0.015698999,-0.004386902,-0.021978378,-0.770939636,-0.002821000,0.002098083,-0.004396439,-1.569232178,-0.003193000,-0.004005432,0.039560318,-0.373617554,0.415796012,0.364118576,0.013187408,3.296691895,-0.405463994,-0.388716908,-0.004394954,-1.586938529,-0.001541000,-0.002205079,-0.000003073,0.127212501,-0.006797000,-0.003623962,-0.030769348,0.110138702,-0.002004000,0.000572205,-0.048351288,-1.120880127,0.074464999,0.066185951,0.039560318,1.569232178,0.267024994,0.203516960,-0.004396439,3.150177002,-0.298777014,-0.283464335,0.004378791,-1.189856276,-0.006237000,-0.003001869,0.019752687,-0.309880485
0.261976387,-0.015958000,-0.004386902,-0.013187408,-0.770939636,-0.002832000,0.002098083,-0.048351288,-1.868142700,-0.003192000,-0.004005432,0.065933228,-0.821969604,0.415668994,0.364118576,0.013187408,3.443237305,-0.405571014,-0.388716908,-0.008806113,-1.586998275,-0.001719000,-0.002205079,0.030600784,0.212646851,-0.006930000,-0.003623962,-0.039560318,0.110138702,-0.001951000,0.000572205,0.013187408,-1.120880127,0.074483000,0.066185951,0.083517075,1.868142700,0.267141014,0.203516960,-0.004396439,3.003662109,-0.298855007,-0.283464335,0.000007611,-1.586642659,-0.006284000,-0.003001869,-0.009875404,-0.221910988
0.263976207,-0.016204000,-0.004386902,-0.013187408,-0.991217041,-0.002839000,0.002098083,-0.004396439,-2.615377808,-0.003191000,-0.004005432,0.013187408,-0.523086548,0.415542990,0.364118576,-0.004396439,3.003662109,-0.405681014,-0.388716908,-0.008782917,-1.686145076,-0.001903000,-0.002205079,-0.010207718,0.169870988,-0.007063000,-0.003623962,-0.004396439,-0.550662231,-0.001898000,0.000572205,0.021978378,-1.569232178,0.074493997,0.066185951,0.065933228,1.718673706,0.267259002,0.203516960,-0.004396439,2.857147217,-0.298936993,-0.283655292,-0.000006524,-1.586624125,-0.006331000,-0.002573640,0.009875999,-0.310002895
0.265976026,-0.016434999,-0.004386902,-0.030769348,-0.991217041,-0.002842000,0.002098083,-0.039560318,-1.270321655,-0.003190000,-0.004005432,-0.004396439,0.672528076,0.415417999,0.364118576,0.004396439,3.443237305,-0.405793011,-0.388716908,-0.008782917,-1.686085330,-0.002092000,-0.002205079,-0.010207718,0.084436638,-0.007195000,-0.003623962,-0.004396439,0.110138702,-0.001845000,0.000572205,-0.030769348,-0.971438599,0.074500002,0.066567421,0.021978378,1.868142700,0.267376006,0.203516960,-0.013187408,3.150177002,-0.299023986,-0.283464335,0.000022829,-1.388289853,-0.006376000,-0.003001869,-0.029621929,-0.221758124
0.267975846,-0.016652999,-0.004386902,-0.057142258,-0.550662231,-0.002840000,0.002098083,-0.004396439,-1.718673706,-0.003192000,-0.004005432,-0.004396439,0.672528076,0.415291995,0.364118576,0.004396439,3.003662109,-0.405910999,-0.388716908,-0.008782917,-1.785291877,-0.002297000,-0.002205079,-0.010207718,0.127095124,-0.007328000,-0.003623962,0.030769348,-0.330416107,-0.001792000,0.000190735,0.004396439,-0.523086548,0.074499004,0.066567421,0.004396439,2.764846802,0.267495990,0.203516960,-0.013187408,3.003662109,-0.299116999,-0.283464335,-0.000007611,-1.586584013,-0.006421000,-0.003001869,0.009875404,-0.310196079
0.269975666,-0.016868001,-0.004386902,-0.074726105,-0.991217041,-0.002827000,0.002098083,0.065933228,-2.914288330,-0.003202000,-0.004005432,-0.030769348,-1.718673706,0.415167004,0.364118576,-0.004396439,3.443237305,-0.406042010,-0.388716908,-0.000006038,-1.785291877,-0.002548000,-0.002205079,0.010203786,0.127095124,-0.007463000,-0.003623962,-0.021978378,-0.110138702,-0.001734000,0.000190735,0.065933228,0.523086548,0.074491002,0.066567421,0.021978378,1.419790649,0.267628014,0.203516960,-0.004396439,2.857147217,-0.299221992,-0.283464335,-0.004409231,-1.784936819,-0.006466000,-0.003001869,0.019744646,-0.310348943
0.271975486,-0.017082000,-0.004386902,0.013187408,-1.431740570,-0.002805000,0.002098083,-0.039560318,-1.270321655,-0.003218000,-0.004005432,0.021978378,-0.373617554,0.415042996,0.364118576,0.004396439,3.003662109,-0.406185001,-0.388716908,-0.004406075,-1.686145076,-0.002845000,-0.002205079,0.020402285,0.169870988,-0.007598000,-0.003623962,-0.039560318,-0.110138702,-0.001672000,0.000572205,-0.048351288,-2.167025757,0.074478000,0.066567421,0.013187408,0.971438599,0.267773986,0.203516960,0.004396439,2.857147217,-0.299338996,-0.283655292,-0.004420106,-1.190034936,-0.006511000,-0.002573640,0.039494124,-0.133191116
0.273975305,-0.017294001,-0.004768372,-0.021978378,-1.431740570,-0.002774000,0.002098083,-0.021978378,-1.718673706,-0.003242000,-0.004005432,0.013187408,-0.074734497,0.414918989,0.364118576,0.013187408,2.857147217,-0.406340003,-0.388716908,0.004394954,-1.686145076,-0.003185000,-0.002205079,0.000003073,0.169870988,-0.007735000,-0.003623962,-0.021978378,-0.110138702,-0.001606000,0.000572205,0.013187408,-1.419790649,0.074459001,0.066948891,0.083517075,1.868142700,0.267931998,0.203516960,-0.004396439,3.003662109,-0.299468011,-0.283464335,0.004378791,-1.487367225,-0.006556000,-0.003001869,0.019752687,-0.354257260
0.275975125,-0.017502001,-0.004768372,0.021978378,-0.770939636,-0.002735000,0.002098083,-0.021978378,-1.419790649,-0.003272000,-0.004005432,0.021978378,0.074734497,0.414795995,0.364118576,0.004396439,3.003662109,-0.406506002,-0.388716908,-0.013195028,-1.586878784,-0.003564000,-0.002205079,0.020393925,0.041778151,-0.007873000,-0.003623962,-0.021978378,-0.110138702,-0.001537000,0.000190735,0.021978378,-0.373617554,0.074435003,0.066948891,0.083517075,1.868142700,0.268101007,0.203516960,-0.004396439,2.857147217,-0.299607009,-0.283464335,-0.004394964,-1.586503243,-0.006600000,-0.003001869,-0.000004021,-0.398471304
0.277974945,-0.017707000,-0.004768372,-0.030769348,-1.211463165,-0.002688000,0.001716614,-0.039560318,-0.971438599,-0.003307000,-0.004005432,-0.004396439,0.224176025,0.414671987,0.364118576,0.004396439,3.003662109,-0.406682014,-0.388716908,-0.008794991,-1.686085330,-0.003979000,-0.002205079,0.010195426,0.084436638,-0.008012000,-0.004005432,-0.021978378,-0.330416107,-0.001465000,0.000190735,-0.030769348,-0.821969604,0.074405000,0.066948891,0.083517075,2.017584229,0.268281996,0.203516960,-0.004396439,3.150177002,-0.299755991,-0.283464335,-0.004394964,-1.784936819,-0.006643000,-0.003001869,-0.000004021,-0.310348943
0.279974765,-0.017907999,-0.004768372,-0.030769348,-0.991217041,-0.002635000,0.002098083,0.013187408,-2.316494751,-0.003348000,-0.004005432,-0.039560318,-0.971438599,0.414550006,0.364118576,-0.004396439,2.710632324,-0.406866014,-0.388716908,0.004394954,-1.785232131,-0.004427000,-0.002205079,0.000003073,0.041660775,-0.008150000,-0.003623962,-0.004396439,-0.110138702,-0.001390000,0.000572205,0.057142258,-1.569232178,0.074371003,0.066948891,-0.021978378,1.868142700,0.268472999,0.203516960,0.004396439,2.710632324,-0.299914986,-0.283464335,-0.000007611,-1.685720031,-0.006686000,-0.003001869,0.009875404,-0.354410123
0.281974584,-0.018103000,-0.004768372,-0.021978378,-0.991217041,-0.002577000,0.001716614,0.004396439,-1.569232178,-0.003393000,-0.004005432,-0.021978378,-0.224176025,0.414427996,0.364118576,0.004396439,3.003662109,-0.407059014,-0.388907320,0.004394952,-1.785238323,-0.004903000,-0.002647846,0.000003692,0.041446317,-0.008289000,-0.004005432,0.004396439,-0.110138702,-0.001312000,0.000572205,0.013187408,-0.971438599,0.074332997,0.066948891,0.065933228,2.316494751,0.268673986,0.203516960,-0.004396439,3.003662109,-0.300081998,-0.283464335,-0.000007611,-1.487425871,-0.006728000,-0.003001869,0.009875404,-0.265972168
0.283974404,-0.018293001,-0.004768372,0.004396439,-0.991217041,-0.002513000,0.001716614,-0.048351288,-2.465936279,-0.003443000,-0.004005432,-0.021978378,-0.224176025,0.414306015,0.364118576,0.004396439,3.003662109,-0.407260001,-0.388907320,-0.000007249,-1.586813198,-0.005405000,-0.002647846,0.010204435,-0.043841680,-0.008427000,-0.004005432,-0.004396439,0.110138702,-0.001232000,0.000572205,0.030769348,-0.971438599,0.074290998,0.066948891,0.057142258,2.017584229,0.268884003,0.203516960,-0.004396439,3.150177002,-0.300258994,-0.283464335,0.008781367,-1.487425871,-0.006770000,-0.003001869,0.009881304,-0.265972168
0.285974224,-0.018476000,-0.004768372,0.030769348,-1.211463165,-0.002446000,0.001716614,-0.065933228,-0.971438599,-0.003496000,-0.004005432,-0.057142258,0.523086548,0.414184988,0.364118576,-0.004396439,2.857147217,-0.407467008,-0.388907320,0.000007249,-1.785166566,-0.005928000,-0.002647846,-0.010204435,-0.043982582,-0.008565000,-0.004005432,-0.021978378,0.110138702,-0.001151000,0.000190735,-0.048351288,-1.120880127,0.074244998,0.067330360,0.074726105,2.017584229,0.269102007,0.203516960,-0.004396439,2.857147217,-0.300442994,-0.283464335,-0.008781367,-1.784856049,-0.006810000,-0.003001869,-0.009881304,-0.398624167
0.287974044,-0.018652000,-0.004768372,-0.021978378,-0.770939636,-0.002375000,0.001716614,-0.057142258,-1.868142700,-0.003553000,-0.004005432,0.048351288,0.224176025,0.414063990,0.364118576,0.004396439,2.710632324,-0.407678992,-0.388907320,0.000036238,-1.685954004,-0.006471000,-0.002647846,-0.051013320,-0.086626580,-0.008701000,-0.004005432,-0.004396439,-0.330416107,-0.001068000,0.000190735,-0.030769348,-0.821969604,0.074196003,0.067330360,0.057142258,2.167025757,0.269327998,0.203516960,-0.004396439,3.150177002,-0.300633997,-0.283464335,0.004378791,-1.586503243,-0.006850000,-0.003001869,0.019752687,-0.398471304
0.289973863,-0.018820999,-0.004768372,0.013187408,-0.991217041,-0.002302000,0.001716614,0.013187408,-1.868142700,-0.003611000,-0.004005432,-0.013187408,0.373617554,0.413944006,0.364118576,-0.004396439,3.150177002,-0.407896012,-0.388907320,-0.013182951,-1.685954004,-0.007028000,-0.002647846,-0.000011073,-0.086626580,-0.008837000,-0.004005432,0.004396439,-0.550662231,-0.000984000,0.000572205,0.004396439,-1.270321655,0.074143998,0.067330360,-0.021978378,1.868142700,0.269560993,0.203516960,-0.004396439,3.003662109,-0.300832003,-0.283464335,0.004378791,-1.388209083,-0.006889000,-0.003001869,0.019752687,-0.310033348
0.291973683,-0.018981000,-0.004768372,-0.004396439,-0.770939636,-0.002228000,0.001716614,0.048351288,-1.718673706,-0.003672000,-0.004005432,-0.030769348,-0.373617554,0.413823992,0.364118576,-0.004396439,3.150177002,-0.408116996,-0.388907320,-0.004365009,-1.884307372,-0.007597000,-0.002647846,-0.040814790,-0.086767482,-0.008970000,-0.004005432,-0.030769348,-0.110138702,-0.000899000,0.000572205,0.065933228,-0.821969604,0.074088998,0.067330360,0.039560318,2.017584229,0.269800991,0.203516960,-0.013187408,3.150177002,-0.301037014,-0.283464335,0.008765194,-1.487367225,-0.006926000,-0.003001869,0.029629969,-0.354257260
0.293973503,-0.019131999,-0.004768372,0.004396439,-1.211463165,-0.002153000,0.001716614,-0.039560318,-1.718673706,-0.003735000,-0.004005432,-0.021978378,0.971438599,0.413704008,0.364118576,0.004396439,3.003662109,-0.408340991,-0.388907320,-0.013168456,-1.785094810,-0.008174000,-0.002647846,-0.020415516,-0.129411480,-0.009102000,-0.004005432,0.004396439,-0.330416107,-0.000813000,0.000572205,-0.021978378,-0.074734497,0.074033000,0.067330360,0.021978378,1.419790649,0.270047009,0.203516960,-0.013187408,3.443237305,-0.301247001,-0.283464335,0.008796585,-1.586584013,-0.006962000,-0.003001869,-0.009865220,-0.310196079
0.295973323,-0.019273000,-0.004768372,-0.048351288,-0.991217041,-0.002078000,0.001716614,0.030769348,-0.821969604,-0.003798000,-0.004005432,0.004396439,0.224176025,0.413585007,0.364118576,-0.004396439,2.857147217,-0.408565998,-0.389097680,-0.021919238,-1.884233940,-0.008756000,-0.003090668,-0.061240985,-0.172418567,-0.009232000,-0.004005432,0.004396439,-0.110138702,-0.000728000,0.000190735,-0.004396439,-0.224176025,0.073973998,0.067330360,0.074726105,2.017584229,0.270296991,0.203516960,0.004396439,3.150177002,-0.301461995,-0.283464335,-0.008781367,-1.784936819,-0.006997000,-0.003001869,-0.009881304,-0.310348943
0.297973142,-0.019404000,-0.004768372,-0.004396439,-1.652017975,-0.002004000,0.001716614,-0.013187408,-1.270321655,-0.003861000,-0.004005432,-0.013187408,-0.373617554,0.413466007,0.364118576,0.004396439,3.003662109,-0.408793002,-0.389097680,-0.052670670,-1.785077005,-0.009339000,-0.003090668,-0.071474021,-0.129615080,-0.009360000,-0.004005432,-0.004396439,-0.550662231,-0.000643000,0.000572205,0.004396439,-1.569232178,0.073913999,0.067711830,0.057142258,1.120880127,0.270552993,0.203516960,0.004396439,3.296691895,-0.301681012,-0.283464335,-0.004409231,-1.685720031,-0.007031000,-0.003001869,0.019744646,-0.354410123
0.299972962,-0.019523000,-0.005149841,-0.030769348,-1.211463165,-0.001932000,0.001716614,-0.013187408,-2.764846802,-0.003925000,-0.004386902,-0.021978378,0.373617554,0.413347989,0.364118576,0.004396439,2.710632324,-0.409020990,-0.389097680,-0.048251298,-1.685858424,-0.009921000,-0.003090668,-0.102078325,-0.172244583,-0.009484000,-0.004005432,0.030769348,-0.330416107,-0.000558000,0.000572205,-0.004396439,-1.270321655,0.073852003,0.067711830,0.057142258,1.120880127,0.270812005,0.203516960,-0.004396439,3.296691895,-0.301905006,-0.283464335,-0.000022829,-1.685720031,-0.007063000,-0.003001869,0.029621929,-0.354410123
0.301972782,-0.019638000,-0.005149841,-0.039560318,-0.550662231,-0.001858000,0.001716614,-0.092308044,-0.821969604,-0.003993000,-0.004386902,-0.030769348,-0.074734497,0.413228005,0.364118576,0.004396439,2.710632324,-0.409251988,-0.389287988,-0.057007818,-1.784985564,-0.010522000,-0.003533544,-0.122508530,-0.215246251,-0.009607000,-0.004005432,0.030769348,-0.330416107,-0.000473000,0.000572205,-0.013187408,-0.523086548,0.073781997,0.067711830,0.021978378,2.167025757,0.271079987,0.203516960,-0.013187408,3.150177002,-0.302139014,-0.283464335,-0.008796585,-1.685720031,-0.007094000,-0.003001869,0.009865220,-0.354410123
0.303972602,-0.019755000,-0.005149841,-0.021978378,-1.431740570,-0.001778000,0.001716614,0.004396439,-1.419790649,-0.004068000,-0.004386902,-0.092308044,0.523086548,0.413105994,0.364118576,0.004396439,2.857147217,-0.409491986,-0.389478243,-0.056993251,-1.784955794,-0.011167000,-0.003976476,-0.122524384,-0.215444469,-0.009729000,-0.004005432,-0.021978378,-0.330416107,-0.000387000,0.000572205,-0.013187408,-1.120880127,0.073696002,0.067711830,0.013187408,2.167025757,0.271362007,0.203516960,-0.004396439,3.150177002,-0.302390009,-0.283655292,-0.008795501,-1.784907657,-0.007125000,-0.002573640,0.009866962,-0.398403853
0.305972421,-0.019871000,-0.005149841,0.021978378,-0.991217041,-0.001691000,0.001716614,0.039560318,-1.569232178,-0.004152000,-0.004386902,-0.048351288,0.224176025,0.412981004,0.364118576,-0.004396439,3.003662109,-0.409738988,-0.389668445,-0.056929344,-1.685689394,-0.011849000,-0.004419463,-0.163361760,-0.258228700,-0.009851000,-0.004005432,-0.013187408,-0.330416107,-0.000299000,0.000572205,-0.039560318,-1.120880127,0.073596001,0.067711830,0.030769348,1.868142700,0.271656990,0.203516960,-0.004396439,3.003662109,-0.302655995,-0.283464335,-0.004394964,-1.586503243,-0.007156000,-0.003001869,-0.000004021,-0.398471304
0.307972241,-0.019987000,-0.005149841,-0.048351288,-0.770939636,-0.001600000,0.001716614,-0.065933228,-2.167025757,-0.004243000,-0.004386902,-0.048351288,0.224176025,0.412854999,0.364118576,0.004396439,3.003662109,-0.409994006,-0.389668445,-0.065742471,-1.784926049,-0.012566000,-0.004419463,-0.142962228,-0.215642724,-0.009971000,-0.004005432,-0.021978378,-0.550662231,-0.000211000,0.000572205,-0.013187408,-1.120880127,0.073482998,0.067711830,0.039560318,1.718673706,0.271966010,0.203516960,-0.004396439,3.150177002,-0.302937001,-0.283655292,-0.008795501,-1.685765891,-0.007187000,-0.002573640,0.009866962,-0.354203374
0.309972061,-0.020101000,-0.005149841,-0.021978378,-1.211463165,-0.001504000,0.001716614,0.030769348,-1.718673706,-0.004341000,-0.004386902,-0.004396439,-0.672528076,0.412728995,0.364118576,0.004396439,2.564117432,-0.410255998,-0.389858595,-0.092010505,-1.685763373,-0.013311000,-0.004862505,-0.204256424,-0.173001384,-0.010091000,-0.004005432,-0.004396439,-0.330416107,-0.000121000,0.000572205,0.004396439,-0.523086548,0.073357001,0.067711830,0.083517075,1.718673706,0.272287995,0.203516960,-0.004396439,3.003662109,-0.303232998,-0.283464335,0.000007611,-1.685720031,-0.007218000,-0.003001869,-0.009875404,-0.354410123
0.311971881,-0.020212000,-0.005149841,-0.021978378,-0.991217041,-0.001404000,0.001716614,-0.039560318,-1.270321655,-0.004445000,-0.004386902,-0.004396439,0.074734497,0.412602991,0.364118576,0.004396439,2.417572021,-0.410524011,-0.390048692,-0.096365652,-1.685739670,-0.014081000,-0.005305602,-0.214496020,-0.173190679,-0.010209000,-0.004005432,-0.021978378,-0.550662231,-0.000029000,0.000572205,0.039560318,-0.224176025,0.073220000,0.067711830,0.039560318,2.316494751,0.272621989,0.203516960,-0.004396439,3.150177002,-0.303541005,-0.283655292,-0.004407060,-1.983260436,-0.007248000,-0.002573640,0.019746410,-0.398534890
0.313971700,-0.020318000,-0.005149841,-0.039560318,-1.431740570,-0.001301000,0.001716614,0.030769348,-1.868142700,-0.004554000,-0.004386902,-0.039560318,0.523086548,0.412476987,0.364118576,-0.004396439,2.857147217,-0.410798013,-0.390238737,-0.100685928,-1.685715991,-0.014872000,-0.005748755,-0.245153959,-0.173380012,-0.010326000,-0.004005432,0.004396439,-0.110138702,0.000063000,0.000572205,0.048351288,-1.270321655,0.073072001,0.067711830,0.065933228,1.419790649,0.272967994,0.203516960,0.004396439,2.710632324,-0.303860992,-0.283464335,-0.004394964,-1.883992068,-0.007277000,-0.003001869,-0.000004021,-0.442838211
0.315971520,-0.020419000,-0.005149841,0.013187408,-1.211463165,-0.001195000,0.001716614,-0.101099014,-1.120880127,-0.004668000,-0.004386902,-0.039560318,0.074734497,0.412351996,0.364118576,0.004396439,2.857147217,-0.411078006,-0.390428729,-0.113823618,-1.685546520,-0.015678000,-0.006191962,-0.255417280,-0.258963962,-0.010442000,-0.004386902,-0.004396439,-0.110138702,0.000156000,0.000572205,0.013187408,0.523086548,0.072915003,0.067711830,0.065933228,1.419790649,0.273324996,0.203516960,-0.004396439,3.443237305,-0.304192990,-0.283464335,0.008765194,-1.784856049,-0.007305000,-0.003001869,0.029629969,-0.398624167
0.317971340,-0.020514000,-0.005149841,-0.030769348,-1.211463165,-0.001087000,0.001716614,-0.030769348,-1.569232178,-0.004787000,-0.004768372,0.004396439,0.373617554,0.412230015,0.364118576,0.004396439,2.710632324,-0.411363006,-0.390618668,-0.126956936,-1.685668705,-0.016496001,-0.006635225,-0.265685646,-0.173758794,-0.010556000,-0.004386902,-0.021978378,-0.770939636,0.000251000,0.000572205,-0.030769348,-0.523086548,0.072748996,0.068093300,0.065933228,1.419790649,0.273694009,0.203516960,-0.004396439,3.003662109,-0.304535002,-0.283464335,0.008781367,-1.884072838,-0.007332000,-0.003001869,0.009881304,-0.354562987
0.319971160,-0.020601001,-0.005149841,-0.039560318,-1.431740570,-0.000978000,0.001716614,0.083517075,-1.868142700,-0.004910000,-0.004768372,-0.065933228,0.821969604,0.412111014,0.364118576,-0.004396439,2.710632324,-0.411653012,-0.391188170,-0.157511459,-1.586312980,-0.017321000,-0.007965346,-0.316921168,-0.216796847,-0.010669000,-0.004386902,0.021978378,-0.330416107,0.000347000,0.000572205,-0.039560318,-0.523086548,0.072576001,0.068093300,-0.030769348,1.569232178,0.274073005,0.203516960,-0.004396439,3.443237305,-0.304886997,-0.283655292,-0.004407060,-1.983191189,-0.007358000,-0.002573640,0.019746410,-0.486804811
