sainanliu129-hub/model/applications/Body_GravityPara_Iden/data/excitation/PD-M1-v0_multi_joint_20260305-195729_real_run_stillleg_safe_PD-M1-v0_multi_joint_20260325-034158.csv
time,cmd_leg_l1_joint,pos_leg_l1_joint,vel_leg_l1_joint,torque_leg_l1_joint,acc_leg_l1_joint,cmd_torque_leg_l1_joint,cmd_leg_l2_joint,pos_leg_l2_joint,vel_leg_l2_joint,torque_leg_l2_joint,acc_leg_l2_joint,cmd_torque_leg_l2_joint,cmd_leg_l3_joint,pos_leg_l3_joint,vel_leg_l3_joint,torque_leg_l3_joint,acc_leg_l3_joint,cmd_torque_leg_l3_joint,cmd_leg_l4_joint,pos_leg_l4_joint,vel_leg_l4_joint,torque_leg_l4_joint,acc_leg_l4_joint,cmd_torque_leg_l4_joint,cmd_leg_l5_joint,pos_leg_l5_joint,vel_leg_l5_joint,torque_leg_l5_joint,acc_leg_l5_joint,cmd_torque_leg_l5_joint,cmd_leg_l6_joint,pos_leg_l6_joint,vel_leg_l6_joint,torque_leg_l6_joint,acc_leg_l6_joint,cmd_torque_leg_l6_joint,cmd_leg_r1_joint,pos_leg_r1_joint,vel_leg_r1_joint,torque_leg_r1_joint,acc_leg_r1_joint,cmd_torque_leg_r1_joint,cmd_leg_r2_joint,pos_leg_r2_joint,vel_leg_r2_joint,torque_leg_r2_joint,acc_leg_r2_joint,cmd_torque_leg_r2_joint,cmd_leg_r3_joint,pos_leg_r3_joint,vel_leg_r3_joint,torque_leg_r3_joint,acc_leg_r3_joint,cmd_torque_leg_r3_joint,cmd_leg_r4_joint,pos_leg_r4_joint,vel_leg_r4_joint,torque_leg_r4_joint,acc_leg_r4_joint,cmd_torque_leg_r4_joint,cmd_leg_r5_joint,pos_leg_r5_joint,vel_leg_r5_joint,torque_leg_r5_joint,acc_leg_r5_joint,cmd_torque_leg_r5_joint,cmd_leg_r6_joint,pos_leg_r6_joint,vel_leg_r6_joint,torque_leg_r6_joint,acc_leg_r6_joint,cmd_torque_leg_r6_joint
0.000000000,-0.003624000,-0.003559326,-0.001832401,0.003598646,0.000000000,0.003468459,0.003624000,-0.006741647,0.030527167,2.253492106,0.000000000,2.255889156,-0.006294000,-0.005595439,-0.015405375,0.147523405,0.000000000,0.149891585,0.314527005,0.247503493,0.291817781,2.155333711,0.000000000,2.159299457,-0.369459003,-0.351832768,-0.384018859,-0.689516780,0.000000000,-0.689629864,-0.002633000,-0.002504003,-0.002927014,-0.004743628,0.000000000,-0.004715617,0.000000000,-0.000276919,0.001525891,0.021389073,0.000000000,0.020888463,-0.435999990,-0.360985664,-0.395083472,-12.359903712,0.000000000,-12.386053792,0.000000000,0.004895711,-0.005785144,-1.261919988,0.000000000,-1.260727250,0.000000000,0.012087560,-0.007918865,-0.707686605,0.000000000,-0.707223451,0.000000000,0.006463387,-0.016034960,-0.607839397,0.000000000,-0.607634797,0.000000000,0.001331398,0.001443468,-0.138357150,0.000000000,-0.138661478
0.001999820,-0.003624000,-0.003562978,-0.001826145,0.003468459,0.000000000,0.003822384,0.003624000,-0.006680631,0.030507954,2.255889156,0.000000000,2.238980276,-0.006294000,-0.005626259,-0.015410458,0.149891585,0.000000000,0.158767196,0.316051990,0.248087154,0.291830398,2.159299457,0.000000000,2.218668508,-0.370030999,-0.352600812,-0.384021909,-0.689629864,0.000000000,-0.669807620,-0.001314000,-0.002509859,-0.002927951,-0.004715617,0.000000000,0.129183614,0.000000000,-0.000273825,0.001548254,0.020888463,0.000000000,0.020432130,-0.435999990,-0.361775735,-0.395035515,-12.386053792,0.000000000,-12.162564818,0.000000000,0.004884111,-0.005801081,-1.260727250,0.000000000,-1.257069472,0.000000000,0.012071651,-0.007954574,-0.707223451,0.000000000,-0.705964733,0.000000000,0.006431314,-0.016036374,-0.607634797,0.000000000,-0.604389351,0.000000000,0.001334291,0.001446513,-0.138661478,0.000000000,-0.138962519
0.003999639,-0.004005000,-0.003567311,-0.002166430,0.003822384,0.000000000,-0.034403028,0.003624000,-0.006620661,0.029985080,2.238980276,0.000000000,2.233760948,-0.006294000,-0.005657391,-0.015565928,0.158767196,0.000000000,0.171132766,0.316433996,0.248671800,0.292323138,2.218668508,0.000000000,2.202366352,-0.370983988,-0.353366930,-0.383058780,-0.669807620,0.000000000,-0.691431944,-0.001754000,-0.002470386,0.019736491,0.129183614,0.000000000,0.016290672,0.000000000,-0.000270779,0.001523703,0.020432130,0.000000000,0.020246295,-0.435999990,-0.362565025,-0.394645120,-12.162564818,0.000000000,-11.947043373,0.000000000,0.004872463,-0.005824607,-1.257069472,0.000000000,-1.253226474,0.000000000,0.012055501,-0.008075194,-0.705964733,0.000000000,-0.704087229,0.000000000,0.006399852,-0.015731151,-0.604389351,0.000000000,-0.602077365,0.000000000,0.001334831,0.000270101,-0.138962519,0.000000000,-0.135672574
0.005999459,-0.003624000,-0.003572218,-0.002453963,-0.034403028,0.000000000,0.008357672,0.003624000,-0.006560952,0.029854478,2.233760948,0.000000000,2.219743088,-0.006294000,-0.005688714,-0.015661782,0.171132766,0.000000000,0.182204395,0.317196995,0.249257278,0.292738757,2.202366352,0.000000000,2.210625279,-0.371556014,-0.354133933,-0.383501446,-0.691431944,0.000000000,-0.670468085,-0.002195000,-0.002423489,0.023448229,0.016290672,0.000000000,-0.043571054,0.000000000,-0.000267977,0.001401267,0.020246295,0.000000000,0.020640045,-0.435999990,-0.363353163,-0.394069032,-11.947043373,0.000000000,-11.736049618,0.000000000,0.004860707,-0.005878657,-1.253226474,0.000000000,-1.248662345,0.000000000,0.012039079,-0.008210998,-0.704087229,0.000000000,-0.702084635,0.000000000,0.006369337,-0.015257471,-0.602077365,0.000000000,-0.600340043,0.000000000,0.001332683,-0.001073711,-0.135672574,0.000000000,-0.131635090
0.007999279,-0.003624000,-0.003576821,-0.002301255,0.008357672,0.000000000,0.007984683,0.003624000,-0.006501035,0.029958286,2.219743088,0.000000000,2.200364070,-0.006294000,-0.005720268,-0.015776819,0.182204395,0.000000000,0.193775290,0.317577988,0.249843398,0.293059921,2.210625279,0.000000000,2.195385600,-0.372319013,-0.354898716,-0.382391863,-0.670468085,0.000000000,-0.673442263,-0.002195000,-0.002389537,0.016975862,-0.043571054,0.000000000,-0.028601444,0.000000000,-0.000265560,0.001208805,0.020640045,0.000000000,0.021470791,-0.435999990,-0.364139778,-0.393307479,-11.736049618,0.000000000,-11.529683821,0.000000000,0.004848799,-0.005955143,-1.248662345,0.000000000,-1.243547400,0.000000000,0.012022382,-0.008348273,-0.702084635,0.000000000,-0.700054250,0.000000000,0.006340040,-0.014648329,-0.600340043,0.000000000,-0.599110968,0.000000000,0.001327861,-0.002411031,-0.131635090,0.000000000,-0.127345748
0.009999099,-0.003624000,-0.003581286,-0.002232470,0.007984683,0.000000000,0.008071619,0.003624000,-0.006441114,0.029960388,2.200364070,0.000000000,2.183284353,-0.006294000,-0.005751829,-0.015780657,0.193775290,0.000000000,0.202833178,0.318340987,0.250429507,0.293054939,2.195385600,0.000000000,2.206594218,-0.373272002,-0.355661314,-0.381298847,-0.673442263,0.000000000,-0.695791594,-0.001755000,-0.002363256,0.013140689,-0.028601444,0.000000000,0.024114423,0.000000000,-0.000263620,0.000970191,0.021470791,0.000000000,0.022613376,-0.435999990,-0.364924457,-0.392339355,-11.529683821,0.000000000,-11.328540847,0.000000000,0.004836724,-0.006038369,-1.243547400,0.000000000,-1.238232770,0.000000000,0.012005391,-0.008495632,-0.700054250,0.000000000,-0.697933564,0.000000000,0.006312165,-0.013937564,-0.599110968,0.000000000,-0.598314470,0.000000000,0.001320420,-0.003720450,-0.127345748,0.000000000,-0.122871053
0.011998918,-0.003624000,-0.003585940,-0.002327298,0.008071619,0.000000000,0.009104004,0.003624000,-0.006381621,0.029746530,2.183284353,0.000000000,2.171211007,-0.006294000,-0.005783458,-0.015814754,0.202833178,0.000000000,0.212594877,0.318722993,0.251016107,0.293299931,2.206594218,0.000000000,2.191929655,-0.374035001,-0.356425164,-0.381925182,-0.695791594,0.000000000,-0.693924887,-0.001756000,-0.002326709,0.018273458,0.024114423,0.000000000,0.005727280,0.000000000,-0.000262222,0.000699078,0.022613376,0.000000000,0.023997515,-0.435999990,-0.365706785,-0.391164398,-11.328540847,0.000000000,-11.132744165,0.000000000,0.004824473,-0.006126734,-1.238232770,0.000000000,-1.232751653,0.000000000,0.011988102,-0.008644291,-0.697933564,0.000000000,-0.695784866,0.000000000,0.006285811,-0.013176929,-0.598314470,0.000000000,-0.597813503,0.000000000,0.001310482,-0.004969268,-0.122871053,0.000000000,-0.118316229
0.013998738,-0.003624000,-0.003590743,-0.002401624,0.009104004,0.000000000,0.010036291,0.003624000,-0.006322440,0.029590681,2.171211007,0.000000000,2.157914154,-0.006294000,-0.005814926,-0.015734338,0.212594877,0.000000000,0.219720674,0.319485992,0.251602518,0.293205577,2.191929655,0.000000000,2.203754499,-0.374798000,-0.357189538,-0.382186790,-0.693924887,0.000000000,-0.693042221,-0.001756000,-0.002285981,0.020364133,0.005727280,0.000000000,-0.004332711,0.000000000,-0.000261412,0.000404934,0.023997515,0.000000000,0.025574571,-0.435999990,-0.366486366,-0.389790263,-11.132744165,0.000000000,-10.942233881,0.000000000,0.004812034,-0.006220700,-1.232751653,0.000000000,-1.227090438,0.000000000,0.011970530,-0.008785889,-0.695784866,0.000000000,-0.693668463,0.000000000,0.006261000,-0.012405699,-0.597813503,0.000000000,-0.597498543,0.000000000,0.001298227,-0.006127262,-0.118316229,0.000000000,-0.113785550
0.015998558,-0.003624000,-0.003595625,-0.002441012,0.010036291,0.000000000,0.010779401,0.003624000,-0.006263533,0.029453644,2.157914154,0.000000000,2.144269698,-0.006294000,-0.005846302,-0.015688209,0.219720674,0.000000000,0.227595793,0.320248991,0.252188936,0.293208693,2.203754499,0.000000000,2.214886137,-0.375560999,-0.357954444,-0.382453101,-0.693042221,0.000000000,-0.692092353,-0.001756000,-0.002244388,0.020796544,-0.004332711,0.000000000,-0.009765660,0.000000000,-0.000261218,0.000097109,0.025574571,0.000000000,0.027294597,-0.435999990,-0.367262812,-0.388223284,-10.942233881,0.000000000,-10.756976321,0.000000000,0.004799400,-0.006317815,-1.227090438,0.000000000,-1.221302796,0.000000000,0.011952694,-0.008918175,-0.693668463,0.000000000,-0.691601546,0.000000000,0.006237709,-0.011645253,-0.597498543,0.000000000,-0.597306633,0.000000000,0.001283865,-0.007181098,-0.113785550,0.000000000,-0.109337979
0.017998378,-0.003624000,-0.003600553,-0.002463977,0.010779401,0.000000000,0.011434534,0.003624000,-0.006204890,0.029321360,2.144269698,0.000000000,2.130592952,-0.006294000,-0.005877631,-0.015664424,0.227595793,0.000000000,0.235962807,0.321011990,0.252775507,0.293285701,2.214886137,0.000000000,2.225482816,-0.376323014,-0.358719851,-0.382703393,-0.692092353,0.000000000,-0.691038042,-0.001757000,-0.002203676,0.020356000,-0.009765660,0.000000000,-0.012728818,0.000000000,-0.000261651,-0.000216855,0.027294597,0.000000000,0.029116244,-0.435999990,-0.368035749,-0.386468442,-10.756976321,0.000000000,-10.576965663,0.000000000,0.004786572,-0.006415021,-1.221302796,0.000000000,-1.215457833,0.000000000,0.011934611,-0.009041441,-0.691601546,0.000000000,-0.689583160,0.000000000,0.006215895,-0.010907192,-0.597306633,0.000000000,-0.597200269,0.000000000,0.001267610,-0.008127527,-0.109337979,0.000000000,-0.105004468
0.019998197,-0.003624000,-0.003605512,-0.002479744,0.011434534,0.000000000,0.012052327,0.003624000,-0.006146521,0.029184592,2.130592952,0.000000000,2.117095363,-0.006294000,-0.005908945,-0.015657262,0.235962807,0.000000000,0.244701742,0.321774006,0.253362351,0.293422006,2.225482816,0.000000000,2.235578675,-0.377086014,-0.359485696,-0.382922604,-0.691038042,0.000000000,-0.690127183,-0.001757000,-0.002164753,0.019461409,-0.012728818,0.000000000,-0.014119229,0.000000000,-0.000262713,-0.000531024,0.029116244,0.000000000,0.031006004,-0.435999990,-0.368804809,-0.384530071,-10.576965663,0.000000000,-10.402208196,0.000000000,0.004773556,-0.006509451,-1.215457833,0.000000000,-1.209622007,0.000000000,0.011916298,-0.009156644,-0.689583160,0.000000000,-0.687607539,0.000000000,0.006195497,-0.010198703,-0.597200269,0.000000000,-0.597153035,0.000000000,0.001249672,-0.008969039,-0.105004468,0.000000000,-0.100799141
0.021998017,-0.003624000,-0.003610500,-0.002494080,0.012052327,0.000000000,0.012665081,0.003624000,-0.006088446,0.029037381,2.117095363,0.000000000,2.103917680,-0.006294000,-0.005940271,-0.015662790,0.244701742,0.000000000,0.253730827,0.322537005,0.253949567,0.293607983,2.235578675,0.000000000,2.245360088,-0.378230006,-0.360251927,-0.383115552,-0.690127183,0.000000000,-0.727757033,-0.002640000,-0.002127995,0.018378918,-0.014119229,0.000000000,-0.103997044,0.000000000,-0.000264394,-0.000840896,0.031006004,0.000000000,0.032937507,-0.435999990,-0.369569634,-0.382412537,-10.402208196,0.000000000,-10.232707014,0.000000000,0.004760360,-0.006599074,-1.209622007,0.000000000,-1.203843986,0.000000000,0.011897769,-0.009264291,-0.687607539,0.000000000,-0.685672030,0.000000000,0.006176447,-0.009525008,-0.597153035,0.000000000,-0.597143057,0.000000000,0.001230251,-0.009710763,-0.100799141,0.000000000,-0.096727587
0.023997837,-0.003624000,-0.003614976,-0.002238071,0.012665081,0.000000000,0.011694459,0.003624000,-0.006030014,0.029215918,2.103917680,0.000000000,2.083270394,-0.006294000,-0.005971863,-0.015796142,0.253730827,0.000000000,0.265727015,0.323682010,0.254538211,0.294322153,2.245360088,0.000000000,2.275426308,-0.378991991,-0.361024294,-0.386183408,-0.727757033,0.000000000,-0.717985960,-0.002640000,-0.002123745,0.002124861,-0.103997044,0.000000000,-0.058216259,0.000000000,-0.000266679,-0.001143099,0.032937507,0.000000000,0.034890042,-0.435999990,-0.370329876,-0.380120917,-10.232707014,0.000000000,-10.068446233,0.000000000,0.004746997,-0.006682330,-1.203843986,0.000000000,-1.198162657,0.000000000,0.011879040,-0.009364705,-0.685672030,0.000000000,-0.683775242,0.000000000,0.006158668,-0.008889565,-0.597143057,0.000000000,-0.597152770,0.000000000,0.001209535,-0.010357851,-0.096727587,0.000000000,-0.092794286
0.025997657,-0.003624000,-0.003619203,-0.002113126,0.011694459,0.000000000,0.011438367,0.003624000,-0.005971614,0.029200149,2.083270394,0.000000000,2.067027104,-0.006294000,-0.006003835,-0.015986343,0.265727015,0.000000000,0.279117172,0.323682010,0.255128669,0.295228934,2.275426308,0.000000000,2.231684638,-0.378991991,-0.361801768,-0.388737202,-0.717985960,0.000000000,-0.632150074,-0.002640000,-0.002136356,-0.006305375,-0.058216259,0.000000000,-0.032974592,0.000000000,-0.000269548,-0.001435195,0.034890042,0.000000000,0.036847679,-0.435999990,-0.371085192,-0.377658149,-10.068446233,0.000000000,-9.909456719,0.000000000,0.004733482,-0.006758816,-1.198162657,0.000000000,-1.192591009,0.000000000,0.011860124,-0.009457716,-0.683775242,0.000000000,-0.681919328,0.000000000,0.006142078,-0.008294854,-0.597152770,0.000000000,-0.597166894,0.000000000,0.001187696,-0.010919562,-0.092794286,0.000000000,-0.088990177
0.027997476,-0.003624000,-0.003623519,-0.002158218,0.011438367,0.000000000,0.012153436,0.003624000,-0.005913493,0.029060372,2.067027104,0.000000000,2.053668192,-0.006294000,-0.006035306,-0.015735655,0.279117172,0.000000000,0.282392324,0.325971007,0.255717528,0.294429629,2.231684638,0.000000000,2.344755309,-0.380328000,-0.362570448,-0.384339593,-0.632150074,0.000000000,-0.701989595,0.000449000,-0.002157005,-0.010324284,-0.032974592,0.000000000,0.292727812,0.000000000,-0.000272977,-0.001715292,0.036847679,0.000000000,0.038797158,-0.435999990,-0.371835253,-0.375030237,-9.909456719,0.000000000,-9.755696520,0.000000000,0.004719829,-0.006827860,-1.192591009,0.000000000,-1.187148451,0.000000000,0.011841037,-0.009543460,-0.681919328,0.000000000,-0.680104233,0.000000000,0.006126595,-0.007741893,-0.597166894,0.000000000,-0.597174088,0.000000000,0.001164897,-0.011399461,-0.088990177,0.000000000,-0.085321654
0.029997296,-0.003624000,-0.003629585,-0.003033383,0.012153436,0.000000000,0.017749162,0.003624000,-0.005858144,0.027674817,2.053668192,0.000000000,2.069275210,-0.006294000,-0.006067325,-0.016009613,0.282392324,0.000000000,0.297690237,0.326734006,0.256308982,0.295726679,2.344755309,0.000000000,2.346371567,-0.382043004,-0.363342971,-0.386261906,-0.701989595,0.000000000,-0.791776269,-0.002643000,-0.002075685,0.040659769,0.292727812,0.000000000,-0.172931403,0.000000000,-0.000276937,-0.001980625,0.038797158,0.000000000,0.040719699,-0.435999990,-0.372579736,-0.372241382,-9.755696520,0.000000000,-9.607162143,0.000000000,0.004706057,-0.006887597,-1.187148451,0.000000000,-1.181882449,0.000000000,0.011821791,-0.009623184,-0.680104233,0.000000000,-0.678321854,0.000000000,0.006112136,-0.007229200,-0.597174088,0.000000000,-0.597170434,0.000000000,0.001141287,-0.011805018,-0.085321654,0.000000000,-0.081782514
0.031997116,-0.003624000,-0.003634568,-0.002491405,0.017749162,0.000000000,0.015215401,0.003624000,-0.005801909,0.028117631,2.069275210,0.000000000,2.043274622,-0.006294000,-0.006100550,-0.016612411,0.297690237,0.000000000,0.320768875,0.327497005,0.256905538,0.298278240,2.346371567,0.000000000,2.338748414,-0.382806003,-0.364132708,-0.394868283,-0.791776269,0.000000000,-0.764606115,-0.002643000,-0.002050162,0.012761570,-0.172931403,0.000000000,-0.096196323,0.000000000,-0.000281402,-0.002233491,0.040719699,0.000000000,0.042625632,-0.435999990,-0.373318338,-0.369301040,-9.607162143,0.000000000,-9.463725792,0.000000000,0.004692181,-0.006938946,-1.181882449,0.000000000,-1.176777029,0.000000000,0.011802399,-0.009695982,-0.678321854,0.000000000,-0.676579518,0.000000000,0.006098623,-0.006756339,-0.597170434,0.000000000,-0.597149117,0.000000000,0.001117025,-0.012130975,-0.081782514,0.000000000,-0.078403788
0.033996936,-0.003624000,-0.003639022,-0.002227109,0.015215401,0.000000000,0.014195574,0.003624000,-0.005745503,0.028202904,2.043274622,0.000000000,2.025312776,-0.006294000,-0.006134582,-0.017016136,0.320768875,0.000000000,0.339574169,0.328258991,0.257505873,0.300167126,2.338748414,0.000000000,2.335532936,-0.383376986,-0.364935205,-0.401248717,-0.764606115,0.000000000,-0.723068506,-0.003086000,-0.002054070,-0.001954043,-0.096196323,0.000000000,-0.098736649,0.000000000,-0.000286343,-0.002471238,0.042625632,0.000000000,0.044496742,-0.435999990,-0.374050747,-0.366204590,-9.463725792,0.000000000,-9.325580780,0.000000000,0.004678218,-0.006983132,-1.176777029,0.000000000,-1.171808519,0.000000000,0.011782877,-0.009760995,-0.676579518,0.000000000,-0.674884294,0.000000000,0.006085979,-0.006322419,-0.597149117,0.000000000,-0.597104798,0.000000000,0.001092220,-0.012402828,-0.078403788,0.000000000,-0.075123934
0.035996755,-0.003624000,-0.003643036,-0.002006903,0.014195574,0.000000000,0.013378134,0.003624000,-0.005688951,0.028276138,2.025312776,0.000000000,2.007581606,-0.006294000,-0.006169126,-0.017272106,0.339574169,0.000000000,0.355182884,0.329403996,0.258108765,0.301446474,2.335532936,0.000000000,2.360681850,-0.383949995,-0.365744061,-0.404427945,-0.723068506,0.000000000,-0.690194121,-0.001760000,-0.002088127,-0.017028667,-0.098736649,0.000000000,0.081574701,0.000000000,-0.000291727,-0.002692802,0.044496742,0.000000000,0.046323567,-0.435999990,-0.374776672,-0.362962695,-9.325580780,0.000000000,-9.192568548,0.000000000,0.004664185,-0.007017713,-1.171808519,0.000000000,-1.167037613,0.000000000,0.011763236,-0.009820801,-0.674884294,0.000000000,-0.673218534,0.000000000,0.006074128,-0.005925020,-0.597104798,0.000000000,-0.597036973,0.000000000,0.001066992,-0.012613961,-0.075123934,0.000000000,-0.071974028
0.037996575,-0.003624000,-0.003647697,-0.002330502,0.013378134,0.000000000,0.015704899,0.003624000,-0.005633672,0.027639306,2.007581606,0.000000000,2.006273447,-0.006294000,-0.006204026,-0.017450188,0.355182884,0.000000000,0.369131089,0.329784989,0.258713704,0.302469081,2.360681850,0.000000000,2.339267663,-0.384521991,-0.366554673,-0.405306069,-0.690194121,0.000000000,-0.663581872,-0.002203000,-0.002091188,-0.001530394,0.081574701,0.000000000,-0.006949347,0.000000000,-0.000297523,-0.002898846,0.046323567,0.000000000,0.048106545,-0.435999990,-0.375495830,-0.359579042,-9.192568548,0.000000000,-9.064686318,0.000000000,0.004650100,-0.007043987,-1.167037613,0.000000000,-1.162439678,0.000000000,0.011743488,-0.009873952,-0.673218534,0.000000000,-0.671593359,0.000000000,0.006063003,-0.005562602,-0.597036973,0.000000000,-0.596942959,0.000000000,0.001041454,-0.012768978,-0.071974028,0.000000000,-0.068952331
0.039996395,-0.003624000,-0.003652551,-0.002427140,0.015704899,0.000000000,0.016768800,0.003624000,-0.005578990,0.027341132,2.006273447,0.000000000,1.997474684,-0.006294000,-0.006238957,-0.017465496,0.369131089,0.000000000,0.379406235,0.330547988,0.259319415,0.302855489,2.339267663,0.000000000,2.346456176,-0.384903014,-0.367362503,-0.403915025,-0.663581872,0.000000000,-0.624401328,-0.002203000,-0.002093153,-0.000982501,-0.006949347,0.000000000,-0.008308412,0.000000000,-0.000303701,-0.003089897,0.048106545,0.000000000,0.049845468,-0.435999990,-0.376207951,-0.356060537,-9.064686318,0.000000000,-8.941854517,0.000000000,0.004635979,-0.007061727,-1.162439678,0.000000000,-1.158024703,0.000000000,0.011723646,-0.009920929,-0.671593359,0.000000000,-0.670006137,0.000000000,0.006052539,-0.005232159,-0.596942959,0.000000000,-0.596824827,0.000000000,0.001015717,-0.012868571,-0.068952331,0.000000000,-0.066068070
0.041996215,-0.003624000,-0.003657592,-0.002520395,0.016768800,0.000000000,0.017833445,0.003624000,-0.005524941,0.027024536,1.997474684,0.000000000,1.989272609,-0.006294000,-0.006273784,-0.017413873,0.379406235,0.000000000,0.388138084,0.330929995,0.259925123,0.302854376,2.346456176,0.000000000,2.332333915,-0.385475993,-0.368161726,-0.399611350,-0.624401328,0.000000000,-0.613771401,-0.001761000,-0.002094370,-0.000608309,-0.008308412,0.000000000,0.035421447,0.000000000,-0.000310230,-0.003265658,0.049845468,0.000000000,0.051535384,-0.435999990,-0.376912769,-0.352408993,-8.941854517,0.000000000,-8.824107827,0.000000000,0.004621839,-0.007071367,-1.158024703,0.000000000,-1.153787491,0.000000000,0.011703722,-0.009961684,-0.670006137,0.000000000,-0.668457992,0.000000000,0.006042676,-0.004931303,-0.596824827,0.000000000,-0.596683394,0.000000000,0.000989870,-0.012923266,-0.066068070,0.000000000,-0.063300399
0.043996034,-0.003624000,-0.003663137,-0.002772723,0.017833445,0.000000000,0.019851443,0.003624000,-0.005471895,0.026522988,1.989272609,0.000000000,1.985539063,-0.005913000,-0.006308222,-0.017219222,0.388138084,0.000000000,0.501821456,0.331310987,0.260529909,0.302392909,2.332333915,0.000000000,2.321478144,-0.385856986,-0.368950352,-0.394313121,-0.613771401,0.000000000,-0.587636803,-0.001761000,-0.002079942,0.007213866,0.035421447,0.000000000,0.011724864,0.000000000,-0.000317081,-0.003425931,0.051535384,0.000000000,0.053171887,-0.435999990,-0.377610029,-0.348629853,-8.824107827,0.000000000,-8.711395625,0.000000000,0.004607696,-0.007072977,-1.153787491,0.000000000,-1.149730988,0.000000000,0.011683730,-0.009996317,-0.668457992,0.000000000,-0.666948982,0.000000000,0.006033360,-0.004658128,-0.596683394,0.000000000,-0.596518482,0.000000000,0.000963999,-0.012935930,-0.063300399,0.000000000,-0.060649666
0.045995854,-0.003624000,-0.003669250,-0.003056411,0.019851443,0.000000000,0.022107261,0.003242000,-0.005419712,0.026091588,1.985539063,0.000000000,1.871882545,-0.005913000,-0.006341488,-0.016633111,0.501821456,0.000000000,0.498019897,0.331692994,0.261131718,0.300904536,2.321478144,0.000000000,2.318173644,-0.386238009,-0.369723774,-0.386710866,-0.587636803,0.000000000,-0.569592203,-0.001761000,-0.002057700,0.011120949,0.011724864,0.000000000,-0.001630849,0.000000000,-0.000324221,-0.003571330,0.053171887,0.000000000,0.054755279,-0.435999990,-0.378299486,-0.344728593,-8.711395625,0.000000000,-8.603663473,0.000000000,0.004593564,-0.007067677,-1.149730988,0.000000000,-1.145833828,0.000000000,0.011663682,-0.010023771,-0.666948982,0.000000000,-0.665487535,0.000000000,0.006024538,-0.004410854,-0.596518482,0.000000000,-0.596329914,0.000000000,0.000938183,-0.012907785,-0.060649666,0.000000000,-0.058120638
0.047995674,-0.003624000,-0.003675983,-0.003366798,0.022107261,0.000000000,0.024580212,0.003242000,-0.005368514,0.025598781,1.871882545,0.000000000,1.868476715,-0.006294000,-0.006373434,-0.015973294,0.498019897,0.000000000,0.383878716,0.332455993,0.261729956,0.299118698,2.318173644,0.000000000,2.341274554,-0.386619985,-0.370479082,-0.377654058,-0.569592203,0.000000000,-0.557609936,-0.001761000,-0.002031270,0.013215115,-0.001630849,0.000000000,-0.010255732,0.000000000,-0.000331626,-0.003703092,0.054755279,0.000000000,0.056289637,-0.435999990,-0.378980901,-0.340707710,-8.603663473,0.000000000,-8.500922892,0.000000000,0.004579460,-0.007053622,-1.145833828,0.000000000,-1.142142684,0.000000000,0.011643586,-0.010047909,-0.665487535,0.000000000,-0.664046612,0.000000000,0.006016167,-0.004185702,-0.596329914,0.000000000,-0.596123962,0.000000000,0.000912494,-0.012844544,-0.058120638,0.000000000,-0.055704177
0.049995494,-0.003624000,-0.003683017,-0.003517369,0.024580212,0.000000000,0.026181516,0.003624000,-0.005318257,0.025128710,1.868476715,0.000000000,1.973405376,-0.005913000,-0.006404881,-0.015723619,0.383878716,0.000000000,0.495467263,0.333218992,0.262326228,0.298136177,2.341274554,0.000000000,2.358789609,-0.387001008,-0.371215409,-0.368163196,-0.557609936,0.000000000,-0.548683687,-0.001762000,-0.002003790,0.013740029,-0.010255732,0.000000000,-0.014626402,0.000000000,-0.000339264,-0.003820202,0.056289637,0.000000000,0.057766104,-0.435999990,-0.379654053,-0.336576051,-8.500922892,0.000000000,-8.403036793,0.000000000,0.004565398,-0.007032224,-1.142142684,0.000000000,-1.138629786,0.000000000,0.011623456,-0.010065339,-0.664046612,0.000000000,-0.662651164,0.000000000,0.006008200,-0.003983189,-0.596123962,0.000000000,-0.595894582,0.000000000,0.000887004,-0.012745177,-0.055704177,0.000000000,-0.053410501
0.051995313,-0.003624000,-0.003690312,-0.003647124,0.026181516,0.000000000,0.027692789,0.003624000,-0.005268726,0.024765242,1.973405376,0.000000000,1.967547879,-0.005913000,-0.006435434,-0.015276557,0.495467263,0.000000000,0.494039714,0.333981991,0.262919770,0.296770892,2.358789609,0.000000000,2.379197820,-0.387382001,-0.371931358,-0.357974577,-0.548683687,0.000000000,-0.543797576,-0.001762000,-0.001977440,0.013174785,-0.014626402,0.000000000,-0.015682433,0.000000000,-0.000347108,-0.003922741,0.057766104,0.000000000,0.059182034,-0.435999990,-0.380318728,-0.332337141,-8.403036793,0.000000000,-8.309986357,0.000000000,0.004551389,-0.007006462,-1.138629786,0.000000000,-1.135230282,0.000000000,0.011603310,-0.010072698,-0.662651164,0.000000000,-0.661326376,0.000000000,0.006000598,-0.003801013,-0.595894582,0.000000000,-0.595644206,0.000000000,0.000861775,-0.012614492,-0.053410501,0.000000000,-0.051232284
0.053995133,-0.003624000,-0.003697818,-0.003753278,0.027692789,0.000000000,0.029093213,0.003242000,-0.005219864,0.024430884,1.967547879,0.000000000,1.852640472,-0.005913000,-0.006465193,-0.014879266,0.494039714,0.000000000,0.493512056,0.334744006,0.263510948,0.295589058,2.379197820,0.000000000,2.398389247,-0.387764007,-0.372626398,-0.347520292,-0.543797576,0.000000000,-0.541882286,-0.001762000,-0.001952521,0.012459623,-0.015682433,0.000000000,-0.016167691,0.000000000,-0.000355132,-0.004013135,0.059182034,0.000000000,0.060548561,-0.435999990,-0.380974710,-0.327991119,-8.309986357,0.000000000,-8.221829354,0.000000000,0.004537448,-0.006971942,-1.135230282,0.000000000,-1.132048503,0.000000000,0.011583153,-0.010078808,-0.661326376,0.000000000,-0.660009689,0.000000000,0.005993332,-0.003633050,-0.595644206,0.000000000,-0.595387374,0.000000000,0.000836857,-0.012459216,-0.051232284,0.000000000,-0.049155363
0.055994953,-0.003624000,-0.003705623,-0.003902822,0.029093213,0.000000000,0.030770875,0.003242000,-0.005171895,0.023984513,1.852640472,0.000000000,1.849101997,-0.005913000,-0.006494268,-0.014537772,0.493512056,0.000000000,0.494052279,0.335507005,0.264100139,0.294595434,2.398389247,0.000000000,2.416430525,-0.388145000,-0.373300490,-0.337045919,-0.541882286,0.000000000,-0.542038884,-0.001762000,-0.001928346,0.012087799,-0.016167691,0.000000000,-0.017553901,0.000000000,-0.000363313,-0.004090934,0.060548561,0.000000000,0.061860449,-0.435999990,-0.381621800,-0.323545267,-8.221829354,0.000000000,-8.138457842,0.000000000,0.004523586,-0.006932300,-1.132048503,0.000000000,-1.129005101,0.000000000,0.011562997,-0.010077721,-0.660009689,0.000000000,-0.658744298,0.000000000,0.005986367,-0.003482577,-0.595387374,0.000000000,-0.595111235,0.000000000,0.000812299,-0.012278855,-0.049155363,0.000000000,-0.047186214
0.057994773,-0.003624000,-0.003713655,-0.004015931,0.030770875,0.000000000,0.032266623,0.003242000,-0.005124861,0.023517330,1.849101997,0.000000000,1.846299840,-0.005913000,-0.006522885,-0.014308942,0.494052279,0.000000000,0.497010802,0.336270005,0.264687885,0.293873344,2.416430525,0.000000000,2.432632953,-0.388336003,-0.373954080,-0.326795001,-0.542038884,0.000000000,-0.524430895,-0.001320000,-0.001905466,0.011439919,-0.017553901,0.000000000,0.026646400,0.000000000,-0.000371621,-0.004155088,0.061860449,0.000000000,0.063108855,-0.435999990,-0.382259815,-0.319007199,-8.138457842,0.000000000,-8.059752019,0.000000000,0.004509816,-0.006886624,-1.129005101,0.000000000,-1.126124146,0.000000000,0.011542857,-0.010069974,-0.658744298,0.000000000,-0.657527222,0.000000000,0.005979673,-0.003346922,-0.595111235,0.000000000,-0.594820387,0.000000000,0.000788155,-0.012072173,-0.047186214,0.000000000,-0.045333674
0.059994592,-0.003624000,-0.003722144,-0.004244389,0.032266623,0.000000000,0.034463370,0.003242000,-0.005079083,0.022888944,1.846299840,0.000000000,1.847501170,-0.005913000,-0.006551035,-0.014074837,0.497010802,0.000000000,0.499716927,0.336652011,0.265274088,0.293101469,2.432632953,0.000000000,2.425221353,-0.388716996,-0.374584712,-0.315316025,-0.524430895,0.000000000,-0.531835843,-0.002205000,-0.001868903,0.018281375,0.026646400,0.000000000,-0.085941598,0.000000000,-0.000380035,-0.004207617,0.063108855,0.000000000,0.064302723,-0.435999990,-0.382888571,-0.314378257,-8.059752019,0.000000000,-7.985733156,0.000000000,0.004496149,-0.006835422,-1.126124146,0.000000000,-1.123397314,0.000000000,0.011522744,-0.010056733,-0.657527222,0.000000000,-0.656350868,0.000000000,0.005973227,-0.003223136,-0.594820387,0.000000000,-0.594520816,0.000000000,0.000764465,-0.011844737,-0.045333674,0.000000000,-0.043586111
0.061994412,-0.003624000,-0.003730415,-0.004135795,0.034463370,0.000000000,0.034730942,0.003242000,-0.005033702,0.022690283,1.847501170,0.000000000,1.839095507,-0.005913000,-0.006578749,-0.013856994,0.499716927,0.000000000,0.502667041,0.337033004,0.265858770,0.292341061,2.425221353,0.000000000,2.417760302,-0.388716996,-0.375193295,-0.304291392,-0.531835843,0.000000000,-0.501672455,-0.002205000,-0.001856765,0.006069039,-0.085941598,0.000000000,-0.052448663,0.000000000,-0.000388530,-0.004248621,0.064302723,0.000000000,0.065440163,-0.435999990,-0.383507900,-0.309664354,-7.985733156,0.000000000,-7.916315849,0.000000000,0.004482594,-0.006778710,-1.123397314,0.000000000,-1.120827347,0.000000000,0.011502668,-0.010037958,-0.656350868,0.000000000,-0.655216229,0.000000000,0.005967007,-0.003110150,-0.594520816,0.000000000,-0.594213378,0.000000000,0.000741272,-0.011596923,-0.043586111,0.000000000,-0.041946572
0.063994232,-0.003624000,-0.003738707,-0.004146204,0.034730942,0.000000000,0.035673688,0.003242000,-0.004989015,0.022343820,1.839095507,0.000000000,1.834229925,-0.005913000,-0.006605771,-0.013511527,0.502667041,0.000000000,0.502534010,0.337415010,0.266440891,0.291060228,2.417760302,0.000000000,2.414224245,-0.389097989,-0.375775074,-0.290889682,-0.501672455,0.000000000,-0.519481031,-0.002205000,-0.001857586,-0.000410595,-0.052448663,0.000000000,-0.033944071,0.000000000,-0.000397085,-0.004278391,0.065440163,0.000000000,0.066520426,-0.435999990,-0.384117636,-0.304867909,-7.916315849,0.000000000,-7.851492290,0.000000000,0.004469163,-0.006717322,-1.120827347,0.000000000,-1.118398053,0.000000000,0.011482641,-0.010013279,-0.655216229,0.000000000,-0.654126672,0.000000000,0.005960992,-0.003007258,-0.594213378,0.000000000,-0.593898043,0.000000000,0.000718603,-0.011334410,-0.041946572,0.000000000,-0.040401887
0.065994052,-0.003624000,-0.003747140,-0.004216347,0.035673688,0.000000000,0.036969194,0.003242000,-0.004945179,0.021917857,1.834229925,0.000000000,1.831404706,-0.005913000,-0.006632100,-0.013164326,0.502534010,0.000000000,0.502164414,0.337796003,0.267020582,0.289845478,2.414224245,0.000000000,2.410307927,-0.389288992,-0.376332586,-0.278755821,-0.519481031,0.000000000,-0.516936412,-0.002648000,-0.001865092,-0.003753071,-0.033944071,0.000000000,-0.068454587,0.000000000,-0.000405678,-0.004296964,0.066520426,0.000000000,0.067541333,-0.435999990,-0.384717626,-0.299995180,-7.851492290,0.000000000,-7.791164287,0.000000000,0.004455864,-0.006650827,-1.118398053,0.000000000,-1.116122070,0.000000000,0.011462675,-0.009983261,-0.654126672,0.000000000,-0.653078850,0.000000000,0.005955166,-0.002913102,-0.593898043,0.000000000,-0.593576902,0.000000000,0.000696492,-0.011055542,-0.040401887,0.000000000,-0.038960064
0.067993871,-0.003624000,-0.003755514,-0.004186965,0.036969194,0.000000000,0.037695617,0.003242000,-0.004901932,0.021623759,1.831404706,0.000000000,1.825764021,-0.005913000,-0.006657687,-0.012793424,0.502164414,0.000000000,0.501047860,0.338178009,0.267597631,0.288524662,2.410307927,0.000000000,2.407376389,-0.389288992,-0.376865286,-0.266350239,-0.516936412,0.000000000,-0.498368105,-0.002648000,-0.001890919,-0.012913627,-0.068454587,0.000000000,-0.039800897,0.000000000,-0.000414287,-0.004305583,0.067541333,0.000000000,0.068507791,-0.435999990,-0.385307727,-0.295050298,-7.791164287,0.000000000,-7.735279430,0.000000000,0.004442707,-0.006580040,-1.116122070,0.000000000,-1.113983408,0.000000000,0.011442780,-0.009947583,-0.653078850,0.000000000,-0.652075771,0.000000000,0.005949512,-0.002826784,-0.593576902,0.000000000,-0.593250925,0.000000000,0.000674969,-0.010761443,-0.038960064,0.000000000,-0.037620992
0.069993691,-0.003624000,-0.003764012,-0.004249435,0.037695617,0.000000000,0.038954780,0.003242000,-0.004859515,0.021208178,1.825764021,0.000000000,1.823107424,-0.005913000,-0.006682392,-0.012352657,0.501047860,0.000000000,0.498100476,0.338941008,0.268171433,0.286900747,2.407376389,0.000000000,2.430869836,-0.389288992,-0.377370274,-0.252493750,-0.498368105,0.000000000,-0.486725541,-0.002648000,-0.001925299,-0.017189945,-0.039800897,0.000000000,-0.024168719,0.000000000,-0.000422894,-0.004304129,0.068507791,0.000000000,0.069416980,-0.435999990,-0.385887801,-0.290036892,-7.735279430,0.000000000,-7.683794590,0.000000000,0.004429700,-0.006505190,-1.113983408,0.000000000,-1.111979195,0.000000000,0.011422967,-0.009906287,-0.652075771,0.000000000,-0.651117841,0.000000000,0.005944018,-0.002747294,-0.593250925,0.000000000,-0.592921602,0.000000000,0.000654058,-0.010455738,-0.037620992,0.000000000,-0.036376708
0.071993511,-0.003624000,-0.003772666,-0.004326842,0.038954780,0.000000000,0.040314913,0.003242000,-0.004818047,0.020734235,1.823107424,0.000000000,1.822040331,-0.005913000,-0.006706388,-0.011998132,0.498100476,0.000000000,0.496902227,0.339704007,0.268742386,0.285476995,2.430869836,0.000000000,2.453120396,-0.389288992,-0.377846228,-0.237977328,-0.486725541,0.000000000,-0.479893372,-0.002648000,-0.001962975,-0.018837679,-0.024168719,0.000000000,-0.015676552,0.000000000,-0.000431479,-0.004292960,0.069416980,0.000000000,0.070268855,-0.435999990,-0.386457720,-0.284959910,-7.683794590,0.000000000,-7.636634007,0.000000000,0.004416851,-0.006426124,-1.111979195,0.000000000,-1.110115294,0.000000000,0.011403247,-0.009859880,-0.651117841,0.000000000,-0.650202104,0.000000000,0.005938671,-0.002673531,-0.592921602,0.000000000,-0.592590910,0.000000000,0.000633781,-0.010138439,-0.036376708,0.000000000,-0.035229522
0.073993331,-0.003624000,-0.003781462,-0.004398072,0.040314913,0.000000000,0.041655307,0.003242000,-0.004777584,0.020231496,1.822040331,0.000000000,1.821910399,-0.005913000,-0.006729844,-0.011728397,0.496902227,0.000000000,0.497468545,0.340465993,0.269310940,0.284276524,2.453120396,0.000000000,2.473871522,-0.389097989,-0.378292505,-0.223138227,-0.479893372,0.000000000,-0.457674278,-0.003091000,-0.002001101,-0.019063242,-0.015676552,0.000000000,-0.055953833,0.000000000,-0.000440023,-0.004272680,0.070268855,0.000000000,0.071064891,-0.435999990,-0.387017367,-0.279823448,-7.636634007,0.000000000,-7.593738815,0.000000000,0.004404167,-0.006343441,-1.110115294,0.000000000,-1.108380210,0.000000000,0.011383631,-0.009808022,-0.650202104,0.000000000,-0.649331664,0.000000000,0.005933461,-0.002604927,-0.592590910,0.000000000,-0.592259415,0.000000000,0.000614160,-0.009810921,-0.035229522,0.000000000,-0.034177591
0.075993150,-0.003624000,-0.003790105,-0.004321342,0.041655307,0.000000000,0.042142624,0.003242000,-0.004737811,0.019886724,1.821910399,0.000000000,1.818403403,-0.005913000,-0.006752903,-0.011529275,0.497468545,0.000000000,0.499518819,0.341228992,0.269877262,0.283161054,2.473871522,0.000000000,2.494223381,-0.389097989,-0.378706141,-0.206817883,-0.457674278,0.000000000,-0.462268915,-0.003091000,-0.002053329,-0.026113877,-0.055953833,0.000000000,-0.030630479,0.000000000,-0.000448509,-0.004243741,0.071064891,0.000000000,0.071805792,-0.435999990,-0.387566631,-0.274631716,-7.593738815,0.000000000,-7.555045223,0.000000000,0.004391656,-0.006257298,-1.108380210,0.000000000,-1.106772330,0.000000000,0.011364129,-0.009750977,-0.649331664,0.000000000,-0.648505302,0.000000000,0.005928379,-0.002540681,-0.592259415,0.000000000,-0.591928518,0.000000000,0.000595211,-0.009474418,-0.034177591,0.000000000,-0.033219220
0.077992970,-0.003624000,-0.003798698,-0.004296877,0.042142624,0.000000000,0.042920289,0.003242000,-0.004698934,0.019438226,1.818403403,0.000000000,1.817497558,-0.005913000,-0.006775731,-0.011414262,0.499518819,0.000000000,0.503406205,0.341991991,0.270441913,0.282325701,2.494223381,0.000000000,2.512689707,-0.389288992,-0.379088163,-0.191011061,-0.462268915,0.000000000,-0.487902372,-0.002648000,-0.002111091,-0.028880997,-0.030630479,0.000000000,0.027845968,0.000000000,-0.000456919,-0.004206103,0.071805792,0.000000000,0.072489476,-0.435999990,-0.388105407,-0.269388364,-7.555045223,0.000000000,-7.520500012,0.000000000,0.004379323,-0.006167874,-1.106772330,0.000000000,-1.105289518,0.000000000,0.011344752,-0.009688785,-0.648505302,0.000000000,-0.647723375,0.000000000,0.005923419,-0.002480186,-0.591928518,0.000000000,-0.591599183,0.000000000,0.000576948,-0.009131341,-0.033219220,0.000000000,-0.032348887
0.079992790,-0.003624000,-0.003807551,-0.004426263,0.042920289,0.000000000,0.044595564,0.003242000,-0.004661391,0.018771695,1.817497558,0.000000000,1.821902310,-0.005913000,-0.006798494,-0.011381524,0.503406205,0.000000000,0.509135946,0.342373997,0.271005721,0.281904057,2.512689707,0.000000000,2.504203228,-0.389288992,-0.379442656,-0.177246830,-0.487902372,0.000000000,-0.491207179,-0.002648000,-0.002154633,-0.021771266,0.027845968,0.000000000,0.012033627,0.000000000,-0.000465239,-0.004160327,0.072489476,0.000000000,0.073117388,-0.435999990,-0.388633603,-0.264097779,-7.520500012,0.000000000,-7.490030791,0.000000000,0.004367175,-0.006075347,-1.105289518,0.000000000,-1.103929475,0.000000000,0.011325508,-0.009621680,-0.647723375,0.000000000,-0.646984851,0.000000000,0.005918573,-0.002422907,-0.591599183,0.000000000,-0.591272284,0.000000000,0.000559385,-0.008781713,-0.032348887,0.000000000,-0.031567849
0.081992610,-0.003624000,-0.003816583,-0.004516317,0.044595564,0.000000000,0.046067621,0.003242000,-0.004625041,0.018174801,1.821902310,0.000000000,1.825071264,-0.005913000,-0.006821070,-0.011287826,0.509135946,0.000000000,0.513433579,0.342754990,0.271568358,0.281318513,2.504203228,0.000000000,2.496891727,-0.389288992,-0.379769838,-0.163590758,-0.491207179,0.000000000,-0.496964792,-0.002648000,-0.002189312,-0.017339111,0.012033627,0.000000000,0.002937766,0.000000000,-0.000473452,-0.004107213,0.073117388,0.000000000,0.073692487,-0.435999990,-0.389151132,-0.258764420,-7.490030791,0.000000000,-7.463561070,0.000000000,0.004355218,-0.005980135,-1.103929475,0.000000000,-1.102684292,0.000000000,0.011306409,-0.009549623,-0.646984851,0.000000000,-0.646290628,0.000000000,0.005913836,-0.002368472,-0.591272284,0.000000000,-0.590948304,0.000000000,0.000542535,-0.008425364,-0.031567849,0.000000000,-0.030877950
0.083992429,-0.003624000,-0.003825746,-0.004581308,0.046067621,0.000000000,0.047411796,0.003242000,-0.004589823,0.017608961,1.825071264,0.000000000,1.827859491,-0.005913000,-0.006843379,-0.011154455,0.513433579,0.000000000,0.516758036,0.343136996,0.272129602,0.280622034,2.496891727,0.000000000,2.490520738,-0.388906986,-0.380070354,-0.150258108,-0.496964792,0.000000000,-0.465890388,-0.002648000,-0.002218203,-0.014445548,0.002937766,0.000000000,-0.002368755,0.000000000,-0.000481544,-0.004046700,0.073692487,0.000000000,0.074212848,-0.435999990,-0.389657915,-0.253391742,-7.463561070,0.000000000,-7.441034993,0.000000000,0.004343457,-0.005882236,-1.102684292,0.000000000,-1.101555533,0.000000000,0.011287463,-0.009472874,-0.646290628,0.000000000,-0.645639455,0.000000000,0.005909204,-0.002316219,-0.590948304,0.000000000,-0.590628683,0.000000000,0.000526405,-0.008064771,-0.030877950,0.000000000,-0.030273002
0.085992249,-0.003624000,-0.003835021,-0.004637547,0.047411796,0.000000000,0.048718467,0.003242000,-0.004555696,0.017063794,1.827859491,0.000000000,1.830490027,-0.005913000,-0.006865213,-0.010917543,0.516758036,0.000000000,0.517605780,0.343517989,0.272688519,0.279458395,2.490520738,0.000000000,2.487553322,-0.388906986,-0.380339368,-0.134507005,-0.465890388,0.000000000,-0.483482873,-0.002648000,-0.002243083,-0.012440167,-0.002368755,0.000000000,-0.005555522,0.000000000,-0.000489502,-0.003979305,0.074212848,0.000000000,0.074679925,-0.435999990,-0.390153882,-0.247983522,-7.441034993,0.000000000,-7.422387386,0.000000000,0.004331896,-0.005781948,-1.101555533,0.000000000,-1.100537797,0.000000000,0.011268680,-0.009391574,-0.645639455,0.000000000,-0.645030898,0.000000000,0.005904672,-0.002265891,-0.590628683,0.000000000,-0.590313758,0.000000000,0.000511004,-0.007700809,-0.030273002,0.000000000,-0.029751199
0.087992069,-0.003624000,-0.003844377,-0.004678312,0.048718467,0.000000000,0.049946323,0.003242000,-0.004522644,0.016525941,1.830490027,0.000000000,1.833260903,-0.005531000,-0.006886601,-0.010693751,0.517605780,0.000000000,0.627204725,0.343901008,0.273245292,0.278386679,2.487553322,0.000000000,2.484195914,-0.388716996,-0.380579412,-0.120022097,-0.483482873,0.000000000,-0.481202079,-0.002205000,-0.002265062,-0.010989212,-0.005555522,0.000000000,0.037312445,0.000000000,-0.000497310,-0.003904971,0.074679925,0.000000000,0.075091920,-0.435999990,-0.390638970,-0.242544072,-7.422387386,0.000000000,-7.407538426,0.000000000,0.004320540,-0.005679183,-1.100537797,0.000000000,-1.099634533,0.000000000,0.011250069,-0.009305874,-0.645030898,0.000000000,-0.644464443,0.000000000,0.005900238,-0.002217009,-0.590313758,0.000000000,-0.590004606,0.000000000,0.000496337,-0.007333668,-0.029751199,0.000000000,-0.029312644
0.089991889,-0.003624000,-0.003854244,-0.004933524,0.049946323,0.000000000,0.052441285,0.003242000,-0.004491017,0.015813495,1.833260903,0.000000000,1.840385911,-0.005913000,-0.006906872,-0.010135593,0.627204725,0.000000000,0.511760079,0.344282001,0.273798503,0.276605546,2.484195914,0.000000000,2.485978039,-0.388716996,-0.380789620,-0.105103649,-0.481202079,0.000000000,-0.502370626,-0.002205000,-0.002269507,-0.002222609,0.037312445,0.000000000,0.012838249,0.000000000,-0.000504958,-0.003824168,0.075091920,0.000000000,0.075450106,-0.435999990,-0.391113124,-0.237076652,-7.407538426,0.000000000,-7.396430302,0.000000000,0.004309393,-0.005575308,-1.099634533,0.000000000,-1.098815394,0.000000000,0.011231639,-0.009214534,-0.644464443,0.000000000,-0.643949615,0.000000000,0.005895898,-0.002169773,-0.590004606,0.000000000,-0.589700321,0.000000000,0.000482407,-0.006964735,-0.029312644,0.000000000,-0.028953756
0.091991708,-0.003624000,-0.003864253,-0.005004396,0.052441285,0.000000000,0.053908914,0.003242000,-0.004460571,0.015223033,1.840385911,0.000000000,1.845087455,-0.005531000,-0.006926710,-0.009918987,0.511760079,0.000000000,0.621081118,0.344664007,0.274349739,0.275617692,2.485978039,0.000000000,2.482310344,-0.388716996,-0.380973529,-0.091954963,-0.502370626,0.000000000,-0.521165485,-0.002205000,-0.002264930,0.002288575,0.012838249,0.000000000,-0.000449637,0.000000000,-0.000512433,-0.003738101,0.075450106,0.000000000,0.075760183,-0.435999990,-0.391576294,-0.231585396,-7.396430302,0.000000000,-7.388983033,0.000000000,0.004298462,-0.005466919,-1.098815394,0.000000000,-1.098159968,0.000000000,0.011213394,-0.009122916,-0.643949615,0.000000000,-0.643448338,0.000000000,0.005891655,-0.002121935,-0.589700321,0.000000000,-0.589407417,0.000000000,0.000469221,-0.006593058,-0.028953756,0.000000000,-0.028677799
0.093991528,-0.003624000,-0.003874480,-0.005113417,0.053908914,0.000000000,0.055615519,0.003242000,-0.004431234,0.014668374,1.845087455,0.000000000,1.849294455,-0.005531000,-0.006945581,-0.009435434,0.621081118,0.000000000,0.615507556,0.345427006,0.274898103,0.274182269,2.482310344,0.000000000,2.506070721,-0.388716996,-0.381133433,-0.079951628,-0.521165485,0.000000000,-0.539130341,-0.002205000,-0.002255710,0.004609747,-0.000449637,0.000000000,-0.007980496,0.000000000,-0.000519724,-0.003646008,0.075760183,0.000000000,0.076016558,-0.435999990,-0.392028443,-0.226074403,-7.388983033,0.000000000,-7.385115152,0.000000000,0.004287744,-0.005360278,-1.098159968,0.000000000,-1.097525616,0.000000000,0.011195350,-0.009021848,-0.643448338,0.000000000,-0.643027000,0.000000000,0.005887499,-0.002077604,-0.589407417,0.000000000,-0.589113507,0.000000000,0.000456780,-0.006220604,-0.028677799,0.000000000,-0.028479335
0.095991348,-0.003624000,-0.003884791,-0.005155515,0.055615519,0.000000000,0.056952647,0.003242000,-0.004402922,0.014156145,1.849294455,0.000000000,1.852832958,-0.005531000,-0.006963800,-0.009109571,0.615507556,0.000000000,0.613315550,0.345807999,0.275444670,0.273283217,2.506070721,0.000000000,2.502002731,-0.388716996,-0.381272448,-0.069507762,-0.539130341,0.000000000,-0.554772649,-0.002205000,-0.002244508,0.005600915,-0.007980496,0.000000000,-0.011930501,0.000000000,-0.000526820,-0.003548582,0.076016558,0.000000000,0.076221999,-0.435999990,-0.392469535,-0.220545827,-7.385115152,0.000000000,-7.384787917,0.000000000,0.004277248,-0.005249469,-1.097525616,0.000000000,-1.097048518,0.000000000,0.011177508,-0.008920935,-0.643027000,0.000000000,-0.642617302,0.000000000,0.005883437,-0.002031273,-0.589113507,0.000000000,-0.588834643,0.000000000,0.000445083,-0.005848811,-0.028479335,0.000000000,-0.028354139
0.097991168,-0.003624000,-0.003895151,-0.005179963,0.056952647,0.000000000,0.058195179,0.003242000,-0.004375596,0.013662959,1.852832958,0.000000000,1.856221089,-0.005531000,-0.006981369,-0.008784887,0.613315550,0.000000000,0.610965618,0.346570998,0.275989555,0.272442441,2.502002731,0.000000000,2.521756150,-0.388716996,-0.381392766,-0.060159086,-0.554772649,0.000000000,-0.569190979,-0.002205000,-0.002232681,0.005913740,-0.011930501,0.000000000,-0.014015205,0.000000000,-0.000533712,-0.003446457,0.076221999,0.000000000,0.076379106,-0.435999990,-0.392899544,-0.215004399,-7.384787917,0.000000000,-7.387901617,0.000000000,0.004266974,-0.005138243,-1.097048518,0.000000000,-1.096644081,0.000000000,0.011159879,-0.008814777,-0.642617302,0.000000000,-0.642258302,0.000000000,0.005879463,-0.001986720,-0.588834643,0.000000000,-0.588559734,0.000000000,0.000434130,-0.005476711,-0.028354139,0.000000000,-0.028305030
0.099990987,-0.003624000,-0.003905477,-0.005163514,0.058195179,0.000000000,0.059202930,0.003242000,-0.004349224,0.013185808,1.856221089,0.000000000,1.859517768,-0.005531000,-0.006998529,-0.008579760,0.610965618,0.000000000,0.611203345,0.347333997,0.276533588,0.272016568,2.521756150,0.000000000,2.538614239,-0.388716996,-0.381496881,-0.052057205,-0.569190979,0.000000000,-0.581702304,-0.002205000,-0.002221009,0.005835958,-0.014015205,0.000000000,-0.014973695,0.000000000,-0.000540390,-0.003339505,0.076379106,0.000000000,0.076486116,-0.435999990,-0.393318450,-0.209453290,-7.387901617,0.000000000,-7.394390046,0.000000000,0.004256925,-0.005025696,-1.096644081,0.000000000,-1.096333477,0.000000000,0.011142468,-0.008705037,-0.642258302,0.000000000,-0.641938633,0.000000000,0.005875579,-0.001942338,-0.588559734,0.000000000,-0.588293305,0.000000000,0.000423919,-0.005105392,-0.028305030,0.000000000,-0.028328756
0.101990807,-0.003624000,-0.003915712,-0.005117371,0.059202930,0.000000000,0.060032929,0.003242000,-0.004323783,0.012720507,1.859517768,0.000000000,1.862810939,-0.005531000,-0.007015463,-0.008467147,0.611203345,0.000000000,0.613469635,0.347714990,0.277077439,0.271925507,2.538614239,0.000000000,2.528974564,-0.388716996,-0.381586927,-0.045022896,-0.581702304,0.000000000,-0.592600365,-0.002205000,-0.002209877,0.005565726,-0.014973695,0.000000000,-0.015330424,0.000000000,-0.000546845,-0.003228137,0.076486116,0.000000000,0.076544417,-0.435999990,-0.393726242,-0.203895839,-7.394390046,0.000000000,-7.404181304,0.000000000,0.004247104,-0.004912084,-1.096333477,0.000000000,-1.096111537,0.000000000,0.011125285,-0.008591782,-0.641938633,0.000000000,-0.641658249,0.000000000,0.005871783,-0.001898049,-0.588293305,0.000000000,-0.588035569,0.000000000,0.000414449,-0.004735318,-0.028328756,0.000000000,-0.028423744
0.103990627,-0.003624000,-0.003925870,-0.005078842,0.060032929,0.000000000,0.060897768,0.003242000,-0.004299268,0.012257848,1.862810939,0.000000000,1.866307383,-0.005531000,-0.007032079,-0.008308093,0.613469635,0.000000000,0.614595039,0.348096997,0.277620911,0.271736356,2.528974564,0.000000000,2.520120023,-0.388716996,-0.381664269,-0.038671284,-0.592600365,0.000000000,-0.602841372,-0.002205000,-0.002199410,0.005233467,-0.015330424,0.000000000,-0.015443653,0.000000000,-0.000553069,-0.003112624,0.076544417,0.000000000,0.076554651,-0.435999990,-0.394122913,-0.198335380,-7.404181304,0.000000000,-7.417201629,0.000000000,0.004237511,-0.004797576,-1.096111537,0.000000000,-1.095974960,0.000000000,0.011108335,-0.008475136,-0.641658249,0.000000000,-0.641416700,0.000000000,0.005868075,-0.001853807,-0.588035569,0.000000000,-0.587786638,0.000000000,0.000405715,-0.004366976,-0.028423744,0.000000000,-0.028588260
0.105990447,-0.004005000,-0.003935962,-0.005046156,0.060897768,0.000000000,0.021177115,0.003242000,-0.004275675,0.011796363,1.866307383,0.000000000,1.870039603,-0.005531000,-0.007048299,-0.008109946,0.614595039,0.000000000,0.614723568,0.348477989,0.278163836,0.271462363,2.520120023,0.000000000,2.511839140,-0.388716996,-0.381730203,-0.032967014,-0.602841372,0.000000000,-0.612394989,-0.002205000,-0.002189658,0.004876462,-0.015443653,0.000000000,-0.015414366,0.000000000,-0.000559055,-0.002993237,0.076554651,0.000000000,0.076517532,-0.435999990,-0.394508463,-0.192775222,-7.417201629,0.000000000,-7.433376061,0.000000000,0.004228149,-0.004682127,-1.095974960,0.000000000,-1.095925273,0.000000000,0.011091624,-0.008355481,-0.641416700,0.000000000,-0.641211665,0.000000000,0.005864456,-0.001809439,-0.587786638,0.000000000,-0.587547037,0.000000000,0.000397714,-0.004000694,-0.028588260,0.000000000,-0.028820955
0.107990266,-0.003624000,-0.003946517,-0.005277581,0.021177115,0.000000000,0.064222479,0.003242000,-0.004253063,0.011305877,1.870039603,0.000000000,1.874706633,-0.005531000,-0.007063992,-0.007846326,0.614723568,0.000000000,0.613221277,0.348859996,0.278705960,0.271061805,2.511839140,0.000000000,2.504572489,-0.388716996,-0.381785935,-0.027865866,-0.612394989,0.000000000,-0.621265026,-0.002205000,-0.002180375,0.004641282,-0.015414366,0.000000000,-0.015683893,0.000000000,-0.000564795,-0.002870506,0.076517532,0.000000000,0.076435340,-0.435999990,-0.394882900,-0.187218399,-7.433376061,0.000000000,-7.452634050,0.000000000,0.004219020,-0.004565779,-1.095925273,0.000000000,-1.095962061,0.000000000,0.011075157,-0.008233206,-0.641211665,0.000000000,-0.641040691,0.000000000,0.005860926,-0.001765015,-0.587547037,0.000000000,-0.587316572,0.000000000,0.000390440,-0.003636995,-0.028820955,0.000000000,-0.029119822
0.109990086,-0.004005000,-0.003957003,-0.005243185,0.064222479,0.000000000,0.024534159,0.003242000,-0.004231349,0.010857201,1.874706633,0.000000000,1.878683025,-0.005531000,-0.007079157,-0.007582447,0.613221277,0.000000000,0.611563142,0.349240988,0.279247254,0.270647292,2.504572489,0.000000000,2.497393391,-0.388716996,-0.381832583,-0.023324042,-0.621265026,0.000000000,-0.629462943,-0.002205000,-0.002171945,0.004214882,-0.015683893,0.000000000,-0.015323591,0.000000000,-0.000570282,-0.002743956,0.076435340,0.000000000,0.076304578,-0.435999990,-0.395246238,-0.181668793,-7.452634050,0.000000000,-7.474883711,0.000000000,0.004210124,-0.004449464,-1.095962061,0.000000000,-1.096064194,0.000000000,0.011058944,-0.008106870,-0.641040691,0.000000000,-0.640914549,0.000000000,0.005857485,-0.001720702,-0.587316572,0.000000000,-0.587094749,0.000000000,0.000383888,-0.003275736,-0.029119822,0.000000000,-0.029484770
0.111989906,-0.004005000,-0.003967937,-0.005466607,0.024534159,0.000000000,0.026962998,0.003242000,-0.004210607,0.010370990,1.878683025,0.000000000,1.883784838,-0.005150000,-0.007093688,-0.007265815,0.611563142,0.000000000,0.716829086,0.349622995,0.279787497,0.270121561,2.497393391,0.000000000,2.491135248,-0.388716996,-0.381871194,-0.019305509,-0.629462943,0.000000000,-0.636985410,-0.002205000,-0.002164005,0.003970251,-0.015323591,0.000000000,-0.015430613,0.000000000,-0.000575511,-0.002614971,0.076304578,0.000000000,0.076132550,-0.435999990,-0.395598494,-0.176128084,-7.474883711,0.000000000,-7.500081938,0.000000000,0.004201463,-0.004331847,-1.096064194,0.000000000,-1.096262651,0.000000000,0.011042985,-0.007979472,-0.640914549,0.000000000,-0.640812049,0.000000000,0.005854134,-0.001675591,-0.587094749,0.000000000,-0.586884312,0.000000000,0.000378052,-0.002918240,-0.029484770,0.000000000,-0.029911281
0.113989726,-0.004005000,-0.003979474,-0.005768623,0.026962998,0.000000000,0.029900670,0.003242000,-0.004190843,0.009881951,1.883784838,0.000000000,1.889228624,-0.005150000,-0.007106994,-0.006652823,0.716829086,0.000000000,0.706745851,0.350003988,0.280325519,0.269010936,2.491135248,0.000000000,2.489110839,-0.388716996,-0.381902354,-0.015580258,-0.636985410,0.000000000,-0.644427059,-0.002205000,-0.002156520,0.003742257,-0.015430613,0.000000000,-0.015538848,0.000000000,-0.000580475,-0.002482485,0.076132550,0.000000000,0.075912488,-0.435999990,-0.395939695,-0.170600759,-7.500081938,0.000000000,-7.528119695,0.000000000,0.004193034,-0.004215310,-1.096262651,0.000000000,-1.096502884,0.000000000,0.011027290,-0.007847100,-0.640812049,0.000000000,-0.640761623,0.000000000,0.005850871,-0.001631344,-0.586884312,0.000000000,-0.586680363,0.000000000,0.000372924,-0.002564075,-0.029911281,0.000000000,-0.030399908
0.115989545,-0.004005000,-0.003991564,-0.006045015,0.029900670,0.000000000,0.032752356,0.003242000,-0.004172040,0.009401672,1.889228624,0.000000000,1.894747317,-0.005150000,-0.007119115,-0.006060851,0.706745851,0.000000000,0.696801565,0.350385994,0.280861426,0.267953162,2.489110839,0.000000000,2.486908393,-0.388716996,-0.381927123,-0.012384340,-0.644427059,0.000000000,-0.651009808,-0.002205000,-0.002149598,0.003461022,-0.015538848,0.000000000,-0.015438873,0.000000000,-0.000585170,-0.002347879,0.075912488,0.000000000,0.075651738,-0.435999990,-0.396269872,-0.165088530,-7.528119695,0.000000000,-7.558949616,0.000000000,0.004184843,-0.004096688,-1.096502884,0.000000000,-1.096857713,0.000000000,0.011011860,-0.007715337,-0.640761623,0.000000000,-0.640723513,0.000000000,0.005847700,-0.001585342,-0.586680363,0.000000000,-0.586490703,0.000000000,0.000368497,-0.002213781,-0.030399908,0.000000000,-0.030948335
0.117989365,-0.004005000,-0.004004156,-0.006296281,0.032752356,0.000000000,0.035515525,0.003242000,-0.004154185,0.008927672,1.894747317,0.000000000,1.900393421,-0.005150000,-0.007130086,-0.005485452,0.696801565,0.000000000,0.686905027,0.350766987,0.281395292,0.266933068,2.486908393,0.000000000,2.484502978,-0.388716996,-0.381946419,-0.009648124,-0.651009808,0.000000000,-0.656838696,-0.002205000,-0.002143262,0.003168141,-0.015438873,0.000000000,-0.015246589,0.000000000,-0.000589592,-0.002211208,0.075651738,0.000000000,0.075350178,-0.435999990,-0.396589063,-0.159595131,-7.558949616,0.000000000,-7.592476572,0.000000000,0.004176888,-0.003978819,-1.096857713,0.000000000,-1.097262511,0.000000000,0.010996700,-0.007579960,-0.640723513,0.000000000,-0.640728199,0.000000000,0.005844619,-0.001540392,-0.586490703,0.000000000,-0.586307139,0.000000000,0.000364762,-0.001867254,-0.030948335,0.000000000,-0.031556091
0.119989185,-0.003624000,-0.004017204,-0.006523957,0.035515525,0.000000000,0.078805392,0.003242000,-0.004137264,0.008460465,1.900393421,0.000000000,1.906151496,-0.005150000,-0.007139935,-0.004924551,0.686905027,0.000000000,0.677017567,0.351148993,0.281927173,0.265940816,2.484502978,0.000000000,2.482089022,-0.388716996,-0.381961049,-0.007314601,-0.656838696,0.000000000,-0.661994401,-0.002205000,-0.002137507,0.002877256,-0.015246589,0.000000000,-0.015001182,0.000000000,-0.000593736,-0.002072372,0.075350178,0.000000000,0.075006783,-0.435999990,-0.396897308,-0.154122959,-7.592476572,0.000000000,-7.628634273,0.000000000,0.004169168,-0.003861002,-1.097262511,0.000000000,-1.097733065,0.000000000,0.010981815,-0.007442375,-0.640728199,0.000000000,-0.640765954,0.000000000,0.005841629,-0.001495238,-0.586307139,0.000000000,-0.586133280,0.000000000,0.000361711,-0.001525405,-0.031556091,0.000000000,-0.032219647
0.121989005,-0.003624000,-0.004030142,-0.006469224,0.078805392,0.000000000,0.079875001,0.003242000,-0.004121202,0.008030884,1.906151496,0.000000000,1.911302725,-0.005150000,-0.007148749,-0.004406850,0.677017567,0.000000000,0.667812930,0.351529986,0.282457208,0.265017502,2.482089022,0.000000000,2.479237695,-0.388716996,-0.381971715,-0.005333143,-0.661994401,0.000000000,-0.666549696,-0.002205000,-0.002132559,0.002474333,-0.015001182,0.000000000,-0.014355809,0.000000000,-0.000597598,-0.001931466,0.075006783,0.000000000,0.074621643,-0.435999990,-0.397194658,-0.148674900,-7.628634273,0.000000000,-7.667343728,0.000000000,0.004161683,-0.003743420,-1.097733065,0.000000000,-1.098265153,0.000000000,0.010967210,-0.007302555,-0.640765954,0.000000000,-0.640837269,0.000000000,0.005838729,-0.001449792,-0.586133280,0.000000000,-0.585969437,0.000000000,0.000359335,-0.001188119,-0.032219647,0.000000000,-0.032938403
0.123988824,-0.003624000,-0.004042945,-0.006401500,0.079875001,0.000000000,0.080856708,0.003242000,-0.004106005,0.007598619,1.911302725,0.000000000,1.916760389,-0.005150000,-0.007156549,-0.003900193,0.667812930,0.000000000,0.658570066,0.351911992,0.282985408,0.264099703,2.479237695,0.000000000,2.476527118,-0.388716996,-0.381979034,-0.003659680,-0.666549696,0.000000000,-0.670567619,-0.002205000,-0.002128233,0.002163043,-0.014355809,0.000000000,-0.013908027,0.000000000,-0.000601176,-0.001789269,0.074621643,0.000000000,0.074198892,-0.435999990,-0.397481164,-0.143253079,-7.667343728,0.000000000,-7.708541934,0.000000000,0.004154434,-0.003625605,-1.098265153,0.000000000,-1.098869460,0.000000000,0.010952886,-0.007161776,-0.640837269,0.000000000,-0.640933179,0.000000000,0.005835921,-0.001403957,-0.585969437,0.000000000,-0.585815968,0.000000000,0.000357624,-0.000855918,-0.032938403,0.000000000,-0.033709849
0.125988644,-0.003624000,-0.004055594,-0.006324506,0.080856708,0.000000000,0.081769581,0.003242000,-0.004091659,0.007172765,1.916760389,0.000000000,1.922315136,-0.005150000,-0.007163348,-0.003399469,0.658570066,0.000000000,0.649176750,0.352293015,0.283511771,0.263181823,2.476527118,0.000000000,2.473870945,-0.388716996,-0.381983533,-0.002249414,-0.670567619,0.000000000,-0.674122332,-0.002205000,-0.002124429,0.001901995,-0.013908027,0.000000000,-0.013550319,0.000000000,-0.000604467,-0.001645607,0.074198892,0.000000000,0.073737233,-0.435999990,-0.397756886,-0.137860705,-7.708541934,0.000000000,-7.752139613,0.000000000,0.004147419,-0.003508317,-1.098869460,0.000000000,-1.099528514,0.000000000,0.010938849,-0.007018917,-0.640933179,0.000000000,-0.641061922,0.000000000,0.005833205,-0.001358444,-0.585815968,0.000000000,-0.585670778,0.000000000,0.000356566,-0.000528625,-0.033709849,0.000000000,-0.034533496
0.127988464,-0.003624000,-0.004068069,-0.006237275,0.081769581,0.000000000,0.082605969,0.003242000,-0.004078155,0.006752283,1.922315136,0.000000000,1.927987420,-0.005150000,-0.007169159,-0.002905289,0.649176750,0.000000000,0.639650516,0.352674007,0.284036294,0.262261154,2.473870945,0.000000000,2.471349023,-0.388716996,-0.381985672,-0.001069278,-0.674122332,0.000000000,-0.677261325,-0.002205000,-0.002121073,0.001677917,-0.013550319,0.000000000,-0.013252422,0.000000000,-0.000607468,-0.001500731,0.073737233,0.000000000,0.073237825,-0.435999990,-0.398021886,-0.132500079,-7.752139613,0.000000000,-7.798066647,0.000000000,0.004140638,-0.003391419,-1.099528514,0.000000000,-1.100245187,0.000000000,0.010925099,-0.006874543,-0.641061922,0.000000000,-0.641219668,0.000000000,0.005830579,-0.001312804,-0.585670778,0.000000000,-0.585535180,0.000000000,0.000356153,-0.000206490,-0.034533496,0.000000000,-0.035407591
0.129988284,-0.003624000,-0.004080348,-0.006139606,0.082605969,0.000000000,0.083362507,0.003242000,-0.004065480,0.006337169,1.927987420,0.000000000,1.933774265,-0.005150000,-0.007173996,-0.002418418,0.639650516,0.000000000,0.630012828,0.353437006,0.284558967,0.261336932,2.471349023,0.000000000,2.493098539,-0.388716996,-0.381985853,-0.000090766,-0.677261325,0.000000000,-0.680024889,-0.002205000,-0.002118112,0.001480218,-0.013252422,0.000000000,-0.012989560,0.000000000,-0.000610177,-0.001354849,0.073237825,0.000000000,0.072701632,-0.435999990,-0.398276233,-0.127173610,-7.798066647,0.000000000,-7.846249132,0.000000000,0.004134090,-0.003274950,-1.100245187,0.000000000,-1.101018340,0.000000000,0.010911642,-0.006728867,-0.641219668,0.000000000,-0.641405074,0.000000000,0.005828045,-0.001267026,-0.585535180,0.000000000,-0.585409224,0.000000000,0.000356374,0.000110265,-0.035407591,0.000000000,-0.036330411
0.131988103,-0.003624000,-0.004092352,-0.006001937,0.083362507,0.000000000,0.083863496,0.003242000,-0.004053614,0.005933244,1.933774265,0.000000000,1.939537669,-0.005150000,-0.007178112,-0.002058344,0.630012828,0.000000000,0.623038460,0.353819013,0.285080523,0.260777553,2.493098539,0.000000000,2.488259995,-0.388716996,-0.381984903,0.000474847,-0.680024889,0.000000000,-0.681728907,-0.002205000,-0.002115556,0.001278210,-0.012989560,0.000000000,-0.012673615,0.000000000,-0.000612593,-0.001208169,0.072701632,0.000000000,0.072129662,-0.435999990,-0.398520001,-0.121883687,-7.846249132,0.000000000,-7.896612230,0.000000000,0.004127774,-0.003158928,-1.101018340,0.000000000,-1.101847311,0.000000000,0.010898478,-0.006582098,-0.641405074,0.000000000,-0.641616790,0.000000000,0.005825603,-0.001221148,-0.585409224,0.000000000,-0.585292827,0.000000000,0.000357217,0.000421514,-0.036330411,0.000000000,-0.037300493
0.133987923,-0.004005000,-0.004104074,-0.005861183,0.083863496,0.000000000,0.043705470,0.003242000,-0.004042545,0.005534632,1.939537669,0.000000000,1.945407506,-0.005150000,-0.007181480,-0.001683624,0.623038460,0.000000000,0.615519786,0.354200006,0.285600824,0.260150515,2.488259995,0.000000000,2.483917582,-0.388716996,-0.381982952,0.000975646,-0.681728907,0.000000000,-0.683349885,-0.002205000,-0.002113332,0.001111777,-0.012673615,0.000000000,-0.012425169,0.000000000,-0.000614714,-0.001060906,0.072129662,0.000000000,0.071523003,-0.435999990,-0.398753266,-0.116632587,-7.896612230,0.000000000,-7.949082405,0.000000000,0.004121688,-0.003043705,-1.101847311,0.000000000,-1.102723707,0.000000000,0.010885609,-0.006434039,-0.641616790,0.000000000,-0.641856384,0.000000000,0.005823252,-0.001175432,-0.585292827,0.000000000,-0.585185207,0.000000000,0.000358671,0.000726987,-0.037300493,0.000000000,-0.038315897
0.135987743,-0.004005000,-0.004116025,-0.005975411,0.043705470,0.000000000,0.045625287,0.003242000,-0.004032326,0.005109327,1.945407506,0.000000000,1.952122877,-0.005150000,-0.007184020,-0.001270330,0.615519786,0.000000000,0.606893654,0.354582012,0.286119665,0.259420539,2.483917582,0.000000000,2.480463073,-0.388716996,-0.381980139,0.001406639,-0.683349885,0.000000000,-0.684859523,-0.002205000,-0.002111156,0.001088074,-0.012425169,0.000000000,-0.012577715,0.000000000,-0.000616540,-0.000913387,0.071523003,0.000000000,0.070883445,-0.435999990,-0.398976110,-0.111422368,-7.949082405,0.000000000,-8.003589845,0.000000000,0.004115832,-0.002928894,-1.102723707,0.000000000,-1.103656049,0.000000000,0.010873038,-0.006285577,-0.641856384,0.000000000,-0.642117596,0.000000000,0.005820992,-0.001129711,-0.585185207,0.000000000,-0.585086845,0.000000000,0.000360724,0.001026461,-0.038315897,0.000000000,-0.039374775
0.137987563,-0.004005000,-0.004128175,-0.006075124,0.045625287,0.000000000,0.047484273,0.003242000,-0.004022929,0.004698647,1.952122877,0.000000000,1.958740923,-0.005150000,-0.007185725,-0.000852271,0.606893654,0.000000000,0.597922090,0.354963005,0.286636970,0.258652518,2.480463073,0.000000000,2.477312014,-0.388716996,-0.381976594,0.001772473,-0.684859523,0.000000000,-0.686257859,-0.002205000,-0.002109149,0.001003722,-0.012577715,0.000000000,-0.012540784,0.000000000,-0.000618070,-0.000765309,0.070883445,0.000000000,0.070209163,-0.435999990,-0.399188622,-0.106255794,-8.003589845,0.000000000,-8.060047226,0.000000000,0.004110203,-0.002815254,-1.103656049,0.000000000,-1.104626481,0.000000000,0.010860767,-0.006135531,-0.642117596,0.000000000,-0.642409024,0.000000000,0.005818824,-0.001084344,-0.585086845,0.000000000,-0.584996649,0.000000000,0.000363364,0.001320319,-0.039374775,0.000000000,-0.040477084
0.139987382,-0.003624000,-0.004140488,-0.006156488,0.047484273,0.000000000,0.089868406,0.003242000,-0.004014341,0.004293905,1.958740923,0.000000000,1.965454734,-0.005150000,-0.007186598,-0.000436633,0.597922090,0.000000000,0.588768994,0.355345011,0.287152679,0.257854559,2.477312014,0.000000000,2.474538557,-0.388716996,-0.381972451,0.002071418,-0.686257859,0.000000000,-0.687526454,-0.002205000,-0.002107353,0.000897918,-0.012540784,0.000000000,-0.012421481,0.000000000,-0.000619304,-0.000617228,0.070209163,0.000000000,0.069503302,-0.435999990,-0.399390891,-0.101134332,-8.060047226,0.000000000,-8.118395715,0.000000000,0.004104800,-0.002702209,-1.104626481,0.000000000,-1.105647680,0.000000000,0.010848797,-0.005985269,-0.642409024,0.000000000,-0.642720961,0.000000000,0.005816746,-0.001038703,-0.584996649,0.000000000,-0.584916454,0.000000000,0.000366580,0.001608032,-0.040477084,0.000000000,-0.041620077
0.141987202,-0.004005000,-0.004152409,-0.005960953,0.089868406,0.000000000,0.049421862,0.003242000,-0.004006485,0.003927740,1.965454734,0.000000000,1.971504139,-0.004768000,-0.007186708,-0.000054811,0.588768994,0.000000000,0.688745331,0.355726004,0.287666838,0.257079711,2.474538557,0.000000000,2.471634715,-0.388716996,-0.381967831,0.002310290,-0.687526454,0.000000000,-0.688672548,-0.002205000,-0.002106032,0.000660352,-0.012421481,0.000000000,-0.011879556,0.000000000,-0.000620242,-0.000469056,0.069503302,0.000000000,0.068765340,-0.435999990,-0.399583011,-0.096060384,-8.118395715,0.000000000,-8.178553987,0.000000000,0.004099621,-0.002590234,-1.105647680,0.000000000,-1.106708346,0.000000000,0.010837128,-0.005834136,-0.642720961,0.000000000,-0.643058188,0.000000000,0.005814760,-0.000993284,-0.584916454,0.000000000,-0.584844809,0.000000000,0.000370360,0.001889662,-0.041620077,0.000000000,-0.042802700
0.143987022,-0.004005000,-0.004164617,-0.006103548,0.049421862,0.000000000,0.051529412,0.003242000,-0.003999461,0.003512406,1.971504139,0.000000000,1.978901818,-0.004768000,-0.007185457,0.000625300,0.688745331,0.000000000,0.673006443,0.355726004,0.288178227,0.255694575,2.471634715,0.000000000,2.449178363,-0.388716996,-0.381962491,0.002669835,-0.688672548,0.000000000,-0.690234389,-0.002205000,-0.002104673,0.000679591,-0.011879556,0.000000000,-0.012071617,0.000000000,-0.000620884,-0.000321326,0.068765340,0.000000000,0.067998388,-0.435999990,-0.399765082,-0.091035256,-8.178553987,0.000000000,-8.240464714,0.000000000,0.004094664,-0.002479420,-1.106708346,0.000000000,-1.107805712,0.000000000,0.010825763,-0.005682578,-0.643058188,0.000000000,-0.643417587,0.000000000,0.005812863,-0.000948271,-0.584844809,0.000000000,-0.584781109,0.000000000,0.000374688,0.002164480,-0.042802700,0.000000000,-0.044021505
0.145986842,-0.004005000,-0.004177115,-0.006249469,0.051529412,0.000000000,0.053686874,0.003242000,-0.003993233,0.003113667,1.978901818,0.000000000,1.986150802,-0.004768000,-0.007182686,0.001385626,0.673006443,0.000000000,0.655020903,0.356108010,0.288686267,0.254019667,2.449178363,0.000000000,2.453122726,-0.388716996,-0.381956225,0.003132991,-0.690234389,0.000000000,-0.692184411,-0.002205000,-0.002103402,0.000635575,-0.012071617,0.000000000,-0.012074950,0.000000000,-0.000621232,-0.000173966,0.067998388,0.000000000,0.067202111,-0.435999990,-0.399937205,-0.086061585,-8.240464714,0.000000000,-8.304039024,0.000000000,0.004089928,-0.002368705,-1.107805712,0.000000000,-1.108963761,0.000000000,0.010814699,-0.005532031,-0.643417587,0.000000000,-0.643788809,0.000000000,0.005811057,-0.000903090,-0.584781109,0.000000000,-0.584727022,0.000000000,0.000379555,0.002433323,-0.044021505,0.000000000,-0.045277661
0.147986661,-0.004005000,-0.004189831,-0.006357814,0.053686874,0.000000000,0.055654935,0.003242000,-0.003987786,0.002723815,1.986150802,0.000000000,1.993420420,-0.004768000,-0.007178518,0.002083802,0.655020903,0.000000000,0.638044261,0.356489003,0.289191216,0.252474737,2.453122726,0.000000000,2.456274370,-0.388716996,-0.381949421,0.003402092,-0.692184411,0.000000000,-0.693637132,-0.002205000,-0.002102304,0.000548753,-0.012074950,0.000000000,-0.011939035,0.000000000,-0.000621286,-0.000027400,0.067202111,0.000000000,0.066379087,-0.435999990,-0.400099487,-0.081141098,-8.304039024,0.000000000,-8.369207623,0.000000000,0.004085410,-0.002259570,-1.108963761,0.000000000,-1.110148100,0.000000000,0.010803938,-0.005380559,-0.643788809,0.000000000,-0.644185753,0.000000000,0.005809339,-0.000858839,-0.584727022,0.000000000,-0.584679232,0.000000000,0.000384947,0.002696193,-0.045277661,0.000000000,-0.046569974
0.149986481,-0.004005000,-0.004202698,-0.006433393,0.055654935,0.000000000,0.057453824,0.002861000,-0.003983096,0.002344944,1.993420420,0.000000000,1.892359648,-0.004768000,-0.007173060,0.002729038,0.638044261,0.000000000,0.621898251,0.356489003,0.289693289,0.251036619,2.456274370,0.000000000,2.434783059,-0.388716996,-0.381942369,0.003526100,-0.693637132,0.000000000,-0.694702416,-0.002205000,-0.002101420,0.000442294,-0.011939035,0.000000000,-0.011725772,0.000000000,-0.000621049,0.000118539,0.066379087,0.000000000,0.065528497,-0.435999990,-0.400252038,-0.076275283,-8.369207623,0.000000000,-8.435905755,0.000000000,0.004081108,-0.002151667,-1.110148100,0.000000000,-1.111365913,0.000000000,0.010793480,-0.005228895,-0.644185753,0.000000000,-0.644603210,0.000000000,0.005807710,-0.000814895,-0.584679232,0.000000000,-0.584639452,0.000000000,0.000390852,0.002952282,-0.046569974,0.000000000,-0.047894767
0.151986301,-0.004005000,-0.004215869,-0.006585874,0.057453824,0.000000000,0.059720083,0.002861000,-0.003979361,0.001867454,1.892359648,0.000000000,1.902098366,-0.004768000,-0.007166099,0.003480606,0.621898251,0.000000000,0.602919799,0.356871009,0.290191827,0.249268774,2.434783059,0.000000000,2.439988195,-0.388716996,-0.381934719,0.003824674,-0.694702416,0.000000000,-0.696324344,-0.002205000,-0.002099849,0.000785362,-0.011725772,0.000000000,-0.012859859,0.000000000,-0.000620522,0.000263178,0.065528497,0.000000000,0.064654430,-0.435999990,-0.400394967,-0.071464449,-8.435905755,0.000000000,-8.504095173,0.000000000,0.004077018,-0.002045206,-1.111365913,0.000000000,-1.112611600,0.000000000,0.010783325,-0.005077585,-0.644603210,0.000000000,-0.645037272,0.000000000,0.005806167,-0.000771187,-0.584639452,0.000000000,-0.584607836,0.000000000,0.000397252,0.003200362,-0.047894767,0.000000000,-0.049246936
0.153986121,-0.004005000,-0.004229245,-0.006688050,0.059720083,0.000000000,0.061723661,0.002861000,-0.003976591,0.001384853,1.902098366,0.000000000,1.912227041,-0.004768000,-0.007157846,0.004126606,0.602919799,0.000000000,0.585961979,0.357252002,0.290687221,0.247697276,2.439988195,0.000000000,2.443932226,-0.388716996,-0.381926979,0.003870284,-0.696324344,0.000000000,-0.697236313,-0.002205000,-0.002098160,0.000844566,-0.012859859,0.000000000,-0.013198887,0.000000000,-0.000619706,0.000407916,0.064654430,0.000000000,0.063748947,-0.435999990,-0.400528394,-0.066713845,-8.504095173,0.000000000,-8.573622932,0.000000000,0.004073141,-0.001939507,-1.112611600,0.000000000,-1.113900103,0.000000000,0.010773473,-0.004926149,-0.645037272,0.000000000,-0.645491360,0.000000000,0.005804711,-0.000728306,-0.584607836,0.000000000,-0.584582537,0.000000000,0.000404141,0.003444293,-0.049246936,0.000000000,-0.050636614
0.155985940,-0.004005000,-0.004242755,-0.006755085,0.061723661,0.000000000,0.063542811,0.002861000,-0.003974738,0.000926629,1.912227041,0.000000000,1.922064809,-0.004768000,-0.007148392,0.004726825,0.585961979,0.000000000,0.569698485,0.357252002,0.291179678,0.246228067,2.443932226,0.000000000,2.423269371,-0.388716996,-0.381919330,0.003824531,-0.697236313,0.000000000,-0.697879289,-0.002205000,-0.002096556,0.000802200,-0.013198887,0.000000000,-0.013240592,0.000000000,-0.000618604,0.000551048,0.063748947,0.000000000,0.062822035,-0.435999990,-0.400652439,-0.062022372,-8.573622932,0.000000000,-8.644480261,0.000000000,0.004069471,-0.001835206,-1.113900103,0.000000000,-1.115216292,0.000000000,0.010763923,-0.004775148,-0.645491360,0.000000000,-0.645961426,0.000000000,0.005803340,-0.000685431,-0.584582537,0.000000000,-0.584565886,0.000000000,0.000411503,0.003681419,-0.050636614,0.000000000,-0.052054875
0.157985760,-0.004005000,-0.004256391,-0.006817946,0.063542811,0.000000000,0.065351755,0.002861000,-0.003973781,0.000478610,1.922064809,0.000000000,1.931926472,-0.004768000,-0.007137601,0.005395405,0.569698485,0.000000000,0.551508646,0.358015001,0.291668659,0.244490616,2.423269371,0.000000000,2.452927505,-0.388716996,-0.381911468,0.003930996,-0.697879289,0.000000000,-0.698976542,-0.002205000,-0.002095102,0.000726633,-0.013240592,0.000000000,-0.013172629,0.000000000,-0.000617218,0.000692933,0.062822035,0.000000000,0.061871934,-0.435999990,-0.400767223,-0.057391679,-8.644480261,0.000000000,-8.716595313,0.000000000,0.004066007,-0.001732356,-1.115216292,0.000000000,-1.116558084,0.000000000,0.010754674,-0.004624476,-0.645961426,0.000000000,-0.646448195,0.000000000,0.005802054,-0.000643045,-0.584565886,0.000000000,-0.584556413,0.000000000,0.000419326,0.003911097,-0.052054875,0.000000000,-0.053498384
0.159985580,-0.004005000,-0.004270018,-0.006813360,0.065351755,0.000000000,0.066778311,0.002861000,-0.003973680,0.000050196,1.931926472,0.000000000,1.941588233,-0.004768000,-0.007125850,0.005875671,0.551508646,0.000000000,0.537305257,0.358015001,0.292155201,0.243271041,2.452927505,0.000000000,2.430863813,-0.388716996,-0.381904161,0.003653208,-0.698976542,0.000000000,-0.698925212,-0.002205000,-0.002093940,0.000581183,-0.013172629,0.000000000,-0.012876588,0.000000000,-0.000615550,0.000833526,0.061871934,0.000000000,0.060899166,-0.435999990,-0.400872869,-0.052823426,-8.716595313,0.000000000,-8.789895040,0.000000000,0.004062747,-0.001630623,-1.116558084,0.000000000,-1.117932462,0.000000000,0.010745724,-0.004474656,-0.646448195,0.000000000,-0.646947836,0.000000000,0.005800852,-0.000601093,-0.584556413,0.000000000,-0.584554187,0.000000000,0.000427593,0.004133978,-0.053498384,0.000000000,-0.054967623
0.161985400,-0.004005000,-0.004283641,-0.006811691,0.066778311,0.000000000,0.068221007,0.002861000,-0.003974420,-0.000369907,1.941588233,0.000000000,1.951300825,-0.004768000,-0.007112974,0.006438180,0.537305257,0.000000000,0.520921852,0.358397007,0.292638690,0.241744424,2.430863813,0.000000000,2.435304858,-0.388716996,-0.381896968,0.003596812,-0.698925212,0.000000000,-0.699491902,-0.002205000,-0.002093012,0.000463943,-0.012876588,0.000000000,-0.012637051,0.000000000,-0.000613605,0.000972603,0.060899166,0.000000000,0.059905329,-0.435999990,-0.400969507,-0.048318988,-8.789895040,0.000000000,-8.864312058,0.000000000,0.004059687,-0.001530684,-1.117932462,0.000000000,-1.119323038,0.000000000,0.010737074,-0.004324977,-0.646947836,0.000000000,-0.647465374,0.000000000,0.005799732,-0.000560094,-0.584554187,0.000000000,-0.584557537,0.000000000,0.000436293,0.004350126,-0.054967623,0.000000000,-0.056461407
0.163985219,-0.004005000,-0.004297196,-0.006777617,0.068221007,0.000000000,0.069473188,0.002861000,-0.003975976,-0.000777745,1.951300825,0.000000000,1.960967855,-0.004768000,-0.007099091,0.006941511,0.520921852,0.000000000,0.505590843,0.358778000,0.293119365,0.240337472,2.435304858,0.000000000,2.439009052,-0.388716996,-0.381890079,0.003444281,-0.699491902,0.000000000,-0.699754451,-0.002205000,-0.002092346,0.000333127,-0.012637051,0.000000000,-0.012332476,0.000000000,-0.000611385,0.001110205,0.059905329,0.000000000,0.058890501,-0.435999990,-0.401057267,-0.043879667,-8.864312058,0.000000000,-8.939779897,0.000000000,0.004056823,-0.001431932,-1.119323038,0.000000000,-1.120742878,0.000000000,0.010728722,-0.004176378,-0.647465374,0.000000000,-0.647994020,0.000000000,0.005798693,-0.000519483,-0.584557537,0.000000000,-0.584567995,0.000000000,0.000445413,0.004559657,-0.056461407,0.000000000,-0.057978735
0.165985039,-0.004005000,-0.004310625,-0.006714765,0.069473188,0.000000000,0.070549230,0.002861000,-0.003978320,-0.001172312,1.960967855,0.000000000,1.970559019,-0.004768000,-0.007084300,0.007395228,0.505590843,0.000000000,0.491124109,0.359158993,0.293597420,0.239027494,2.439009052,0.000000000,2.442189450,-0.388716996,-0.381883614,0.003232341,-0.699754451,0.000000000,-0.699805259,-0.002205000,-0.002091937,0.000204364,-0.012332476,0.000000000,-0.012007712,0.000000000,-0.000608892,0.001246112,0.058890501,0.000000000,0.057856285,-0.435999990,-0.401136280,-0.039506692,-8.939779897,0.000000000,-9.016233068,0.000000000,0.004054155,-0.001334737,-1.120742878,0.000000000,-1.122182760,0.000000000,0.010720665,-0.004028499,-0.647994020,0.000000000,-0.648536217,0.000000000,0.005797734,-0.000479576,-0.584567995,0.000000000,-0.584584518,0.000000000,0.000454938,0.004762591,-0.057978735,0.000000000,-0.059518322
0.167984859,-0.004005000,-0.004323877,-0.006625575,0.070549230,0.000000000,0.071457322,0.002861000,-0.003981429,-0.001554401,1.970559019,0.000000000,1.980085145,-0.004768000,-0.007068692,0.007804001,0.491124109,0.000000000,0.477441601,0.359540999,0.294073021,0.237800775,2.442189450,0.000000000,2.444997018,-0.388716996,-0.381877650,0.002982314,-0.699805259,0.000000000,-0.699697246,-0.002205000,-0.002091772,0.000082427,-0.012007712,0.000000000,-0.011677704,0.000000000,-0.000606132,0.001380280,0.057856285,0.000000000,0.056803310,-0.435999990,-0.401206682,-0.035201188,-9.016233068,0.000000000,-9.093607733,0.000000000,0.004051677,-0.001239058,-1.122182760,0.000000000,-1.123642718,0.000000000,0.010712902,-0.003881530,-0.648536217,0.000000000,-0.649090521,0.000000000,0.005796853,-0.000440313,-0.584584518,0.000000000,-0.584607142,0.000000000,0.000464855,0.004958817,-0.059518322,0.000000000,-0.061078504
0.169984679,-0.004005000,-0.004336901,-0.006512213,0.071457322,0.000000000,0.072204549,0.002861000,-0.003985278,-0.001924447,1.980085145,0.000000000,1.989549256,-0.004387000,-0.007052349,0.008171817,0.477441601,0.000000000,0.572773710,0.359540999,0.294546314,0.236646413,2.444997018,0.000000000,2.423306681,-0.388716996,-0.381872228,0.002710627,-0.699697246,0.000000000,-0.699472739,-0.002205000,-0.002091833,-0.000030438,-0.011677704,0.000000000,-0.011350678,0.000000000,-0.000603106,0.001512611,0.056803310,0.000000000,0.055732511,-0.435999990,-0.401268611,-0.030964252,-9.093607733,0.000000000,-9.171840112,0.000000000,0.004049388,-0.001144912,-1.123642718,0.000000000,-1.125121518,0.000000000,0.010705430,-0.003735578,-0.649090521,0.000000000,-0.649656033,0.000000000,0.005796049,-0.000401723,-0.584607142,0.000000000,-0.584635656,0.000000000,0.000475152,0.005148349,-0.061078504,0.000000000,-0.062657966
0.171984498,-0.004005000,-0.004349885,-0.006492226,0.072204549,0.000000000,0.073475553,0.002861000,-0.003989887,-0.002304505,1.989549256,0.000000000,1.999455864,-0.004387000,-0.007034565,0.008891960,0.572773710,0.000000000,0.551429825,0.359921992,0.295015629,0.234657710,2.423306681,0.000000000,2.431863492,-0.388716996,-0.381866551,0.002838555,-0.699472739,0.000000000,-0.700410194,-0.002205000,-0.002091931,-0.000048945,-0.011350678,0.000000000,-0.011288169,0.000000000,-0.000599820,0.001643371,0.055732511,0.000000000,0.054642732,-0.435999990,-0.401322205,-0.026796998,-9.171840112,0.000000000,-9.250865410,0.000000000,0.004047282,-0.001053187,-1.125121518,0.000000000,-1.126597660,0.000000000,0.010698252,-0.003589430,-0.649656033,0.000000000,-0.650241404,0.000000000,0.005795321,-0.000364206,-0.584635656,0.000000000,-0.584668704,0.000000000,0.000485814,0.005331061,-0.062657966,0.000000000,-0.064254968
0.173984318,-0.004005000,-0.004362750,-0.006432306,0.073475553,0.000000000,0.074507963,0.002861000,-0.003995221,-0.002667128,1.999455864,0.000000000,2.009174273,-0.004387000,-0.007015527,0.009518909,0.551429825,0.000000000,0.531837475,0.359921992,0.295481394,0.232882371,2.431863492,0.000000000,2.415062572,-0.388716996,-0.381860967,0.002792297,-0.700410194,0.000000000,-0.700843092,-0.002205000,-0.002092178,-0.000123664,-0.011288169,0.000000000,-0.011050747,0.000000000,-0.000596276,0.001771795,0.054642732,0.000000000,0.053538779,-0.435999990,-0.401367605,-0.022700008,-9.250865410,0.000000000,-9.330630508,0.000000000,0.004045360,-0.000961204,-1.126597660,0.000000000,-1.128131935,0.000000000,0.010691357,-0.003447315,-0.650241404,0.000000000,-0.650816056,0.000000000,0.005794669,-0.000326084,-0.584668704,0.000000000,-0.584711177,0.000000000,0.000496828,0.005507219,-0.064254968,0.000000000,-0.065868947
0.175984138,-0.004005000,-0.004375481,-0.006365637,0.074507963,0.000000000,0.075487993,0.002861000,-0.004001263,-0.003020730,2.009174273,0.000000000,2.018889637,-0.004387000,-0.006995155,0.010186323,0.531837475,0.000000000,0.510950462,0.360303998,0.295943222,0.230914146,2.415062572,0.000000000,2.424010749,-0.388716996,-0.381855230,0.002868158,-0.700843092,0.000000000,-0.701638505,-0.002205000,-0.002092552,-0.000187054,-0.011050747,0.000000000,-0.010832719,0.000000000,-0.000592481,0.001897864,0.053538779,0.000000000,0.052421277,-0.435999990,-0.401404955,-0.018674871,-9.330630508,0.000000000,-9.411058593,0.000000000,0.004043617,-0.000871916,-1.128131935,0.000000000,-1.129656006,0.000000000,0.010684747,-0.003304792,-0.650816056,0.000000000,-0.651411618,0.000000000,0.005794089,-0.000290093,-0.584711177,0.000000000,-0.584754866,0.000000000,0.000508182,0.005677117,-0.065868947,0.000000000,-0.067499467
0.177983957,-0.004005000,-0.004388001,-0.006259921,0.075487993,0.000000000,0.076224679,0.002861000,-0.004007983,-0.003360013,2.018889637,0.000000000,2.028474012,-0.004387000,-0.006973633,0.010760985,0.510950462,0.000000000,0.491834687,0.360684991,0.296401541,0.229159191,2.424010749,0.000000000,2.431600702,-0.388716996,-0.381849670,0.002780037,-0.701638505,0.000000000,-0.701949906,-0.002205000,-0.002093098,-0.000272763,-0.010832719,0.000000000,-0.010533914,0.000000000,-0.000588437,0.002021916,0.052421277,0.000000000,0.051288740,-0.435999990,-0.401434399,-0.014722024,-9.411058593,0.000000000,-9.492098719,0.000000000,0.004042049,-0.000784137,-1.129656006,0.000000000,-1.131195812,0.000000000,0.010678420,-0.003163711,-0.651411618,0.000000000,-0.652014744,0.000000000,0.005793580,-0.000254637,-0.584754866,0.000000000,-0.584804201,0.000000000,0.000519862,0.005840127,-0.067499467,0.000000000,-0.069143357
0.179983777,-0.004005000,-0.004400242,-0.006120559,0.076224679,0.000000000,0.076741385,0.002861000,-0.004015352,-0.003684602,2.028474012,0.000000000,2.037910563,-0.004387000,-0.006951118,0.011257229,0.491834687,0.000000000,0.474210560,0.360684991,0.296856702,0.227580618,2.431600702,0.000000000,2.414070938,-0.388716996,-0.381844502,0.002584371,-0.701949906,0.000000000,-0.701916006,-0.002205000,-0.002093821,-0.000361621,-0.010533914,0.000000000,-0.010208197,0.000000000,-0.000584150,0.002143725,0.051288740,0.000000000,0.050142922,-0.435999990,-0.401456083,-0.010842243,-9.492098719,0.000000000,-9.573691777,0.000000000,0.004040653,-0.000698054,-1.131195812,0.000000000,-1.132746168,0.000000000,0.010672372,-0.003023984,-0.652014744,0.000000000,-0.652625911,0.000000000,0.005793140,-0.000219912,-0.584804201,0.000000000,-0.584858474,0.000000000,0.000531855,0.005996465,-0.069143357,0.000000000,-0.070799878
0.181983597,-0.004005000,-0.004412203,-0.005980785,0.076741385,0.000000000,0.077225964,0.002861000,-0.004023354,-0.004001265,2.037910563,0.000000000,2.047347823,-0.004387000,-0.006927514,0.011802092,0.474210560,0.000000000,0.455176969,0.361066997,0.297308274,0.225786180,2.414070938,0.000000000,2.422431656,-0.388716996,-0.381839396,0.002552752,-0.701916006,0.000000000,-0.702342102,-0.002205000,-0.002094667,-0.000422859,-0.010208197,0.000000000,-0.009948625,0.000000000,-0.000579623,0.002263241,0.050142922,0.000000000,0.048984600,-0.435999990,-0.401470156,-0.007036289,-9.573691777,0.000000000,-9.655778582,0.000000000,0.004039426,-0.000613735,-1.132746168,0.000000000,-1.134304565,0.000000000,0.010666601,-0.002885619,-0.652625911,0.000000000,-0.653244867,0.000000000,0.005792768,-0.000186028,-0.584858474,0.000000000,-0.584917209,0.000000000,0.000544147,0.006146194,-0.070799878,0.000000000,-0.072467875
0.183983417,-0.004005000,-0.004423818,-0.005807569,0.077225964,0.000000000,0.077484502,0.002861000,-0.004031964,-0.004304624,2.047347823,0.000000000,2.056656649,-0.004387000,-0.006902990,0.012262433,0.455176969,0.000000000,0.437793481,0.361066997,0.297756642,0.224183706,2.422431656,0.000000000,2.405500918,-0.388716996,-0.381834610,0.002392994,-0.702342102,0.000000000,-0.702371604,-0.002205000,-0.002095658,-0.000495664,-0.009948625,0.000000000,-0.009641451,0.000000000,-0.000574863,0.002380416,0.048984600,0.000000000,0.047814534,-0.435999990,-0.401476766,-0.003304890,-9.655778582,0.000000000,-9.738300292,0.000000000,0.004038364,-0.000530928,-1.134304565,0.000000000,-1.135875825,0.000000000,0.010661103,-0.002749013,-0.653244867,0.000000000,-0.653868582,0.000000000,0.005792462,-0.000152824,-0.584917209,0.000000000,-0.584980720,0.000000000,0.000556726,0.006289504,-0.072467875,0.000000000,-0.074146589
0.185983236,-0.004005000,-0.004435089,-0.005635061,0.077484502,0.000000000,0.077710270,0.002861000,-0.004041163,-0.004599757,2.056656649,0.000000000,2.065947158,-0.004387000,-0.006877451,0.012769456,0.437793481,0.000000000,0.419065848,0.361447990,0.298201389,0.222373688,2.405500918,0.000000000,2.414339468,-0.388716996,-0.381829835,0.002387781,-0.702371604,0.000000000,-0.702839427,-0.002205000,-0.002096744,-0.000542857,-0.009641451,0.000000000,-0.009397555,0.000000000,-0.000569873,0.002495123,0.047814534,0.000000000,0.046633984,-0.435999990,-0.401476063,0.000351357,-9.738300292,0.000000000,-9.821200697,0.000000000,0.004037465,-0.000450005,-1.135875825,0.000000000,-1.137450446,0.000000000,0.010655875,-0.002613768,-0.653868582,0.000000000,-0.654499702,0.000000000,0.005792221,-0.000120605,-0.584980720,0.000000000,-0.585047945,0.000000000,0.000569579,0.006426333,-0.074146589,0.000000000,-0.075834535
0.187983056,-0.004005000,-0.004445949,-0.005430394,0.077710270,0.000000000,0.077710545,0.002861000,-0.004050926,-0.004881642,2.065947158,0.000000000,2.075098279,-0.004387000,-0.006851070,0.013190434,0.419065848,0.000000000,0.402045149,0.361447990,0.298642913,0.220761941,2.414339468,0.000000000,2.397906915,-0.388716996,-0.381825340,0.002247191,-0.702839427,0.000000000,-0.702893953,-0.002205000,-0.002097950,-0.000603246,-0.009397555,0.000000000,-0.009103936,0.000000000,-0.000564659,0.002607378,0.046633984,0.000000000,0.045443369,-0.435999990,-0.401468199,0.003931887,-9.821200697,0.000000000,-9.904423934,0.000000000,0.004036724,-0.000370627,-1.137450446,0.000000000,-1.139035256,0.000000000,0.010650914,-0.002480397,-0.654499702,0.000000000,-0.655134354,0.000000000,0.005792043,-0.000089086,-0.585047945,0.000000000,-0.585119548,0.000000000,0.000582692,0.006556765,-0.075834535,0.000000000,-0.077530660
0.189982876,-0.004005000,-0.004456405,-0.005227724,0.077710545,0.000000000,0.077678905,0.002861000,-0.004061237,-0.005155442,2.075098279,0.000000000,2.084222184,-0.004387000,-0.006823757,0.013656493,0.402045149,0.000000000,0.383739820,0.361829996,0.299080811,0.218949103,2.397906915,0.000000000,2.407262146,-0.388716996,-0.381820831,0.002254651,-0.702893953,0.000000000,-0.703370896,-0.002205000,-0.002099229,-0.000639408,-0.009103936,0.000000000,-0.008871882,0.000000000,-0.000559225,0.002717055,0.045443369,0.000000000,0.044243954,-0.435999990,-0.401453327,0.007436209,-9.904423934,0.000000000,-9.987915618,0.000000000,0.004036137,-0.000293149,-1.139035256,0.000000000,-1.140621100,0.000000000,0.010646217,-0.002348517,-0.655134354,0.000000000,-0.655775074,0.000000000,0.005791926,-0.000058567,-0.585119548,0.000000000,-0.585194479,0.000000000,0.000596054,0.006680782,-0.077530660,0.000000000,-0.079233615
0.191982696,-0.004005000,-0.004466393,-0.004994238,0.077678905,0.000000000,0.077423231,0.002861000,-0.004072069,-0.005416155,2.084222184,0.000000000,2.093198273,-0.004387000,-0.006795687,0.014035060,0.383739820,0.000000000,0.367198259,0.361829996,0.299515492,0.217340646,2.407262146,0.000000000,2.391238411,-0.388716996,-0.381816588,0.002121551,-0.703370896,0.000000000,-0.703421321,-0.002205000,-0.002100609,-0.000689758,-0.008871882,0.000000000,-0.008589316,0.000000000,-0.000553577,0.002824176,0.044243954,0.000000000,0.043036165,-0.435999990,-0.401431599,0.010863858,-9.987915618,0.000000000,-10.071621606,0.000000000,0.004035703,-0.000217235,-1.140621100,0.000000000,-1.142214710,0.000000000,0.010641780,-0.002218621,-0.655775074,0.000000000,-0.656418096,0.000000000,0.005791868,-0.000028775,-0.585194479,0.000000000,-0.585273365,0.000000000,0.000609650,0.006798504,-0.079233615,0.000000000,-0.080942467
0.193982515,-0.004005000,-0.004475922,-0.004764255,0.077423231,0.000000000,0.077138335,0.002861000,-0.004083407,-0.005668992,2.093198273,0.000000000,2.102139964,-0.004387000,-0.006766772,0.014457906,0.367198259,0.000000000,0.349414767,0.361829996,0.299946563,0.215535309,2.391238411,0.000000000,2.376842170,-0.388716996,-0.381812321,0.002133262,-0.703421321,0.000000000,-0.703885811,-0.002205000,-0.002102042,-0.000716617,-0.008589316,0.000000000,-0.008368108,0.000000000,-0.000547720,0.002928621,0.043036165,0.000000000,0.041821245,-0.435999990,-0.401403170,0.014214451,-10.071621606,0.000000000,-10.155489434,0.000000000,0.004035416,-0.000143241,-1.142214710,0.000000000,-1.143806955,0.000000000,0.010637599,-0.002090318,-0.656418096,0.000000000,-0.657066002,0.000000000,0.005791868,-0.000000005,-0.585273365,0.000000000,-0.585355161,0.000000000,0.000623470,0.006909921,-0.080942467,0.000000000,-0.082655918
0.195982335,-0.004005000,-0.004484990,-0.004534356,0.077138335,0.000000000,0.076804904,0.002861000,-0.004095237,-0.005914556,2.102139964,0.000000000,2.111056740,-0.004387000,-0.006736950,0.014910953,0.349414767,0.000000000,0.330690622,0.362210989,0.300373705,0.213571008,2.376842170,0.000000000,2.387889417,-0.388716996,-0.381807848,0.002236683,-0.703885811,0.000000000,-0.704631937,-0.002205000,-0.002103511,-0.000734656,-0.008368108,0.000000000,-0.008168325,0.000000000,-0.000541660,0.003030421,0.041821245,0.000000000,0.040599591,-0.435999990,-0.401368195,0.017487641,-10.155489434,0.000000000,-10.239467266,0.000000000,0.004035275,-0.000070906,-1.143806955,0.000000000,-1.145402791,0.000000000,0.010633671,-0.001964007,-0.657066002,0.000000000,-0.657715707,0.000000000,0.005791924,0.000027968,-0.585355161,0.000000000,-0.585440343,0.000000000,0.000637500,0.007015112,-0.082655918,0.000000000,-0.084372930
0.197982155,-0.004005000,-0.004493537,-0.004273178,0.076804904,0.000000000,0.076238911,0.002861000,-0.004107529,-0.006146385,2.111056740,0.000000000,2.119794635,-0.004387000,-0.006706415,0.015267306,0.330690622,0.000000000,0.313951014,0.362592995,0.300797388,0.211841261,2.387889417,0.000000000,2.397551971,-0.388716996,-0.381803521,0.002163210,-0.704631937,0.000000000,-0.704860305,-0.002205000,-0.002105056,-0.000772190,-0.008168325,0.000000000,-0.007905533,0.000000000,-0.000535402,0.003129485,0.040599591,0.000000000,0.039372291,-0.435999990,-0.401326829,0.020683105,-10.239467266,0.000000000,-10.323503600,0.000000000,0.004035274,-0.000000235,-1.145402791,0.000000000,-1.147001135,0.000000000,0.010629992,-0.001839709,-0.657715707,0.000000000,-0.658366805,0.000000000,0.005792034,0.000055102,-0.585440343,0.000000000,-0.585528628,0.000000000,0.000651729,0.007114240,-0.084372930,0.000000000,-0.086092741
0.199981975,-0.004005000,-0.004501509,-0.003986090,0.076238911,0.000000000,0.075465197,0.002861000,-0.004120258,-0.006364565,2.119794635,0.000000000,2.128347823,-0.004387000,-0.006675333,0.015541455,0.313951014,0.000000000,0.298914915,0.362592995,0.301218004,0.210308049,2.397551971,0.000000000,2.381881822,-0.388716996,-0.381799579,0.001971366,-0.704860305,0.000000000,-0.704713365,-0.002205000,-0.002106682,-0.000813028,-0.007905533,0.000000000,-0.007625093,0.000000000,-0.000528951,0.003225759,0.039372291,0.000000000,0.038140257,-0.435999990,-0.401279227,0.023800628,-10.323503600,0.000000000,-10.407549276,0.000000000,0.004035411,0.000068571,-1.147001135,0.000000000,-1.148596400,0.000000000,0.010626558,-0.001717214,-0.658366805,0.000000000,-0.659020568,0.000000000,0.005792197,0.000081251,-0.585528628,0.000000000,-0.585619396,0.000000000,0.000666143,0.007207258,-0.086092741,0.000000000,-0.087813985
0.201981794,-0.004005000,-0.004508922,-0.003706593,0.075465197,0.000000000,0.074674828,0.002861000,-0.004133410,-0.006576021,2.128347823,0.000000000,2.136869150,-0.004387000,-0.006643609,0.015861693,0.298914915,0.000000000,0.282654282,0.362973988,0.301635155,0.208575472,2.381881822,0.000000000,2.391913058,-0.388716996,-0.381795706,0.001936227,-0.704713365,0.000000000,-0.705004833,-0.002205000,-0.002108338,-0.000827923,-0.007625093,0.000000000,-0.007415399,0.000000000,-0.000522313,0.003319256,0.038140257,0.000000000,0.036903997,-0.435999990,-0.401225547,0.026840048,-10.407549276,0.000000000,-10.491556213,0.000000000,0.004035682,0.000135526,-1.148596400,0.000000000,-1.150187877,0.000000000,0.010623364,-0.001596609,-0.659020568,0.000000000,-0.659676125,0.000000000,0.005792410,0.000106457,-0.585619396,0.000000000,-0.585712578,0.000000000,0.000680731,0.007294148,-0.087813985,0.000000000,-0.089535369
0.203981614,-0.004005000,-0.004515726,-0.003402061,0.074674828,0.000000000,0.073677959,0.002861000,-0.004146961,-0.006775461,2.136869150,0.000000000,2.145232051,-0.004387000,-0.006611416,0.016096600,0.282654282,0.000000000,0.268190216,0.362973988,0.302049248,0.207046566,2.391913058,0.000000000,2.376624327,-0.388716996,-0.381792166,0.001770317,-0.705004833,0.000000000,-0.704890986,-0.002205000,-0.002110050,-0.000856237,-0.007415399,0.000000000,-0.007161831,0.000000000,-0.000515494,0.003409963,0.036903997,0.000000000,0.035664182,-0.435999990,-0.401165945,0.029801175,-10.491556213,0.000000000,-10.575475620,0.000000000,0.004036084,0.000200908,-1.150187877,0.000000000,-1.151780914,0.000000000,0.010620408,-0.001478276,-0.659676125,0.000000000,-0.660330485,0.000000000,0.005792672,0.000130914,-0.585712578,0.000000000,-0.585808572,0.000000000,0.000695481,0.007375155,-0.089535369,0.000000000,-0.091256401
0.205981434,-0.004005000,-0.004521939,-0.003106605,0.073677959,0.000000000,0.072669435,0.002861000,-0.004160897,-0.006968028,2.145232051,0.000000000,2.153548980,-0.004387000,-0.006578661,0.016377636,0.268190216,0.000000000,0.252522987,0.363355994,0.302459890,0.205321343,2.376624327,0.000000000,2.387078390,-0.388716996,-0.381788652,0.001756552,-0.704890986,0.000000000,-0.705206904,-0.002205000,-0.002111773,-0.000861486,-0.007161831,0.000000000,-0.006972775,0.000000000,-0.000508499,0.003497781,0.035664182,0.000000000,0.034421992,-0.435999990,-0.401100577,0.032683932,-10.575475620,0.000000000,-10.659261170,0.000000000,0.004036612,0.000264354,-1.151780914,0.000000000,-1.153366200,0.000000000,0.010617684,-0.001361780,-0.660330485,0.000000000,-0.660986506,0.000000000,0.005792980,0.000154325,-0.585808572,0.000000000,-0.585906328,0.000000000,0.000710382,0.007450270,-0.091256401,0.000000000,-0.092975868
0.207981254,-0.004005000,-0.004527514,-0.002787495,0.072669435,0.000000000,0.071459116,0.002861000,-0.004175195,-0.007148744,2.153548980,0.000000000,2.161700576,-0.004387000,-0.006545516,0.016572860,0.252522987,0.000000000,0.238685764,0.363355994,0.302867498,0.203803651,2.387078390,0.000000000,2.372119630,-0.388716996,-0.381785438,0.001607086,-0.705206904,0.000000000,-0.705106812,-0.002205000,-0.002113538,-0.000882303,-0.006972775,0.000000000,-0.006735253,0.000000000,-0.000501335,0.003582762,0.034421992,0.000000000,0.033177738,-0.435999990,-0.401029600,0.035488261,-10.659261170,0.000000000,-10.742867022,0.000000000,0.004037264,0.000326216,-1.153366200,0.000000000,-1.154950844,0.000000000,0.010615189,-0.001247601,-0.660986506,0.000000000,-0.661640484,0.000000000,0.005793334,0.000176989,-0.585906328,0.000000000,-0.586006541,0.000000000,0.000725421,0.007519612,-0.092975868,0.000000000,-0.094692936
0.209981073,-0.004005000,-0.004532472,-0.002478948,0.071459116,0.000000000,0.070242749,0.002861000,-0.004189841,-0.007322860,2.161700576,0.000000000,2.169801889,-0.004387000,-0.006511888,0.016814144,0.238685764,0.000000000,0.223669539,0.363355994,0.303271682,0.202092090,2.372119630,0.000000000,2.358755113,-0.388716996,-0.381782226,0.001606210,-0.705106812,0.000000000,-0.705428983,-0.002205000,-0.002115301,-0.000881469,-0.006735253,0.000000000,-0.006559455,0.000000000,-0.000494006,0.003664810,0.033177738,0.000000000,0.031932580,-0.435999990,-0.400953172,0.038214180,-10.742867022,0.000000000,-10.826248958,0.000000000,0.004038036,0.000386151,-1.154950844,0.000000000,-1.156525955,0.000000000,0.010612918,-0.001135325,-0.661640484,0.000000000,-0.662295116,0.000000000,0.005793732,0.000198621,-0.586006541,0.000000000,-0.586108191,0.000000000,0.000740587,0.007583186,-0.094692936,0.000000000,-0.096406459
0.211980893,-0.004005000,-0.004536827,-0.002177514,0.070242749,0.000000000,0.069002353,0.002861000,-0.004204823,-0.007491014,2.169801889,0.000000000,2.177863918,-0.004387000,-0.006477712,0.017087732,0.223669539,0.000000000,0.207767099,0.363736987,0.303672129,0.200223791,2.358755113,0.000000000,2.370806122,-0.388716996,-0.381778824,0.001700703,-0.705428983,0.000000000,-0.706041392,-0.002205000,-0.002117048,-0.000873647,-0.006559455,0.000000000,-0.006405100,0.000000000,-0.000486519,0.003743982,0.031932580,0.000000000,0.030686822,-0.435999990,-0.400871449,0.040861730,-10.826248958,0.000000000,-10.909363364,0.000000000,0.004038925,0.000444430,-1.156525955,0.000000000,-1.158096724,0.000000000,0.010610868,-0.001025328,-0.662295116,0.000000000,-0.662947443,0.000000000,0.005794171,0.000219454,-0.586108191,0.000000000,-0.586211781,0.000000000,0.000755869,0.007641093,-0.096406459,0.000000000,-0.098115573
0.213980713,-0.004005000,-0.004540531,-0.001851849,0.069002353,0.000000000,0.067555503,0.002861000,-0.004220116,-0.007646750,2.177863918,0.000000000,2.185733603,-0.004387000,-0.006443178,0.017267216,0.207767099,0.000000000,0.193891154,0.363736987,0.304069312,0.198591054,2.370806122,0.000000000,2.357323612,-0.388716996,-0.381775580,0.001622428,-0.706041392,0.000000000,-0.706146798,-0.002205000,-0.002118822,-0.000886926,-0.006405100,0.000000000,-0.006188075,0.000000000,-0.000478880,0.003820211,0.030686822,0.000000000,0.029441459,-0.435999990,-0.400784587,0.043430967,-10.909363364,0.000000000,-10.992167014,0.000000000,0.004039927,0.000501057,-1.158096724,0.000000000,-1.159662304,0.000000000,0.010609033,-0.000917610,-0.662947443,0.000000000,-0.663597182,0.000000000,0.005794650,0.000239458,-0.586211781,0.000000000,-0.586317056,0.000000000,0.000771256,0.007693516,-0.098115573,0.000000000,-0.099819692
