sainanliu129-hub/model/applications/Body_GravityPara_Iden/data/excitation/PD-M1-v0_multi_joint_20260305-195432_exctra_real.csv
time,cmd_leg_l1_joint,pos_leg_l1_joint,vel_leg_l1_joint,torque_leg_l1_joint,cmd_leg_l2_joint,pos_leg_l2_joint,vel_leg_l2_joint,torque_leg_l2_joint,cmd_leg_l3_joint,pos_leg_l3_joint,vel_leg_l3_joint,torque_leg_l3_joint,cmd_leg_l4_joint,pos_leg_l4_joint,vel_leg_l4_joint,torque_leg_l4_joint,cmd_leg_l5_joint,pos_leg_l5_joint,vel_leg_l5_joint,torque_leg_l5_joint,cmd_leg_l6_joint,pos_leg_l6_joint,vel_leg_l6_joint,torque_leg_l6_joint,cmd_leg_r1_joint,pos_leg_r1_joint,vel_leg_r1_joint,torque_leg_r1_joint,cmd_leg_r2_joint,pos_leg_r2_joint,vel_leg_r2_joint,torque_leg_r2_joint,cmd_leg_r3_joint,pos_leg_r3_joint,vel_leg_r3_joint,torque_leg_r3_joint,cmd_leg_r4_joint,pos_leg_r4_joint,vel_leg_r4_joint,torque_leg_r4_joint,cmd_leg_r5_joint,pos_leg_r5_joint,vel_leg_r5_joint,torque_leg_r5_joint,cmd_leg_r6_joint,pos_leg_r6_joint,vel_leg_r6_joint,torque_leg_r6_joint
0.000000000,0.000000000,-0.028038025,0.039560318,2.753342438,0.000000000,0.003623962,-0.074726105,-0.523086548,0.000000000,0.000953674,-0.004396439,-1.419790649,0.000000000,0.027275085,0.004396439,-1.098907471,0.000000000,-0.001662848,-0.013187084,0.099110215,0.000000000,-0.001173278,0.018134511,0.192229461,0.000000000,-0.026512146,0.145055771,2.533096313,-0.000000000,0.001716614,-0.004396439,-1.120880127,0.000000000,0.009346008,-0.092308044,-1.569232178,0.000000000,0.039483070,0.004396439,-2.124542236,0.000000000,0.019888602,0.000014586,-2.084474900,0.000000000,0.007808426,0.009012273,-0.673744928
0.002000000,0.000000000,-0.028038025,0.030769348,3.193897247,0.000000000,0.003623962,0.039560318,-1.120880127,0.000000000,0.000953674,-0.004396439,-1.419790649,0.000000000,0.027275085,-0.004396439,-1.391937256,0.000000000,-0.001662848,0.000002263,0.099110215,0.000000000,-0.001173278,-0.009071606,0.192229461,0.000000000,-0.026512146,0.145055771,2.533096313,-0.000000000,0.001716614,-0.004396439,-1.120880127,0.000000000,0.009346008,-0.092308044,-1.569232178,0.000000000,0.039483070,0.004396439,-2.124542236,0.000000000,0.019888602,0.000014586,-2.084474900,0.000000000,0.007808426,0.009012273,-0.673744928
0.004000000,0.000000000,-0.028038025,-0.013187408,3.193897247,0.000000000,0.003623962,0.039560318,-2.167025757,0.000000000,0.000953674,-0.021978378,0.074734497,0.000000000,0.027275085,0.004396439,-1.245422363,0.000000000,-0.001662848,-0.000002263,0.099144945,0.000000000,-0.001173278,0.009071606,0.096132462,0.000000000,-0.025749207,0.127471924,2.533096313,-0.000000000,0.001716614,-0.004396439,-1.120880127,0.000000000,0.009346008,0.030769348,-1.718673706,0.000000000,0.039483070,-0.013187408,-2.124542236,0.000000000,0.019888602,0.004422967,-2.183772368,0.000000000,0.007808426,0.018011997,-0.721949058
0.006000000,0.000000000,-0.028038025,0.021978378,3.414174652,0.000000000,0.003623962,-0.004396439,-0.672528076,0.000000000,0.000953674,0.004396439,-0.672528076,0.000000000,0.027275085,0.004396439,-1.098907471,0.000000000,-0.001662848,0.004389343,0.198307260,0.000000000,-0.001173278,0.018142831,0.144205701,0.000000000,-0.025749207,0.127471924,2.533096313,-0.000001000,0.001716614,-0.004396439,-1.270321655,0.000000000,0.009346008,-0.048351288,-1.868142700,0.000000000,0.039483070,-0.004396439,-2.124542236,0.000000000,0.019888602,0.004422967,-1.985410639,0.000000000,0.007808426,0.018011997,-0.722270089
0.008000000,0.000000000,-0.028038025,-0.021978378,2.973619843,0.000000000,0.003623962,-0.030769348,-1.120880127,0.000000000,0.000953674,-0.004396439,-1.120880127,0.000000000,0.027275085,0.004396439,-1.098907471,0.000000000,-0.001662848,0.004389343,0.099110215,0.000000000,-0.001173278,0.018142831,0.192229461,0.000000000,-0.025367737,0.083517075,2.753342438,-0.000002000,0.001716614,0.048351288,-0.971438599,0.000000000,0.009346008,-0.013187408,-2.017584229,0.000000000,0.039483070,-0.013187408,-2.271057129,0.000000000,0.019888602,-0.004364631,-1.886346378,0.000000000,0.007808426,0.018033184,-0.770795250
0.010000000,0.000000000,-0.028038025,0.013187408,3.193897247,0.000000000,0.003623962,0.057142258,-1.419790649,0.000000000,0.000953674,-0.013187408,-0.523086548,0.000000000,0.027275085,0.013187408,-1.245422363,0.000000000,-0.001662848,-0.000002263,0.297526442,0.000000000,-0.001173278,0.009071606,0.096171225,0.000000000,-0.025367737,0.145055771,2.312818909,-0.000004000,0.001716614,-0.065933228,-0.373617554,0.000000000,0.008964539,-0.039560318,-1.868142700,0.000000000,0.039483070,-0.004396439,-2.124542236,0.000000000,0.019888602,-0.008743848,-2.183772368,0.000000000,0.007808426,0.027054095,-0.721949058
0.012000000,0.000000000,-0.028038025,-0.004396439,3.193897247,0.000000000,0.003623962,-0.013187408,-1.569232178,0.000000000,0.000953674,-0.004396439,-0.821969604,0.000000000,0.027275085,0.013187408,-1.391937256,0.000000000,-0.001662848,-0.004394822,0.198307260,0.000000000,-0.001173278,-0.000001588,0.144205701,0.000000000,-0.024986267,0.109889984,2.533096313,-0.000007000,0.001716614,-0.004396439,-2.017584229,0.000000000,0.008964539,-0.004396439,-2.167025757,0.000000000,0.039483070,0.004396439,-2.124542236,0.000000000,0.019888602,-0.008803135,-1.886346378,0.000000000,0.007808426,-0.008989129,-0.770795250
0.014000000,0.000000000,-0.028038025,0.021978378,3.193897247,0.000000000,0.003623962,0.039560318,-1.718673706,0.000000000,0.000953674,0.039560318,-1.569232178,0.000000000,0.027275085,0.013187408,-1.245422363,0.000000000,-0.001662848,-0.008780950,0.198307260,0.000000000,-0.001173278,-0.027214057,0.144205701,0.000000000,-0.024986267,0.118680954,2.533096313,-0.000012000,0.001716614,0.013187408,-0.672528076,0.000000000,0.008964539,0.048351288,-2.465936279,0.000000000,0.039483070,-0.013187408,-1.978027344,0.000000000,0.019888602,-0.004422967,-1.886346378,0.000000000,0.007808426,-0.018011997,-0.770795250
0.016000000,0.000000000,-0.028038025,0.013187408,2.973619843,0.000000000,0.003623962,-0.048351288,-1.120880127,0.000000000,0.000953674,-0.004396439,-0.523086548,0.000000000,0.027275085,0.013187408,-1.245422363,0.000000000,-0.001662848,-0.004398394,0.099144945,0.000000000,-0.001173278,0.018139655,0.096132462,0.000000000,-0.024604797,0.039560318,2.533096313,-0.000018000,0.001716614,-0.004396439,-0.373617554,0.000000000,0.008964539,-0.004396439,-0.971438599,0.000000000,0.039483070,-0.004396439,-2.124542236,0.000000000,0.019888602,0.004422967,-1.985643846,0.000000000,0.007808426,0.018011997,-0.818999380
0.018000000,0.000000000,-0.028038025,0.021978378,3.193897247,0.000000000,0.003623962,-0.039560318,-1.419790649,0.000000000,0.000953674,-0.013187408,0.373617554,0.000000000,0.027275085,0.013187408,-1.245422363,0.000000000,-0.001662848,-0.000002263,0.297469574,0.000000000,-0.001173278,0.009071606,0.192278941,0.000000000,-0.024604797,0.092308044,2.533096313,-0.000025000,0.001716614,0.048351288,-1.569232178,0.000000000,0.008964539,0.004396439,-1.718673706,0.000000000,0.039483070,-0.004396439,-2.124542236,0.000000000,0.019888602,0.008831349,-1.985410639,0.000000000,0.007808426,0.027011722,-0.722270089
0.020000000,0.000000000,-0.028038025,0.004396439,2.973619843,0.000000000,0.003623962,0.004396439,-2.316494751,0.000000000,0.000572205,-0.039560318,0.672528076,0.000000000,0.027275085,0.013187408,-0.952392578,0.000000000,-0.001662848,-0.000006788,0.198307260,0.000000000,-0.001173278,0.027210881,0.144205701,0.000000000,-0.024223328,0.092308044,2.973619843,-0.000034000,0.001716614,0.004396439,-1.270321655,0.000000000,0.008964539,-0.065933228,-3.063729858,0.000000000,0.039483070,-0.004396439,-2.124542236,0.000000000,0.019888602,-0.008831349,-2.084474900,0.000000000,0.007808426,-0.027011722,-0.673744928
0.022000000,0.000000000,-0.028038025,0.030769348,3.414174652,0.000000000,0.003623962,-0.004396439,-1.270321655,0.000000000,0.000953674,0.057142258,-2.465936279,0.000000000,0.027275085,0.013187408,-1.098907471,0.000000000,-0.001662848,0.004384819,0.099144945,0.000000000,-0.001173278,0.036282107,0.096132462,0.000000000,-0.024223328,0.065933228,2.753342438,-0.000045000,0.001716614,-0.074726105,-0.672528076,0.000000000,0.008964539,-0.092308044,-1.270321655,0.000000000,0.039483070,-0.004396439,-2.124542236,0.000000000,0.019888602,-0.000014586,-2.183772368,0.000000000,0.007808426,-0.009012273,-0.721949058
0.024000000,0.000000000,-0.028038025,0.004396439,3.414174652,0.000000000,0.003623962,0.013187408,-1.270321655,0.000000000,0.000953674,-0.030769348,-0.523086548,0.000000000,0.027275085,0.013187408,-1.098907471,0.000000000,-0.001662848,0.013182559,0.099144945,0.000000000,-0.001173278,0.000004764,0.096132462,0.000000000,-0.023841858,0.092308044,2.533096313,-0.000058000,0.001716614,-0.021978378,-1.569232178,0.000000000,0.008964539,0.004396439,-2.764846802,0.000000000,0.039483070,-0.013187408,-2.417572021,0.000000000,0.019888602,0.004422967,-2.084941315,0.000000000,0.007808426,0.018011997,-0.867203510
0.026000000,0.000000000,-0.028038025,0.013187408,2.973619843,0.000000000,0.003623962,-0.101099014,-1.419790649,0.000000000,0.000572205,-0.057142258,0.224176025,0.000000000,0.027275085,0.013187408,-1.245422363,0.000000000,-0.001662848,-0.008794525,0.297469574,0.000000000,-0.001173278,0.027207705,0.192278941,0.000000000,-0.023841858,0.074726105,2.973619843,-0.000074000,0.001716614,-0.004396439,-0.373617554,0.000000000,0.008964539,0.004396439,-1.569232178,0.000000000,0.039483070,-0.013187408,-2.417572021,0.000000000,0.019888602,0.008773970,-1.886346378,0.000000000,0.007808426,-0.009031506,-0.770795250
0.028000000,0.000000000,-0.028038025,0.030769348,3.414174652,0.000000000,0.003623962,0.013187408,-1.270321655,0.000000000,0.000953674,-0.004396439,-1.120880127,0.000000000,0.027275085,0.004396439,-1.391937256,0.000000000,-0.001662848,-0.004402919,-0.000052100,0.000000000,-0.001173278,0.036278931,0.144156221,0.000000000,-0.023460388,0.065933228,2.753342438,-0.000092000,0.001716614,0.021978378,-0.971438599,0.000000000,0.008583069,-0.057142258,-2.316494751,0.000000000,0.039483070,-0.013187408,-2.417572021,0.000000000,0.019888602,0.004394753,-2.183539160,0.000000000,0.007808426,-0.000010595,-0.625219767
0.030000000,0.000000000,-0.028038025,0.030769348,2.973619843,0.000000000,0.003623962,-0.004396439,-1.270321655,0.000000000,0.000953674,-0.021978378,-0.821969604,0.000000000,0.027275085,0.013187408,-1.538452148,0.000000000,-0.001662848,0.013178034,-0.000052100,0.000000000,-0.001173278,0.018144040,0.144156221,0.000000000,-0.023460388,0.074726105,2.533096313,-0.000113000,0.001716614,0.004396439,-1.419790649,0.000000000,0.008583069,0.013187408,-2.167025757,0.000000000,0.039483070,-0.004396439,-2.271057129,0.000000000,0.019888602,-0.004394753,-1.985410639,0.000000000,0.007808426,0.000010595,-0.722270089
0.032000000,0.000000000,-0.028038025,-0.004396439,3.193897247,0.000000000,0.003623962,0.048351288,-1.419790649,0.000000000,0.000953674,0.021978378,-0.224176025,0.000000000,0.027275085,0.004396439,-1.245422363,0.000000000,-0.001662848,-0.008790953,0.099144945,0.000000000,-0.001173278,0.009066461,0.096132462,0.000000000,-0.023460388,0.074726105,2.533096313,-0.000137000,0.001716614,-0.039560318,-0.224176025,0.000000000,0.008583069,0.048351288,-2.316494751,0.000000000,0.039483070,-0.004396439,-2.124542236,0.000000000,0.019888602,-0.004394753,-1.886113171,0.000000000,0.007808426,0.000010595,-0.674065960
0.034000000,0.000000000,-0.028038025,0.013187408,2.973619843,0.000000000,0.003623962,0.013187408,-0.672528076,0.000000000,0.000953674,-0.013187408,0.224176025,0.000000000,0.027275085,0.004396439,-0.952392578,0.000000000,-0.001662848,-0.004402919,0.297469574,0.000000000,-0.001173278,0.036278931,0.192278941,0.000000000,-0.023078918,0.074726105,2.533096313,-0.000164000,0.001716614,-0.048351288,-0.672528076,0.000000000,0.008583069,-0.013187408,-2.465936279,0.000000000,0.039483070,-0.004396439,-1.978027344,0.000000000,0.019888602,-0.000014586,-1.886113171,0.000000000,0.007808426,-0.009012273,-0.674065960
0.036000000,0.000000000,-0.027656555,0.013187408,2.973619843,0.000000000,0.003623962,0.039560318,-1.419790649,0.000000000,0.000953674,-0.004396439,-0.672528076,0.000000000,0.027275085,0.013187408,-1.391937256,0.000000000,-0.001662848,-0.000002263,0.198307260,0.000000000,-0.001173278,0.009071606,0.144205701,0.000000000,-0.023078918,0.065933228,2.533096313,-0.000194000,0.001716614,-0.039560318,-2.167025757,0.000000000,0.008583069,-0.013187408,-1.419790649,0.000000000,0.039483070,0.004396439,-2.124542236,0.000000000,0.019697217,-0.000041574,-1.886030145,0.000000000,0.007418003,-0.027034389,-0.674180989
0.038000000,0.000000000,-0.027656555,-0.013187408,3.193897247,0.000000000,0.003623962,-0.030769348,-0.971438599,0.000000000,0.000953674,-0.030769348,-0.523086548,0.000000000,0.027275085,0.013187408,-1.098907471,0.000000000,-0.001662848,0.004389343,0.297526442,0.000000000,-0.001173278,0.018142831,0.096171225,0.000000000,-0.023078918,0.057142258,2.533096313,-0.000227000,0.001716614,0.030769348,-0.821969604,0.000000000,0.008583069,0.030769348,-1.718673706,0.000000000,0.039483070,-0.004396439,-2.124542236,0.000000000,0.019697217,-0.008829182,-1.886251678,0.000000000,0.007418003,-0.027014262,-0.770905018
0.040000000,0.000000000,-0.027656555,-0.004396439,3.193897247,0.000000000,0.003623962,-0.030769348,-1.270321655,0.000000000,0.000953674,0.039560318,-0.523086548,0.000000000,0.027275085,0.004396439,-1.098907471,0.000000000,-0.001662848,-0.000002263,0.198307260,0.000000000,-0.001173278,0.009071606,0.144205701,0.000000000,-0.022697449,0.057142258,2.533096313,-0.000264000,0.001716614,0.039560318,-0.224176025,0.000000000,0.008583069,0.021978378,-2.167025757,0.000000000,0.039483070,-0.004396439,-2.417572021,0.000000000,0.019697217,-0.022025402,-2.084391736,0.000000000,0.007418003,-0.035992926,-0.673875943
0.042000000,0.000000000,-0.027656555,0.013187408,3.634420776,0.000000000,0.003623962,-0.004396439,-1.569232178,0.000000000,0.000953674,0.048351288,-0.224176025,0.000000000,0.027275085,0.004396439,-1.245422363,0.000000000,-0.001662848,-0.000002263,0.198307260,0.000000000,-0.001173278,0.009071606,0.144205701,0.000000000,-0.022697449,0.057142258,2.533096313,-0.000305000,0.001716614,0.004396439,-1.120880127,0.000000000,0.008583069,-0.048351288,-2.017584229,0.000000000,0.039483070,-0.013187408,-2.124542236,0.000000000,0.019697217,-0.021997688,-1.786738582,0.000000000,0.007418003,-0.017971303,-0.625971498
0.044000000,0.000000000,-0.027656555,0.004396439,3.193897247,0.000000000,0.003623962,-0.057142258,-1.569232178,0.000000000,0.000953674,0.048351288,0.074734497,0.000000000,0.027275085,0.004396439,-1.391937256,0.000000000,-0.001662848,-0.000002263,0.099144945,0.000000000,-0.001173278,0.009071606,0.096132462,0.000000000,-0.022697449,0.048351288,2.092541504,-0.000349000,0.001716614,-0.013187408,-0.971438599,0.000000000,0.008583069,-0.057142258,-1.718673706,0.000000000,0.039483070,-0.004396439,-2.124542236,0.000000000,0.019697217,-0.035220672,-1.687447020,0.000000000,0.007418003,-0.044973547,-0.577762007
0.046000000,0.000000000,-0.027656555,0.013187408,2.973619843,0.000000000,0.003623962,-0.057142258,-2.017584229,0.000000000,0.000953674,0.021978378,-0.373617554,0.000000000,0.027275085,0.013187408,-1.245422363,0.000000000,-0.001662848,-0.000006788,0.297469574,0.000000000,-0.001173278,0.027210881,0.192278941,0.000000000,-0.022697449,0.039560318,2.312818909,-0.000398000,0.001716614,-0.004396439,-0.672528076,0.000000000,0.008583069,0.021978378,-2.316494751,0.000000000,0.039483070,-0.004396439,-2.124542236,0.000000000,0.019505863,-0.035217079,-1.687375874,0.000000000,0.007027536,-0.044980257,-0.577866325
0.048000000,0.000000000,-0.027656555,-0.013187408,2.973619843,0.000000000,0.003623962,0.021978378,-0.821969604,0.000000000,0.000953674,0.004396439,-0.971438599,0.000000000,0.027275085,0.004396439,-1.245422363,0.000000000,-0.001662848,-0.004398394,0.099144945,0.000000000,-0.001173278,0.018139655,0.096132462,0.000000000,-0.022315979,0.057142258,2.092541504,-0.000451000,0.001716614,-0.013187408,-0.971438599,0.000000000,0.008201599,0.039560318,-1.718673706,0.000000000,0.039483070,0.004396439,-2.417572021,0.000000000,0.019505863,-0.039676549,-1.687375874,0.000000000,0.007027536,-0.090031162,-0.577866325
0.050000000,0.000000000,-0.027656555,-0.004396439,3.193897247,0.000000000,0.003623962,0.030769348,-0.971438599,0.000000000,0.000953674,0.048351288,-0.821969604,0.000000000,0.027275085,0.013187408,-1.245422363,0.000000000,-0.001662848,-0.013187084,-0.000052100,0.000000000,-0.001173278,0.018134511,0.144156221,0.000000000,-0.022315979,0.039560318,3.193897247,-0.000508000,0.001716614,0.057142258,-1.419790649,0.000000000,0.008201599,-0.013187408,-0.971438599,0.000000000,0.039483070,-0.004396439,-2.271057129,0.000000000,0.019314541,-0.035287917,-1.687106607,0.000000000,0.006637026,-0.099061686,-0.481257178
0.052000000,0.000000000,-0.027656555,0.021978378,2.753342438,0.000000000,0.003623962,0.004396439,-1.718673706,0.000000000,0.000953674,0.004396439,-0.074734497,0.000000000,0.027275085,0.013187408,-1.098907471,0.000000000,-0.001662848,-0.004398394,0.297469574,0.000000000,-0.001173278,0.018139655,0.192278941,0.000000000,-0.022315979,0.039560318,2.753342438,-0.000570000,0.001716614,-0.004396439,-1.120880127,0.000000000,0.008201599,0.074726105,-1.868142700,0.000000000,0.039483070,-0.013187408,-2.417572021,0.000000000,0.019314541,-0.048457901,-1.488547080,0.000000000,0.006637026,-0.090020916,-0.384816753
0.054000000,0.000000000,-0.027656555,-0.013187408,2.973619843,0.000000000,0.003623962,-0.048351288,-1.419790649,0.000000000,0.000953674,-0.021978378,-1.120880127,0.000000000,0.027275085,0.004396439,-1.245422363,0.000000000,-0.001662848,0.013178034,0.297526442,0.000000000,-0.001173278,0.018144040,0.096171225,0.000000000,-0.022315979,0.039560318,2.753342438,-0.000636000,0.001716614,-0.048351288,-0.672528076,0.000000000,0.008201599,-0.004396439,-2.316494751,0.000000000,0.039483070,0.004396439,-2.124542236,0.000000000,0.019123250,-0.044045183,-1.587586877,0.000000000,0.006246471,-0.081027880,-0.336433052
0.056000000,0.000000000,-0.027656555,0.004396439,3.414174652,0.000000000,0.003623962,0.013187408,-1.270321655,0.000000000,0.000953674,-0.021978378,-0.971438599,0.000000000,0.027275085,0.004396439,-1.098907471,0.000000000,-0.001662848,-0.004398394,0.099110215,0.000000000,-0.001173278,0.018139655,0.192229461,0.000000000,-0.022315979,0.039560318,2.312818909,-0.000707000,0.001716614,0.030769348,-1.419790649,0.000000000,0.008201599,-0.039560318,-1.419790649,0.000000000,0.039483070,-0.013187408,-2.124542236,0.000000000,0.019123250,-0.066072659,-1.686279034,0.000000000,0.006246471,-0.126046992,-0.094523305
0.058000000,0.000000000,-0.027656555,-0.004396439,3.193897247,0.000000000,0.003623962,-0.021978378,-1.569232178,0.000000000,0.000953674,-0.039560318,0.074734497,0.000000000,0.027275085,0.004396439,-0.952392578,0.000000000,-0.001662848,0.004394822,0.198307260,0.000000000,-0.001173278,0.000001588,0.144205701,0.000000000,-0.022315979,0.030769348,2.312818909,-0.000783000,0.001716614,-0.065933228,-1.569232178,0.000000000,0.008201599,-0.013187408,-2.017584229,0.000000000,0.039483070,-0.013187408,-2.271057129,0.000000000,0.018931991,-0.083682578,-1.190451081,0.000000000,0.005855872,-0.162083240,-0.143608159
0.060000000,0.000000000,-0.027656555,0.013187408,2.753342438,0.000000000,0.003623962,-0.004396439,-1.569232178,0.000000000,0.000572205,-0.048351288,-0.523086548,0.000000000,0.027275085,0.004396439,-1.391937256,0.000000000,-0.001662848,-0.008790953,0.099144945,0.000000000,-0.001173278,0.009066461,0.096132462,0.000000000,-0.021934509,0.004396439,2.533096313,-0.000864000,0.001716614,0.039560318,-0.523086548,0.000000000,0.008201599,-0.013187408,-2.017584229,0.000000000,0.039483070,0.004396439,-2.417572021,0.000000000,0.018549567,-0.096866474,-1.388927327,0.000000000,0.005074541,-0.189142002,-0.240267870
0.062000000,0.000000000,-0.027656555,0.004396439,3.193897247,0.000000000,0.003623962,-0.039560318,-1.419790649,0.000000000,0.000953674,-0.057142258,-1.270321655,0.000000000,0.027275085,0.004396439,-1.098907471,0.000000000,-0.001662848,0.008780950,0.099144945,0.000000000,-0.001173278,0.027214057,0.096132462,0.000000000,-0.021934509,0.013187408,2.312818909,-0.000950000,0.001716614,0.039560318,-1.718673706,0.000000000,0.008201599,0.004396439,-1.569232178,0.000000000,0.039483070,0.004396439,-2.417572021,0.000000000,0.018358403,-0.123267783,-0.892645844,0.000000000,0.004683810,-0.243213683,0.000868171
0.064000000,0.000000000,-0.027656555,-0.048351288,2.973619843,0.000000000,0.003623962,-0.004396439,-1.419790649,0.000000000,0.000953674,-0.021978378,-1.868142700,0.000000000,0.027275085,-0.013187408,-1.245422363,0.000000000,-0.001662848,-0.008790953,0.396688757,0.000000000,-0.001173278,0.009066461,0.144244464,0.000000000,-0.021934509,0.039560318,2.533096313,-0.001042000,0.001716614,-0.013187408,-1.120880127,0.000000000,0.008201599,-0.004396439,-1.718673706,0.000000000,0.039483070,0.004396439,-2.124542236,0.000000000,0.018167270,-0.127633975,-0.892773670,0.000000000,0.004293034,-0.234221393,-0.095885646
0.066000000,0.000000000,-0.027656555,0.013187408,2.973619843,0.000000000,0.003623962,-0.004396439,-2.316494751,0.000000000,0.000953674,-0.030769348,-1.120880127,0.000000000,0.027275085,0.004396439,-1.245422363,0.000000000,-0.001662848,-0.013190656,0.198307260,0.000000000,-0.001173278,0.036275755,0.144205701,0.000000000,-0.021934509,0.013187408,2.533096313,-0.001139000,0.001716614,-0.004396439,-0.971438599,0.000000000,0.008201599,0.039560318,-2.465936279,0.000000000,0.039483070,-0.004396439,-2.417572021,0.000000000,0.017976169,-0.132059131,-0.991767205,0.000000000,0.003902214,-0.297353446,0.049142208
0.068000000,0.000000000,-0.027656555,0.013187408,3.193897247,0.000000000,0.003623962,-0.065933228,-1.120880127,0.000000000,0.000953674,0.013187408,-1.569232178,0.000000000,0.027275085,0.013187408,-1.538452148,0.000000000,-0.001662848,-0.004398394,0.198307260,0.000000000,-0.001173278,0.018139655,0.144205701,0.000000000,-0.021934509,0.039560318,2.312818909,-0.001242000,0.001716614,0.021978378,-0.672528076,0.000000000,0.007820129,-0.065933228,-1.868142700,0.000000000,0.039483070,-0.013187408,-2.271057129,0.000000000,0.017594062,-0.167175404,-0.694190801,0.000000000,0.003120440,-0.315417020,0.097115889
0.070000000,0.000000000,-0.027656555,0.030769348,3.193897247,0.000000000,0.003623962,-0.013187408,-1.270321655,0.000000000,0.000953674,0.039560318,-0.373617554,0.000000000,0.027275085,0.004396439,-1.098907471,0.000000000,-0.001662848,0.013182559,0.198307260,0.000000000,-0.001173278,0.000004764,0.144205701,0.000000000,-0.021934509,-0.004396439,1.872295380,-0.001351000,0.001716614,-0.039560318,-2.017584229,0.000000000,0.007820129,0.013187408,-1.120880127,0.000000000,0.039483070,-0.004396439,-2.124542236,0.000000000,0.017212082,-0.184699742,-1.090864721,0.000000000,0.002338488,-0.315479784,0.193840274
0.072000000,0.000000000,-0.027656555,-0.039560318,2.753342438,0.000000000,0.003623962,-0.004396439,-1.569232178,0.000000000,0.000572205,-0.101099014,-0.821969604,0.000000000,0.027275085,0.004396439,-1.538452148,0.000000000,-0.001662848,-0.008794525,0.396688757,0.000000000,-0.001173278,0.027207705,0.144244464,0.000000000,-0.021934509,0.030769348,2.533096313,-0.001465000,0.001716614,-0.013187408,-1.569232178,0.000000000,0.007820129,-0.039560318,-2.017584229,0.000000000,0.039483070,0.004396439,-2.124542236,0.000000000,0.017021140,-0.167098812,-0.991736733,0.000000000,0.001947446,-0.315530274,0.145376058
0.074000000,0.000000000,-0.027656555,0.004396439,2.533096313,0.000000000,0.003623962,-0.057142258,-1.120880127,0.000000000,0.000572205,-0.039560318,-1.270321655,0.000000000,0.027275085,0.013187408,-1.098907471,0.000000000,-0.001662848,0.008780950,0.099144945,0.000000000,-0.001173278,0.027214057,0.096132462,0.000000000,-0.021934509,-0.004396439,2.753342438,-0.001586000,0.001716614,-0.030769348,-0.523086548,0.000000000,0.007820129,-0.004396439,-1.868142700,0.000000000,0.039483070,0.004396439,-2.417572021,0.000000000,0.016639352,-0.175830940,-1.190096765,0.000000000,0.001165227,-0.297565104,0.241885439
0.076000000,0.000000000,-0.027656555,-0.021978378,3.193897247,0.000000000,0.003623962,-0.004396439,-2.465936279,0.000000000,0.000953674,-0.004396439,-1.120880127,0.000000000,0.027275085,0.013187408,-1.098907471,0.000000000,-0.001662848,-0.000002263,0.198307260,0.000000000,-0.001173278,0.009071606,0.144205701,0.000000000,-0.021934509,0.039560318,2.533096313,-0.001712000,0.001716614,0.004396439,-1.718673706,0.000000000,0.007820129,-0.030769348,-1.569232178,0.000000000,0.039483070,-0.004396439,-2.124542236,0.000000000,0.016257691,-0.162598874,-1.487689430,0.000000000,0.000382830,-0.270583043,0.290002501
0.078000000,0.000000000,-0.027656555,0.030769348,3.414174652,0.000000000,0.003623962,0.021978378,-1.419790649,0.000000000,0.000953674,-0.013187408,-0.074734497,0.000000000,0.027275085,0.013187408,-1.684967041,0.000000000,-0.001662848,0.004394822,0.198307260,0.000000000,-0.001173278,0.000001588,0.144205701,0.000000000,-0.021934509,0.004396439,2.753342438,-0.001845000,0.001716614,-0.083517075,-1.569232178,0.000000000,0.007820129,0.057142258,-1.868142700,0.000000000,0.039483070,-0.004396439,-2.417572021,0.000000000,0.016066909,-0.140606698,-1.487724344,0.000000000,-0.000008436,-0.243554922,0.096620651
0.080000000,0.000000000,-0.027656555,0.039560318,3.193897247,0.000000000,0.003623962,-0.039560318,-1.569232178,0.000000000,0.000953674,0.083517075,-0.821969604,0.000000000,0.027275085,0.013187408,-1.245422363,0.000000000,-0.001662848,0.004384819,0.198364128,0.000000000,-0.001173278,0.036282107,0.048097985,0.000000000,-0.021934509,0.004396439,2.533096313,-0.001984000,0.001716614,-0.021978378,-1.270321655,0.000000000,0.007820129,-0.030769348,-0.971438599,0.000000000,0.039483070,-0.004396439,-2.417572021,0.000000000,0.015876159,-0.118621348,-2.281199315,0.000000000,-0.000399746,-0.198478741,0.096439438
0.082000000,0.000000000,-0.027656555,0.004396439,2.753342438,0.000000000,0.003623962,-0.004396439,-1.718673706,0.000000000,0.000953674,-0.048351288,0.224176025,0.000000000,0.027275085,0.004396439,-0.952392578,0.000000000,-0.001662848,-0.004398394,0.297469574,0.000000000,-0.001173278,0.018139655,0.192278941,0.000000000,-0.021934509,0.013187408,2.533096313,-0.002130000,0.001716614,0.013187408,-1.868142700,0.000000000,0.007820129,-0.048351288,-2.167025757,0.000000000,0.039483070,-0.013187408,-2.417572021,0.000000000,0.015685441,-0.105430072,-2.281234317,0.000000000,-0.000791101,-0.153392347,0.192859512
0.084000000,0.000000000,-0.027656555,0.004396439,2.973619843,0.000000000,0.003623962,-0.021978378,-1.419790649,0.000000000,0.000953674,0.004396439,-1.270321655,0.000000000,0.027275085,0.013187408,-1.245422363,0.000000000,-0.001662848,-0.013182559,0.198307260,0.000000000,-0.001173278,-0.000004764,0.144205701,0.000000000,-0.021934509,0.013187408,2.533096313,-0.002283000,0.001716614,0.074726105,-0.971438599,0.000000000,0.007820129,0.048351288,-1.270321655,0.000000000,0.039483070,0.004396439,-2.417572021,0.000000000,0.015304142,-0.092252961,-1.983705282,0.000000000,-0.000791168,-0.126339935,0.241185437
0.086000000,0.000000000,-0.027656555,0.030769348,3.193897247,0.000000000,0.003623962,0.004396439,-1.569232178,0.000000000,0.000953674,-0.039560318,-1.868142700,0.000000000,0.027275085,0.013187408,-1.391937256,0.000000000,-0.001662848,-0.000002263,0.297469574,0.000000000,-0.001173278,0.009071606,0.192278941,0.000000000,-0.021934509,0.039560318,2.312818909,-0.002442000,0.001716614,-0.004396439,-1.120880127,0.000000000,0.007820129,0.021978378,-2.316494751,0.000000000,0.039483070,-0.004396439,-2.124542236,0.000000000,0.015113456,-0.079058891,-1.983734523,0.000000000,-0.001182614,-0.135376362,0.241010040
0.088000000,0.000000000,-0.027656555,0.013187408,3.414174652,0.000000000,0.003623962,0.039560318,-0.821969604,0.000000000,0.000953674,-0.004396439,-0.523086548,0.000000000,0.027275085,0.004396439,-1.391937256,0.000000000,-0.001662848,0.004389343,0.297469574,0.000000000,-0.001173278,0.018142831,0.192278941,0.000000000,-0.021934509,0.030769348,2.312818909,-0.002608000,0.001716614,0.039560318,-0.971438599,0.000000000,0.007820129,-0.021978378,-2.316494751,0.000000000,0.039483070,0.004396439,-2.124542236,0.000000000,0.014922802,-0.070270994,-2.082920714,0.000000000,-0.001574104,-0.099293628,0.192507582
0.090000000,0.000000000,-0.027656555,0.004396439,3.193897247,0.000000000,0.003623962,0.004396439,-1.270321655,0.000000000,0.000953674,-0.004396439,-0.672528076,0.000000000,0.027275085,0.004396439,-0.952392578,0.000000000,-0.001662848,-0.000002263,0.297469574,0.000000000,-0.001173278,0.009071606,0.192278941,0.000000000,-0.021934509,-0.004396439,2.533096313,-0.002781000,0.001716614,0.013187408,-1.270321655,0.000000000,0.007438660,-0.048351288,-0.672528076,0.000000000,0.039483070,-0.013187408,-2.271057129,0.000000000,0.014922802,-0.065891904,-2.082920714,0.000000000,-0.001574104,-0.054174333,0.192507582
0.092000000,0.000000000,-0.027656555,0.004396439,3.193897247,0.000000000,0.003623962,-0.021978378,-1.270321655,0.000000000,0.000953674,0.048351288,-0.971438599,0.000000000,0.027275085,0.004396439,-1.098907471,0.000000000,-0.001662848,-0.004389343,0.198307260,0.000000000,-0.001173278,-0.018142831,0.144205701,0.000000000,-0.021934509,-0.048351288,2.312818909,-0.002961000,0.001716614,0.013187408,-1.270321655,0.000000000,0.007438660,-0.004396439,-2.465936279,0.000000000,0.039483070,-0.004396439,-2.417572021,0.000000000,0.014732181,-0.039545568,-1.983793199,0.000000000,-0.001965640,-0.000023823,0.240658934
0.094000000,0.000000000,-0.027656555,0.004396439,3.193897247,0.000000000,0.003623962,0.021978378,-1.419790649,0.000000000,0.000953674,-0.030769348,-0.821969604,0.000000000,0.027275085,0.013187408,-1.245422363,0.000000000,-0.001662848,-0.000002263,0.198364128,0.000000000,-0.001173278,0.009071606,0.048097985,0.000000000,-0.021934509,0.021978378,2.312818909,-0.003148000,0.001716614,0.004396439,-2.017584229,0.000000000,0.007820129,0.039560318,-1.419790649,0.000000000,0.039483070,-0.004396439,-2.417572021,0.000000000,0.014732181,-0.021970184,-1.785432852,0.000000000,-0.001965640,-0.000013235,0.240740002
0.096000000,0.000000000,-0.027656555,0.013187408,3.414174652,0.000000000,0.003623962,0.013187408,-0.821969604,0.000000000,0.000953674,0.039560318,-0.224176025,0.000000000,0.027275085,0.013187408,-1.098907471,0.000000000,-0.001662848,-0.004398394,0.099144945,0.000000000,-0.001173278,0.018139655,0.096132462,0.000000000,-0.021934509,0.013187408,2.753342438,-0.003342000,0.001716614,-0.039560318,-2.316494751,0.000000000,0.007438660,-0.065933228,-1.419790649,0.000000000,0.039483070,-0.004396439,-2.417572021,0.000000000,0.014732181,-0.008798757,-1.983793199,0.000000000,-0.001965640,0.027068507,0.240658934
0.098000000,0.000000000,-0.027656555,0.039560318,3.193897247,0.000000000,0.003623962,-0.004396439,-1.419790649,0.000000000,0.000953674,-0.057142258,-0.224176025,0.000000000,0.027275085,0.004396439,-1.391937256,0.000000000,-0.001662848,-0.004402919,0.198307260,0.000000000,-0.001173278,0.036278931,0.144205701,0.000000000,-0.021553040,0.013187408,2.753342438,-0.003544000,0.001335144,-0.083517075,-1.120880127,0.000000000,0.007438660,-0.021978378,-1.718673706,0.000000000,0.039483070,-0.013187408,-2.271057129,0.000000000,0.014732181,-0.000018441,-1.983735015,0.000000000,-0.001965640,0.045121696,0.144075389
0.100000000,0.000000000,-0.027656555,0.013187408,3.193897247,0.000000000,0.003623962,0.030769348,-0.672528076,0.000000000,0.000572205,0.004396439,0.074734497,0.000000000,0.027275085,0.013187408,-1.098907471,0.000000000,-0.001662848,-0.000002263,0.198272529,0.000000000,-0.001173278,0.009071606,0.240302700,0.000000000,-0.021934509,0.004396439,2.533096313,-0.003753000,0.001716614,-0.030769348,-1.569232178,0.000000000,0.007438660,-0.013187408,-2.017584229,0.000000000,0.039483070,-0.013187408,-2.124542236,0.000000000,0.014922802,0.013157929,-1.884560396,0.000000000,-0.001574104,0.072195794,0.192572463
0.102000000,0.000000000,-0.027656555,0.004396439,3.414174652,0.000000000,0.003623962,0.021978378,-2.316494751,0.000000000,0.000953674,-0.021978378,-1.868142700,0.000000000,0.027275085,0.004396439,-1.391937256,0.000000000,-0.001662848,0.004394822,0.198307260,0.000000000,-0.001173278,0.000001588,0.144205701,0.000000000,-0.021553040,0.021978378,2.753342438,-0.003970000,0.001716614,-0.004396439,-1.569232178,0.000000000,0.007438660,0.057142258,-1.868142700,0.000000000,0.039483070,-0.004396439,-2.417572021,0.000000000,0.014922802,0.017554728,-2.082920714,0.000000000,-0.001574104,0.063174476,0.192507582
0.104000000,0.000000000,-0.027656555,0.013187408,3.193897247,0.000000000,0.003623962,-0.004396439,-1.419790649,0.000000000,0.000953674,-0.013187408,-0.074734497,0.000000000,0.027275085,0.004396439,-1.098907471,0.000000000,-0.001662848,-0.000006788,0.198364128,0.000000000,-0.001173278,0.027210881,0.048097985,0.000000000,-0.021934509,-0.021978378,2.753342438,-0.004195000,0.001716614,0.030769348,-2.316494751,0.000000000,0.007438660,-0.030769348,-1.419790649,0.000000000,0.039483070,0.004396439,-2.124542236,0.000000000,0.014732158,0.017559876,-1.785316984,0.000000000,-0.001182726,0.063176192,0.144436234
0.106000000,0.000000000,-0.027656555,0.004396439,3.193897247,0.000000000,0.003623962,-0.039560318,-0.821969604,0.000000000,0.000953674,0.013187408,0.373617554,0.000000000,0.027275085,-0.004396439,-1.245422363,0.000000000,-0.001662848,-0.004394822,0.198307260,0.000000000,-0.001173278,-0.000001588,0.144205701,0.000000000,-0.021934509,0.021978378,2.092541504,-0.004427000,0.001335144,-0.057142258,-0.523086548,0.000000000,0.007438660,0.013187408,-1.419790649,0.000000000,0.039483070,-0.004396439,-2.271057129,0.000000000,0.014732158,0.013163811,-1.686154298,0.000000000,-0.001182726,0.072198587,0.192752185
0.108000000,0.000000000,-0.027656555,-0.004396439,2.973619843,0.000000000,0.003623962,-0.004396439,-1.120880127,0.000000000,0.000953674,0.109889984,-0.074734497,0.000000000,0.027275085,0.004396439,-1.245422363,0.000000000,-0.001662848,0.008786428,-0.000052100,0.000000000,-0.001173278,0.009072814,0.144156221,0.000000000,-0.021934509,0.004396439,2.533096313,-0.004667000,0.001335144,0.013187408,-1.120880127,0.000000000,0.007438660,0.021978378,-1.718673706,0.000000000,0.039483070,0.004396439,-2.124542236,0.000000000,0.014732158,0.008772180,-1.487759116,0.000000000,-0.001182726,0.063173016,0.096217733
0.110000000,0.000000000,-0.027656555,0.004396439,2.973619843,0.000000000,0.003623962,-0.004396439,-1.868142700,0.000000000,0.000953674,0.021978378,-0.373617554,0.000000000,0.027275085,0.004396439,-1.098907471,0.000000000,-0.001662848,0.008790953,0.198307260,0.000000000,-0.001173278,-0.009066461,0.144205701,0.000000000,-0.021934509,-0.013187408,2.973619843,-0.004915000,0.001335144,-0.004396439,-2.167025757,0.000000000,0.007438660,0.013187408,-1.718673706,0.000000000,0.039483070,-0.013187408,-2.124542236,0.000000000,0.014922844,-0.000010364,-1.487770640,0.000000000,-0.000791234,0.063166266,0.192933202
0.112000000,0.000000000,-0.027656555,0.004396439,2.973619843,0.000000000,0.003623962,-0.048351288,-1.569232178,0.000000000,0.000953674,-0.039560318,-0.523086548,0.000000000,0.027275085,0.013187408,-1.098907471,0.000000000,-0.001662848,0.000002263,0.198307260,0.000000000,-0.001173278,-0.009071606,0.144205701,0.000000000,-0.021934509,0.004396439,2.533096313,-0.005172000,0.001335144,-0.030769348,-1.868142700,0.000000000,0.007057190,-0.013187408,-0.672528076,0.000000000,0.039483070,0.004396439,-2.417572021,0.000000000,0.014922844,-0.004402732,-1.586939137,0.000000000,-0.000791234,0.054141735,0.144622606
0.114000000,0.000000000,-0.027656555,-0.021978378,3.193897247,0.000000000,0.003623962,0.013187408,-1.718673706,0.000000000,0.000953674,-0.004396439,-0.821969604,0.000000000,0.027275085,0.004396439,-1.245422363,0.000000000,-0.001662848,-0.000002263,0.099144945,0.000000000,-0.001173278,0.009071606,0.096132462,0.000000000,-0.021934509,-0.021978378,2.973619843,-0.005436000,0.001335144,-0.021978378,-0.971438599,0.000000000,0.007057190,-0.065933228,-2.465936279,0.000000000,0.039483070,-0.004396439,-2.417572021,0.000000000,0.014922844,-0.004399771,-1.388578874,0.000000000,-0.000791234,0.036094790,0.144655151
0.116000000,0.000000000,-0.027656555,-0.013187408,3.414174652,0.000000000,0.003242493,-0.048351288,-0.373617554,0.000000000,0.000953674,0.004396439,-0.821969604,0.000000000,0.027275085,-0.004396439,-1.245422363,0.000000000,-0.001662848,0.004389343,0.198307260,0.000000000,-0.001173278,0.018142831,0.144205701,0.000000000,-0.021934509,0.021978378,2.533096313,-0.005708000,0.001335144,0.039560318,-2.017584229,0.000000000,0.007057190,0.004396439,-2.017584229,0.000000000,0.039483070,-0.004396439,-2.124542236,0.000000000,0.014922844,-0.004396810,-1.388578874,0.000000000,-0.000791234,0.018047845,0.144655151
0.118000000,0.000000000,-0.027656555,-0.021978378,2.973619843,0.000000000,0.003623962,0.092308044,-2.017584229,0.000000000,0.000953674,0.057142258,0.074734497,0.000000000,0.027275085,0.004396439,-1.098907471,0.000000000,-0.001662848,-0.000002263,0.198272529,0.000000000,-0.001173278,0.009071606,0.240302700,0.000000000,-0.021934509,-0.013187408,2.312818909,-0.005989000,0.001335144,-0.048351288,-1.419790649,0.000000000,0.007057190,0.048351288,-1.419790649,0.000000000,0.039483070,-0.004396439,-2.124542236,0.000000000,0.014922844,-0.008790132,-1.586915869,0.000000000,-0.000791234,0.009021356,0.048033959
0.120000000,0.000000000,-0.027656555,-0.004396439,3.193897247,0.000000000,0.003623962,0.013187408,-2.017584229,0.000000000,0.000572205,-0.004396439,-0.373617554,0.000000000,0.027275085,0.004396439,-0.952392578,0.000000000,-0.001662848,0.008786428,0.297469574,0.000000000,-0.001173278,0.009072814,0.192278941,0.000000000,-0.021553040,-0.004396439,2.312818909,-0.006278000,0.001335144,0.004396439,-1.718673706,0.000000000,0.007057190,-0.004396439,-1.270321655,0.000000000,0.039483070,-0.013187408,-2.124542236,0.000000000,0.014732158,-0.017578563,-1.586921802,0.000000000,-0.001182726,0.009017631,0.047901781
0.122000000,0.000000000,-0.027656555,-0.021978378,3.193897247,0.000000000,0.003242493,-0.101099014,-0.523086548,0.000000000,0.000572205,0.065933228,0.224176025,0.000000000,0.027275085,0.013187408,-0.952392578,0.000000000,-0.001662848,-0.008794525,-0.000052100,0.000000000,-0.001173278,0.027207705,0.144156221,0.000000000,-0.021553040,-0.021978378,2.092541504,-0.006576000,0.001335144,-0.013187408,-2.167025757,0.000000000,0.007057190,-0.021978378,-1.419790649,0.000000000,0.039483070,-0.004396439,-2.124542236,0.000000000,0.014732158,-0.004389415,-1.487759116,0.000000000,-0.001182726,-0.018051512,0.096217733
0.124000000,0.000000000,-0.027656555,-0.013187408,3.193897247,0.000000000,0.003242493,-0.039560318,-1.120880127,0.000000000,0.000953674,0.004396439,-1.419790649,0.000000000,0.027275085,0.004396439,-1.245422363,0.000000000,-0.001662848,0.008780950,-0.000052100,0.000000000,-0.001173278,0.027214057,0.144156221,0.000000000,-0.021553040,0.004396439,2.533096313,-0.006882000,0.001335144,-0.065933228,-2.316494751,0.000000000,0.007057190,-0.004396439,-1.270321655,0.000000000,0.039483070,-0.004396439,-2.417572021,0.000000000,0.014732158,-0.000011084,-1.586921802,0.000000000,-0.001182726,0.045121874,0.047901781
0.126000000,0.000000000,-0.027656555,-0.004396439,3.193897247,0.000000000,0.003623962,0.021978378,-2.316494751,0.000000000,0.000572205,-0.065933228,-0.373617554,0.000000000,0.027275085,0.004396439,-1.098907471,0.000000000,-0.001662848,-0.000002263,0.198307260,0.000000000,-0.001173278,0.009071606,0.144205701,0.000000000,-0.021934509,-0.030769348,2.092541504,-0.007196000,0.000953674,-0.074726105,-1.868142700,0.000000000,0.007057190,0.004396439,-1.569232178,0.000000000,0.039483070,-0.004396439,-2.124542236,0.000000000,0.014922844,0.008787171,-1.586939137,0.000000000,-0.000791234,0.009025590,0.144622606
0.128000000,0.000000000,-0.027656555,-0.030769348,3.414174652,0.000000000,0.003623962,-0.030769348,-2.017584229,0.000000000,0.000572205,-0.021978378,-0.523086548,0.000000000,0.027275085,0.004396439,-1.245422363,0.000000000,-0.001662848,-0.000006788,-0.000052100,0.000000000,-0.001173278,0.027210881,0.144156221,0.000000000,-0.021553040,0.013187408,2.312818909,-0.007520000,0.000953674,0.013187408,-2.017584229,0.000000000,0.007057190,-0.083517075,-1.569232178,0.000000000,0.039483070,-0.004396439,-2.124542236,0.000000000,0.014922844,-0.008792140,-1.586939137,0.000000000,-0.000791234,0.027070259,0.144622606
0.130000000,0.000000000,-0.027656555,0.004396439,2.753342438,0.000000000,0.003242493,-0.065933228,-0.672528076,0.000000000,0.000953674,-0.004396439,-1.120880127,0.000000000,0.027275085,0.004396439,-0.659332275,0.000000000,-0.001662848,-0.004398394,-0.000052100,0.000000000,-0.001173278,0.018139655,0.144156221,0.000000000,-0.021553040,-0.013187408,2.533096313,-0.007852000,0.000953674,-0.013187408,-2.316494751,0.000000000,0.007057190,-0.048351288,-1.569232178,0.000000000,0.039483070,-0.004396439,-2.124542236,0.000000000,0.014732263,-0.004394803,-1.487735520,0.000000000,-0.000399808,-0.000000529,0.096459918
0.132000000,0.000000000,-0.027656555,0.021978378,3.193897247,0.000000000,0.003242493,0.004396439,-1.419790649,0.000000000,0.000953674,0.013187408,0.074734497,0.000000000,0.027275085,0.013187408,-1.098907471,0.000000000,-0.001662848,0.000002263,0.198307260,0.000000000,-0.001173278,-0.009071606,0.144205701,0.000000000,-0.021553040,0.048351288,2.312818909,-0.008193000,0.000953674,-0.065933228,-2.167025757,0.000000000,0.006675720,-0.004396439,-1.419790649,0.000000000,0.039483070,-0.013187408,-2.124542236,0.000000000,0.014732263,-0.008789398,-1.487735520,0.000000000,-0.000399808,0.009022964,0.096459918
0.134000000,0.000000000,-0.027656555,-0.021978378,3.193897247,0.000000000,0.003623962,0.021978378,-1.270321655,0.000000000,0.000953674,0.013187408,-0.373617554,0.000000000,0.027275085,0.013187408,-1.098907471,0.000000000,-0.001662848,-0.004402919,0.198307260,0.000000000,-0.001173278,0.036278931,0.144205701,0.000000000,-0.021553040,0.021978378,2.533096313,-0.008542000,0.000953674,-0.030769348,-2.615377808,0.000000000,0.006675720,-0.013187408,-1.868142700,0.000000000,0.039483070,-0.013187408,-2.124542236,0.000000000,0.014732263,-0.000003726,-1.487735520,0.000000000,-0.000399808,0.045122067,0.096459918
0.136000000,0.000000000,-0.027656555,-0.030769348,3.414174652,0.000000000,0.003623962,0.048351288,-1.120880127,0.000000000,0.000953674,0.030769348,-0.074734497,0.000000000,0.027275085,0.013187408,-1.538452148,0.000000000,-0.001662848,-0.008794525,0.099144945,0.000000000,-0.001173278,0.027207705,0.096132462,0.000000000,-0.021553040,0.004396439,2.753342438,-0.008901000,0.000953674,-0.030769348,-2.167025757,0.000000000,0.006675720,-0.030769348,-1.270321655,0.000000000,0.039483070,-0.004396439,-2.124542236,0.000000000,0.014732263,-0.000002236,-1.388561216,0.000000000,-0.000399808,0.027074024,0.144759494
0.138000000,0.000000000,-0.027656555,0.039560318,2.973619843,0.000000000,0.003623962,-0.057142258,-1.718673706,0.000000000,0.000953674,-0.013187408,-0.821969604,0.000000000,0.027275085,0.004396439,-1.245422363,0.000000000,-0.001662848,-0.013195181,0.198307260,0.000000000,-0.001173278,0.054415030,0.144205701,0.000000000,-0.021553040,-0.021978378,2.312818909,-0.009269000,0.000953674,0.013187408,-1.569232178,0.000000000,0.006675720,0.074726105,-0.373617554,0.000000000,0.039483070,0.004396439,-2.417572021,0.000000000,0.014732263,-0.004395340,-1.586921451,0.000000000,-0.000399808,0.018049473,0.144743113
0.140000000,0.000000000,-0.027656555,0.021978378,2.973619843,0.000000000,0.003623962,0.030769348,-2.017584229,0.000000000,0.000953674,-0.021978378,-0.971438599,0.000000000,0.027275085,-0.004396439,-0.952392578,0.000000000,-0.001662848,-0.000002263,0.297469574,0.000000000,-0.001173278,0.009071606,0.192278941,0.000000000,-0.021553040,-0.021978378,2.973619843,-0.009645000,0.000572205,-0.109889984,-2.017584229,0.000000000,0.006675720,0.013187408,-2.316494751,0.000000000,0.039483070,-0.004396439,-2.124542236,0.000000000,0.014732263,0.008787907,-1.388561216,0.000000000,-0.000399808,0.009025080,0.144759494
0.142000000,0.000000000,-0.027656555,0.004396439,2.973619843,0.000000000,0.003242493,-0.065933228,-0.971438599,0.000000000,0.000953674,-0.030769348,-0.074734497,0.000000000,0.027275085,0.004396439,-1.098907471,0.000000000,-0.001662848,0.004389343,0.198307260,0.000000000,-0.001173278,0.018142831,0.144205701,0.000000000,-0.021553040,-0.004396439,2.092541504,-0.010031000,0.000572205,-0.074726105,-2.615377808,0.000000000,0.006675720,-0.065933228,-1.270321655,0.000000000,0.039483070,-0.013187408,-2.417572021,0.000000000,0.014732263,0.008789398,-1.289375285,0.000000000,-0.000399808,-0.009022964,0.096476298
0.144000000,0.000000000,-0.027656555,0.004396439,3.414174652,0.000000000,0.003242493,0.021978378,-0.224176025,0.000000000,0.000953674,0.030769348,-0.672528076,0.000000000,0.027275085,0.013187408,-1.098907471,0.000000000,-0.001662848,-0.004394822,0.198307260,0.000000000,-0.001173278,-0.000001588,0.144205701,0.000000000,-0.021553040,-0.004396439,2.533096313,-0.010426000,0.000572205,-0.083517075,-1.569232178,0.000000000,0.006675720,-0.021978378,-0.373617554,0.000000000,0.039483070,-0.013187408,-2.124542236,0.000000000,0.014732263,0.000002236,-1.487735520,0.000000000,-0.000399808,-0.027074024,0.096459918
0.146000000,0.000000000,-0.027656555,0.013187408,3.193897247,0.000000000,0.003242493,0.074726105,-1.868142700,0.000000000,0.000953674,0.013187408,-0.672528076,0.000000000,0.027275085,0.004396439,-1.098907471,0.000000000,-0.001662848,-0.004398394,0.099144945,0.000000000,-0.001173278,0.018139655,0.096132462,0.000000000,-0.021553040,0.030769348,2.973619843,-0.010830000,0.000572205,-0.039560318,-2.465936279,0.000000000,0.006675720,0.109889984,-1.718673706,0.000000000,0.039483070,-0.004396439,-2.124542236,0.000000000,0.014732263,0.008789398,-1.388561216,0.000000000,-0.000399808,-0.009022964,0.144759494
0.148000000,0.000000000,-0.027656555,0.004396439,2.973619843,0.000000000,0.003242493,-0.004396439,-1.718673706,0.000000000,0.000953674,-0.004396439,-0.373617554,0.000000000,0.027275085,0.004396439,-1.098907471,0.000000000,-0.001662848,0.004394822,0.198364128,0.000000000,-0.001173278,0.000001588,0.048097985,0.000000000,-0.021553040,-0.039560318,2.312818909,-0.011244000,0.000572205,-0.004396439,-2.615377808,0.000000000,0.006675720,-0.021978378,-1.120880127,0.000000000,0.039483070,-0.013187408,-2.417572021,0.000000000,0.014732263,-0.000000745,-1.487735520,0.000000000,-0.000399808,0.009025980,0.096459918
0.150000000,0.000000000,-0.027656555,0.030769348,2.753342438,0.000000000,0.003242493,0.021978378,-1.419790649,0.000000000,0.000953674,-0.004396439,-0.672528076,0.000000000,0.027275085,0.004396439,-1.098907471,0.000000000,-0.001662848,0.004389343,0.297526442,0.000000000,-0.001173278,0.018142831,0.096171225,0.000000000,-0.021553040,0.004396439,2.092541504,-0.011667000,0.000572205,-0.074726105,-2.615377808,0.000000000,0.006675720,0.013187408,-1.569232178,0.000000000,0.039483070,0.004396439,-2.124542236,0.000000000,0.014732263,0.004392359,-1.487723893,0.000000000,-0.000399808,0.018050531,-0.000122853
0.152000000,0.000000000,-0.027656555,0.030769348,2.753342438,0.000000000,0.003242493,0.021978378,-1.419790649,0.000000000,0.000953674,-0.004396439,-0.672528076,0.000000000,0.027275085,0.004396439,-1.098907471,0.000000000,-0.001662848,0.004389343,0.297526442,0.000000000,-0.001173278,0.018142831,0.096171225,0.000000000,-0.021553040,0.021978378,2.533096313,-0.012099000,0.000190735,-0.030769348,-2.764846802,0.000000000,0.006675720,-0.004396439,-1.120880127,0.000000000,0.039483070,-0.004396439,-2.271057129,0.000000000,0.014732263,-0.000002236,-1.487723893,0.000000000,-0.000399808,0.027074024,-0.000122853
0.154000000,0.000000000,-0.027656555,0.013187408,2.973619843,0.000000000,0.003242493,0.030769348,-1.120880127,0.000000000,0.000953674,-0.030769348,-0.523086548,0.000000000,0.027275085,0.013187408,-1.245422363,0.000000000,-0.001662848,-0.000002263,0.297469574,0.000000000,-0.001173278,0.009071606,0.192278941,0.000000000,-0.021553040,-0.013187408,2.312818909,-0.012541000,0.000190735,-0.057142258,-2.615377808,0.000000000,0.006675720,0.013187408,-1.718673706,0.000000000,0.039483070,-0.004396439,-2.124542236,0.000000000,0.014732263,0.004392359,-1.487735520,0.000000000,-0.000399808,0.018050531,0.096459918
0.156000000,0.000000000,-0.027656555,-0.013187408,2.753342438,0.000000000,0.003242493,0.021978378,-1.569232178,0.000000000,0.000953674,-0.039560318,-0.971438599,0.000000000,0.027275085,0.013187408,-1.098907471,0.000000000,-0.001662848,0.004394822,0.297469574,0.000000000,-0.001173278,0.000001588,0.192278941,0.000000000,-0.021553040,0.004396439,2.533096313,-0.012992000,0.000190735,-0.013187408,-2.316494751,0.000000000,0.006675720,0.057142258,-1.270321655,0.000000000,0.039483070,0.004396439,-2.271057129,0.000000000,0.014732263,0.008787907,-1.487735520,0.000000000,-0.000399808,0.009025080,0.096459918
0.158000000,0.000000000,-0.027656555,0.004396439,3.193897247,0.000000000,0.003242493,0.013187408,-2.167025757,0.000000000,0.000953674,0.021978378,-0.821969604,0.000000000,0.027275085,0.013187408,-0.952392578,0.000000000,-0.001662848,0.004389343,0.396688757,0.000000000,-0.001173278,0.018142831,0.144244464,0.000000000,-0.021553040,0.039560318,2.533096313,-0.013452000,0.000190735,-0.030769348,-2.764846802,0.000000000,0.006675720,-0.013187408,-0.821969604,0.000000000,0.039483070,0.004396439,-2.124542236,0.000000000,0.014732263,0.004394803,-1.388561216,0.000000000,-0.000399808,0.000000529,0.144759494
0.160000000,0.000000000,-0.027656555,-0.004396439,2.753342438,0.000000000,0.003242493,-0.021978378,-1.569232178,0.000000000,0.000953674,0.021978378,-0.821969604,0.000000000,0.027275085,0.004396439,-0.952392578,0.000000000,-0.001662848,-0.000006788,0.297469574,0.000000000,-0.001173278,0.027210881,0.192278941,0.000000000,-0.021553040,0.004396439,2.312818909,-0.013923000,0.000190735,-0.092308044,-3.661550903,0.000000000,0.006294250,-0.013187408,-0.821969604,0.000000000,0.039483070,-0.013187408,-2.124542236,0.000000000,0.014732263,-0.000000745,-1.289386913,0.000000000,-0.000399808,0.009025980,0.193059069
0.162000000,0.000000000,-0.027656555,0.004396439,2.973619843,0.000000000,0.003242493,-0.013187408,-1.419790649,0.000000000,0.000572205,-0.021978378,-0.821969604,0.000000000,0.027275085,-0.004396439,-1.098907471,0.000000000,-0.001662848,-0.000002263,0.099144945,0.000000000,-0.001173278,0.009071606,0.096132462,0.000000000,-0.021553040,0.004396439,2.753342438,-0.014403000,-0.000190735,-0.057142258,-3.213198853,0.000000000,0.006294250,-0.057142258,-1.569232178,0.000000000,0.039483070,-0.004396439,-2.124542236,0.000000000,0.014732263,-0.000000745,-1.388561216,0.000000000,-0.000399808,0.009025980,0.144759494
0.164000000,0.000000000,-0.027656555,0.013187408,2.753342438,0.000000000,0.003242493,-0.021978378,-1.569232178,0.000000000,0.000953674,0.004396439,-1.120880127,0.000000000,0.027275085,-0.004396439,-0.952392578,0.000000000,-0.001662848,0.004394822,0.198307260,0.000000000,-0.001173278,0.000001588,0.144205701,0.000000000,-0.021553040,0.004396439,2.533096313,-0.014892000,-0.000190735,-0.057142258,-3.213198853,0.000000000,0.006294250,-0.048351288,-1.419790649,0.000000000,0.039483070,0.004396439,-2.124542236,0.000000000,0.014732263,-0.004395340,-1.686095754,0.000000000,-0.000399808,0.018049473,0.096443538
0.166000000,0.000000000,-0.027656555,0.013187408,2.973619843,0.000000000,0.003242493,0.004396439,-1.569232178,0.000000000,0.000572205,-0.004396439,-0.224176025,0.000000000,0.027275085,0.004396439,-1.391937256,0.000000000,-0.001662848,0.000002263,0.198307260,0.000000000,-0.001173278,-0.009071606,0.144205701,0.000000000,-0.021553040,0.021978378,2.533096313,-0.015391000,-0.000190735,-0.057142258,-3.213198853,0.000000000,0.006294250,-0.039560318,-1.120880127,0.000000000,0.039483070,0.004396439,-2.417572021,0.000000000,0.014732263,0.004392359,-1.686095754,0.000000000,-0.000399808,0.018050531,0.096443538
0.168000000,0.000000000,-0.027656555,0.013187408,2.973619843,0.000000000,0.003242493,-0.004396439,-1.270321655,0.000000000,0.000572205,-0.004396439,-0.821969604,0.000000000,0.027275085,0.004396439,-1.098907471,0.000000000,-0.001662848,0.008786428,0.198307260,0.000000000,-0.001173278,0.009072814,0.144205701,0.000000000,-0.021553040,-0.013187408,2.533096313,-0.015900001,-0.000572205,-0.118680954,-3.960433960,0.000000000,0.006294250,0.065933228,-1.718673706,0.000000000,0.039483070,-0.004396439,-2.124542236,0.000000000,0.014732263,0.004392359,-1.586921451,0.000000000,-0.000399808,0.018050531,0.144743113
0.170000000,0.000000000,-0.027656555,0.030769348,3.634420776,0.000000000,0.003242493,0.030769348,-0.971438599,0.000000000,0.000572205,-0.048351288,-0.672528076,0.000000000,0.027275085,0.004396439,-1.391937256,0.000000000,-0.001662848,-0.004398394,-0.099214414,0.000000000,-0.001173278,0.018139655,0.096082982,0.000000000,-0.021553040,0.013187408,2.753342438,-0.016419001,-0.000572205,0.021978378,-3.810992432,0.000000000,0.006294250,0.004396439,-1.120880127,0.000000000,0.039483070,-0.013187408,-2.271057129,0.000000000,0.014732263,-0.008787907,-1.586909824,0.000000000,-0.000399808,-0.009025080,0.048160343
0.172000000,0.000000000,-0.027656555,-0.013187408,3.193897247,0.000000000,0.003242493,0.013187408,-1.419790649,0.000000000,0.000953674,-0.004396439,-0.971438599,0.000000000,0.027275085,0.004396439,-0.805847168,0.000000000,-0.001662848,-0.000002263,-0.000052100,0.000000000,-0.001173278,0.009071606,0.144156221,0.000000000,-0.021553040,-0.013187408,2.533096313,-0.016946999,-0.000572205,-0.109889984,-3.512081909,0.000000000,0.006294250,-0.109889984,-0.373617554,0.000000000,0.039483070,-0.004396439,-2.417572021,0.000000000,0.014732263,-0.004394803,-1.487723893,0.000000000,-0.000399808,-0.000000529,-0.000122853
0.174000000,0.000000000,-0.027656555,0.030769348,2.973619843,0.000000000,0.003242493,-0.039560318,-1.569232178,0.000000000,0.000953674,0.039560318,-0.074734497,0.000000000,0.027275085,0.004396439,-1.245422363,0.000000000,-0.001662848,-0.004398394,0.396631889,0.000000000,-0.001173278,0.018139655,0.240352181,0.000000000,-0.021553040,-0.021978378,2.753342438,-0.017485000,-0.000953674,-0.153846741,-2.914288330,0.000000000,0.006294250,-0.021978378,-1.120880127,0.000000000,0.039483070,0.004396439,-2.124542236,0.000000000,0.014732263,0.004394803,-1.388549589,0.000000000,-0.000399808,0.000000529,0.048176723
0.176000000,0.000000000,-0.027656555,0.048351288,3.193897247,0.000000000,0.003242493,0.004396439,-1.270321655,0.000000000,0.000572205,-0.021978378,-0.074734497,0.000000000,0.027275085,0.004396439,-1.391937256,0.000000000,-0.001662848,0.004398394,0.198272529,0.000000000,-0.001173278,-0.018139655,0.240302700,0.000000000,-0.021553040,0.004396439,2.533096313,-0.018033000,-0.000953674,-0.083517075,-4.707696533,0.000000000,0.006294250,0.013187408,-2.167025757,0.000000000,0.039483070,-0.013187408,-2.417572021,0.000000000,0.014732263,0.008787907,-1.487723893,0.000000000,-0.000399808,0.009025080,-0.000122853
0.178000000,0.000000000,-0.027656555,0.004396439,3.193897247,0.000000000,0.003242493,-0.048351288,-0.821969604,0.000000000,0.000572205,-0.004396439,-0.523086548,0.000000000,0.027275085,0.004396439,-1.391937256,0.000000000,-0.001662848,-0.000002263,0.198307260,0.000000000,-0.001173278,0.009071606,0.144205701,0.000000000,-0.021553040,-0.004396439,2.753342438,-0.018591000,-0.000953674,-0.065933228,-4.109902954,0.000000000,0.006294250,-0.057142258,-1.419790649,0.000000000,0.039483070,-0.004396439,-2.124542236,0.000000000,0.014732263,0.008787907,-1.586898196,0.000000000,-0.000399808,0.009025080,-0.048422428
0.180000000,0.000000000,-0.027656555,0.013187408,3.193897247,0.000000000,0.003242493,0.048351288,-1.718673706,0.000000000,0.000572205,0.004396439,-0.672528076,0.000000000,0.027275085,0.004396439,-1.391937256,0.000000000,-0.001662848,-0.000002263,0.297434844,0.000000000,-0.001173278,0.009071606,0.288375940,0.000000000,-0.021553040,-0.013187408,2.092541504,-0.019159000,-0.000953674,-0.092308044,-3.960433960,0.000000000,0.006294250,0.048351288,-1.120880127,0.000000000,0.039483070,0.004396439,-2.124542236,0.000000000,0.014732263,-0.004396831,-1.388549589,0.000000000,-0.000399808,0.036097517,0.048176723
0.182000000,0.000000000,-0.027656555,0.021978378,3.193897247,0.000000000,0.003242493,-0.013187408,-1.120880127,0.000000000,0.000953674,0.021978378,-0.074734497,0.000000000,0.027275085,0.004396439,-0.952392578,0.000000000,-0.001662848,0.008786428,0.099144945,0.000000000,-0.001173278,0.009072814,0.096132462,0.000000000,-0.021553040,0.004396439,2.753342438,-0.019737000,-0.001335144,-0.021978378,-4.408786011,0.000000000,0.006294250,0.004396439,-1.718673706,0.000000000,0.039483070,-0.013187408,-2.271057129,0.000000000,0.014732263,-0.004392359,-1.487735520,0.000000000,-0.000399808,-0.018050531,0.096459918
0.184000000,0.000000000,-0.027656555,0.013187408,3.193897247,0.000000000,0.003242493,0.039560318,-1.419790649,0.000000000,0.000953674,-0.004396439,-0.373617554,0.000000000,0.027275085,0.004396439,-1.098907471,0.000000000,-0.001662848,-0.000002263,0.099110215,0.000000000,-0.001173278,0.009071606,0.192229461,0.000000000,-0.021553040,0.030769348,2.312818909,-0.020324999,-0.001335144,-0.101099014,-4.408786011,0.000000000,0.006294250,-0.013187408,-1.270321655,0.000000000,0.039483070,-0.013187408,-2.124542236,0.000000000,0.014732263,-0.004395340,-1.686095754,0.000000000,-0.000399808,0.018049473,0.096443538
0.186000000,0.000000000,-0.027656555,0.013187408,3.193897247,0.000000000,0.003242493,-0.048351288,-1.270321655,0.000000000,0.000953674,0.039560318,0.074734497,0.000000000,0.027275085,-0.004396439,-1.245422363,0.000000000,-0.001662848,0.004394822,0.198272529,0.000000000,-0.001173278,0.000001588,0.240302700,0.000000000,-0.021553040,-0.013187408,2.092541504,-0.020923000,-0.001335144,-0.004396439,-3.960433960,0.000000000,0.006294250,-0.004396439,-1.419790649,0.000000000,0.039483070,-0.021978378,-2.271057129,0.000000000,0.014732263,0.008787907,-1.388561216,0.000000000,-0.000399808,0.009025080,0.144759494
0.188000000,0.000000000,-0.027656555,0.004396439,3.414174652,0.000000000,0.003242493,-0.004396439,-1.569232178,0.000000000,0.000953674,0.048351288,-0.672528076,0.000000000,0.027275085,0.004396439,-0.805847168,0.000000000,-0.001662848,-0.000002263,0.099144945,0.000000000,-0.001173278,0.009071606,0.096132462,0.000000000,-0.021553040,-0.030769348,2.533096313,-0.021530000,-0.001335144,-0.048351288,-4.408786011,0.000000000,0.006294250,-0.030769348,-1.270321655,0.000000000,0.039483070,-0.004396439,-2.124542236,0.000000000,0.014732263,0.008787907,-1.388561216,0.000000000,-0.000399808,0.009025080,0.144759494
0.190000000,0.000000000,-0.027656555,0.030769348,2.753342438,0.000000000,0.003242493,0.004396439,-0.971438599,0.000000000,0.000572205,-0.057142258,-0.672528076,0.000000000,0.027275085,-0.004396439,-0.659332275,0.000000000,-0.001662848,-0.008786428,-0.000052100,0.000000000,-0.001173278,-0.009072814,0.144156221,0.000000000,-0.021553040,-0.004396439,2.312818909,-0.022148000,-0.001716614,-0.057142258,-3.960433960,0.000000000,0.006294250,-0.030769348,-1.270321655,0.000000000,0.039483070,-0.004396439,-2.417572021,0.000000000,0.014732263,0.013181012,-1.785258431,0.000000000,-0.000399808,0.018049631,-0.048438808
0.192000000,0.000000000,-0.027656555,0.021978378,3.414174652,0.000000000,0.003242493,0.039560318,-1.270321655,0.000000000,0.000572205,-0.021978378,-0.074734497,0.000000000,0.027275085,0.004396439,-1.245422363,0.000000000,-0.001662848,0.004384819,0.198307260,0.000000000,-0.001173278,0.036282107,0.144205701,0.000000000,-0.021553040,0.013187408,2.533096313,-0.022776000,-0.001716614,-0.101099014,-4.408786011,0.000000000,0.005912781,-0.013187408,-0.821969604,0.000000000,0.039483070,0.004396439,-2.417572021,0.000000000,0.014732263,0.013181012,-1.487735520,0.000000000,-0.000399808,0.018049631,0.096459918
0.194000000,0.000000000,-0.027656555,-0.030769348,3.414174652,0.000000000,0.003242493,-0.048351288,-1.270321655,0.000000000,0.000953674,0.039560318,-0.971438599,0.000000000,0.027275085,0.004396439,-1.684967041,0.000000000,-0.001662848,-0.000002263,0.099110215,0.000000000,-0.001173278,0.009071606,0.192229461,0.000000000,-0.021553040,0.030769348,2.973619843,-0.023414001,-0.002098083,-0.074726105,-4.857138062,0.000000000,0.005912781,-0.004396439,-1.868142700,0.000000000,0.039483070,-0.004396439,-2.124542236,0.000000000,0.014732263,-0.004396831,-1.586909824,0.000000000,-0.000399808,0.036097517,0.048160343
0.196000000,0.000000000,-0.027656555,-0.048351288,3.414174652,0.000000000,0.003242493,-0.039560318,-1.419790649,0.000000000,0.000953674,-0.004396439,-0.821969604,0.000000000,0.027275085,0.004396439,-1.245422363,0.000000000,-0.001662848,0.017574165,0.099110215,0.000000000,-0.001173278,0.009075990,0.192229461,0.000000000,-0.021553040,-0.013187408,2.312818909,-0.024062000,-0.002098083,-0.101099014,-4.558255005,0.000000000,0.005912781,0.004396439,-1.868142700,0.000000000,0.039483070,0.004396439,-1.978027344,0.000000000,0.014732263,0.004395340,-1.785270058,0.000000000,-0.000399808,-0.018049473,0.048143963
0.198000000,0.000000000,-0.027656555,0.021978378,3.193897247,0.000000000,0.003242493,0.074726105,-1.419790649,0.000000000,0.000953674,0.039560318,0.074734497,0.000000000,0.027275085,0.004396439,-1.098907471,0.000000000,-0.001662848,0.004389343,0.099110215,0.000000000,-0.001173278,0.018142831,0.192229461,0.000000000,-0.021553040,0.013187408,2.092541504,-0.024720000,-0.002479553,-0.074726105,-4.558255005,0.000000000,0.005912781,-0.039560318,-1.270321655,0.000000000,0.039483070,-0.004396439,-2.417572021,0.000000000,0.014732263,-0.008789398,-1.686084127,0.000000000,-0.000399808,0.009022964,-0.000139233
0.200000000,0.000000000,-0.027656555,0.039560318,2.973619843,0.000000000,0.003242493,-0.021978378,-1.718673706,0.000000000,0.000572205,-0.083517075,-1.120880127,0.000000000,0.027275085,0.004396439,-1.245422363,0.000000000,-0.001662848,-0.004394822,0.198307260,0.000000000,-0.001173278,-0.000001588,0.144205701,0.000000000,-0.021553040,-0.004396439,2.533096313,-0.025388001,-0.002479553,-0.021978378,-4.259344482,0.000000000,0.005912781,-0.039560318,-1.419790649,0.000000000,0.039483070,-0.004396439,-2.124542236,0.000000000,0.014732263,0.000000745,-1.586909824,0.000000000,-0.000399808,-0.009025980,0.048160343
0.202000000,0.000000000,-0.027656555,0.013187408,3.193897247,0.000000000,0.003242493,0.004396439,-0.672528076,0.000000000,0.000572205,0.048351288,-0.523086548,0.000000000,0.027275085,0.004396439,-0.952392578,0.000000000,-0.001662848,-0.004398394,0.099110215,0.000000000,-0.001173278,0.018139655,0.192229461,0.000000000,-0.021553040,0.021978378,2.753342438,-0.026066000,-0.002479553,-0.057142258,-4.707696533,0.000000000,0.005912781,0.021978378,-1.569232178,0.000000000,0.039483070,-0.004396439,-2.124542236,0.000000000,0.014732263,-0.000002236,-1.388561216,0.000000000,-0.000399808,0.027074024,0.144759494
0.204000000,0.000000000,-0.027656555,0.030769348,2.973619843,0.000000000,0.003242493,0.039560318,-1.419790649,0.000000000,0.000572205,-0.048351288,-0.224176025,0.000000000,0.027275085,-0.004396439,-1.098907471,0.000000000,-0.001662848,-0.013182559,0.297469574,0.000000000,-0.001173278,-0.000004764,0.192278941,0.000000000,-0.021553040,0.004396439,2.533096313,-0.026753999,-0.002861023,-0.145055771,-4.408786011,0.000000000,0.005912781,0.048351288,-1.419790649,0.000000000,0.039483070,-0.004396439,-2.271057129,0.000000000,0.014732263,-0.004395340,-1.586909824,0.000000000,-0.000399808,0.018049473,0.048160343
0.206000000,0.000000000,-0.027656555,0.013187408,3.634420776,0.000000000,0.003242493,0.030769348,-1.270321655,0.000000000,0.000953674,-0.021978378,-1.419790649,0.000000000,0.027275085,0.004396439,-1.391937256,0.000000000,-0.001662848,-0.000002263,0.198307260,0.000000000,-0.001173278,0.009071606,0.144205701,0.000000000,-0.021553040,0.004396439,2.973619843,-0.027451999,-0.003242493,-0.092308044,-4.707696533,0.000000000,0.005912781,-0.030769348,-1.270321655,0.000000000,0.039483070,-0.004396439,-1.978027344,0.000000000,0.014732263,-0.000000745,-1.487735520,0.000000000,-0.000399808,0.009025980,0.096459918
0.208000000,0.000000000,-0.027656555,0.048351288,3.414174652,0.000000000,0.003242493,0.030769348,-0.821969604,0.000000000,0.000953674,-0.004396439,-0.224176025,0.000000000,0.027275085,0.004396439,-1.245422363,0.000000000,-0.001662848,-0.000002263,0.198307260,0.000000000,-0.001173278,0.009071606,0.144205701,0.000000000,-0.021553040,-0.039560318,2.533096313,-0.028161000,-0.003242493,-0.101099014,-5.156048584,0.000000000,0.005912781,0.013187408,-2.167025757,0.000000000,0.039483070,0.004396439,-2.417572021,0.000000000,0.014732263,-0.004394803,-1.686107382,0.000000000,-0.000399808,-0.000000529,0.193026309
0.210000000,0.000000000,-0.027656555,-0.021978378,3.193897247,0.000000000,0.003242493,0.030769348,-1.419790649,0.000000000,0.000953674,-0.013187408,0.224176025,0.000000000,0.027275085,0.004396439,-1.391937256,0.000000000,-0.001662848,0.008786428,-0.000052100,0.000000000,-0.001173278,0.009072814,0.144156221,0.000000000,-0.021553040,0.004396439,2.312818909,-0.028879000,-0.003623962,-0.145055771,-4.857138062,0.000000000,0.005912781,0.013187408,-2.167025757,0.000000000,0.039483070,-0.004396439,-1.978027344,0.000000000,0.014732263,-0.004394803,-1.785281685,0.000000000,-0.000399808,-0.000000529,0.144726733
0.212000000,0.000000000,-0.027656555,-0.013187408,3.193897247,0.000000000,0.003242493,-0.030769348,-0.523086548,0.000000000,0.000572205,-0.013187408,-0.971438599,0.000000000,0.027275085,0.013187408,-0.952392578,0.000000000,-0.001662848,0.000002263,0.297469574,0.000000000,-0.001173278,-0.009071606,0.192278941,0.000000000,-0.021553040,-0.021978378,2.753342438,-0.029608000,-0.003623962,-0.109889984,-5.454931641,0.000000000,0.005912781,-0.004396439,-1.120880127,0.000000000,0.039483070,-0.004396439,-2.124542236,0.000000000,0.014732263,0.000000745,-1.884444362,0.000000000,-0.000399808,-0.009025980,-0.000155613
0.214000000,0.000000000,-0.027656555,0.030769348,3.193897247,0.000000000,0.003242493,0.083517075,-1.569232178,0.000000000,0.000953674,0.083517075,-0.971438599,0.000000000,0.027275085,0.013187408,-1.098907471,0.000000000,-0.001662848,-0.000002263,0.198307260,0.000000000,-0.001173278,0.009071606,0.144205701,0.000000000,-0.021553040,-0.021978378,2.092541504,-0.030346001,-0.004005432,-0.136262894,-5.604400635,0.000000000,0.005912781,-0.013187408,-0.523086548,0.000000000,0.039483070,0.013187408,-2.271057129,0.000000000,0.014732263,0.008785464,-1.487735520,0.000000000,-0.000399808,0.027075082,0.096459918
0.216000000,0.000000000,-0.027656555,-0.021978378,3.414174652,0.000000000,0.003242493,-0.004396439,-0.821969604,0.000000000,0.000953674,-0.101099014,-0.971438599,0.000000000,0.027275085,0.013187408,-1.391937256,0.000000000,-0.001662848,-0.000002263,0.198307260,0.000000000,-0.001173278,0.009071606,0.144205701,0.000000000,-0.021553040,0.021978378,2.092541504,-0.031095000,-0.004386902,-0.118680954,-5.753842163,0.000000000,0.005912781,-0.030769348,-1.718673706,0.000000000,0.039483070,-0.004396439,-2.124542236,0.000000000,0.014732263,-0.000000745,-1.487747147,0.000000000,-0.000399808,0.009025980,0.193042689
0.218000000,0.000000000,-0.027656555,0.013187408,3.414174652,0.000000000,0.003242493,-0.004396439,-1.419790649,0.000000000,0.000953674,-0.013187408,-1.270321655,0.000000000,0.027275085,-0.004396439,-1.391937256,0.000000000,-0.001662848,-0.004402919,-0.000052100,0.000000000,-0.001173278,0.036278931,0.144156221,0.000000000,-0.021553040,0.048351288,2.092541504,-0.031854000,-0.004386902,-0.189010620,-5.454931641,0.000000000,0.005912781,-0.004396439,-1.569232178,0.000000000,0.039483070,-0.004396439,-2.124542236,0.000000000,0.014732263,-0.000000745,-1.487735520,0.000000000,-0.000399808,0.009025980,0.096459918
0.220000000,0.000000000,-0.027656555,0.013187408,3.414174652,0.000000000,0.003242493,-0.030769348,-2.017584229,0.000000000,0.000572205,-0.004396439,-0.821969604,0.000000000,0.027275085,0.004396439,-1.245422363,0.000000000,-0.001662848,-0.004398394,0.198307260,0.000000000,-0.001173278,0.018139655,0.144205701,0.000000000,-0.021553040,0.021978378,2.533096313,-0.032623000,-0.004768372,-0.092308044,-4.707696533,0.000000000,0.005912781,-0.030769348,-1.718673706,0.000000000,0.039483070,-0.013187408,-2.124542236,0.000000000,0.014732263,0.004395340,-1.289386913,0.000000000,-0.000399808,-0.018049473,0.193059069
0.222000000,0.000000000,-0.027656555,-0.004396439,3.193897247,0.000000000,0.003242493,0.004396439,-1.120880127,0.000000000,0.000953674,0.092308044,-0.672528076,0.000000000,0.027275085,0.004396439,-1.098907471,0.000000000,-0.001662848,-0.000011312,0.198307260,0.000000000,-0.001173278,0.045350157,0.144205701,0.000000000,-0.021553040,0.004396439,2.092541504,-0.033402000,-0.005149841,-0.057142258,-4.259344482,0.000000000,0.005912781,0.030769348,-1.270321655,0.000000000,0.039483070,-0.013187408,-2.417572021,0.000000000,0.014732263,-0.013182502,-1.586909824,0.000000000,-0.000399808,-0.000001587,0.048160343
0.224000000,0.000000000,-0.027656555,-0.004396439,3.193897247,0.000000000,0.003242493,0.004396439,-0.672528076,0.000000000,0.000572205,0.030769348,-0.971438599,0.000000000,0.027275085,-0.004396439,-1.391937256,0.000000000,-0.001662848,0.004394822,0.198307260,0.000000000,-0.001173278,0.000001588,0.144205701,0.000000000,-0.021553040,0.021978378,2.973619843,-0.034192000,-0.005149841,-0.153846741,-5.604400635,0.000000000,0.005912781,0.057142258,-0.971438599,0.000000000,0.039483070,-0.004396439,-2.271057129,0.000000000,0.014732263,-0.000000745,-1.388561216,0.000000000,-0.000399808,0.009025980,0.144759494
0.226000000,0.000000000,-0.027656555,0.021978378,3.193897247,0.000000000,0.003242493,-0.021978378,-2.167025757,0.000000000,0.000953674,-0.004396439,-0.373617554,0.000000000,0.027275085,0.004396439,-1.245422363,0.000000000,-0.001662848,-0.017578690,0.099144945,0.000000000,-0.001173278,0.009063285,0.096132462,0.000000000,-0.021553040,0.004396439,2.973619843,-0.034991000,-0.005531311,-0.092308044,-5.156048584,0.000000000,0.005912781,0.004396439,-1.419790649,0.000000000,0.039483070,-0.004396439,-2.124542236,0.000000000,0.014732263,-0.000003726,-1.487735520,0.000000000,-0.000399808,0.045122067,0.096459918
0.228000000,0.000000000,-0.027656555,0.013187408,3.414174652,0.000000000,0.003242493,0.048351288,-1.569232178,0.000000000,0.000953674,0.074726105,-0.523086548,0.000000000,0.027275085,0.004396439,-1.391937256,0.000000000,-0.001662848,0.013172556,0.297469574,0.000000000,-0.001173278,0.036285283,0.192278941,0.000000000,-0.021553040,0.004396439,2.533096313,-0.035799999,-0.005912781,-0.145055771,-5.156048584,0.000000000,0.005912781,-0.013187408,-1.270321655,0.000000000,0.039483070,-0.013187408,-2.417572021,0.000000000,0.014732263,0.008787907,-1.388561216,0.000000000,-0.000399808,0.009025080,0.144759494
0.230000000,0.000000000,-0.027656555,0.004396439,3.193897247,0.000000000,0.003242493,-0.101099014,-0.523086548,0.000000000,0.000953674,-0.074726105,-1.270321655,0.000000000,0.027275085,0.004396439,-1.098907471,0.000000000,-0.001662848,0.004394822,0.198364128,0.000000000,-0.001173278,0.000001588,0.048097985,0.000000000,-0.021553040,-0.004396439,2.753342438,-0.036619999,-0.005912781,-0.136262894,-6.351635742,0.000000000,0.005912781,-0.013187408,-0.821969604,0.000000000,0.039483070,0.004396439,-2.417572021,0.000000000,0.014732263,0.004390869,-1.388561216,0.000000000,-0.000399808,0.036098575,0.144759494
0.232000000,0.000000000,-0.027656555,-0.004396439,2.753342438,0.000000000,0.003242493,-0.057142258,-2.167025757,0.000000000,0.000572205,0.004396439,-0.821969604,0.000000000,0.027275085,0.004396439,-1.245422363,0.000000000,-0.001662848,-0.008786428,0.198272529,0.000000000,-0.001173278,-0.009072814,0.240302700,0.000000000,-0.021553040,-0.004396439,2.312818909,-0.037448999,-0.006294250,-0.171428680,-5.604400635,0.000000000,0.005912781,0.004396439,-1.419790649,0.000000000,0.039483070,-0.004396439,-2.124542236,0.000000000,0.014732263,0.004394803,-1.686084127,0.000000000,-0.000399808,0.000000529,-0.000139233
0.234000000,0.000000000,-0.027656555,0.021978378,3.193897247,0.000000000,0.003242493,0.057142258,-2.167025757,0.000000000,0.000572205,-0.048351288,-0.224176025,0.000000000,0.027275085,0.004396439,-1.245422363,0.000000000,-0.001662848,-0.008790953,0.099144945,0.000000000,-0.001173278,0.009066461,0.096132462,0.000000000,-0.021553040,0.013187408,2.753342438,-0.038288999,-0.006675720,-0.057142258,-5.604400635,0.000000000,0.005912781,-0.013187408,-2.017584229,0.000000000,0.039483070,-0.004396439,-2.271057129,0.000000000,0.014732263,-0.004394803,-1.388561216,0.000000000,-0.000399808,-0.000000529,0.144759494
0.236000000,0.000000000,-0.027656555,0.030769348,2.973619843,0.000000000,0.003242493,0.030769348,-1.419790649,0.000000000,0.000953674,-0.004396439,-0.523086548,0.000000000,0.027275085,0.004396439,-1.245422363,0.000000000,-0.001662848,0.008786428,0.198307260,0.000000000,-0.001173278,0.009072814,0.144205701,0.000000000,-0.021553040,0.030769348,2.312818909,-0.039138000,-0.007057190,-0.136262894,-5.454931641,0.000000000,0.005912781,-0.013187408,-0.821969604,0.000000000,0.039483070,-0.013187408,-2.124542236,0.000000000,0.014732263,-0.013184530,-1.487723893,0.000000000,-0.000399808,0.036096459,-0.000122853
0.238000000,0.000000000,-0.027656555,0.039560318,3.414174652,0.000000000,0.003242493,-0.004396439,-0.821969604,0.000000000,0.000572205,-0.013187408,-0.672528076,0.000000000,0.027275085,0.004396439,-0.805847168,0.000000000,-0.001662848,-0.000002263,0.198307260,0.000000000,-0.001173278,0.009071606,0.144205701,0.000000000,-0.021553040,0.004396439,1.872295380,-0.039997999,-0.007438660,-0.197801590,-5.903283691,0.000000000,0.005912781,-0.004396439,-1.569232178,0.000000000,0.039483070,-0.013187408,-2.124542236,0.000000000,0.014732263,0.017577097,-1.487735520,0.000000000,-0.000399808,-0.009021906,0.096459918
0.240000000,0.000000000,-0.027656555,-0.004396439,2.973619843,0.000000000,0.003242493,-0.013187408,-1.419790649,0.000000000,0.000953674,0.074726105,-0.373617554,0.000000000,0.027275085,-0.004396439,-0.952392578,0.000000000,-0.001662848,-0.000002263,0.198364128,0.000000000,-0.001173278,0.009071606,0.048097985,0.000000000,-0.021553040,0.004396439,1.872295380,-0.040867001,-0.007438660,-0.171428680,-5.753842163,0.000000000,0.005912781,0.057142258,-1.270321655,0.000000000,0.039483070,-0.013187408,-2.124542236,0.000000000,0.014732263,-0.004392359,-1.586921451,0.000000000,-0.000399808,-0.018050531,0.144743113
0.242000000,0.000000000,-0.027656555,0.004396439,3.414174652,0.000000000,0.003242493,-0.030769348,-1.419790649,0.000000000,0.000572205,-0.048351288,-0.672528076,0.000000000,0.027275085,-0.004396439,-0.805847168,0.000000000,-0.001662848,-0.000002263,0.297434844,0.000000000,-0.001173278,0.009071606,0.288375940,0.000000000,-0.021553040,0.013187408,2.312818909,-0.041747000,-0.007820129,-0.197801590,-5.753842163,0.000000000,0.005912781,0.004396439,-1.120880127,0.000000000,0.039483070,-0.004396439,-2.124542236,0.000000000,0.014732263,0.004392359,-1.388549589,0.000000000,-0.000399808,0.018050531,0.048176723
0.244000000,0.000000000,-0.027656555,0.004396439,2.753342438,0.000000000,0.003242493,-0.013187408,-1.120880127,0.000000000,0.000953674,0.021978378,-0.373617554,0.000000000,0.027275085,-0.004396439,-0.952392578,0.000000000,-0.001662848,-0.000002263,0.099110215,0.000000000,-0.001173278,0.009071606,0.192229461,0.000000000,-0.021553040,0.030769348,2.973619843,-0.042636000,-0.008201599,-0.197801590,-5.604400635,0.000000000,0.005912781,0.004396439,-0.971438599,0.000000000,0.039483070,-0.004396439,-2.124542236,0.000000000,0.014732263,-0.004394803,-1.388549589,0.000000000,-0.000399808,-0.000000529,0.048176723
0.246000000,0.000000000,-0.027656555,-0.021978378,2.973619843,0.000000000,0.003242493,0.030769348,-1.569232178,0.000000000,0.000953674,0.030769348,-1.868142700,0.000000000,0.027275085,0.013187408,-1.245422363,0.000000000,-0.001662848,0.008780950,0.297469574,0.000000000,-0.001173278,0.027214057,0.192278941,0.000000000,-0.021553040,0.004396439,2.753342438,-0.043535002,-0.008583069,-0.206592560,-6.351635742,0.000000000,0.005912781,0.004396439,-1.718673706,0.000000000,0.039483070,-0.004396439,-2.271057129,0.000000000,0.014732263,0.013181012,-1.388549589,0.000000000,-0.000399808,0.018049631,0.048176723
0.248000000,0.000000000,-0.027656555,0.048351288,2.973619843,0.000000000,0.003242493,-0.004396439,-1.270321655,0.000000000,0.000953674,-0.021978378,-0.224176025,0.000000000,0.027275085,-0.004396439,-1.098907471,0.000000000,-0.001662848,0.000002263,0.198307260,0.000000000,-0.001173278,-0.009071606,0.144205701,0.000000000,-0.021553040,0.004396439,2.753342438,-0.044443998,-0.008964539,-0.189010620,-6.949456787,0.000000000,0.005531311,-0.092308044,-1.120880127,0.000000000,0.039483070,-0.004396439,-1.978027344,0.000000000,0.014732263,0.004395340,-1.289375285,0.000000000,-0.000399808,-0.018049473,0.096476298
0.250000000,0.000000000,-0.027656555,0.021978378,2.973619843,0.000000000,0.003242493,0.004396439,-1.868142700,0.000000000,0.000953674,0.021978378,-0.224176025,0.000000000,0.027275085,0.004396439,-1.245422363,0.000000000,-0.001662848,0.013178034,0.297469574,0.000000000,-0.001173278,0.018144040,0.192278941,0.000000000,-0.021553040,0.004396439,2.533096313,-0.045364000,-0.009346008,-0.206592560,-5.753842163,0.000000000,0.005912781,0.030769348,-0.821969604,0.000000000,0.039483070,-0.004396439,-2.417572021,0.000000000,0.014732263,-0.004395340,-1.388549589,0.000000000,-0.000399808,0.018049473,0.048176723
0.252000000,0.000000000,-0.027656555,-0.004396439,2.973619843,0.000000000,0.003242493,0.013187408,-1.718673706,0.000000000,0.000953674,0.048351288,-1.569232178,0.000000000,0.027275085,-0.004396439,-1.098907471,0.000000000,-0.001662848,-0.000002263,0.099144945,0.000000000,-0.001173278,0.009071606,0.096132462,0.000000000,-0.021553040,-0.021978378,2.312818909,-0.046292000,-0.009727478,-0.206592560,-6.052752686,0.000000000,0.005912781,0.030769348,-1.120880127,0.000000000,0.039483070,-0.004396439,-2.417572021,0.000000000,0.014732263,-0.008789935,-1.487723893,0.000000000,-0.000399808,0.027072966,-0.000122853
0.254000000,0.000000000,-0.027656555,-0.004396439,3.414174652,0.000000000,0.003242493,-0.039560318,-0.971438599,0.000000000,0.000572205,-0.048351288,0.373617554,0.000000000,0.027275085,0.013187408,-0.952392578,0.000000000,-0.001662848,-0.004398394,0.099110215,0.000000000,-0.001173278,0.018139655,0.192229461,0.000000000,-0.021553040,0.030769348,2.312818909,-0.047231000,-0.010108948,-0.241758347,-5.753842163,0.000000000,0.005912781,0.048351288,-1.718673706,0.000000000,0.039483070,-0.013187408,-2.124542236,0.000000000,0.014732263,-0.013182502,-1.487735520,0.000000000,-0.000399808,-0.000001587,0.096459918
0.256000000,0.000000000,-0.027656555,-0.013187408,3.193897247,0.000000000,0.003242493,-0.039560318,-1.718673706,0.000000000,0.000953674,0.004396439,-1.120880127,0.000000000,0.027275085,-0.004396439,-1.098907471,0.000000000,-0.001662848,-0.013182559,0.099144945,0.000000000,-0.001173278,-0.000004764,0.096132462,0.000000000,-0.021553040,0.030769348,2.753342438,-0.048179999,-0.010490417,-0.224176407,-6.052752686,0.000000000,0.005912781,-0.030769348,-1.718673706,0.000000000,0.039483070,-0.004396439,-2.124542236,0.000000000,0.014732263,0.000000745,-1.586909824,0.000000000,-0.000399808,-0.009025980,0.048160343
0.258000000,0.000000000,-0.027656555,-0.030769348,2.973619843,0.000000000,0.003242493,-0.021978378,-1.270321655,0.000000000,0.000953674,-0.013187408,-0.672528076,0.000000000,0.027275085,0.004396439,-1.098907471,0.000000000,-0.001662848,-0.013187084,0.396688757,0.000000000,-0.001173278,0.018134511,0.144244464,0.000000000,-0.021553040,-0.021978378,2.312818909,-0.049137998,-0.010871887,-0.153846741,-6.351635742,0.000000000,0.005912781,-0.021978378,-0.971438599,0.000000000,0.039483070,-0.013187408,-2.124542236,0.000000000,0.014732263,0.017575607,-1.388549589,0.000000000,-0.000399808,0.009026138,0.048176723
0.260000000,0.000000000,-0.027656555,0.004396439,2.973619843,0.000000000,0.003242493,0.004396439,-1.120880127,0.000000000,0.000953674,-0.021978378,0.224176025,0.000000000,0.027275085,-0.004396439,-1.098907471,0.000000000,-0.001662848,0.004389343,0.198307260,0.000000000,-0.001173278,0.018142831,0.144205701,0.000000000,-0.021553040,0.030769348,2.973619843,-0.050106000,-0.011253357,-0.153846741,-6.650546265,0.000000000,0.005531311,0.004396439,-1.718673706,0.000000000,0.039483070,0.004396439,-2.417572021,0.000000000,0.014732263,0.000000745,-1.487735520,0.000000000,-0.000399808,-0.009025980,0.096459918
0.262000000,0.000000000,-0.027656555,0.013187408,2.973619843,0.000000000,0.003242493,-0.021978378,-2.167025757,0.000000000,0.000953674,0.030769348,-0.373617554,0.000000000,0.027275085,0.013187408,-1.245422363,0.000000000,-0.001662848,0.004389343,0.099144945,0.000000000,-0.001173278,0.018142831,0.096132462,0.000000000,-0.021553040,0.013187408,2.973619843,-0.051084001,-0.011634827,-0.276922226,-6.202194214,0.000000000,0.005912781,0.013187408,-1.569232178,0.000000000,0.039483070,-0.013187408,-2.124542236,0.000000000,0.014732263,0.004392359,-1.388561216,0.000000000,-0.000399808,0.018050531,0.144759494
0.264000000,0.000000000,-0.027656555,-0.039560318,2.753342438,0.000000000,0.003242493,-0.021978378,-1.868142700,0.000000000,0.000953674,-0.030769348,-0.672528076,0.000000000,0.027275085,0.013187408,-0.952392578,0.000000000,-0.001662848,-0.004398394,0.198307260,0.000000000,-0.001173278,0.018139655,0.144205701,0.000000000,-0.021553040,-0.013187408,2.312818909,-0.052071001,-0.012397766,-0.189010620,-6.501104736,0.000000000,0.005912781,0.039560318,-1.270321655,0.000000000,0.039483070,0.004396439,-2.124542236,0.000000000,0.014732263,-0.008789398,-1.686084127,0.000000000,-0.000399808,0.009022964,-0.000139233
0.266000000,0.000000000,-0.027656555,0.004396439,2.973619843,0.000000000,0.003242493,-0.021978378,-0.672528076,0.000000000,0.000953674,-0.004396439,-1.270321655,0.000000000,0.027275085,0.004396439,-0.952392578,0.000000000,-0.001662848,-0.008794525,0.198307260,0.000000000,-0.001173278,0.027207705,0.144205701,0.000000000,-0.021553040,0.004396439,2.753342438,-0.053068001,-0.012779236,-0.118680954,-6.650546265,0.000000000,0.005531311,-0.039560318,-1.868142700,0.000000000,0.039483070,-0.013187408,-2.417572021,0.000000000,0.014732263,-0.000000745,-1.487735520,0.000000000,-0.000399808,0.009025980,0.096459918
0.268000000,0.000000000,-0.027656555,-0.004396439,2.973619843,0.000000000,0.003242493,-0.004396439,-1.569232178,0.000000000,0.000953674,-0.004396439,-0.523086548,0.000000000,0.027275085,0.004396439,-1.245422363,0.000000000,-0.001662848,0.004394822,0.297469574,0.000000000,-0.001173278,0.000001588,0.192278941,0.000000000,-0.021553040,-0.013187408,2.753342438,-0.054074001,-0.013160706,-0.189010620,-7.248339844,0.000000000,0.005531311,0.004396439,-1.718673706,0.000000000,0.039483070,-0.004396439,-2.124542236,0.000000000,0.014732263,-0.000000745,-1.487735520,0.000000000,-0.000399808,0.009025980,0.096459918
0.270000000,0.000000000,-0.027656555,0.004396439,2.973619843,0.000000000,0.003242493,0.004396439,-1.868142700,0.000000000,0.000953674,-0.004396439,-0.523086548,0.000000000,0.027275085,0.004396439,-0.805847168,0.000000000,-0.001662848,-0.004394822,0.198307260,0.000000000,-0.001173278,-0.000001588,0.144205701,0.000000000,-0.021553040,-0.004396439,2.092541504,-0.055091001,-0.013542175,-0.224176407,-7.397808838,0.000000000,0.005531311,-0.004396439,-1.419790649,0.000000000,0.039483070,-0.004396439,-2.271057129,0.000000000,0.014732263,0.000000745,-1.388561216,0.000000000,-0.000399808,-0.009025980,0.144759494
0.272000000,0.000000000,-0.027656555,0.013187408,2.973619843,0.000000000,0.003242493,-0.048351288,-1.419790649,0.000000000,0.000953674,-0.030769348,-0.523086548,0.000000000,0.027275085,0.013187408,-1.245422363,0.000000000,-0.001662848,0.004389343,0.396631889,0.000000000,-0.001173278,0.018142831,0.240352181,0.000000000,-0.021553040,-0.004396439,2.533096313,-0.056116000,-0.013923645,-0.153846741,-7.995602417,0.000000000,0.005531311,-0.021978378,-2.167025757,0.000000000,0.039483070,0.004396439,-2.417572021,0.000000000,0.014732263,0.004392359,-1.487747147,0.000000000,-0.000399808,0.018050531,0.193042689
0.274000000,0.000000000,-0.027656555,0.004396439,2.753342438,0.000000000,0.003242493,0.013187408,-1.419790649,0.000000000,0.000953674,0.030769348,-1.270321655,0.000000000,0.027275085,0.004396439,-1.098907471,0.000000000,-0.001662848,-0.000002263,-0.000052100,0.000000000,-0.001173278,0.009071606,0.144156221,0.000000000,-0.021553040,0.004396439,2.312818909,-0.057151001,-0.014305115,-0.171428680,-7.547250366,0.000000000,0.005531311,0.021978378,-1.419790649,0.000000000,0.039483070,-0.004396439,-2.124542236,0.000000000,0.014732263,-0.004395340,-1.686095754,0.000000000,-0.000399808,0.018049473,0.096443538
0.276000000,0.000000000,-0.027656555,-0.004396439,2.973619843,0.000000000,0.003242493,0.004396439,-2.017584229,0.000000000,0.000953674,0.004396439,-1.120880127,0.000000000,0.027275085,0.013187408,-1.098907471,0.000000000,-0.001662848,0.008780950,0.198307260,0.000000000,-0.001173278,0.027214057,0.144205701,0.000000000,-0.021553040,-0.021978378,2.533096313,-0.058196001,-0.014686584,-0.294506073,-6.799987793,0.000000000,0.005531311,0.030769348,-2.017584229,0.000000000,0.039483070,-0.013187408,-2.124542236,0.000000000,0.014732263,0.017577097,-1.487735520,0.000000000,-0.000399808,-0.009021906,0.096459918
0.278000000,0.000000000,-0.027656555,0.013187408,2.973619843,0.000000000,0.003242493,-0.004396439,-1.120880127,0.000000000,0.000572205,-0.048351288,0.074734497,0.000000000,0.027275085,0.004396439,-1.245422363,0.000000000,-0.001662848,0.008786428,0.198307260,0.000000000,-0.001173278,0.009072814,0.144205701,0.000000000,-0.021553040,0.030769348,2.312818909,-0.059250001,-0.015068054,-0.250549316,-7.397808838,0.000000000,0.005531311,-0.021978378,-1.569232178,0.000000000,0.039483070,-0.004396439,-2.124542236,0.000000000,0.014732263,-0.008789398,-1.487735520,0.000000000,-0.000399808,0.009022964,0.096459918
0.280000000,0.000000000,-0.027656555,0.013187408,2.973619843,0.000000000,0.003242493,-0.021978378,-1.868142700,0.000000000,0.000572205,-0.021978378,-0.971438599,0.000000000,0.027275085,0.013187408,-0.952392578,0.000000000,-0.001662848,0.008786428,0.297526442,0.000000000,-0.001173278,0.009072814,0.096171225,0.000000000,-0.021553040,-0.030769348,2.092541504,-0.060313001,-0.015830994,-0.250549316,-6.949456787,0.000000000,0.005531311,0.021978378,-1.419790649,0.000000000,0.039483070,-0.021978378,-2.417572021,0.000000000,0.014732263,-0.000000745,-1.586898196,0.000000000,-0.000399808,0.009025980,-0.048422428
0.282000000,0.000000000,-0.027656555,0.021978378,3.193897247,0.000000000,0.003242493,0.039560318,-2.017584229,0.000000000,0.000953674,0.039560318,-1.569232178,0.000000000,0.027275085,0.004396439,-0.952392578,0.000000000,-0.001662848,0.000002263,0.099144945,0.000000000,-0.001173278,-0.009071606,0.096132462,0.000000000,-0.021553040,0.004396439,2.533096313,-0.061386000,-0.016212463,-0.197801590,-7.696691895,0.000000000,0.005531311,0.013187408,-2.017584229,0.000000000,0.039483070,-0.004396439,-2.124542236,0.000000000,0.014732263,0.004394803,-1.586909824,0.000000000,-0.000399808,0.000000529,0.048160343
0.284000000,0.000000000,-0.027656555,0.030769348,3.193897247,0.000000000,0.003242493,0.039560318,-0.224176025,0.000000000,0.000572205,-0.074726105,0.074734497,0.000000000,0.027275085,0.013187408,-1.391937256,0.000000000,-0.001662848,-0.004402919,0.198307260,0.000000000,-0.001173278,0.036278931,0.144205701,0.000000000,-0.021553040,-0.004396439,2.533096313,-0.062468000,-0.016593933,-0.320878983,-7.098898315,0.000000000,0.005531311,0.004396439,-1.569232178,0.000000000,0.039483070,-0.004396439,-2.124542236,0.000000000,0.014732263,-0.004394803,-1.487735520,0.000000000,-0.000399808,-0.000000529,0.096459918
0.286000000,0.000000000,-0.027656555,0.013187408,3.193897247,0.000000000,0.003242493,0.013187408,-1.569232178,0.000000000,0.000572205,0.013187408,-1.270321655,0.000000000,0.027275085,0.004396439,-1.245422363,0.000000000,-0.001662848,-0.004398394,0.198307260,0.000000000,-0.001173278,0.018139655,0.144205701,0.000000000,-0.021553040,0.030769348,2.312818909,-0.063559003,-0.016975403,-0.276922226,-6.799987793,0.000000000,0.005531311,0.013187408,-1.569232178,0.000000000,0.039483070,-0.013187408,-2.271057129,0.000000000,0.014732263,0.004392359,-1.487735520,0.000000000,-0.000399808,0.018050531,0.096459918
0.288000000,0.000000000,-0.027656555,-0.004396439,3.193897247,0.000000000,0.003242493,-0.048351288,-0.971438599,0.000000000,0.000572205,-0.039560318,-0.971438599,0.000000000,0.027275085,0.004396439,-0.805847168,0.000000000,-0.001662848,-0.000002263,0.396688757,0.000000000,-0.001173278,0.009071606,0.144244464,0.000000000,-0.021553040,0.004396439,2.973619843,-0.064658999,-0.017738342,-0.215385437,-7.098898315,0.000000000,0.005912781,0.013187408,-1.569232178,0.000000000,0.039483070,-0.004396439,-2.271057129,0.000000000,0.014732263,-0.004394803,-1.686095754,0.000000000,-0.000399808,-0.000000529,0.096443538
0.290000000,0.000000000,-0.027656555,-0.021978378,2.973619843,0.000000000,0.003242493,-0.039560318,-1.569232178,0.000000000,0.000572205,-0.004396439,-0.821969604,0.000000000,0.027275085,0.013187408,-0.952392578,0.000000000,-0.001662848,-0.000002263,0.099144945,0.000000000,-0.001173278,0.009071606,0.096132462,0.000000000,-0.021553040,0.013187408,2.092541504,-0.065768003,-0.018119812,-0.294506073,-8.294512939,0.000000000,0.005531311,-0.030769348,-1.270321655,0.000000000,0.039483070,-0.004396439,-2.124542236,0.000000000,0.014732263,0.004392359,-1.289375285,0.000000000,-0.000399808,0.018050531,0.096476298
0.292000000,0.000000000,-0.027656555,0.013187408,2.753342438,0.000000000,0.003242493,-0.013187408,-1.270321655,0.000000000,0.000572205,0.004396439,-0.821969604,0.000000000,0.027275085,0.013187408,-1.391937256,0.000000000,-0.001662848,-0.000002263,0.198307260,0.000000000,-0.001173278,0.009071606,0.144205701,0.000000000,-0.021553040,0.004396439,2.973619843,-0.066886999,-0.018882751,-0.294506073,-6.949456787,0.000000000,0.005912781,0.057142258,-2.316494751,0.000000000,0.039483070,-0.004396439,-2.271057129,0.000000000,0.014732263,0.004392359,-1.586933078,0.000000000,-0.000399808,0.018050531,0.241325884
0.294000000,0.000000000,-0.027656555,-0.030769348,3.193897247,0.000000000,0.003242493,0.021978378,-1.120880127,0.000000000,0.000572205,-0.039560318,-0.821969604,0.000000000,0.027275085,0.021978378,-1.391937256,0.000000000,-0.001662848,-0.004402919,0.198272529,0.000000000,-0.001173278,0.036278931,0.240302700,0.000000000,-0.021553040,0.048351288,3.193897247,-0.068014003,-0.019264221,-0.250549316,-7.547250366,0.000000000,0.005912781,0.048351288,-1.718673706,0.000000000,0.039483070,-0.004396439,-2.271057129,0.000000000,0.014732263,-0.013182502,-1.289375285,0.000000000,-0.000399808,-0.000001587,0.096476298
0.296000000,0.000000000,-0.027656555,0.004396439,3.193897247,0.000000000,0.003242493,-0.057142258,-2.615377808,0.000000000,0.000953674,0.004396439,-1.419790649,0.000000000,0.027275085,0.004396439,-0.952392578,0.000000000,-0.001662848,0.000002263,0.099144945,0.000000000,-0.001173278,-0.009071606,0.096132462,0.000000000,-0.021553040,-0.004396439,2.753342438,-0.069150999,-0.019645691,-0.303297043,-7.098898315,0.000000000,0.005912781,0.074726105,-1.569232178,0.000000000,0.039483070,0.004396439,-2.271057129,0.000000000,0.014732263,-0.000000745,-1.487735520,0.000000000,-0.000399808,0.009025980,0.096459918
0.298000000,0.000000000,-0.027656555,-0.030769348,3.193897247,0.000000000,0.003242493,-0.065933228,-1.718673706,0.000000000,0.000953674,0.030769348,0.074734497,0.000000000,0.027275085,0.004396439,-0.659332275,0.000000000,-0.001662848,-0.004398394,0.198272529,0.000000000,-0.001173278,0.018139655,0.240302700,0.000000000,-0.021553040,0.021978378,2.312818909,-0.070295997,-0.020408630,-0.320878983,-7.846160889,0.000000000,0.005531311,-0.048351288,-1.569232178,0.000000000,0.039483070,-0.013187408,-2.124542236,0.000000000,0.014732263,-0.000000745,-1.388561216,0.000000000,-0.000399808,0.009025980,0.144759494
0.300000000,0.000000000,-0.027656555,-0.004396439,2.973619843,0.000000000,0.003242493,0.030769348,-0.971438599,0.000000000,0.000953674,0.004396439,0.224176025,0.000000000,0.027275085,0.004396439,-1.684967041,0.000000000,-0.001662848,0.004394822,0.099110215,0.000000000,-0.001173278,0.000001588,0.192229461,0.000000000,-0.021553040,0.030769348,2.312818909,-0.071450002,-0.021171570,-0.364835739,-6.949456787,0.000000000,0.005531311,0.021978378,-2.017584229,0.000000000,0.039483070,-0.004396439,-2.417572021,0.000000000,0.014732263,-0.004395340,-1.388561216,0.000000000,-0.000399808,0.018049473,0.144759494
0.302000000,0.000000000,-0.027656555,0.030769348,3.193897247,0.000000000,0.003242493,0.074726105,-1.868142700,0.000000000,0.000953674,0.030769348,-1.120880127,0.000000000,0.027275085,0.004396439,-1.098907471,0.000000000,-0.001662848,0.004389343,0.297526442,0.000000000,-0.001173278,0.018142831,0.096171225,0.000000000,-0.021553040,-0.013187408,1.872295380,-0.072613001,-0.021553040,-0.329669952,-8.145043945,0.000000000,0.005912781,0.004396439,-1.419790649,0.000000000,0.039483070,-0.004396439,-2.124542236,0.000000000,0.014732263,0.004392359,-1.388549589,0.000000000,-0.000399808,0.018050531,0.048176723
0.304000000,0.000000000,-0.027656555,0.013187408,3.414174652,0.000000000,0.003242493,-0.030769348,-1.270321655,0.000000000,0.000572205,-0.057142258,-0.224176025,0.000000000,0.027275085,0.004396439,-1.098907471,0.000000000,-0.001662848,-0.008786428,0.297469574,0.000000000,-0.001173278,-0.009072814,0.192278941,0.000000000,-0.021553040,0.004396439,2.312818909,-0.073785000,-0.022315979,-0.320878983,-8.145043945,0.000000000,0.005912781,-0.004396439,-0.971438599,0.000000000,0.039483070,-0.013187408,-2.124542236,0.000000000,0.014732263,-0.004396831,-1.289375285,0.000000000,-0.000399808,0.036097517,0.096476298
0.306000000,0.000000000,-0.027656555,0.004396439,2.973619843,0.000000000,0.003242493,0.039560318,-2.017584229,0.000000000,0.000953674,-0.004396439,-1.120880127,0.000000000,0.027275085,0.013187408,-1.245422363,0.000000000,-0.001662848,0.004398394,0.198307260,0.000000000,-0.001173278,-0.018139655,0.144205701,0.000000000,-0.021553040,0.021978378,3.193897247,-0.074965000,-0.023078918,-0.338460922,-7.248339844,0.000000000,0.005912781,0.013187408,-1.569232178,0.000000000,0.039483070,-0.004396439,-2.417572021,0.000000000,0.014732263,-0.004394803,-1.586921451,0.000000000,-0.000399808,-0.000000529,0.144743113
0.308000000,0.000000000,-0.027656555,-0.021978378,3.193897247,0.000000000,0.003242493,-0.057142258,-1.270321655,0.000000000,0.000953674,-0.021978378,-0.821969604,0.000000000,0.027275085,0.004396439,-1.098907471,0.000000000,-0.001662848,-0.000002263,0.198307260,0.000000000,-0.001173278,0.009071606,0.144205701,0.000000000,-0.021553040,0.004396439,2.973619843,-0.076154001,-0.023460388,-0.329669952,-7.846160889,0.000000000,0.005912781,0.030769348,-0.672528076,0.000000000,0.039483070,-0.004396439,-2.417572021,0.000000000,0.014732263,-0.004394803,-1.289363658,0.000000000,-0.000399808,-0.000000529,-0.000106473
0.310000000,0.000000000,-0.027656555,0.030769348,3.193897247,0.000000000,0.003242493,-0.021978378,-1.270321655,0.000000000,0.000953674,-0.030769348,-0.074734497,0.000000000,0.027275085,-0.004396439,-1.245422363,0.000000000,-0.001662848,0.008780950,0.198307260,0.000000000,-0.001173278,0.027214057,0.144205701,0.000000000,-0.021553040,0.013187408,2.533096313,-0.077352002,-0.024223328,-0.399999619,-6.799987793,0.000000000,0.005912781,0.048351288,-1.120880127,0.000000000,0.039483070,0.004396439,-2.124542236,0.000000000,0.014732263,0.000002236,-1.388561216,0.000000000,-0.000399808,-0.027074024,0.144759494
0.312000000,0.000000000,-0.027656555,0.004396439,2.973619843,0.000000000,0.003242493,0.004396439,-1.868142700,0.000000000,0.000953674,-0.039560318,-1.120880127,0.000000000,0.027275085,0.004396439,-1.098907471,0.000000000,-0.001662848,-0.013182559,0.297469574,0.000000000,-0.001173278,-0.000004764,0.192278941,0.000000000,-0.021553040,0.004396439,2.533096313,-0.078557998,-0.024986267,-0.285715103,-7.846160889,0.000000000,0.005912781,-0.074726105,-1.868142700,0.000000000,0.039483070,0.004396439,-2.124542236,0.000000000,0.014732263,0.008789398,-1.388549589,0.000000000,-0.000399808,-0.009022964,0.048176723
0.314000000,0.000000000,-0.027656555,0.021978378,2.973619843,0.000000000,0.003242493,0.065933228,-1.569232178,0.000000000,0.000953674,-0.013187408,0.074734497,0.000000000,0.027275085,0.013187408,-1.098907471,0.000000000,-0.001662848,-0.000002263,0.198272529,0.000000000,-0.001173278,0.009071606,0.240302700,0.000000000,-0.021553040,0.030769348,2.753342438,-0.079773001,-0.025749207,-0.312088013,-7.547250366,0.000000000,0.005912781,-0.004396439,-0.821969604,0.000000000,0.039483070,-0.004396439,-2.417572021,0.000000000,0.014732263,-0.008789935,-1.686084127,0.000000000,-0.000399808,0.027072966,-0.000139233
0.316000000,0.000000000,-0.027656555,-0.013187408,2.973619843,0.000000000,0.003242493,-0.021978378,-0.971438599,0.000000000,0.000953674,-0.021978378,-0.373617554,0.000000000,0.027275085,-0.004396439,-1.245422363,0.000000000,-0.001662848,0.004394822,0.198307260,0.000000000,-0.001173278,0.000001588,0.144205701,0.000000000,-0.021553040,0.004396439,2.533096313,-0.080995999,-0.026512146,-0.356044769,-7.098898315,0.000000000,0.005912781,0.057142258,-2.167025757,0.000000000,0.039483070,-0.004396439,-2.124542236,0.000000000,0.014732263,0.004394803,-1.388549589,0.000000000,-0.000399808,0.000000529,0.048176723
0.318000000,0.000000000,-0.027656555,-0.039560318,2.973619843,0.000000000,0.003242493,0.030769348,-1.120880127,0.000000000,0.000953674,-0.039560318,-2.167025757,0.000000000,0.027275085,-0.004396439,-0.952392578,0.000000000,-0.001662848,0.004389343,0.198272529,0.000000000,-0.001173278,0.018142831,0.240302700,0.000000000,-0.021553040,-0.021978378,2.533096313,-0.082226999,-0.027275085,-0.417581558,-8.892306519,0.000000000,0.005912781,-0.039560318,-1.120880127,0.000000000,0.039483070,0.004396439,-2.271057129,0.000000000,0.014732263,0.008787907,-1.686095754,0.000000000,-0.000399808,0.009025080,0.096443538
0.320000000,0.000000000,-0.027656555,0.013187408,3.414174652,0.000000000,0.003242493,-0.004396439,-1.270321655,0.000000000,0.000953674,-0.030769348,-1.120880127,0.000000000,0.027275085,-0.004396439,-1.391937256,0.000000000,-0.001662848,0.013178034,0.099144945,0.000000000,-0.001173278,0.018144040,0.096132462,0.000000000,-0.021553040,-0.021978378,2.312818909,-0.083466999,-0.027656555,-0.356044769,-7.995602417,0.000000000,0.005912781,0.074726105,-1.270321655,0.000000000,0.039483070,-0.013187408,-2.417572021,0.000000000,0.014732263,-0.004395340,-1.487747147,0.000000000,-0.000399808,0.018049473,0.193042689
0.322000000,0.000000000,-0.027656555,0.039560318,2.973619843,0.000000000,0.003242493,0.004396439,-0.523086548,0.000000000,0.000953674,-0.004396439,-0.224176025,0.000000000,0.027275085,0.004396439,-1.245422363,0.000000000,-0.001662848,-0.004398394,0.198307260,0.000000000,-0.001173278,0.018139655,0.144205701,0.000000000,-0.021553040,0.013187408,2.312818909,-0.084715001,-0.028419495,-0.382417679,-7.995602417,0.000000000,0.005912781,0.004396439,-2.167025757,0.000000000,0.039483070,-0.004396439,-2.417572021,0.000000000,0.014732263,-0.008789935,-1.388549589,0.000000000,-0.000399808,0.027072966,0.048176723
0.324000000,0.000000000,-0.027656555,0.013187408,3.193897247,0.000000000,0.003242493,-0.030769348,-1.270321655,0.000000000,0.000953674,-0.004396439,-0.224176025,0.000000000,0.027275085,0.004396439,-1.245422363,0.000000000,-0.001662848,0.008790953,0.099110215,0.000000000,-0.001173278,-0.009066461,0.192229461,0.000000000,-0.021553040,-0.021978378,2.753342438,-0.085970998,-0.029182434,-0.312088013,-9.041748047,0.000000000,0.005912781,-0.021978378,-1.120880127,0.000000000,0.039483070,-0.004396439,-2.124542236,0.000000000,0.014732263,0.008789398,-1.388537962,0.000000000,-0.000399808,-0.009022964,-0.048406048
