sainanliu129-hub/model/applications/Body_GravityPara_Iden/data/excitation/PD-M1-v0_multi_joint_20260305-195729_real_run_stillleg_safe.csv
time,leg_l1_joint,leg_l2_joint,leg_l3_joint,leg_l4_joint,leg_l5_joint,leg_l6_joint,leg_r1_joint,leg_r2_joint,leg_r3_joint,leg_r4_joint,leg_r5_joint,leg_r6_joint
0.00000,-0.003624,0.003624,-0.006294,0.314527,-0.369459,-0.002633,0.000000,-0.436000,0.000000,0.000000,0.000000,0.000000
0.00200,-0.003624,0.003624,-0.006294,0.316052,-0.370031,-0.001314,0.000000,-0.436000,0.000000,0.000000,0.000000,0.000000
0.00400,-0.004005,0.003624,-0.006294,0.316434,-0.370984,-0.001754,0.000000,-0.436000,0.000000,0.000000,0.000000,0.000000
0.00600,-0.003624,0.003624,-0.006294,0.317197,-0.371556,-0.002195,0.000000,-0.436000,0.000000,0.000000,0.000000,0.000000
0.00800,-0.003624,0.003624,-0.006294,0.317578,-0.372319,-0.002195,0.000000,-0.436000,0.000000,0.000000,0.000000,0.000000
0.01000,-0.003624,0.003624,-0.006294,0.318341,-0.373272,-0.001755,0.000000,-0.436000,0.000000,0.000000,0.000000,0.000000
0.01200,-0.003624,0.003624,-0.006294,0.318723,-0.374035,-0.001756,0.000000,-0.436000,0.000000,0.000000,0.000000,0.000000
0.01400,-0.003624,0.003624,-0.006294,0.319486,-0.374798,-0.001756,0.000000,-0.436000,0.000000,0.000000,0.000000,0.000000
0.01600,-0.003624,0.003624,-0.006294,0.320249,-0.375561,-0.001756,0.000000,-0.436000,0.000000,0.000000,0.000000,0.000000
0.01800,-0.003624,0.003624,-0.006294,0.321012,-0.376323,-0.001757,0.000000,-0.436000,0.000000,0.000000,0.000000,0.000000
0.02000,-0.003624,0.003624,-0.006294,0.321774,-0.377086,-0.001757,0.000000,-0.436000,0.000000,0.000000,0.000000,0.000000
0.02200,-0.003624,0.003624,-0.006294,0.322537,-0.378230,-0.002640,0.000000,-0.436000,0.000000,0.000000,0.000000,0.000000
0.02400,-0.003624,0.003624,-0.006294,0.323682,-0.378992,-0.002640,0.000000,-0.436000,0.000000,0.000000,0.000000,0.000000
0.02600,-0.003624,0.003624,-0.006294,0.323682,-0.378992,-0.002640,0.000000,-0.436000,0.000000,0.000000,0.000000,0.000000
0.02800,-0.003624,0.003624,-0.006294,0.325971,-0.380328,0.000449,0.000000,-0.436000,0.000000,0.000000,0.000000,0.000000
0.03000,-0.003624,0.003624,-0.006294,0.326734,-0.382043,-0.002643,0.000000,-0.436000,0.000000,0.000000,0.000000,0.000000
0.03200,-0.003624,0.003624,-0.006294,0.327497,-0.382806,-0.002643,0.000000,-0.436000,0.000000,0.000000,0.000000,0.000000
0.03400,-0.003624,0.003624,-0.006294,0.328259,-0.383377,-0.003086,0.000000,-0.436000,0.000000,0.000000,0.000000,0.000000
0.03600,-0.003624,0.003624,-0.006294,0.329404,-0.383950,-0.001760,0.000000,-0.436000,0.000000,0.000000,0.000000,0.000000
0.03800,-0.003624,0.003624,-0.006294,0.329785,-0.384522,-0.002203,0.000000,-0.436000,0.000000,0.000000,0.000000,0.000000
0.04000,-0.003624,0.003624,-0.006294,0.330548,-0.384903,-0.002203,0.000000,-0.436000,0.000000,0.000000,0.000000,0.000000
0.04200,-0.003624,0.003624,-0.006294,0.330930,-0.385476,-0.001761,0.000000,-0.436000,0.000000,0.000000,0.000000,0.000000
0.04400,-0.003624,0.003624,-0.005913,0.331311,-0.385857,-0.001761,0.000000,-0.436000,0.000000,0.000000,0.000000,0.000000
0.04600,-0.003624,0.003242,-0.005913,0.331693,-0.386238,-0.001761,0.000000,-0.436000,0.000000,0.000000,0.000000,0.000000
0.04800,-0.003624,0.003242,-0.006294,0.332456,-0.386620,-0.001761,0.000000,-0.436000,0.000000,0.000000,0.000000,0.000000
0.05000,-0.003624,0.003624,-0.005913,0.333219,-0.387001,-0.001762,0.000000,-0.436000,0.000000,0.000000,0.000000,0.000000
0.05200,-0.003624,0.003624,-0.005913,0.333982,-0.387382,-0.001762,0.000000,-0.436000,0.000000,0.000000,0.000000,0.000000
0.05400,-0.003624,0.003242,-0.005913,0.334744,-0.387764,-0.001762,0.000000,-0.436000,0.000000,0.000000,0.000000,0.000000
0.05599,-0.003624,0.003242,-0.005913,0.335507,-0.388145,-0.001762,0.000000,-0.436000,0.000000,0.000000,0.000000,0.000000
0.05799,-0.003624,0.003242,-0.005913,0.336270,-0.388336,-0.001320,0.000000,-0.436000,0.000000,0.000000,0.000000,0.000000
0.05999,-0.003624,0.003242,-0.005913,0.336652,-0.388717,-0.002205,0.000000,-0.436000,0.000000,0.000000,0.000000,0.000000
0.06199,-0.003624,0.003242,-0.005913,0.337033,-0.388717,-0.002205,0.000000,-0.436000,0.000000,0.000000,0.000000,0.000000
0.06399,-0.003624,0.003242,-0.005913,0.337415,-0.389098,-0.002205,0.000000,-0.436000,0.000000,0.000000,0.000000,0.000000
0.06599,-0.003624,0.003242,-0.005913,0.337796,-0.389289,-0.002648,0.000000,-0.436000,0.000000,0.000000,0.000000,0.000000
0.06799,-0.003624,0.003242,-0.005913,0.338178,-0.389289,-0.002648,0.000000,-0.436000,0.000000,0.000000,0.000000,0.000000
0.06999,-0.003624,0.003242,-0.005913,0.338941,-0.389289,-0.002648,0.000000,-0.436000,0.000000,0.000000,0.000000,0.000000
0.07199,-0.003624,0.003242,-0.005913,0.339704,-0.389289,-0.002648,0.000000,-0.436000,0.000000,0.000000,0.000000,0.000000
0.07399,-0.003624,0.003242,-0.005913,0.340466,-0.389098,-0.003091,0.000000,-0.436000,0.000000,0.000000,0.000000,0.000000
0.07599,-0.003624,0.003242,-0.005913,0.341229,-0.389098,-0.003091,0.000000,-0.436000,0.000000,0.000000,0.000000,0.000000
0.07799,-0.003624,0.003242,-0.005913,0.341992,-0.389289,-0.002648,0.000000,-0.436000,0.000000,0.000000,0.000000,0.000000
0.07999,-0.003624,0.003242,-0.005913,0.342374,-0.389289,-0.002648,0.000000,-0.436000,0.000000,0.000000,0.000000,0.000000
0.08199,-0.003624,0.003242,-0.005913,0.342755,-0.389289,-0.002648,0.000000,-0.436000,0.000000,0.000000,0.000000,0.000000
0.08399,-0.003624,0.003242,-0.005913,0.343137,-0.388907,-0.002648,0.000000,-0.436000,0.000000,0.000000,0.000000,0.000000
0.08599,-0.003624,0.003242,-0.005913,0.343518,-0.388907,-0.002648,0.000000,-0.436000,0.000000,0.000000,0.000000,0.000000
0.08799,-0.003624,0.003242,-0.005531,0.343901,-0.388717,-0.002205,0.000000,-0.436000,0.000000,0.000000,0.000000,0.000000
0.08999,-0.003624,0.003242,-0.005913,0.344282,-0.388717,-0.002205,0.000000,-0.436000,0.000000,0.000000,0.000000,0.000000
0.09199,-0.003624,0.003242,-0.005531,0.344664,-0.388717,-0.002205,0.000000,-0.436000,0.000000,0.000000,0.000000,0.000000
0.09399,-0.003624,0.003242,-0.005531,0.345427,-0.388717,-0.002205,0.000000,-0.436000,0.000000,0.000000,0.000000,0.000000
0.09599,-0.003624,0.003242,-0.005531,0.345808,-0.388717,-0.002205,0.000000,-0.436000,0.000000,0.000000,0.000000,0.000000
0.09799,-0.003624,0.003242,-0.005531,0.346571,-0.388717,-0.002205,0.000000,-0.436000,0.000000,0.000000,0.000000,0.000000
0.09999,-0.003624,0.003242,-0.005531,0.347334,-0.388717,-0.002205,0.000000,-0.436000,0.000000,0.000000,0.000000,0.000000
0.10199,-0.003624,0.003242,-0.005531,0.347715,-0.388717,-0.002205,0.000000,-0.436000,0.000000,0.000000,0.000000,0.000000
0.10399,-0.003624,0.003242,-0.005531,0.348097,-0.388717,-0.002205,0.000000,-0.436000,0.000000,0.000000,0.000000,0.000000
0.10599,-0.004005,0.003242,-0.005531,0.348478,-0.388717,-0.002205,0.000000,-0.436000,0.000000,0.000000,0.000000,0.000000
0.10799,-0.003624,0.003242,-0.005531,0.348860,-0.388717,-0.002205,0.000000,-0.436000,0.000000,0.000000,0.000000,0.000000
0.10999,-0.004005,0.003242,-0.005531,0.349241,-0.388717,-0.002205,0.000000,-0.436000,0.000000,0.000000,0.000000,0.000000
0.11199,-0.004005,0.003242,-0.005150,0.349623,-0.388717,-0.002205,0.000000,-0.436000,0.000000,0.000000,0.000000,0.000000
0.11399,-0.004005,0.003242,-0.005150,0.350004,-0.388717,-0.002205,0.000000,-0.436000,0.000000,0.000000,0.000000,0.000000
0.11599,-0.004005,0.003242,-0.005150,0.350386,-0.388717,-0.002205,0.000000,-0.436000,0.000000,0.000000,0.000000,0.000000
0.11799,-0.004005,0.003242,-0.005150,0.350767,-0.388717,-0.002205,0.000000,-0.436000,0.000000,0.000000,0.000000,0.000000
0.11999,-0.003624,0.003242,-0.005150,0.351149,-0.388717,-0.002205,0.000000,-0.436000,0.000000,0.000000,0.000000,0.000000
0.12199,-0.003624,0.003242,-0.005150,0.351530,-0.388717,-0.002205,0.000000,-0.436000,0.000000,0.000000,0.000000,0.000000
0.12399,-0.003624,0.003242,-0.005150,0.351912,-0.388717,-0.002205,0.000000,-0.436000,0.000000,0.000000,0.000000,0.000000
0.12599,-0.003624,0.003242,-0.005150,0.352293,-0.388717,-0.002205,0.000000,-0.436000,0.000000,0.000000,0.000000,0.000000
0.12799,-0.003624,0.003242,-0.005150,0.352674,-0.388717,-0.002205,0.000000,-0.436000,0.000000,0.000000,0.000000,0.000000
0.12999,-0.003624,0.003242,-0.005150,0.353437,-0.388717,-0.002205,0.000000,-0.436000,0.000000,0.000000,0.000000,0.000000
0.13199,-0.003624,0.003242,-0.005150,0.353819,-0.388717,-0.002205,0.000000,-0.436000,0.000000,0.000000,0.000000,0.000000
0.13399,-0.004005,0.003242,-0.005150,0.354200,-0.388717,-0.002205,0.000000,-0.436000,0.000000,0.000000,0.000000,0.000000
0.13599,-0.004005,0.003242,-0.005150,0.354582,-0.388717,-0.002205,0.000000,-0.436000,0.000000,0.000000,0.000000,0.000000
0.13799,-0.004005,0.003242,-0.005150,0.354963,-0.388717,-0.002205,0.000000,-0.436000,0.000000,0.000000,0.000000,0.000000
0.13999,-0.003624,0.003242,-0.005150,0.355345,-0.388717,-0.002205,0.000000,-0.436000,0.000000,0.000000,0.000000,0.000000
0.14199,-0.004005,0.003242,-0.004768,0.355726,-0.388717,-0.002205,0.000000,-0.436000,0.000000,0.000000,0.000000,0.000000
0.14399,-0.004005,0.003242,-0.004768,0.355726,-0.388717,-0.002205,0.000000,-0.436000,0.000000,0.000000,0.000000,0.000000
0.14599,-0.004005,0.003242,-0.004768,0.356108,-0.388717,-0.002205,0.000000,-0.436000,0.000000,0.000000,0.000000,0.000000
0.14799,-0.004005,0.003242,-0.004768,0.356489,-0.388717,-0.002205,0.000000,-0.436000,0.000000,0.000000,0.000000,0.000000
0.14999,-0.004005,0.002861,-0.004768,0.356489,-0.388717,-0.002205,0.000000,-0.436000,0.000000,0.000000,0.000000,0.000000
0.15199,-0.004005,0.002861,-0.004768,0.356871,-0.388717,-0.002205,0.000000,-0.436000,0.000000,0.000000,0.000000,0.000000
0.15399,-0.004005,0.002861,-0.004768,0.357252,-0.388717,-0.002205,0.000000,-0.436000,0.000000,0.000000,0.000000,0.000000
0.15599,-0.004005,0.002861,-0.004768,0.357252,-0.388717,-0.002205,0.000000,-0.436000,0.000000,0.000000,0.000000,0.000000
0.15799,-0.004005,0.002861,-0.004768,0.358015,-0.388717,-0.002205,0.000000,-0.436000,0.000000,0.000000,0.000000,0.000000
0.15999,-0.004005,0.002861,-0.004768,0.358015,-0.388717,-0.002205,0.000000,-0.436000,0.000000,0.000000,0.000000,0.000000
0.16199,-0.004005,0.002861,-0.004768,0.358397,-0.388717,-0.002205,0.000000,-0.436000,0.000000,0.000000,0.000000,0.000000
0.16399,-0.004005,0.002861,-0.004768,0.358778,-0.388717,-0.002205,0.000000,-0.436000,0.000000,0.000000,0.000000,0.000000
0.16599,-0.004005,0.002861,-0.004768,0.359159,-0.388717,-0.002205,0.000000,-0.436000,0.000000,0.000000,0.000000,0.000000
0.16798,-0.004005,0.002861,-0.004768,0.359541,-0.388717,-0.002205,0.000000,-0.436000,0.000000,0.000000,0.000000,0.000000
0.16998,-0.004005,0.002861,-0.004387,0.359541,-0.388717,-0.002205,0.000000,-0.436000,0.000000,0.000000,0.000000,0.000000
0.17198,-0.004005,0.002861,-0.004387,0.359922,-0.388717,-0.002205,0.000000,-0.436000,0.000000,0.000000,0.000000,0.000000
0.17398,-0.004005,0.002861,-0.004387,0.359922,-0.388717,-0.002205,0.000000,-0.436000,0.000000,0.000000,0.000000,0.000000
0.17598,-0.004005,0.002861,-0.004387,0.360304,-0.388717,-0.002205,0.000000,-0.436000,0.000000,0.000000,0.000000,0.000000
0.17798,-0.004005,0.002861,-0.004387,0.360685,-0.388717,-0.002205,0.000000,-0.436000,0.000000,0.000000,0.000000,0.000000
0.17998,-0.004005,0.002861,-0.004387,0.360685,-0.388717,-0.002205,0.000000,-0.436000,0.000000,0.000000,0.000000,0.000000
0.18198,-0.004005,0.002861,-0.004387,0.361067,-0.388717,-0.002205,0.000000,-0.436000,0.000000,0.000000,0.000000,0.000000
0.18398,-0.004005,0.002861,-0.004387,0.361067,-0.388717,-0.002205,0.000000,-0.436000,0.000000,0.000000,0.000000,0.000000
0.18598,-0.004005,0.002861,-0.004387,0.361448,-0.388717,-0.002205,0.000000,-0.436000,0.000000,0.000000,0.000000,0.000000
0.18798,-0.004005,0.002861,-0.004387,0.361448,-0.388717,-0.002205,0.000000,-0.436000,0.000000,0.000000,0.000000,0.000000
0.18998,-0.004005,0.002861,-0.004387,0.361830,-0.388717,-0.002205,0.000000,-0.436000,0.000000,0.000000,0.000000,0.000000
0.19198,-0.004005,0.002861,-0.004387,0.361830,-0.388717,-0.002205,0.000000,-0.436000,0.000000,0.000000,0.000000,0.000000
0.19398,-0.004005,0.002861,-0.004387,0.361830,-0.388717,-0.002205,0.000000,-0.436000,0.000000,0.000000,0.000000,0.000000
0.19598,-0.004005,0.002861,-0.004387,0.362211,-0.388717,-0.002205,0.000000,-0.436000,0.000000,0.000000,0.000000,0.000000
0.19798,-0.004005,0.002861,-0.004387,0.362593,-0.388717,-0.002205,0.000000,-0.436000,0.000000,0.000000,0.000000,0.000000
0.19998,-0.004005,0.002861,-0.004387,0.362593,-0.388717,-0.002205,0.000000,-0.436000,0.000000,0.000000,0.000000,0.000000
0.20198,-0.004005,0.002861,-0.004387,0.362974,-0.388717,-0.002205,0.000000,-0.436000,0.000000,0.000000,0.000000,0.000000
0.20398,-0.004005,0.002861,-0.004387,0.362974,-0.388717,-0.002205,0.000000,-0.436000,0.000000,0.000000,0.000000,0.000000
0.20598,-0.004005,0.002861,-0.004387,0.363356,-0.388717,-0.002205,0.000000,-0.436000,0.000000,0.000000,0.000000,0.000000
0.20798,-0.004005,0.002861,-0.004387,0.363356,-0.388717,-0.002205,0.000000,-0.436000,0.000000,0.000000,0.000000,0.000000
0.20998,-0.004005,0.002861,-0.004387,0.363356,-0.388717,-0.002205,0.000000,-0.436000,0.000000,0.000000,0.000000,0.000000
0.21198,-0.004005,0.002861,-0.004387,0.363737,-0.388717,-0.002205,0.000000,-0.436000,0.000000,0.000000,0.000000,0.000000
0.21398,-0.004005,0.002861,-0.004387,0.363737,-0.388717,-0.002205,0.000000,-0.436000,0.000000,0.000000,0.000000,0.000000
0.21598,-0.004005,0.002861,-0.004387,0.364119,-0.388717,-0.002205,0.000000,-0.436000,0.000000,0.000000,0.000000,0.000000
0.21798,-0.004005,0.002480,-0.004387,0.364119,-0.388717,-0.002205,0.000000,-0.436000,0.000000,0.000000,0.000000,0.000000
0.21998,-0.004005,0.002861,-0.004387,0.364119,-0.388717,-0.002205,0.000000,-0.436000,0.000000,0.000000,0.000000,0.000000
0.22198,-0.004005,0.002480,-0.004387,0.364119,-0.388717,-0.002205,0.000000,-0.436000,0.000000,0.000000,0.000000,0.000000
0.22398,-0.004005,0.002480,-0.004387,0.364119,-0.388717,-0.002205,0.000000,-0.436000,0.000000,0.000000,0.000000,0.000000
0.22598,-0.004005,0.002480,-0.004387,0.364119,-0.388717,-0.002205,0.000000,-0.436000,0.000000,0.000000,0.000000,0.000000
0.22798,-0.004005,0.002480,-0.004387,0.364119,-0.388717,-0.002205,0.000000,-0.436000,0.000000,0.000000,0.000000,0.000000
0.22998,-0.004005,0.002480,-0.004005,0.364119,-0.388717,-0.002205,0.000000,-0.436000,0.000000,0.000000,0.000000,0.000000
0.23198,-0.004005,0.002480,-0.004387,0.364119,-0.388717,-0.002205,0.000000,-0.436000,0.000000,0.000000,0.000000,0.000000
0.23398,-0.004005,0.002480,-0.004005,0.364119,-0.388717,-0.002205,0.000000,-0.436000,0.000000,0.000000,0.000000,0.000000
0.23598,-0.004005,0.002480,-0.004387,0.364119,-0.388717,-0.002205,0.000000,-0.436000,0.000000,0.000000,0.000000,0.000000
0.23798,-0.004005,0.002480,-0.004005,0.364119,-0.388717,-0.002205,0.000000,-0.436000,0.000000,0.000000,0.000000,0.000000
0.23998,-0.004005,0.002480,-0.004005,0.364119,-0.388717,-0.002205,0.000000,-0.436000,0.000000,0.000000,0.000000,0.000000
0.24198,-0.004005,0.002480,-0.004005,0.364119,-0.388717,-0.002205,0.000000,-0.436000,0.000000,0.000000,0.000000,0.000000
0.24398,-0.004005,0.002480,-0.004005,0.364119,-0.388717,-0.002205,0.000000,-0.436000,0.000000,0.000000,0.000000,0.000000
0.24598,-0.004387,0.002480,-0.004005,0.364119,-0.388717,-0.002205,0.000000,-0.436000,0.000000,0.000000,0.000000,0.000000
0.24798,-0.004387,0.002480,-0.004005,0.364119,-0.388717,-0.002205,0.000000,-0.436000,0.000000,0.000000,0.000000,0.000000
0.24998,-0.004387,0.002098,-0.004005,0.364119,-0.388717,-0.002205,0.000000,-0.436000,0.000000,0.000000,0.000000,0.000000
0.25198,-0.004387,0.002098,-0.004005,0.364119,-0.388717,-0.002205,0.000000,-0.436000,0.000000,0.000000,0.000000,0.000000
0.25398,-0.004387,0.002098,-0.004005,0.364119,-0.388717,-0.002205,0.000000,-0.436000,0.000000,0.000000,0.000000,0.000000
0.25598,-0.004387,0.002098,-0.004005,0.364119,-0.388717,-0.002205,0.000000,-0.436000,0.000000,0.000000,0.000000,0.000000
0.25798,-0.004387,0.002098,-0.004005,0.364119,-0.388717,-0.002205,0.000000,-0.436000,0.000000,0.000000,0.000000,0.000000
0.25998,-0.004387,0.002098,-0.004005,0.364119,-0.388717,-0.002205,0.000000,-0.436000,0.000000,0.000000,0.000000,0.000000
0.26198,-0.004387,0.002098,-0.004005,0.364119,-0.388717,-0.002205,0.000000,-0.436000,0.000000,0.000000,0.000000,0.000000
0.26398,-0.004387,0.002098,-0.004005,0.364119,-0.388717,-0.002205,0.000000,-0.436000,0.000000,0.000000,0.000000,0.000000
0.26598,-0.004387,0.002098,-0.004005,0.364119,-0.388717,-0.002205,0.000000,-0.436000,0.000000,0.000000,0.000000,0.000000
0.26798,-0.004387,0.002098,-0.004005,0.364119,-0.388717,-0.002205,0.000000,-0.436000,0.000000,0.000000,0.000000,0.000000
0.26998,-0.004387,0.002098,-0.004005,0.364119,-0.388717,-0.002205,0.000000,-0.436000,0.000000,0.000000,0.000000,0.000000
0.27198,-0.004387,0.002098,-0.004005,0.364119,-0.388717,-0.002205,0.000000,-0.436000,0.000000,0.000000,0.000000,0.000000
0.27398,-0.004768,0.002098,-0.004005,0.364119,-0.388717,-0.002205,0.000000,-0.436000,0.000000,0.000000,0.000000,0.000000
0.27598,-0.004768,0.002098,-0.004005,0.364119,-0.388717,-0.002205,0.000000,-0.436000,0.000000,0.000000,0.000000,0.000000
0.27797,-0.004768,0.001717,-0.004005,0.364119,-0.388717,-0.002205,0.000000,-0.436000,0.000000,0.000000,0.000000,0.000000
0.27997,-0.004768,0.002098,-0.004005,0.364119,-0.388717,-0.002205,0.000000,-0.436000,0.000000,0.000000,0.000000,0.000000
0.28197,-0.004768,0.001717,-0.004005,0.364119,-0.388907,-0.002648,0.000000,-0.436000,0.000000,0.000000,0.000000,0.000000
0.28397,-0.004768,0.001717,-0.004005,0.364119,-0.388907,-0.002648,0.000000,-0.436000,0.000000,0.000000,0.000000,0.000000
0.28597,-0.004768,0.001717,-0.004005,0.364119,-0.388907,-0.002648,0.000000,-0.436000,0.000000,0.000000,0.000000,0.000000
0.28797,-0.004768,0.001717,-0.004005,0.364119,-0.388907,-0.002648,0.000000,-0.436000,0.000000,0.000000,0.000000,0.000000
0.28997,-0.004768,0.001717,-0.004005,0.364119,-0.388907,-0.002648,0.000000,-0.436000,0.000000,0.000000,0.000000,0.000000
0.29197,-0.004768,0.001717,-0.004005,0.364119,-0.388907,-0.002648,0.000000,-0.436000,0.000000,0.000000,0.000000,0.000000
0.29397,-0.004768,0.001717,-0.004005,0.364119,-0.388907,-0.002648,0.000000,-0.436000,0.000000,0.000000,0.000000,0.000000
0.29597,-0.004768,0.001717,-0.004005,0.364119,-0.389098,-0.003091,0.000000,-0.436000,0.000000,0.000000,0.000000,0.000000
0.29797,-0.004768,0.001717,-0.004005,0.364119,-0.389098,-0.003091,0.000000,-0.436000,0.000000,0.000000,0.000000,0.000000
0.29997,-0.005150,0.001717,-0.004387,0.364119,-0.389098,-0.003091,0.000000,-0.436000,0.000000,0.000000,0.000000,0.000000
0.30197,-0.005150,0.001717,-0.004387,0.364119,-0.389288,-0.003534,0.000000,-0.436000,0.000000,0.000000,0.000000,0.000000
0.30397,-0.005150,0.001717,-0.004387,0.364119,-0.389478,-0.003976,0.000000,-0.436000,0.000000,0.000000,0.000000,0.000000
0.30597,-0.005150,0.001717,-0.004387,0.364119,-0.389668,-0.004419,0.000000,-0.436000,0.000000,0.000000,0.000000,0.000000
0.30797,-0.005150,0.001717,-0.004387,0.364119,-0.389668,-0.004419,0.000000,-0.436000,0.000000,0.000000,0.000000,0.000000
0.30997,-0.005150,0.001717,-0.004387,0.364119,-0.389859,-0.004863,0.000000,-0.436000,0.000000,0.000000,0.000000,0.000000
0.31197,-0.005150,0.001717,-0.004387,0.364119,-0.390049,-0.005306,0.000000,-0.436000,0.000000,0.000000,0.000000,0.000000
0.31397,-0.005150,0.001717,-0.004387,0.364119,-0.390239,-0.005749,0.000000,-0.436000,0.000000,0.000000,0.000000,0.000000
0.31597,-0.005150,0.001717,-0.004387,0.364119,-0.390429,-0.006192,0.000000,-0.436000,0.000000,0.000000,0.000000,0.000000
0.31797,-0.005150,0.001717,-0.004768,0.364119,-0.390619,-0.006635,0.000000,-0.436000,0.000000,0.000000,0.000000,0.000000
0.31997,-0.005150,0.001717,-0.004768,0.364119,-0.391188,-0.007965,0.000000,-0.436000,0.000000,0.000000,0.000000,0.000000
0.32197,-0.005150,0.001717,-0.004768,0.364119,-0.391568,-0.008852,0.000000,-0.436000,0.000000,0.000000,0.000000,0.000000
0.32397,-0.005150,0.001717,-0.004768,0.364119,-0.391568,-0.008852,0.000000,-0.436000,0.000000,0.000000,0.000000,0.000000
0.32597,-0.005150,0.001717,-0.004768,0.364119,-0.391947,-0.009740,0.000000,-0.436000,0.000000,0.000000,0.000000,0.000000
0.32797,-0.005150,0.001717,-0.004768,0.364119,-0.392326,-0.010627,0.000000,-0.436000,0.000000,0.000000,0.000000,0.000000
0.32997,-0.005150,0.001717,-0.004768,0.364119,-0.392705,-0.011515,0.000000,-0.436000,0.000000,0.000000,0.000000,0.000000
0.33197,-0.005150,0.001717,-0.005150,0.364119,-0.392894,-0.011959,0.000000,-0.436000,0.000000,0.000000,0.000000,0.000000
0.33397,-0.005150,0.001717,-0.005150,0.364119,-0.393272,-0.012847,0.000000,-0.436000,0.000000,0.000000,0.000000,0.000000
0.33597,-0.005150,0.001717,-0.005150,0.364119,-0.393651,-0.013735,0.000000,-0.436000,0.000000,0.000000,0.000000,0.000000
0.33797,-0.005150,0.001717,-0.005150,0.364119,-0.393840,-0.014179,0.000000,-0.436000,0.000000,0.000000,0.000000,0.000000
0.33997,-0.005531,0.001717,-0.005150,0.364119,-0.394217,-0.015068,0.000000,-0.436000,0.000000,0.000000,0.000000,0.000000
0.34197,-0.005531,0.001717,-0.005531,0.364119,-0.394973,-0.016846,0.000000,-0.436000,0.000000,0.000000,0.000000,0.000000
0.34397,-0.005531,0.001717,-0.005531,0.364119,-0.394973,-0.016846,0.000000,-0.436000,0.000000,0.000000,0.000000,0.000000
0.34597,-0.005531,0.001717,-0.005531,0.364119,-0.395539,-0.018181,0.000000,-0.436000,0.000000,0.000000,0.000000,0.000000
0.34797,-0.005531,0.001717,-0.005531,0.364119,-0.395916,-0.019070,0.000000,-0.436000,0.000000,0.000000,0.000000,0.000000
0.34997,-0.005531,0.001717,-0.005531,0.364119,-0.396293,-0.019960,0.000000,-0.436000,0.000000,0.000000,0.000000,0.000000
0.35197,-0.005531,0.001717,-0.005531,0.364119,-0.396669,-0.020850,0.000000,-0.436000,0.000000,0.000000,0.000000,0.000000
0.35397,-0.005531,0.001717,-0.005531,0.364119,-0.397046,-0.021740,0.000000,-0.436000,0.000000,0.000000,0.000000,0.000000
0.35597,-0.005531,0.001717,-0.005531,0.364119,-0.397422,-0.022631,0.000000,-0.436000,0.000000,0.000000,0.000000,0.000000
0.35797,-0.005531,0.001717,-0.005531,0.364119,-0.397797,-0.023522,0.000000,-0.436000,0.000000,0.000000,0.000000,0.000000
0.35997,-0.005531,0.001717,-0.005913,0.364119,-0.398361,-0.024858,0.000000,-0.436000,0.000000,0.000000,0.000000,0.000000
0.36197,-0.005531,0.001717,-0.005913,0.364119,-0.398361,-0.024858,0.000000,-0.436000,0.000000,0.000000,0.000000,0.000000
0.36397,-0.005531,0.001717,-0.005913,0.364119,-0.398924,-0.026195,0.000000,-0.436000,0.000000,0.000000,0.000000,0.000000
0.36597,-0.005531,0.001717,-0.005913,0.364119,-0.399299,-0.027087,0.000000,-0.436000,0.000000,0.000000,0.000000,0.000000
0.36797,-0.005531,0.001717,-0.005913,0.364119,-0.399486,-0.027533,0.000000,-0.436000,0.000000,0.000000,0.000000,0.000000
0.36997,-0.005531,0.001717,-0.005913,0.364119,-0.399861,-0.028425,0.000000,-0.436000,0.000000,0.000000,0.000000,0.000000
0.37197,-0.005531,0.001717,-0.005913,0.364119,-0.400235,-0.029317,0.000000,-0.436000,0.000000,0.000000,0.000000,0.000000
0.37397,-0.005531,0.001717,-0.006294,0.364119,-0.400423,-0.029763,0.000000,-0.436000,0.000000,0.000000,0.000000,0.000000
0.37597,-0.005531,0.001717,-0.006294,0.364119,-0.400991,-0.030213,0.000000,-0.436000,0.000000,0.000000,0.000000,0.000000
0.37797,-0.005531,0.001717,-0.006294,0.364119,-0.401178,-0.030659,0.000000,-0.436000,0.000000,0.000000,0.000000,0.000000
0.37997,-0.005531,0.001717,-0.006294,0.364119,-0.401552,-0.031552,0.000000,-0.436000,0.000000,0.000000,0.000000,0.000000
0.38197,-0.005531,0.001717,-0.006294,0.364119,-0.402113,-0.032892,0.000000,-0.436000,0.000000,0.000000,0.000000,0.000000
0.38397,-0.005531,0.001717,-0.006294,0.364119,-0.401918,-0.033335,0.000000,-0.436000,0.000000,0.000000,0.000000,0.000000
0.38597,-0.005531,0.001717,-0.006676,0.364119,-0.402486,-0.033786,0.000000,-0.436000,0.000000,0.000000,0.000000,0.000000
0.38797,-0.005531,0.001717,-0.006676,0.364119,-0.402859,-0.034679,0.000000,-0.436000,0.000000,0.000000,0.000000,0.000000
0.38996,-0.005531,0.001717,-0.006676,0.364119,-0.403046,-0.035126,0.000000,-0.436000,0.000000,0.000000,0.000000,0.000000
0.39196,-0.005531,0.002098,-0.006676,0.364119,-0.403418,-0.036020,0.000000,-0.436000,0.000000,0.000000,0.000000,0.000000
0.39396,-0.005531,0.002098,-0.007057,0.364119,-0.403605,-0.036467,0.000000,-0.436000,0.000000,0.000000,0.000000,0.000000
0.39596,-0.005531,0.002098,-0.007057,0.364119,-0.403791,-0.036914,0.000000,-0.436000,0.000000,0.000000,0.000000,0.000000
0.39796,-0.005531,0.002098,-0.007057,0.364119,-0.403977,-0.037362,0.000000,-0.436000,0.000000,0.000000,0.000000,0.000000
0.39996,-0.005531,0.002098,-0.007057,0.364119,-0.404163,-0.037809,0.000000,-0.436000,0.000000,0.000000,0.000000,0.000000
0.40196,-0.005531,0.002098,-0.007057,0.364119,-0.404536,-0.038704,0.000000,-0.436000,0.000000,0.000000,0.000000,0.000000
0.40396,-0.005531,0.002098,-0.007057,0.364119,-0.404536,-0.038704,0.000000,-0.436000,0.000000,0.000000,0.000000,0.000000
0.40596,-0.005531,0.002098,-0.007439,0.364119,-0.404722,-0.039151,0.000000,-0.436000,0.000000,0.000000,0.000000,0.000000
0.40796,-0.005531,0.002098,-0.007439,0.364119,-0.404908,-0.039599,0.000000,-0.436000,0.000000,0.000000,0.000000,0.000000
0.40996,-0.005531,0.002098,-0.007439,0.364119,-0.404908,-0.039599,0.000000,-0.436000,0.000000,0.000000,0.000000,0.000000
0.41196,-0.005531,0.002098,-0.007439,0.364119,-0.405093,-0.040046,0.000000,-0.436000,0.000000,0.000000,0.000000,0.000000
0.41396,-0.005531,0.002098,-0.007820,0.364119,-0.405093,-0.040046,0.000000,-0.436000,0.000000,0.000000,0.000000,0.000000
0.41596,-0.005531,0.002098,-0.007820,0.364119,-0.405279,-0.040494,0.000000,-0.436000,0.000000,0.000000,0.000000,0.000000
0.41796,-0.005531,0.002098,-0.007820,0.364119,-0.405465,-0.040942,0.000000,-0.436000,0.000000,0.000000,0.000000,0.000000
0.41996,-0.005531,0.002098,-0.007820,0.364119,-0.405651,-0.041389,0.000000,-0.436000,0.000000,0.000000,0.000000,0.000000
0.42196,-0.005531,0.002098,-0.007820,0.364119,-0.405836,-0.041837,0.000000,-0.436000,0.000000,0.000000,0.000000,0.000000
0.42396,-0.005531,0.002480,-0.008202,0.364119,-0.406022,-0.042285,0.000000,-0.436000,0.000000,0.000000,0.000000,0.000000
0.42596,-0.005531,0.002480,-0.008202,0.364119,-0.406208,-0.042733,0.000000,-0.436000,0.000000,0.000000,0.000000,0.000000
0.42796,-0.005531,0.002480,-0.008202,0.364119,-0.406393,-0.043181,0.000000,-0.436000,0.000000,0.000000,0.000000,0.000000
0.42996,-0.005531,0.002480,-0.008202,0.364119,-0.406393,-0.043181,0.000000,-0.436000,0.000000,0.000000,0.000000,0.000000
0.43196,-0.005531,0.002480,-0.008202,0.364119,-0.406579,-0.043629,0.000000,-0.436000,0.000000,0.000000,0.000000,0.000000
0.43396,-0.005531,0.002480,-0.008583,0.364119,-0.406960,-0.043634,0.000000,-0.436000,0.000000,0.000000,0.000000,0.000000
0.43596,-0.005531,0.002480,-0.008583,0.364119,-0.407145,-0.044082,0.000000,-0.436000,0.000000,0.000000,0.000000,0.000000
0.43796,-0.005531,0.002480,-0.008583,0.364119,-0.407331,-0.044531,0.000000,-0.436000,0.000000,0.000000,0.000000,0.000000
0.43996,-0.005531,0.002480,-0.008965,0.364119,-0.407527,-0.044088,0.000000,-0.436000,0.000000,0.000000,0.000000,0.000000
0.44196,-0.005531,0.002480,-0.008965,0.364119,-0.407908,-0.044093,0.000000,-0.436000,0.000000,0.000000,0.000000,0.000000
0.44396,-0.005531,0.002861,-0.008965,0.364119,-0.407908,-0.044093,0.000000,-0.436000,0.000000,0.000000,0.000000,0.000000
0.44596,-0.005531,0.002861,-0.008965,0.364119,-0.408104,-0.043650,0.000000,-0.436000,0.000000,0.000000,0.000000,0.000000
0.44796,-0.005531,0.002861,-0.009346,0.364119,-0.408104,-0.043650,0.000000,-0.436000,0.000000,0.000000,0.000000,0.000000
0.44996,-0.005531,0.002861,-0.009346,0.364119,-0.408300,-0.043207,0.000000,-0.436000,0.000000,0.000000,0.000000,0.000000
0.45196,-0.005531,0.002861,-0.009346,0.364119,-0.408495,-0.042764,0.000000,-0.436000,0.000000,0.000000,0.000000,0.000000
0.45396,-0.005531,0.002861,-0.009727,0.364119,-0.408495,-0.042764,0.000000,-0.436000,0.000000,0.000000,0.000000,0.000000
0.45596,-0.005531,0.002861,-0.009727,0.364119,-0.408691,-0.042321,0.000000,-0.436000,0.000000,0.000000,0.000000,0.000000
0.45796,-0.005531,0.002861,-0.010109,0.364119,-0.408887,-0.041878,0.000000,-0.436000,0.000000,0.000000,0.000000,0.000000
0.45996,-0.005531,0.003242,-0.010109,0.364119,-0.408887,-0.041878,0.000000,-0.436000,0.000000,0.000000,0.000000,0.000000
0.46196,-0.005531,0.003242,-0.010109,0.364119,-0.409082,-0.041434,0.000000,-0.436000,0.000000,0.000000,0.000000,0.000000
0.46396,-0.005531,0.003242,-0.010490,0.364119,-0.409278,-0.040991,0.000000,-0.436000,0.000000,0.000000,0.000000,0.000000
0.46596,-0.005531,0.003242,-0.010490,0.364119,-0.409278,-0.040991,0.000000,-0.436000,0.000000,0.000000,0.000000,0.000000
0.46796,-0.005531,0.003242,-0.010490,0.364119,-0.409473,-0.040548,0.000000,-0.436000,0.000000,0.000000,0.000000,0.000000
0.46996,-0.005531,0.003624,-0.010872,0.364119,-0.409855,-0.040553,0.000000,-0.436000,0.000000,0.000000,0.000000,0.000000
0.47196,-0.005531,0.003242,-0.010872,0.364119,-0.410246,-0.039666,0.000000,-0.436000,0.000000,0.000000,0.000000,0.000000
0.47396,-0.005531,0.003624,-0.011253,0.364119,-0.410636,-0.038779,0.000000,-0.436000,0.000000,0.000000,0.000000,0.000000
0.47596,-0.005531,0.003624,-0.011253,0.364119,-0.411017,-0.038783,0.000000,-0.436000,0.000000,0.000000,0.000000,0.000000
0.47796,-0.005531,0.003624,-0.011635,0.364119,-0.411408,-0.037896,0.000000,-0.436000,0.000000,0.000000,0.000000,0.000000
0.47996,-0.005531,0.003624,-0.011635,0.364119,-0.411984,-0.037457,0.000000,-0.436000,0.000000,0.000000,0.000000,0.000000
0.48196,-0.005531,0.003624,-0.012016,0.364119,-0.412561,-0.037017,0.000000,-0.436000,0.000000,0.000000,0.000000,0.000000
0.48396,-0.005531,0.004005,-0.012398,0.364119,-0.413137,-0.036578,0.000000,-0.436000,0.000000,0.000000,0.000000,0.000000
0.48596,-0.005531,0.004005,-0.012779,0.364119,-0.413900,-0.036587,0.000000,-0.436000,0.000000,0.000000,0.000000,0.000000
0.48796,-0.005531,0.004005,-0.012779,0.364119,-0.414290,-0.035698,0.000000,-0.436000,0.000000,0.000000,0.000000,0.000000
0.48996,-0.005531,0.004005,-0.013161,0.364119,-0.415239,-0.036156,0.000000,-0.436000,0.000000,0.000000,0.000000,0.000000
0.49196,-0.005531,0.004005,-0.013161,0.364119,-0.415815,-0.035716,0.000000,-0.436000,0.000000,0.000000,0.000000,0.000000
0.49396,-0.005531,0.004387,-0.013542,0.364119,-0.416577,-0.035724,0.000000,-0.436000,0.000000,0.000000,0.000000,0.000000
0.49596,-0.005531,0.004387,-0.013924,0.364119,-0.417340,-0.035733,0.000000,-0.436000,0.000000,0.000000,0.000000,0.000000
0.49796,-0.005531,0.004387,-0.013924,0.364500,-0.418103,-0.035742,0.000000,-0.436000,0.000000,0.000000,0.000000,0.000000
0.49995,-0.005531,0.004387,-0.014305,0.364500,-0.418866,-0.035750,0.000000,-0.436000,0.000000,0.000000,0.000000,0.000000
0.50195,-0.005531,0.004768,-0.014687,0.364500,-0.419628,-0.035758,0.000000,-0.436000,0.000000,0.000000,0.000000,0.000000
0.50395,-0.005150,0.004768,-0.015068,0.364500,-0.420391,-0.035767,0.000000,-0.436000,0.000000,0.000000,0.000000,0.000000
0.50595,-0.005150,0.004768,-0.015450,0.364500,-0.421535,-0.035780,0.000000,-0.436000,0.000000,0.000000,0.000000,0.000000
0.50795,-0.005531,0.005150,-0.015450,0.364500,-0.422314,-0.033999,0.000000,-0.436000,0.000000,0.000000,0.000000,0.000000
0.50995,-0.005150,0.005150,-0.016212,0.364882,-0.423272,-0.033561,0.000000,-0.436000,0.000000,0.000000,0.000000,0.000000
0.51195,-0.005150,0.005150,-0.016212,0.364882,-0.424229,-0.033124,0.000000,-0.436000,0.000000,0.000000,0.000000,0.000000
0.51395,-0.005150,0.005150,-0.016594,0.365263,-0.425381,-0.032240,0.000000,-0.436000,0.000000,0.000000,0.000000,0.000000
0.51595,-0.005150,0.005531,-0.016975,0.365263,-0.426151,-0.031352,0.000000,-0.436000,0.000000,0.000000,0.000000,0.000000
0.51795,-0.005150,0.005531,-0.017357,0.365644,-0.427108,-0.030913,0.000000,-0.436000,0.000000,0.000000,0.000000,0.000000
0.51995,-0.005150,0.005531,-0.017357,0.365644,-0.428259,-0.030028,0.000000,-0.436000,0.000000,0.000000,0.000000,0.000000
0.52195,-0.005150,0.005531,-0.017738,0.366026,-0.429029,-0.029138,0.000000,-0.436000,0.000000,0.000000,0.000000,0.000000
0.52395,-0.005150,0.005913,-0.018501,0.366407,-0.430173,-0.029149,0.000000,-0.436000,0.000000,0.000000,0.000000,0.000000
0.52595,-0.005150,0.005913,-0.018501,0.366407,-0.431143,-0.026914,0.000000,-0.436000,0.000000,0.000000,0.000000,0.000000
0.52795,-0.005150,0.005913,-0.018883,0.366789,-0.432287,-0.026924,0.000000,-0.436000,0.000000,0.000000,0.000000,0.000000
0.52995,-0.005150,0.006294,-0.019264,0.367170,-0.433250,-0.025585,0.000000,-0.436000,0.000000,0.000000,0.000000,0.000000
0.53195,-0.005150,0.006294,-0.019264,0.367170,-0.434206,-0.025144,0.000000,-0.436000,0.000000,0.000000,0.000000,0.000000
0.53395,-0.005150,0.006294,-0.019646,0.367552,-0.435163,-0.024702,0.000000,-0.436000,0.000000,0.000000,0.000000,0.000000
0.53595,-0.005150,0.006676,-0.020027,0.367933,-0.436125,-0.023361,0.000000,-0.436000,0.000000,0.000000,0.000000,0.000000
0.53795,-0.005150,0.006676,-0.020409,0.367933,-0.437081,-0.022919,0.000000,-0.436000,0.000000,0.000000,0.000000,0.000000
0.53995,-0.005150,0.006676,-0.020790,0.368315,-0.438037,-0.022477,0.000000,-0.436000,0.000000,0.000000,0.000000,0.000000
0.54195,-0.005150,0.007057,-0.020790,0.368696,-0.438993,-0.022034,0.000000,-0.436000,0.000000,0.000000,0.000000,0.000000
0.54395,-0.005150,0.007057,-0.021172,0.369078,-0.439949,-0.021591,0.000000,-0.436000,0.000000,0.000000,0.000000,0.000000
0.54595,-0.005150,0.007057,-0.021553,0.369459,-0.440717,-0.020696,0.000000,-0.436000,0.000000,0.000000,0.000000,0.000000
0.54795,-0.005150,0.007439,-0.022316,0.369841,-0.442049,-0.021155,0.000000,-0.436000,0.000000,0.000000,0.000000,0.000000
0.54995,-0.005150,0.007439,-0.022316,0.370985,-0.443014,-0.018909,0.000000,-0.436000,0.000000,0.000000,0.000000,0.000000
0.55195,-0.005150,0.007439,-0.022697,0.371748,-0.444158,-0.018917,0.000000,-0.436000,0.000000,0.000000,0.000000,0.000000
0.55395,-0.005150,0.007820,-0.023079,0.372129,-0.445307,-0.018022,0.000000,-0.436000,0.000000,0.000000,0.000000,0.000000
0.55595,-0.005150,0.007820,-0.023460,0.372892,-0.446262,-0.017577,0.000000,-0.436000,0.000000,0.000000,0.000000,0.000000
0.55795,-0.005150,0.007820,-0.023842,0.373274,-0.447411,-0.016681,0.000000,-0.436000,0.000000,0.000000,0.000000,0.000000
0.55995,-0.005150,0.008202,-0.024605,0.373655,-0.448177,-0.015783,0.000000,-0.436000,0.000000,0.000000,0.000000,0.000000
0.56195,-0.005150,0.008202,-0.024986,0.374037,-0.449132,-0.015337,0.000000,-0.436000,0.000000,0.000000,0.000000,0.000000
0.56395,-0.005150,0.008583,-0.025368,0.374418,-0.450088,-0.014890,0.000000,-0.436000,0.000000,0.000000,0.000000,0.000000
0.56595,-0.005150,0.008583,-0.025749,0.375181,-0.451235,-0.013993,0.000000,-0.436000,0.000000,0.000000,0.000000,0.000000
0.56795,-0.005150,0.008583,-0.026894,0.375944,-0.452572,-0.013547,0.000000,-0.436000,0.000000,0.000000,0.000000,0.000000
0.56995,-0.005150,0.008965,-0.026894,0.377089,-0.453532,-0.011292,0.000000,-0.436000,0.000000,0.000000,0.000000,0.000000
0.57195,-0.005150,0.008965,-0.027657,0.378233,-0.454868,-0.010845,0.000000,-0.436000,0.000000,0.000000,0.000000,0.000000
0.57395,-0.005150,0.008965,-0.028038,0.378996,-0.455634,-0.009943,0.000000,-0.436000,0.000000,0.000000,0.000000,0.000000
0.57595,-0.005150,0.009346,-0.028419,0.379759,-0.456780,-0.009042,0.000000,-0.436000,0.000000,0.000000,0.000000,0.000000
0.57795,-0.005150,0.009346,-0.029182,0.380522,-0.457734,-0.008593,0.000000,-0.436000,0.000000,0.000000,0.000000,0.000000
0.57995,-0.005150,0.009727,-0.029564,0.380903,-0.458880,-0.007691,0.000000,-0.436000,0.000000,0.000000,0.000000,0.000000
0.58195,-0.005150,0.009727,-0.030327,0.381666,-0.459835,-0.007240,0.000000,-0.436000,0.000000,0.000000,0.000000,0.000000
0.58395,-0.005150,0.009727,-0.030708,0.382811,-0.460789,-0.006790,0.000000,-0.436000,0.000000,0.000000,0.000000,0.000000
0.58595,-0.005150,0.010109,-0.031472,0.383955,-0.461743,-0.006339,0.000000,-0.436000,0.000000,0.000000,0.000000,0.000000
0.58795,-0.005150,0.010109,-0.032617,0.385099,-0.463267,-0.007250,0.000000,-0.436000,0.000000,0.000000,0.000000,0.000000
0.58995,-0.005150,0.010490,-0.032617,0.386244,-0.464224,-0.004985,0.000000,-0.436000,0.000000,0.000000,0.000000,0.000000
0.59195,-0.005150,0.010490,-0.033761,0.387007,-0.465559,-0.005441,0.000000,-0.436000,0.000000,0.000000,0.000000,0.000000
0.59395,-0.005150,0.010872,-0.034142,0.388151,-0.466703,-0.005444,0.000000,-0.436000,0.000000,0.000000,0.000000,0.000000
0.59595,-0.005150,0.010872,-0.034905,0.389296,-0.467847,-0.005446,0.000000,-0.436000,0.000000,0.000000,0.000000,0.000000
0.59795,-0.005150,0.011253,-0.035668,0.390821,-0.468801,-0.004993,0.000000,-0.436000,0.000000,0.000000,0.000000,0.000000
0.59995,-0.005150,0.011253,-0.036050,0.391966,-0.469945,-0.004995,0.000000,-0.436000,0.000000,0.000000,0.000000,0.000000
0.60195,-0.005150,0.011635,-0.036813,0.393110,-0.471089,-0.004997,0.000000,-0.436000,0.000000,0.000000,0.000000,0.000000
0.60395,-0.005150,0.011635,-0.037576,0.393873,-0.472234,-0.004999,0.000000,-0.436000,0.000000,0.000000,0.000000,0.000000
0.60595,-0.004768,0.012016,-0.038339,0.395399,-0.473378,-0.005001,0.000000,-0.436000,0.000000,0.000000,0.000000,0.000000
0.60795,-0.004768,0.012016,-0.039102,0.396925,-0.474522,-0.005004,0.000000,-0.436000,0.000000,0.000000,0.000000,0.000000
0.60995,-0.004768,0.012398,-0.040627,0.398069,-0.476237,-0.005462,0.000000,-0.436000,0.000000,0.000000,0.000000,0.000000
0.61194,-0.004768,0.012779,-0.040627,0.399595,-0.477193,-0.003187,0.000000,-0.436000,0.000000,0.000000,0.000000,0.000000
0.61394,-0.004768,0.012779,-0.041772,0.401121,-0.478527,-0.003644,0.000000,-0.436000,0.000000,0.000000,0.000000,0.000000
0.61594,-0.004768,0.013161,-0.042535,0.403028,-0.479672,-0.003646,0.000000,-0.436000,0.000000,0.000000,0.000000,0.000000
0.61794,-0.004768,0.013161,-0.043679,0.404554,-0.481007,-0.003192,0.000000,-0.436000,0.000000,0.000000,0.000000,0.000000
0.61994,-0.004768,0.013542,-0.044442,0.405699,-0.482151,-0.003193,0.000000,-0.436000,0.000000,0.000000,0.000000,0.000000
0.62194,-0.004768,0.013542,-0.045205,0.407226,-0.483295,-0.003195,0.000000,-0.436000,0.000000,0.000000,0.000000,0.000000
0.62394,-0.004768,0.013542,-0.046350,0.409133,-0.484440,-0.002283,0.000000,-0.436000,0.000000,0.000000,0.000000,0.000000
0.62594,-0.004768,0.013924,-0.047494,0.410659,-0.485584,-0.002284,0.000000,-0.436000,0.000000,0.000000,0.000000,0.000000
0.62794,-0.004768,0.014305,-0.048257,0.411803,-0.486728,-0.002286,0.000000,-0.436000,0.000000,0.000000,0.000000,0.000000
0.62994,-0.004768,0.014305,-0.050546,0.413329,-0.488634,-0.003202,0.000000,-0.436000,0.000000,0.000000,0.000000,0.000000
0.63194,-0.004768,0.014687,-0.050546,0.416381,-0.489398,-0.001374,0.000000,-0.436000,0.000000,0.000000,0.000000,0.000000
0.63394,-0.004768,0.014687,-0.052072,0.417907,-0.490732,-0.001832,0.000000,-0.436000,0.000000,0.000000,0.000000,0.000000
0.63594,-0.004768,0.015068,-0.052835,0.419814,-0.492067,-0.002291,0.000000,-0.436000,0.000000,0.000000,0.000000,0.000000
0.63794,-0.004768,0.015068,-0.053979,0.422103,-0.493211,-0.002293,0.000000,-0.436000,0.000000,0.000000,0.000000,0.000000
0.63994,-0.004768,0.015450,-0.055123,0.424010,-0.494355,-0.002294,0.000000,-0.436000,0.000000,0.000000,0.000000,0.000000
0.64194,-0.004768,0.015450,-0.056268,0.425536,-0.495499,-0.002295,0.000000,-0.436000,0.000000,0.000000,0.000000,0.000000
0.64394,-0.004768,0.015831,-0.057412,0.427825,-0.496452,-0.002754,0.000000,-0.436000,0.000000,0.000000,0.000000,0.000000
0.64594,-0.004768,0.015831,-0.058557,0.430114,-0.497596,-0.002756,0.000000,-0.436000,0.000000,0.000000,0.000000,0.000000
0.64794,-0.004768,0.016212,-0.059701,0.432021,-0.498740,-0.002757,0.000000,-0.436000,0.000000,0.000000,0.000000,0.000000
0.64994,-0.004768,0.016594,-0.062371,0.434691,-0.500455,-0.004137,0.000000,-0.436000,0.000000,0.000000,0.000000,0.000000
0.65194,-0.004387,0.016594,-0.062371,0.437362,-0.501219,-0.002301,0.000000,-0.436000,0.000000,0.000000,0.000000,0.000000
0.65394,-0.004387,0.016975,-0.063897,0.440032,-0.502363,-0.003221,0.000000,-0.436000,0.000000,0.000000,0.000000,0.000000
0.65594,-0.004387,0.016975,-0.065423,0.442321,-0.503317,-0.002763,0.000000,-0.436000,0.000000,0.000000,0.000000,0.000000
0.65794,-0.004387,0.017357,-0.066567,0.444610,-0.504270,-0.003224,0.000000,-0.436000,0.000000,0.000000,0.000000,0.000000
0.65994,-0.004387,0.017357,-0.068093,0.447661,-0.505032,-0.003225,0.000000,-0.436000,0.000000,0.000000,0.000000,0.000000
0.66194,-0.004387,0.017738,-0.069238,0.449569,-0.505795,-0.003226,0.000000,-0.436000,0.000000,0.000000,0.000000,0.000000
0.66394,-0.004387,0.018120,-0.070764,0.452239,-0.506558,-0.003227,0.000000,-0.436000,0.000000,0.000000,0.000000,0.000000
0.66594,-0.004387,0.018120,-0.072289,0.454909,-0.507512,-0.002768,0.000000,-0.436000,0.000000,0.000000,0.000000,0.000000
0.66794,-0.004387,0.018501,-0.073815,0.457580,-0.507893,-0.002769,0.000000,-0.436000,0.000000,0.000000,0.000000,0.000000
0.66994,-0.004387,0.018501,-0.076867,0.460631,-0.508846,-0.003230,0.000000,-0.436000,0.000000,0.000000,0.000000,0.000000
0.67194,-0.004387,0.018883,-0.076867,0.464828,-0.509419,-0.001850,0.000000,-0.436000,0.000000,0.000000,0.000000,0.000000
0.67394,-0.004387,0.019264,-0.079156,0.467498,-0.509800,-0.001850,0.000000,-0.436000,0.000000,0.000000,0.000000,0.000000
0.67594,-0.004387,0.019264,-0.081063,0.470551,-0.510182,-0.001850,0.000000,-0.436000,0.000000,0.000000,0.000000,0.000000
0.67794,-0.004387,0.019646,-0.082589,0.473602,-0.510754,-0.001390,0.000000,-0.436000,0.000000,0.000000,0.000000,0.000000
0.67994,-0.004387,0.019646,-0.084496,0.476273,-0.511135,-0.001391,0.000000,-0.436000,0.000000,0.000000,0.000000,0.000000
0.68194,-0.004387,0.020027,-0.086404,0.479706,-0.511517,-0.001391,0.000000,-0.436000,0.000000,0.000000,0.000000,0.000000
0.68394,-0.004387,0.020027,-0.087930,0.482376,-0.511517,-0.001391,0.000000,-0.436000,0.000000,0.000000,0.000000,0.000000
0.68594,-0.004387,0.020027,-0.089837,0.485809,-0.511707,-0.000930,0.000000,-0.436000,0.000000,0.000000,0.000000,0.000000
0.68794,-0.004387,0.020409,-0.091744,0.488861,-0.511898,-0.001391,0.000000,-0.436000,0.000000,0.000000,0.000000,0.000000
0.68994,-0.004387,0.020409,-0.093652,0.492294,-0.511707,-0.000930,0.000000,-0.436000,0.000000,0.000000,0.000000,0.000000
0.69194,-0.004387,0.020790,-0.097086,0.495728,-0.511517,-0.001391,0.000000,-0.436000,0.000000,0.000000,0.000000,0.000000
0.69394,-0.004387,0.021172,-0.097086,0.500687,-0.511517,-0.001391,0.000000,-0.436000,0.000000,0.000000,0.000000,0.000000
0.69594,-0.004387,0.021172,-0.100138,0.504501,-0.511135,-0.001391,0.000000,-0.436000,0.000000,0.000000,0.000000,0.000000
0.69794,-0.004387,0.021172,-0.102045,0.508316,-0.510945,-0.000930,0.000000,-0.436000,0.000000,0.000000,0.000000,0.000000
0.69994,-0.004005,0.021553,-0.104334,0.511749,-0.510754,-0.001390,0.000000,-0.436000,0.000000,0.000000,0.000000,0.000000
0.70194,-0.004005,0.021553,-0.106241,0.515564,-0.510372,-0.001390,0.000000,-0.436000,0.000000,0.000000,0.000000,0.000000
0.70394,-0.004387,0.021935,-0.108530,0.519379,-0.509991,-0.001390,0.000000,-0.436000,0.000000,0.000000,0.000000,0.000000
0.70594,-0.004387,0.021935,-0.110819,0.523193,-0.509610,-0.001389,0.000000,-0.436000,0.000000,0.000000,0.000000,0.000000
0.70794,-0.004387,0.022316,-0.113108,0.527390,-0.509228,-0.001389,0.000000,-0.436000,0.000000,0.000000,0.000000,0.000000
0.70994,-0.004387,0.022316,-0.115396,0.531204,-0.508847,-0.001389,0.000000,-0.436000,0.000000,0.000000,0.000000,0.000000
0.71194,-0.004387,0.022697,-0.119974,0.535401,-0.507894,-0.000008,0.000000,-0.436000,0.000000,0.000000,0.000000,0.000000
0.71394,-0.004387,0.022697,-0.119974,0.541886,-0.507512,-0.000928,0.000000,-0.436000,0.000000,0.000000,0.000000,0.000000
0.71594,-0.004387,0.023079,-0.123789,0.546464,-0.506559,-0.000467,0.000000,-0.436000,0.000000,0.000000,0.000000,0.000000
0.71794,-0.004387,0.023079,-0.126078,0.550279,-0.505796,-0.000467,0.000000,-0.436000,0.000000,0.000000,0.000000,0.000000
0.71994,-0.004387,0.023460,-0.128366,0.554856,-0.504843,-0.000007,0.000000,-0.436000,0.000000,0.000000,0.000000,0.000000
0.72193,-0.004387,0.023460,-0.130655,0.559815,-0.503889,0.000453,0.000000,-0.436000,0.000000,0.000000,0.000000,0.000000
0.72393,-0.004387,0.023842,-0.133326,0.564012,-0.502745,0.000453,0.000000,-0.436000,0.000000,0.000000,0.000000,0.000000
0.72593,-0.004387,0.023842,-0.135996,0.568589,-0.501601,0.001372,0.000000,-0.436000,0.000000,0.000000,0.000000,0.000000
0.72793,-0.004387,0.023842,-0.138666,0.573548,-0.500457,0.001372,0.000000,-0.436000,0.000000,0.000000,0.000000,0.000000
0.72993,-0.004387,0.024223,-0.141336,0.578507,-0.499122,0.001830,0.000000,-0.436000,0.000000,0.000000,0.000000,0.000000
0.73193,-0.004387,0.024223,-0.147058,0.583467,-0.496832,0.003664,0.000000,-0.436000,0.000000,0.000000,0.000000,0.000000
0.73393,-0.004387,0.024605,-0.147058,0.590714,-0.495690,0.000913,0.000000,-0.436000,0.000000,0.000000,0.000000,0.000000
0.73593,-0.004387,0.024605,-0.150873,0.595675,-0.493401,0.001829,0.000000,-0.436000,0.000000,0.000000,0.000000,0.000000
0.73793,-0.004387,0.024605,-0.153925,0.600634,-0.491876,0.001828,0.000000,-0.436000,0.000000,0.000000,0.000000,0.000000
0.73993,-0.004387,0.024986,-0.156596,0.605974,-0.489779,0.001370,0.000000,-0.436000,0.000000,0.000000,0.000000,0.000000
0.74193,-0.004387,0.024986,-0.159648,0.611315,-0.487872,0.001370,0.000000,-0.436000,0.000000,0.000000,0.000000,0.000000
0.74393,-0.004387,0.024986,-0.162318,0.617037,-0.485965,0.001369,0.000000,-0.436000,0.000000,0.000000,0.000000,0.000000
0.74593,-0.004387,0.024986,-0.165370,0.622377,-0.483868,0.000913,0.000000,-0.436000,0.000000,0.000000,0.000000,0.000000
0.74793,-0.004387,0.024986,-0.168422,0.627718,-0.481580,0.000913,0.000000,-0.436000,0.000000,0.000000,0.000000,0.000000
0.74993,-0.004387,0.024986,-0.174525,0.633440,-0.478527,0.003646,0.000000,-0.436000,0.000000,0.000000,0.000000,0.000000
0.75193,-0.004387,0.024986,-0.174525,0.641832,-0.476813,-0.000454,0.000000,-0.436000,0.000000,0.000000,0.000000,0.000000
0.75393,-0.004387,0.024986,-0.179484,0.647554,-0.473952,0.000912,0.000000,-0.436000,0.000000,0.000000,0.000000,0.000000
0.75593,-0.004387,0.024986,-0.182536,0.653276,-0.471664,0.000912,0.000000,-0.436000,0.000000,0.000000,0.000000,0.000000
0.75793,-0.004387,0.025368,-0.185969,0.658999,-0.469185,0.001366,0.000000,-0.436000,0.000000,0.000000,0.000000,0.000000
0.75993,-0.004387,0.024986,-0.189021,0.664721,-0.466897,0.001366,0.000000,-0.436000,0.000000,0.000000,0.000000,0.000000
0.76193,-0.004387,0.025368,-0.192454,0.670825,-0.464417,0.001819,0.000000,-0.436000,0.000000,0.000000,0.000000,0.000000
0.76393,-0.004387,0.025368,-0.195888,0.676547,-0.461938,0.002271,0.000000,-0.436000,0.000000,0.000000,0.000000,0.000000
0.76593,-0.004768,0.025368,-0.198939,0.682651,-0.459268,0.002269,0.000000,-0.436000,0.000000,0.000000,0.000000,0.000000
0.76793,-0.004387,0.024986,-0.206187,0.688373,-0.455450,0.005885,0.000000,-0.436000,0.000000,0.000000,0.000000,0.000000
0.76993,-0.004387,0.025368,-0.206187,0.697909,-0.453549,0.001362,0.000000,-0.436000,0.000000,0.000000,0.000000,0.000000
0.77193,-0.004387,0.025368,-0.211146,0.704013,-0.450306,0.002716,0.000000,-0.436000,0.000000,0.000000,0.000000,0.000000
0.77393,-0.004387,0.025368,-0.214580,0.710116,-0.447827,0.003165,0.000000,-0.436000,0.000000,0.000000,0.000000,0.000000
0.77593,-0.004387,0.025368,-0.218013,0.716220,-0.445157,0.003163,0.000000,-0.436000,0.000000,0.000000,0.000000,0.000000
0.77793,-0.004387,0.025368,-0.221447,0.722324,-0.442488,0.003160,0.000000,-0.436000,0.000000,0.000000,0.000000,0.000000
0.77993,-0.004387,0.025368,-0.224880,0.728809,-0.440200,0.003158,0.000000,-0.436000,0.000000,0.000000,0.000000,0.000000
0.78193,-0.004387,0.025368,-0.228695,0.734913,-0.437530,0.003156,0.000000,-0.436000,0.000000,0.000000,0.000000,0.000000
0.78393,-0.004387,0.025368,-0.232128,0.741398,-0.435242,0.003153,0.000000,-0.436000,0.000000,0.000000,0.000000,0.000000
0.78593,-0.004387,0.025368,-0.235943,0.747501,-0.432954,0.003151,0.000000,-0.436000,0.000000,0.000000,0.000000,0.000000
0.78793,-0.004387,0.025368,-0.243191,0.753986,-0.429710,0.005390,0.000000,-0.436000,0.000000,0.000000,0.000000,0.000000
0.78993,-0.004387,0.025368,-0.243191,0.763142,-0.427997,0.001354,0.000000,-0.436000,0.000000,0.000000,0.000000,0.000000
0.79193,-0.004768,0.025368,-0.248531,0.770008,-0.425327,0.002248,0.000000,-0.436000,0.000000,0.000000,0.000000,0.000000
0.79393,-0.004768,0.025368,-0.252346,0.776112,-0.423421,0.002247,0.000000,-0.436000,0.000000,0.000000,0.000000,0.000000
0.79593,-0.004768,0.025368,-0.255779,0.782598,-0.421705,0.001799,0.000000,-0.436000,0.000000,0.000000,0.000000,0.000000
0.79793,-0.004768,0.025368,-0.259594,0.789083,-0.419989,0.001351,0.000000,-0.436000,0.000000,0.000000,0.000000,0.000000
0.79993,-0.004768,0.025368,-0.263409,0.795568,-0.418273,0.000903,0.000000,-0.436000,0.000000,0.000000,0.000000,0.000000
0.80193,-0.004768,0.025368,-0.267223,0.802052,-0.416748,0.000903,0.000000,-0.436000,0.000000,0.000000,0.000000,0.000000
0.80393,-0.004768,0.025368,-0.271038,0.808537,-0.415413,0.001349,0.000000,-0.436000,0.000000,0.000000,0.000000,0.000000
0.80593,-0.004768,0.025368,-0.274853,0.814641,-0.414078,0.000902,0.000000,-0.436000,0.000000,0.000000,0.000000,0.000000
0.80793,-0.004768,0.025368,-0.278667,0.821507,-0.413125,0.001348,0.000000,-0.436000,0.000000,0.000000,0.000000,0.000000
0.80993,-0.004768,0.025368,-0.285916,0.827611,-0.411599,0.002239,0.000000,-0.436000,0.000000,0.000000,0.000000,0.000000
0.81193,-0.004768,0.025368,-0.285916,0.836766,-0.411027,0.000901,0.000000,-0.436000,0.000000,0.000000,0.000000,0.000000
0.81393,-0.004387,0.025368,-0.292020,0.843251,-0.410074,0.001346,0.000000,-0.436000,0.000000,0.000000,0.000000,0.000000
0.81593,-0.004768,0.024986,-0.295453,0.849356,-0.409502,0.000900,0.000000,-0.436000,0.000000,0.000000,0.000000,0.000000
0.81793,-0.004768,0.024986,-0.299268,0.856222,-0.409121,0.000900,0.000000,-0.436000,0.000000,0.000000,0.000000,0.000000
0.81993,-0.004768,0.024986,-0.303082,0.862326,-0.408739,0.000900,0.000000,-0.436000,0.000000,0.000000,0.000000,0.000000
0.82193,-0.004768,0.024986,-0.306897,0.868811,-0.408358,0.000900,0.000000,-0.436000,0.000000,0.000000,0.000000,0.000000
0.82393,-0.004768,0.024605,-0.310712,0.874914,-0.408358,0.000900,0.000000,-0.436000,0.000000,0.000000,0.000000,0.000000
0.82593,-0.004768,0.024605,-0.314527,0.881399,-0.408358,0.000900,0.000000,-0.436000,0.000000,0.000000,0.000000,0.000000
0.82793,-0.004768,0.024605,-0.317960,0.887503,-0.408739,0.000900,0.000000,-0.436000,0.000000,0.000000,0.000000,0.000000
0.82993,-0.004768,0.024223,-0.325589,0.893606,-0.408930,0.000455,0.000000,-0.436000,0.000000,0.000000,0.000000,0.000000
0.83193,-0.004768,0.024223,-0.325589,0.903143,-0.409121,0.000900,0.000000,-0.436000,0.000000,0.000000,0.000000,0.000000
0.83392,-0.004768,0.023842,-0.331311,0.909247,-0.409502,0.000900,0.000000,-0.436000,0.000000,0.000000,0.000000,0.000000
0.83592,-0.004768,0.023842,-0.334744,0.915351,-0.409883,0.000900,0.000000,-0.436000,0.000000,0.000000,0.000000,0.000000
0.83792,-0.004768,0.023842,-0.338559,0.921454,-0.410074,0.000455,0.000000,-0.436000,0.000000,0.000000,0.000000,0.000000
0.83992,-0.004768,0.023460,-0.341992,0.927558,-0.410455,0.000455,0.000000,-0.436000,0.000000,0.000000,0.000000,0.000000
0.84192,-0.004768,0.023460,-0.345808,0.933661,-0.411027,0.000009,0.000000,-0.436000,0.000000,0.000000,0.000000,0.000000
0.84392,-0.004768,0.023079,-0.349623,0.939384,-0.411409,0.000009,0.000000,-0.436000,0.000000,0.000000,0.000000,0.000000
0.84592,-0.004768,0.022697,-0.353437,0.945106,-0.411981,-0.000437,0.000000,-0.436000,0.000000,0.000000,0.000000,0.000000
0.84792,-0.004387,0.022316,-0.357252,0.950828,-0.412553,-0.000883,0.000000,-0.436000,0.000000,0.000000,0.000000,0.000000
0.84992,-0.004387,0.022316,-0.364500,0.956550,-0.413315,-0.001775,0.000000,-0.436000,0.000000,0.000000,0.000000,0.000000
0.85192,-0.004768,0.021935,-0.364500,0.965323,-0.413506,-0.001329,0.000000,-0.436000,0.000000,0.000000,0.000000,0.000000
0.85392,-0.004768,0.021553,-0.370222,0.971046,-0.414268,-0.002222,0.000000,-0.436000,0.000000,0.000000,0.000000,0.000000
0.85592,-0.004768,0.021172,-0.373655,0.976006,-0.414650,-0.002222,0.000000,-0.436000,0.000000,0.000000,0.000000,0.000000
0.85792,-0.004768,0.020790,-0.377470,0.981346,-0.415222,-0.002669,0.000000,-0.436000,0.000000,0.000000,0.000000,0.000000
0.85992,-0.004768,0.020409,-0.380903,0.986305,-0.415793,-0.003116,0.000000,-0.436000,0.000000,0.000000,0.000000,0.000000
0.86192,-0.004768,0.020027,-0.384718,0.992027,-0.416365,-0.003563,0.000000,-0.436000,0.000000,0.000000,0.000000,0.000000
0.86392,-0.004768,0.019646,-0.388151,0.997368,-0.416937,-0.003117,0.000000,-0.436000,0.000000,0.000000,0.000000,0.000000
0.86592,-0.004387,0.019264,-0.391966,1.002327,-0.417509,-0.003564,0.000000,-0.436000,0.000000,0.000000,0.000000,0.000000
0.86792,-0.004387,0.018883,-0.395399,1.007668,-0.418081,-0.003118,0.000000,-0.436000,0.000000,0.000000,0.000000,0.000000
0.86992,-0.004387,0.018501,-0.398832,1.011864,-0.418463,-0.003118,0.000000,-0.436000,0.000000,0.000000,0.000000,0.000000
0.87192,-0.004387,0.018120,-0.406080,1.016823,-0.419226,-0.003119,0.000000,-0.436000,0.000000,0.000000,0.000000,0.000000
0.87392,-0.004387,0.017738,-0.406080,1.023689,-0.419798,-0.001779,0.000000,-0.436000,0.000000,0.000000,0.000000,0.000000
0.87592,-0.004387,0.016975,-0.411040,1.028648,-0.420371,-0.001332,0.000000,-0.436000,0.000000,0.000000,0.000000,0.000000
0.87792,-0.004387,0.016594,-0.414474,1.033608,-0.420752,-0.001332,0.000000,-0.436000,0.000000,0.000000,0.000000,0.000000
0.87992,-0.004387,0.016212,-0.418288,1.037805,-0.421324,-0.000885,0.000000,-0.436000,0.000000,0.000000,0.000000,0.000000
0.88192,-0.004387,0.015831,-0.421721,1.042001,-0.421705,0.000009,0.000000,-0.436000,0.000000,0.000000,0.000000,0.000000
0.88392,-0.004387,0.015068,-0.424773,1.046578,-0.422087,0.000009,0.000000,-0.436000,0.000000,0.000000,0.000000,0.000000
0.88592,-0.004387,0.014687,-0.428206,1.050393,-0.422468,0.000904,0.000000,-0.436000,0.000000,0.000000,0.000000,0.000000
0.88792,-0.004387,0.014305,-0.434310,1.054589,-0.423040,0.000457,0.000000,-0.436000,0.000000,0.000000,0.000000,0.000000
0.88992,-0.004387,0.013542,-0.434310,1.060311,-0.423231,0.000904,0.000000,-0.436000,0.000000,0.000000,0.000000,0.000000
0.89192,-0.004387,0.012779,-0.439269,1.064507,-0.423803,0.000457,0.000000,-0.436000,0.000000,0.000000,0.000000,0.000000
0.89392,-0.004387,0.012398,-0.442321,1.067941,-0.424184,0.000457,0.000000,-0.436000,0.000000,0.000000,0.000000,0.000000
0.89592,-0.004387,0.012016,-0.445373,1.071755,-0.424375,0.000009,0.000000,-0.436000,0.000000,0.000000,0.000000,0.000000
0.89792,-0.004387,0.011635,-0.448424,1.074807,-0.424566,-0.000438,0.000000,-0.436000,0.000000,0.000000,0.000000,0.000000
0.89992,-0.004387,0.010872,-0.451476,1.078240,-0.424756,-0.001782,0.000000,-0.436000,0.000000,0.000000,0.000000,0.000000
0.90192,-0.004387,0.010490,-0.454528,1.081674,-0.424946,-0.002229,0.000000,-0.436000,0.000000,0.000000,0.000000,0.000000
0.90392,-0.004387,0.010109,-0.457198,1.084725,-0.425137,-0.002677,0.000000,-0.436000,0.000000,0.000000,0.000000,0.000000
0.90592,-0.004387,0.009346,-0.460250,1.087777,-0.425518,-0.003573,0.000000,-0.436000,0.000000,0.000000,0.000000,0.000000
0.90792,-0.004387,0.008583,-0.462920,1.090829,-0.425708,-0.004022,0.000000,-0.436000,0.000000,0.000000,0.000000,0.000000
0.90992,-0.004387,0.008202,-0.468642,1.093499,-0.425898,-0.004470,0.000000,-0.436000,0.000000,0.000000,0.000000,0.000000
0.91192,-0.004387,0.008202,-0.468642,1.093499,-0.425898,-0.004470,0.000000,-0.436000,0.000000,0.000000,0.000000,0.000000
0.91392,-0.004387,0.007057,-0.473984,1.098459,-0.426088,-0.004918,0.000000,-0.436000,0.000000,0.000000,0.000000,0.000000
0.91592,-0.004387,0.006294,-0.473984,1.102655,-0.426088,-0.004918,0.000000,-0.436000,0.000000,0.000000,0.000000,0.000000
0.91792,-0.004387,0.005531,-0.477798,1.104563,-0.426088,-0.004918,0.000000,-0.436000,0.000000,0.000000,0.000000,0.000000
0.91992,-0.004387,0.005150,-0.480469,1.107233,-0.425897,-0.005366,0.000000,-0.436000,0.000000,0.000000,0.000000,0.000000
0.92192,-0.004768,0.004768,-0.482758,1.109140,-0.425897,-0.005366,0.000000,-0.436000,0.000000,0.000000,0.000000,0.000000
0.92392,-0.004768,0.004005,-0.485046,1.110666,-0.425706,-0.005813,0.000000,-0.436000,0.000000,0.000000,0.000000,0.000000
0.92592,-0.004768,0.003624,-0.487335,1.112574,-0.425514,-0.006261,0.000000,-0.436000,0.000000,0.000000,0.000000,0.000000
0.92792,-0.004768,0.002861,-0.490005,1.114862,-0.425133,-0.006260,0.000000,-0.436000,0.000000,0.000000,0.000000,0.000000
0.92992,-0.004768,0.002480,-0.492294,1.116007,-0.425131,-0.007155,0.000000,-0.436000,0.000000,0.000000,0.000000,0.000000
0.93192,-0.004768,0.001717,-0.496872,1.117151,-0.424748,-0.008050,0.000000,-0.436000,0.000000,0.000000,0.000000,0.000000
0.93392,-0.004768,0.000954,-0.496872,1.119440,-0.423981,-0.009839,0.000000,-0.436000,0.000000,0.000000,0.000000,0.000000
0.93592,-0.004768,0.000191,-0.499924,1.120966,-0.423787,-0.011181,0.000000,-0.436000,0.000000,0.000000,0.000000,0.000000
0.93792,-0.004768,-0.000191,-0.502213,1.121729,-0.423211,-0.012521,0.000000,-0.436000,0.000000,0.000000,0.000000,0.000000
0.93992,-0.004768,-0.000954,-0.504120,1.122110,-0.422823,-0.014310,0.000000,-0.436000,0.000000,0.000000,0.000000,0.000000
0.94192,-0.005150,-0.001335,-0.506409,1.122873,-0.422434,-0.016098,0.000000,-0.436000,0.000000,0.000000,0.000000,0.000000
0.94391,-0.005150,-0.002098,-0.508316,1.123255,-0.421852,-0.018332,0.000000,-0.436000,0.000000,0.000000,0.000000,0.000000
0.94591,-0.005150,-0.002861,-0.510223,1.123636,-0.421650,-0.020568,0.000000,-0.436000,0.000000,0.000000,0.000000,0.000000
0.94791,-0.005150,-0.003242,-0.512131,1.124018,-0.421065,-0.022800,0.000000,-0.436000,0.000000,0.000000,0.000000,0.000000
0.94991,-0.005150,-0.004005,-0.514038,1.124018,-0.420666,-0.025481,0.000000,-0.436000,0.000000,0.000000,0.000000,0.000000
0.95191,-0.005531,-0.004768,-0.515564,1.124018,-0.419884,-0.028158,0.000000,-0.436000,0.000000,0.000000,0.000000,0.000000
0.95391,-0.005531,-0.005150,-0.518997,1.124018,-0.419855,-0.031735,0.000000,-0.436000,0.000000,0.000000,0.000000,0.000000
0.95591,-0.005531,-0.006294,-0.518997,1.124018,-0.418688,-0.034406,0.000000,-0.436000,0.000000,0.000000,0.000000,0.000000
0.95791,-0.005531,-0.007057,-0.521286,1.123636,-0.418280,-0.037085,0.000000,-0.436000,0.000000,0.000000,0.000000,0.000000
0.95991,-0.005913,-0.007820,-0.522812,1.123255,-0.417490,-0.039758,0.000000,-0.436000,0.000000,0.000000,0.000000,0.000000
0.96191,-0.005913,-0.008202,-0.524338,1.122873,-0.416893,-0.041985,0.000000,-0.436000,0.000000,0.000000,0.000000,0.000000
0.96391,-0.005913,-0.008965,-0.525864,1.122492,-0.416296,-0.044211,0.000000,-0.436000,0.000000,0.000000,0.000000,0.000000
0.96591,-0.006294,-0.009727,-0.527390,1.122110,-0.415500,-0.046881,0.000000,-0.436000,0.000000,0.000000,0.000000,0.000000
0.96791,-0.006294,-0.010109,-0.528534,1.121347,-0.414888,-0.049999,0.000000,-0.436000,0.000000,0.000000,0.000000,0.000000
0.96991,-0.006676,-0.010872,-0.530060,1.120584,-0.414285,-0.052223,0.000000,-0.436000,0.000000,0.000000,0.000000,0.000000
0.97191,-0.006676,-0.011635,-0.531204,1.119822,-0.413484,-0.054889,0.000000,-0.436000,0.000000,0.000000,0.000000,0.000000
0.97391,-0.006676,-0.012016,-0.533875,1.118296,-0.413430,-0.058461,0.000000,-0.436000,0.000000,0.000000,0.000000,0.000000
0.97591,-0.007057,-0.013161,-0.533875,1.116770,-0.411847,-0.062004,0.000000,-0.436000,0.000000,0.000000,0.000000,0.000000
0.97791,-0.007057,-0.013924,-0.535401,1.115625,-0.411405,-0.065567,0.000000,-0.436000,0.000000,0.000000,0.000000,0.000000
0.97991,-0.007439,-0.014305,-0.536546,1.114481,-0.410959,-0.069130,0.000000,-0.436000,0.000000,0.000000,0.000000,0.000000
0.98191,-0.007439,-0.015068,-0.537690,1.112955,-0.410328,-0.072242,0.000000,-0.436000,0.000000,0.000000,0.000000,0.000000
0.98391,-0.007439,-0.015831,-0.538835,1.111048,-0.409694,-0.075353,0.000000,-0.436000,0.000000,0.000000,0.000000,0.000000
0.98591,-0.007820,-0.016212,-0.539979,1.109903,-0.409239,-0.078914,0.000000,-0.436000,0.000000,0.000000,0.000000,0.000000
0.98791,-0.007820,-0.016975,-0.540742,1.108759,-0.408600,-0.082023,0.000000,-0.436000,0.000000,0.000000,0.000000,0.000000
0.98991,-0.008202,-0.017738,-0.541886,1.106852,-0.407958,-0.085131,0.000000,-0.436000,0.000000,0.000000,0.000000,0.000000
0.99191,-0.008202,-0.018120,-0.542649,1.104563,-0.407293,-0.089131,0.000000,-0.436000,0.000000,0.000000,0.000000,0.000000
0.99391,-0.008583,-0.018883,-0.544175,1.103037,-0.407385,-0.093153,0.000000,-0.436000,0.000000,0.000000,0.000000,0.000000
0.99591,-0.008583,-0.020027,-0.544175,1.099985,-0.405770,-0.096677,0.000000,-0.436000,0.000000,0.000000,0.000000,0.000000
0.99791,-0.008583,-0.020409,-0.544938,1.097696,-0.405497,-0.099794,0.000000,-0.436000,0.000000,0.000000,0.000000,0.000000
0.99991,-0.008965,-0.021172,-0.545701,1.096170,-0.404840,-0.102898,0.000000,-0.436000,0.000000,0.000000,0.000000,0.000000
1.00191,-0.008965,-0.021935,-0.546082,1.093882,-0.404562,-0.106015,0.000000,-0.436000,0.000000,0.000000,0.000000,0.000000
1.00391,-0.009346,-0.022316,-0.546845,1.091592,-0.403901,-0.109118,0.000000,-0.436000,0.000000,0.000000,0.000000,0.000000
1.00591,-0.009346,-0.023079,-0.547227,1.089303,-0.403441,-0.111781,0.000000,-0.436000,0.000000,0.000000,0.000000,0.000000
1.00791,-0.009346,-0.023460,-0.547608,1.086633,-0.402978,-0.114444,0.000000,-0.436000,0.000000,0.000000,0.000000,0.000000
1.00991,-0.009727,-0.024223,-0.548371,1.084344,-0.402867,-0.118013,0.000000,-0.436000,0.000000,0.000000,0.000000,0.000000
1.01191,-0.009727,-0.024986,-0.548371,1.080529,-0.401844,-0.120208,0.000000,-0.436000,0.000000,0.000000,0.000000,0.000000
1.01391,-0.010109,-0.025368,-0.548753,1.077859,-0.401756,-0.122885,0.000000,-0.436000,0.000000,0.000000,0.000000,0.000000
1.01591,-0.010109,-0.025749,-0.549134,1.075189,-0.401316,-0.124654,0.000000,-0.436000,0.000000,0.000000,0.000000,0.000000
1.01791,-0.010109,-0.026512,-0.549134,1.072518,-0.400875,-0.126424,0.000000,-0.436000,0.000000,0.000000,0.000000,0.000000
1.01991,-0.010490,-0.026894,-0.549516,1.069848,-0.400639,-0.127754,0.000000,-0.436000,0.000000,0.000000,0.000000,0.000000
1.02191,-0.010490,-0.027275,-0.549516,1.066415,-0.400403,-0.129085,0.000000,-0.436000,0.000000,0.000000,0.000000,0.000000
1.02391,-0.010872,-0.028038,-0.549516,1.063745,-0.400166,-0.130415,0.000000,-0.436000,0.000000,0.000000,0.000000,0.000000
1.02591,-0.010872,-0.028419,-0.549897,1.060311,-0.399754,-0.131292,0.000000,-0.436000,0.000000,0.000000,0.000000,0.000000
1.02791,-0.011253,-0.028801,-0.549897,1.058022,-0.399516,-0.132622,0.000000,-0.436000,0.000000,0.000000,0.000000,0.000000
1.02991,-0.011253,-0.029945,-0.549897,1.053063,-0.399104,-0.133498,0.000000,-0.436000,0.000000,0.000000,0.000000,0.000000
1.03191,-0.011635,-0.030327,-0.549897,1.049630,-0.398691,-0.134374,0.000000,-0.436000,0.000000,0.000000,0.000000,0.000000
1.03391,-0.011635,-0.031090,-0.549516,1.046578,-0.398485,-0.134812,0.000000,-0.436000,0.000000,0.000000,0.000000,0.000000
1.03591,-0.011635,-0.031472,-0.549516,1.043527,-0.398279,-0.135250,0.000000,-0.436000,0.000000,0.000000,0.000000,0.000000
1.03791,-0.012016,-0.032235,-0.549516,1.040093,-0.398072,-0.135688,0.000000,-0.436000,0.000000,0.000000,0.000000,0.000000
1.03991,-0.012016,-0.032617,-0.549134,1.036660,-0.397866,-0.136125,0.000000,-0.436000,0.000000,0.000000,0.000000,0.000000
1.04191,-0.012398,-0.033380,-0.548753,1.033608,-0.398040,-0.136579,0.000000,-0.436000,0.000000,0.000000,0.000000,0.000000
1.04391,-0.012398,-0.034142,-0.548753,1.029793,-0.397833,-0.137017,0.000000,-0.436000,0.000000,0.000000,0.000000,0.000000
1.04591,-0.012779,-0.034524,-0.548371,1.026741,-0.397800,-0.137909,0.000000,-0.436000,0.000000,0.000000,0.000000,0.000000
1.04791,-0.012779,-0.035287,-0.547990,1.022926,-0.397593,-0.138347,0.000000,-0.436000,0.000000,0.000000,0.000000,0.000000
1.04991,-0.013161,-0.036050,-0.546845,1.019875,-0.397733,-0.139694,0.000000,-0.436000,0.000000,0.000000,0.000000,0.000000
1.05191,-0.013542,-0.036813,-0.546845,1.014534,-0.397526,-0.140132,0.000000,-0.436000,0.000000,0.000000,0.000000,0.000000
1.05391,-0.013924,-0.037576,-0.546082,1.010719,-0.397666,-0.141478,0.000000,-0.436000,0.000000,0.000000,0.000000,0.000000
1.05590,-0.013924,-0.037957,-0.545701,1.007668,-0.397632,-0.142370,0.000000,-0.436000,0.000000,0.000000,0.000000,0.000000
1.05790,-0.014305,-0.038720,-0.545320,1.003471,-0.397805,-0.142825,0.000000,-0.436000,0.000000,0.000000,0.000000,0.000000
1.05990,-0.014305,-0.039483,-0.544557,0.999657,-0.397770,-0.143717,0.000000,-0.436000,0.000000,0.000000,0.000000,0.000000
1.06190,-0.014687,-0.039865,-0.544175,0.996605,-0.397770,-0.143717,0.000000,-0.436000,0.000000,0.000000,0.000000,0.000000
1.06390,-0.015068,-0.040246,-0.543412,0.992790,-0.397943,-0.144172,0.000000,-0.436000,0.000000,0.000000,0.000000,0.000000
1.06590,-0.015068,-0.041009,-0.542649,0.989357,-0.397943,-0.144172,0.000000,-0.436000,0.000000,0.000000,0.000000,0.000000
1.06790,-0.015450,-0.041390,-0.541886,0.985161,-0.398151,-0.143734,0.000000,-0.436000,0.000000,0.000000,0.000000,0.000000
1.06990,-0.015450,-0.042153,-0.541123,0.982109,-0.397978,-0.143280,0.000000,-0.436000,0.000000,0.000000,0.000000,0.000000
1.07190,-0.015831,-0.042535,-0.539979,0.978294,-0.397805,-0.142825,0.000000,-0.436000,0.000000,0.000000,0.000000,0.000000
1.07390,-0.016212,-0.043679,-0.539979,0.972572,-0.398012,-0.142387,0.000000,-0.436000,0.000000,0.000000,0.000000,0.000000
1.07590,-0.016212,-0.044061,-0.538453,0.968758,-0.397873,-0.141041,0.000000,-0.436000,0.000000,0.000000,0.000000,0.000000
1.07790,-0.016212,-0.044824,-0.537690,0.965323,-0.398114,-0.139710,0.000000,-0.436000,0.000000,0.000000,0.000000,0.000000
1.07990,-0.016594,-0.045205,-0.536927,0.961127,-0.398147,-0.138818,0.000000,-0.436000,0.000000,0.000000,0.000000,0.000000
1.08190,-0.016594,-0.045587,-0.536164,0.958076,-0.398387,-0.137488,0.000000,-0.436000,0.000000,0.000000,0.000000,0.000000
1.08390,-0.016975,-0.046350,-0.535020,0.954261,-0.398453,-0.135704,0.000000,-0.436000,0.000000,0.000000,0.000000,0.000000
1.08590,-0.016975,-0.046731,-0.533875,0.950446,-0.398517,-0.133920,0.000000,-0.436000,0.000000,0.000000,0.000000,0.000000
1.08790,-0.017357,-0.047494,-0.533113,0.947013,-0.398962,-0.132152,0.000000,-0.436000,0.000000,0.000000,0.000000,0.000000
1.08990,-0.017357,-0.047875,-0.531968,0.943198,-0.399230,-0.129930,0.000000,-0.436000,0.000000,0.000000,0.000000,0.000000
1.09190,-0.017357,-0.048257,-0.530823,0.940146,-0.399703,-0.127270,0.000000,-0.436000,0.000000,0.000000,0.000000,0.000000
1.09390,-0.017738,-0.049020,-0.528534,0.935950,-0.399618,-0.124141,0.000000,-0.436000,0.000000,0.000000,0.000000,0.000000
1.09590,-0.017738,-0.049783,-0.528534,0.930991,-0.400849,-0.121510,0.000000,-0.436000,0.000000,0.000000,0.000000,0.000000
1.09790,-0.017738,-0.050164,-0.526627,0.927558,-0.401140,-0.118395,0.000000,-0.436000,0.000000,0.000000,0.000000,0.000000
1.09990,-0.018120,-0.050546,-0.525482,0.923743,-0.401604,-0.115734,0.000000,-0.436000,0.000000,0.000000,0.000000,0.000000
1.10190,-0.018120,-0.050927,-0.524338,0.921073,-0.402448,-0.113086,0.000000,-0.436000,0.000000,0.000000,0.000000,0.000000
1.10390,-0.018120,-0.051690,-0.522812,0.917258,-0.402909,-0.110423,0.000000,-0.436000,0.000000,0.000000,0.000000,0.000000
1.10590,-0.018501,-0.052072,-0.521667,0.913825,-0.403723,-0.108665,0.000000,-0.436000,0.000000,0.000000,0.000000,0.000000
1.10790,-0.018501,-0.052453,-0.520142,0.910392,-0.404562,-0.106015,0.000000,-0.436000,0.000000,0.000000,0.000000,0.000000
1.10990,-0.018883,-0.052835,-0.518997,0.907722,-0.405577,-0.103815,0.000000,-0.436000,0.000000,0.000000,0.000000,0.000000
1.11190,-0.018883,-0.053216,-0.517471,0.904287,-0.406591,-0.101615,0.000000,-0.436000,0.000000,0.000000,0.000000,0.000000
1.11390,-0.018883,-0.053597,-0.516327,0.901236,-0.407604,-0.099413,0.000000,-0.436000,0.000000,0.000000,0.000000,0.000000
1.11590,-0.019264,-0.053979,-0.513275,0.898184,-0.409175,-0.097675,0.000000,-0.436000,0.000000,0.000000,0.000000,0.000000
1.11790,-0.019264,-0.054360,-0.513275,0.893606,-0.410992,-0.093707,0.000000,-0.436000,0.000000,0.000000,0.000000,0.000000
1.11990,-0.019646,-0.054742,-0.511368,0.890936,-0.412762,-0.091523,0.000000,-0.436000,0.000000,0.000000,0.000000,0.000000
1.12190,-0.019646,-0.055123,-0.509842,0.887884,-0.414330,-0.089779,0.000000,-0.436000,0.000000,0.000000,0.000000,0.000000
1.12390,-0.020027,-0.055505,-0.508698,0.885214,-0.416299,-0.087148,0.000000,-0.436000,0.000000,0.000000,0.000000,0.000000
1.12590,-0.020027,-0.055886,-0.507172,0.883307,-0.418065,-0.084958,0.000000,-0.436000,0.000000,0.000000,0.000000,0.000000
1.12790,-0.020409,-0.056268,-0.506027,0.880255,-0.419850,-0.081870,0.000000,-0.436000,0.000000,0.000000,0.000000,0.000000
1.12990,-0.020409,-0.056268,-0.504501,0.877966,-0.422014,-0.078788,0.000000,-0.436000,0.000000,0.000000,0.000000,0.000000
1.13190,-0.020409,-0.056649,-0.503357,0.875296,-0.424357,-0.076155,0.000000,-0.436000,0.000000,0.000000,0.000000,0.000000
1.13390,-0.020790,-0.057031,-0.501831,0.873007,-0.426516,-0.073066,0.000000,-0.436000,0.000000,0.000000,0.000000,0.000000
1.13590,-0.020790,-0.057412,-0.500687,0.871099,-0.428855,-0.070426,0.000000,-0.436000,0.000000,0.000000,0.000000,0.000000
1.13790,-0.021172,-0.057794,-0.497635,0.868429,-0.431938,-0.068697,0.000000,-0.436000,0.000000,0.000000,0.000000,0.000000
1.13990,-0.021172,-0.058175,-0.497635,0.865759,-0.435115,-0.061568,0.000000,-0.436000,0.000000,0.000000,0.000000,0.000000
1.14190,-0.021553,-0.058557,-0.495346,0.863089,-0.438194,-0.059829,0.000000,-0.436000,0.000000,0.000000,0.000000,0.000000
1.14390,-0.021553,-0.058938,-0.493820,0.861181,-0.441102,-0.056730,0.000000,-0.436000,0.000000,0.000000,0.000000,0.000000
1.14590,-0.021935,-0.058938,-0.492294,0.859655,-0.444193,-0.054082,0.000000,-0.436000,0.000000,0.000000,0.000000,0.000000
1.14790,-0.021935,-0.059319,-0.490768,0.857748,-0.447282,-0.051428,0.000000,-0.436000,0.000000,0.000000,0.000000,0.000000
1.14990,-0.022316,-0.059701,-0.489624,0.855459,-0.450356,-0.049672,0.000000,-0.436000,0.000000,0.000000,0.000000,0.000000
1.15190,-0.022316,-0.059701,-0.488098,0.853933,-0.453823,-0.047015,0.000000,-0.436000,0.000000,0.000000,0.000000,0.000000
1.15390,-0.022697,-0.060082,-0.486191,0.852407,-0.457277,-0.045257,0.000000,-0.436000,0.000000,0.000000,0.000000,0.000000
1.15590,-0.023079,-0.060464,-0.484665,0.850500,-0.460927,-0.043045,0.000000,-0.436000,0.000000,0.000000,0.000000,0.000000
1.15790,-0.023079,-0.060464,-0.481613,0.848593,-0.466243,-0.044938,0.000000,-0.436000,0.000000,0.000000,0.000000,0.000000
1.15990,-0.023460,-0.060845,-0.481613,0.847067,-0.469765,-0.036808,0.000000,-0.436000,0.000000,0.000000,0.000000,0.000000
1.16190,-0.023842,-0.061227,-0.478943,0.845541,-0.474536,-0.036412,0.000000,-0.436000,0.000000,0.000000,0.000000,0.000000
1.16390,-0.024223,-0.061227,-0.477417,0.843633,-0.478748,-0.034640,0.000000,-0.436000,0.000000,0.000000,0.000000,0.000000
1.16589,-0.024605,-0.061608,-0.475891,0.842488,-0.482960,-0.032862,0.000000,-0.436000,0.000000,0.000000,0.000000,0.000000
1.16789,-0.024605,-0.061608,-0.474365,0.841344,-0.487364,-0.030626,0.000000,-0.436000,0.000000,0.000000,0.000000,0.000000
1.16989,-0.024986,-0.061990,-0.472839,0.840199,-0.491761,-0.029299,0.000000,-0.436000,0.000000,0.000000,0.000000,0.000000
1.17189,-0.025368,-0.061990,-0.470932,0.839055,-0.496351,-0.027511,0.000000,-0.436000,0.000000,0.000000,0.000000,0.000000
1.17389,-0.025368,-0.062371,-0.467879,0.837529,-0.502998,-0.030792,0.000000,-0.436000,0.000000,0.000000,0.000000,0.000000
1.17589,-0.025749,-0.062371,-0.467879,0.836003,-0.507071,-0.021172,0.000000,-0.436000,0.000000,0.000000,0.000000,0.000000
1.17789,-0.026131,-0.062371,-0.465590,0.835622,-0.512785,-0.022137,0.000000,-0.436000,0.000000,0.000000,0.000000,0.000000
1.17989,-0.026131,-0.062753,-0.463683,0.834859,-0.517753,-0.020329,0.000000,-0.436000,0.000000,0.000000,0.000000,0.000000
1.18189,-0.026512,-0.062753,-0.462157,0.834096,-0.522716,-0.019441,0.000000,-0.436000,0.000000,0.000000,0.000000,0.000000
1.18389,-0.026894,-0.062753,-0.460250,0.833333,-0.527490,-0.018084,0.000000,-0.436000,0.000000,0.000000,0.000000,0.000000
1.18589,-0.026894,-0.063134,-0.458343,0.832570,-0.532645,-0.016726,0.000000,-0.436000,0.000000,0.000000,0.000000,0.000000
1.18789,-0.027275,-0.063134,-0.456817,0.831807,-0.537607,-0.015825,0.000000,-0.436000,0.000000,0.000000,0.000000,0.000000
1.18989,-0.027275,-0.063134,-0.454909,0.831044,-0.542761,-0.014457,0.000000,-0.436000,0.000000,0.000000,0.000000,0.000000
1.19189,-0.027657,-0.063516,-0.453002,0.830663,-0.547911,-0.014017,0.000000,-0.436000,0.000000,0.000000,0.000000,0.000000
1.19389,-0.027657,-0.063516,-0.451095,0.829900,-0.553064,-0.012641,0.000000,-0.436000,0.000000,0.000000,0.000000,0.000000
1.19589,-0.028038,-0.063516,-0.447280,0.829518,-0.560666,-0.018302,0.000000,-0.436000,0.000000,0.000000,0.000000,0.000000
1.19789,-0.028038,-0.063516,-0.447280,0.829137,-0.564898,-0.008001,0.000000,-0.436000,0.000000,0.000000,0.000000,0.000000
1.19989,-0.028038,-0.063516,-0.444610,0.829137,-0.570995,-0.009901,0.000000,-0.436000,0.000000,0.000000,0.000000,0.000000
1.20189,-0.028419,-0.063897,-0.442702,0.828755,-0.576144,-0.009448,0.000000,-0.436000,0.000000,0.000000,0.000000,0.000000
1.20389,-0.028419,-0.063897,-0.440795,0.828374,-0.581293,-0.008994,0.000000,-0.436000,0.000000,0.000000,0.000000,0.000000
1.20589,-0.028419,-0.063897,-0.438888,0.828374,-0.586442,-0.008537,0.000000,-0.436000,0.000000,0.000000,0.000000,0.000000
1.20789,-0.028419,-0.063897,-0.436980,0.828374,-0.591402,-0.007606,0.000000,-0.436000,0.000000,0.000000,0.000000,0.000000
1.20989,-0.028801,-0.063897,-0.433166,0.828374,-0.599012,-0.013329,0.000000,-0.436000,0.000000,0.000000,0.000000,0.000000
1.21189,-0.028801,-0.063897,-0.433166,0.828374,-0.602848,-0.003827,0.000000,-0.436000,0.000000,0.000000,0.000000,0.000000
1.21389,-0.028801,-0.064279,-0.430114,0.828374,-0.608945,-0.006697,0.000000,-0.436000,0.000000,0.000000,0.000000,0.000000
1.21589,-0.028801,-0.064279,-0.428206,0.828374,-0.613902,-0.006709,0.000000,-0.436000,0.000000,0.000000,0.000000,0.000000
1.21789,-0.028801,-0.064279,-0.425918,0.828374,-0.618669,-0.006241,0.000000,-0.436000,0.000000,0.000000,0.000000,0.000000
1.21989,-0.028801,-0.064279,-0.423629,0.828755,-0.623626,-0.006252,0.000000,-0.436000,0.000000,0.000000,0.000000,0.000000
1.22189,-0.028801,-0.064279,-0.421340,0.828755,-0.628393,-0.005781,0.000000,-0.436000,0.000000,0.000000,0.000000,0.000000
1.22389,-0.028801,-0.064279,-0.419051,0.828755,-0.633350,-0.005791,0.000000,-0.436000,0.000000,0.000000,0.000000,0.000000
1.22589,-0.028801,-0.064660,-0.416762,0.829137,-0.638117,-0.005318,0.000000,-0.436000,0.000000,0.000000,0.000000,0.000000
1.22789,-0.028801,-0.064279,-0.414855,0.829137,-0.642693,-0.005327,0.000000,-0.436000,0.000000,0.000000,0.000000,0.000000
1.22989,-0.028801,-0.064660,-0.412566,0.829137,-0.647268,-0.005335,0.000000,-0.436000,0.000000,0.000000,0.000000,0.000000
1.23189,-0.028801,-0.064660,-0.407989,0.829518,-0.653740,-0.010202,0.000000,-0.436000,0.000000,0.000000,0.000000,0.000000
1.23389,-0.028801,-0.064660,-0.407989,0.829900,-0.656995,-0.001951,0.000000,-0.436000,0.000000,0.000000,0.000000,0.000000
1.23589,-0.028801,-0.064660,-0.404554,0.829900,-0.662332,-0.003902,0.000000,-0.436000,0.000000,0.000000,0.000000,0.000000
1.23789,-0.028801,-0.064660,-0.401884,0.830281,-0.666336,-0.003420,0.000000,-0.436000,0.000000,0.000000,0.000000,0.000000
1.23989,-0.028801,-0.064660,-0.399595,0.830663,-0.670340,-0.002936,0.000000,-0.436000,0.000000,0.000000,0.000000,0.000000
1.24189,-0.028801,-0.064660,-0.397306,0.830663,-0.674344,-0.002451,0.000000,-0.436000,0.000000,0.000000,0.000000,0.000000
1.24389,-0.028801,-0.064660,-0.395018,0.831044,-0.678157,-0.002454,0.000000,-0.436000,0.000000,0.000000,0.000000,0.000000
1.24589,-0.028801,-0.064660,-0.392347,0.831426,-0.681779,-0.001966,0.000000,-0.436000,0.000000,0.000000,0.000000,0.000000
1.24789,-0.028801,-0.064660,-0.387388,0.831807,-0.686921,-0.006396,0.000000,-0.436000,0.000000,0.000000,0.000000,0.000000
1.24989,-0.028419,-0.064660,-0.387388,0.832189,-0.689405,-0.000002,0.000000,-0.436000,0.000000,0.000000,0.000000,0.000000
1.25189,-0.028419,-0.064660,-0.383192,0.832570,-0.693599,-0.001975,0.000000,-0.436000,0.000000,0.000000,0.000000,0.000000
1.25389,-0.028419,-0.064660,-0.380903,0.832952,-0.696839,-0.002471,0.000000,-0.436000,0.000000,0.000000,0.000000,0.000000
1.25589,-0.028419,-0.064660,-0.378614,0.833333,-0.699890,-0.002474,0.000000,-0.436000,0.000000,0.000000,0.000000,0.000000
1.25789,-0.028419,-0.064660,-0.375944,0.833714,-0.702940,-0.002477,0.000000,-0.436000,0.000000,0.000000,0.000000,0.000000
1.25989,-0.028419,-0.064660,-0.373274,0.834096,-0.705609,-0.002479,0.000000,-0.436000,0.000000,0.000000,0.000000,0.000000
1.26189,-0.028419,-0.064660,-0.370604,0.834477,-0.708278,-0.002482,0.000000,-0.436000,0.000000,0.000000,0.000000,0.000000
1.26389,-0.028419,-0.064660,-0.367933,0.834859,-0.710947,-0.002485,0.000000,-0.436000,0.000000,0.000000,0.000000,0.000000
1.26589,-0.028419,-0.064660,-0.365263,0.835240,-0.713616,-0.002487,0.000000,-0.436000,0.000000,0.000000,0.000000,0.000000
1.26789,-0.028419,-0.064660,-0.359922,0.835240,-0.717044,-0.005480,0.000000,-0.436000,0.000000,0.000000,0.000000,0.000000
1.26989,-0.028419,-0.064660,-0.359922,0.836003,-0.718764,-0.000998,0.000000,-0.436000,0.000000,0.000000,0.000000,0.000000
1.27189,-0.028419,-0.064660,-0.356108,0.836385,-0.721432,-0.002995,0.000000,-0.436000,0.000000,0.000000,0.000000,0.000000
1.27389,-0.028419,-0.064660,-0.353056,0.836766,-0.723339,-0.002997,0.000000,-0.436000,0.000000,0.000000,0.000000,0.000000
1.27588,-0.028419,-0.064660,-0.350386,0.837148,-0.725245,-0.002999,0.000000,-0.436000,0.000000,0.000000,0.000000,0.000000
1.27788,-0.028419,-0.064660,-0.347715,0.837529,-0.727151,-0.003002,0.000000,-0.436000,0.000000,0.000000,0.000000,0.000000
1.27988,-0.028419,-0.064660,-0.345045,0.837911,-0.728676,-0.003004,0.000000,-0.436000,0.000000,0.000000,0.000000,0.000000
1.28188,-0.028419,-0.064279,-0.342374,0.838292,-0.730202,-0.003006,0.000000,-0.436000,0.000000,0.000000,0.000000,0.000000
1.28388,-0.028419,-0.064279,-0.339322,0.839055,-0.731727,-0.003008,0.000000,-0.436000,0.000000,0.000000,0.000000,0.000000
1.28588,-0.028419,-0.064279,-0.336652,0.839437,-0.733061,-0.002508,0.000000,-0.436000,0.000000,0.000000,0.000000,0.000000
1.28788,-0.028419,-0.064279,-0.333600,0.839818,-0.734587,-0.002510,0.000000,-0.436000,0.000000,0.000000,0.000000,0.000000
1.28988,-0.028419,-0.063897,-0.330548,0.840581,-0.735540,-0.002009,0.000000,-0.436000,0.000000,0.000000,0.000000,0.000000
1.29188,-0.028419,-0.063897,-0.324826,0.840962,-0.737064,-0.003015,0.000000,-0.436000,0.000000,0.000000,0.000000,0.000000
1.29388,-0.028419,-0.063897,-0.324826,0.841344,-0.738019,-0.000504,0.000000,-0.436000,0.000000,0.000000,0.000000,0.000000
1.29588,-0.028419,-0.063516,-0.320630,0.841725,-0.738972,-0.001007,0.000000,-0.436000,0.000000,0.000000,0.000000,0.000000
1.29788,-0.028419,-0.063516,-0.317578,0.842107,-0.739734,-0.001007,0.000000,-0.436000,0.000000,0.000000,0.000000,0.000000
1.29988,-0.028419,-0.063516,-0.314908,0.842488,-0.740688,-0.000504,0.000000,-0.436000,0.000000,0.000000,0.000000,0.000000
1.30188,-0.028419,-0.063134,-0.311856,0.842870,-0.741069,-0.000504,0.000000,-0.436000,0.000000,0.000000,0.000000,0.000000
1.30388,-0.028419,-0.063134,-0.308805,0.843251,-0.741832,-0.000505,0.000000,-0.436000,0.000000,0.000000,0.000000,0.000000
1.30588,-0.028419,-0.062753,-0.305753,0.843633,-0.742213,-0.000505,0.000000,-0.436000,0.000000,0.000000,0.000000,0.000000
1.30788,-0.028419,-0.062753,-0.302701,0.844015,-0.742594,-0.000505,0.000000,-0.436000,0.000000,0.000000,0.000000,0.000000
1.30988,-0.028419,-0.062371,-0.299649,0.844778,-0.743166,-0.001009,0.000000,-0.436000,0.000000,0.000000,0.000000,0.000000
1.31188,-0.028419,-0.062371,-0.296597,0.845160,-0.743547,-0.001009,0.000000,-0.436000,0.000000,0.000000,0.000000,0.000000
1.31388,-0.028419,-0.062371,-0.290494,0.845541,-0.744119,-0.001513,0.000000,-0.436000,0.000000,0.000000,0.000000,0.000000
1.31588,-0.028419,-0.061990,-0.290494,0.846304,-0.744310,-0.001009,0.000000,-0.436000,0.000000,0.000000,0.000000,0.000000
1.31788,-0.028419,-0.061608,-0.285916,0.846304,-0.744691,-0.001009,0.000000,-0.436000,0.000000,0.000000,0.000000,0.000000
1.31988,-0.028419,-0.061608,-0.282483,0.846685,-0.744691,-0.001009,0.000000,-0.436000,0.000000,0.000000,0.000000,0.000000
1.32188,-0.028419,-0.061227,-0.279430,0.847067,-0.745072,-0.001009,0.000000,-0.436000,0.000000,0.000000,0.000000,0.000000
1.32388,-0.028419,-0.061227,-0.276379,0.847067,-0.745072,-0.001009,0.000000,-0.436000,0.000000,0.000000,0.000000,0.000000
1.32588,-0.028419,-0.060845,-0.272945,0.847448,-0.745072,-0.001009,0.000000,-0.436000,0.000000,0.000000,0.000000,0.000000
1.32788,-0.028419,-0.060464,-0.269894,0.847448,-0.745072,-0.000001,0.000000,-0.436000,0.000000,0.000000,0.000000,0.000000
1.32988,-0.028419,-0.060464,-0.263409,0.847830,-0.745072,-0.000001,0.000000,-0.436000,0.000000,0.000000,0.000000,0.000000
1.33188,-0.028419,-0.060082,-0.263409,0.847830,-0.745072,-0.000001,0.000000,-0.436000,0.000000,0.000000,0.000000,0.000000
1.33388,-0.028419,-0.059701,-0.258450,0.848211,-0.744882,0.000503,0.000000,-0.436000,0.000000,0.000000,0.000000,0.000000
1.33588,-0.028419,-0.059319,-0.255398,0.848211,-0.744882,0.000503,0.000000,-0.436000,0.000000,0.000000,0.000000,0.000000
1.33788,-0.028038,-0.058938,-0.251965,0.848211,-0.744691,0.001007,0.000000,-0.436000,0.000000,0.000000,0.000000,0.000000
1.33988,-0.028419,-0.058938,-0.248913,0.848211,-0.744691,0.001007,0.000000,-0.436000,0.000000,0.000000,0.000000,0.000000
1.34188,-0.028419,-0.058557,-0.245480,0.848593,-0.744691,0.001007,0.000000,-0.436000,0.000000,0.000000,0.000000,0.000000
1.34388,-0.028038,-0.058175,-0.242046,0.848593,-0.744691,0.001007,0.000000,-0.436000,0.000000,0.000000,0.000000,0.000000
1.34588,-0.028038,-0.057794,-0.238613,0.848593,-0.744691,0.001007,0.000000,-0.436000,0.000000,0.000000,0.000000,0.000000
1.34788,-0.028038,-0.057794,-0.235561,0.848593,-0.744691,0.001007,0.000000,-0.436000,0.000000,0.000000,0.000000,0.000000
1.34988,-0.028038,-0.057412,-0.232128,0.848593,-0.744691,0.001007,0.000000,-0.436000,0.000000,0.000000,0.000000,0.000000
1.35188,-0.028038,-0.057031,-0.225262,0.848593,-0.744691,0.001007,0.000000,-0.436000,0.000000,0.000000,0.000000,0.000000
1.35388,-0.028038,-0.056649,-0.225262,0.848593,-0.744691,0.001007,0.000000,-0.436000,0.000000,0.000000,0.000000,0.000000
1.35588,-0.028038,-0.056268,-0.220303,0.848593,-0.744500,0.001510,0.000000,-0.436000,0.000000,0.000000,0.000000,0.000000
1.35788,-0.028038,-0.055886,-0.216868,0.848593,-0.744500,0.001510,0.000000,-0.436000,0.000000,0.000000,0.000000,0.000000
1.35988,-0.028038,-0.055505,-0.213435,0.848593,-0.744310,0.001006,0.000000,-0.436000,0.000000,0.000000,0.000000,0.000000
1.36188,-0.028038,-0.055505,-0.210002,0.848211,-0.744119,0.001510,0.000000,-0.436000,0.000000,0.000000,0.000000,0.000000
1.36388,-0.028038,-0.055123,-0.206569,0.848211,-0.744119,0.001510,0.000000,-0.436000,0.000000,0.000000,0.000000,0.000000
1.36588,-0.028038,-0.054742,-0.199702,0.848211,-0.743928,0.002014,0.000000,-0.436000,0.000000,0.000000,0.000000,0.000000
1.36788,-0.028038,-0.054360,-0.199702,0.848211,-0.743738,0.001510,0.000000,-0.436000,0.000000,0.000000,0.000000,0.000000
1.36988,-0.028038,-0.053979,-0.194362,0.847830,-0.743165,0.002013,0.000000,-0.436000,0.000000,0.000000,0.000000,0.000000
1.37188,-0.028038,-0.053979,-0.190928,0.847830,-0.742784,0.002013,0.000000,-0.436000,0.000000,0.000000,0.000000,0.000000
1.37388,-0.028038,-0.053597,-0.187495,0.847830,-0.742403,0.002013,0.000000,-0.436000,0.000000,0.000000,0.000000,0.000000
1.37588,-0.028038,-0.053216,-0.184062,0.847830,-0.741831,0.001509,0.000000,-0.436000,0.000000,0.000000,0.000000,0.000000
1.37788,-0.027657,-0.052835,-0.180247,0.847830,-0.741450,0.001508,0.000000,-0.436000,0.000000,0.000000,0.000000,0.000000
1.37988,-0.027657,-0.052453,-0.176814,0.847448,-0.740687,0.001508,0.000000,-0.436000,0.000000,0.000000,0.000000,0.000000
1.38188,-0.027657,-0.052453,-0.173381,0.847448,-0.739925,0.001507,0.000000,-0.436000,0.000000,0.000000,0.000000,0.000000
1.38388,-0.027657,-0.052072,-0.169948,0.847448,-0.738971,0.002010,0.000000,-0.436000,0.000000,0.000000,0.000000,0.000000
1.38588,-0.027657,-0.051690,-0.166514,0.847067,-0.738209,0.002009,0.000000,-0.436000,0.000000,0.000000,0.000000,0.000000
1.38787,-0.027657,-0.051309,-0.159648,0.847067,-0.736492,0.003514,0.000000,-0.436000,0.000000,0.000000,0.000000,0.000000
1.38987,-0.027657,-0.050927,-0.159648,0.846685,-0.735350,0.000501,0.000000,-0.436000,0.000000,0.000000,0.000000,0.000000
1.39187,-0.027657,-0.050546,-0.154306,0.846685,-0.733634,0.001002,0.000000,-0.436000,0.000000,0.000000,0.000000,0.000000
1.39387,-0.027275,-0.050164,-0.150873,0.846304,-0.731918,0.000500,0.000000,-0.436000,0.000000,0.000000,0.000000,0.000000
1.39587,-0.027275,-0.049783,-0.147058,0.845922,-0.730203,-0.000001,0.000000,-0.436000,0.000000,0.000000,0.000000,0.000000
1.39787,-0.027275,-0.049401,-0.143625,0.845541,-0.728296,-0.000001,0.000000,-0.436000,0.000000,0.000000,0.000000,0.000000
1.39987,-0.027275,-0.049401,-0.140192,0.844778,-0.726199,-0.000501,0.000000,-0.436000,0.000000,0.000000,0.000000,0.000000
1.40187,-0.027275,-0.049020,-0.136759,0.844397,-0.723912,-0.000501,0.000000,-0.436000,0.000000,0.000000,0.000000,0.000000
1.40387,-0.027275,-0.048638,-0.129511,0.843633,-0.720288,0.002991,0.000000,-0.436000,0.000000,0.000000,0.000000,0.000000
1.40587,-0.027275,-0.047875,-0.129511,0.842870,-0.718383,-0.001994,0.000000,-0.436000,0.000000,0.000000,0.000000,0.000000
1.40787,-0.027275,-0.047494,-0.124170,0.842107,-0.714951,-0.000001,0.000000,-0.436000,0.000000,0.000000,0.000000,0.000000
1.40987,-0.027275,-0.047494,-0.120356,0.841725,-0.711710,0.000496,0.000000,-0.436000,0.000000,0.000000,0.000000,0.000000
1.41187,-0.027275,-0.047112,-0.116922,0.841344,-0.708660,0.000495,0.000000,-0.436000,0.000000,0.000000,0.000000,0.000000
1.41387,-0.027275,-0.046731,-0.113489,0.840581,-0.705228,0.001485,0.000000,-0.436000,0.000000,0.000000,0.000000,0.000000
1.41587,-0.027275,-0.046350,-0.109674,0.840199,-0.701606,0.000988,0.000000,-0.436000,0.000000,0.000000,0.000000,0.000000
1.41787,-0.027275,-0.045968,-0.106241,0.839055,-0.697984,0.001480,0.000000,-0.436000,0.000000,0.000000,0.000000,0.000000
1.41987,-0.026894,-0.045587,-0.102427,0.838292,-0.693980,0.001971,0.000000,-0.436000,0.000000,0.000000,0.000000,0.000000
1.42187,-0.026894,-0.045205,-0.098993,0.837148,-0.689977,0.001475,0.000000,-0.436000,0.000000,0.000000,0.000000,0.000000
1.42387,-0.026894,-0.044824,-0.091363,0.836385,-0.683488,0.007363,0.000000,-0.436000,0.000000,0.000000,0.000000,0.000000
1.42587,-0.026894,-0.044061,-0.091363,0.835240,-0.680064,-0.001475,0.000000,-0.436000,0.000000,0.000000,0.000000,0.000000
1.42787,-0.026894,-0.043679,-0.086022,0.834477,-0.674344,0.001464,0.000000,-0.436000,0.000000,0.000000,0.000000,0.000000
1.42987,-0.026894,-0.043298,-0.082208,0.833714,-0.669578,0.000972,0.000000,-0.436000,0.000000,0.000000,0.000000,0.000000
1.43187,-0.026894,-0.043298,-0.078774,0.832952,-0.664431,0.000481,0.000000,-0.436000,0.000000,0.000000,0.000000,0.000000
1.43387,-0.026512,-0.042916,-0.074960,0.831426,-0.659284,-0.000007,0.000000,-0.436000,0.000000,0.000000,0.000000,0.000000
1.43587,-0.026512,-0.042535,-0.071527,0.830281,-0.653945,-0.000979,0.000000,-0.436000,0.000000,0.000000,0.000000,0.000000
1.43787,-0.026512,-0.042153,-0.064279,0.829518,-0.645741,0.006279,0.000000,-0.436000,0.000000,0.000000,0.000000,0.000000
1.43987,-0.026512,-0.041390,-0.064279,0.827992,-0.641359,-0.004841,0.000000,-0.436000,0.000000,0.000000,0.000000,0.000000
1.44187,-0.026512,-0.041009,-0.058557,0.826848,-0.634117,-0.000976,0.000000,-0.436000,0.000000,0.000000,0.000000,0.000000
1.44387,-0.026512,-0.040627,-0.055123,0.825322,-0.628016,-0.000975,0.000000,-0.436000,0.000000,0.000000,0.000000,0.000000
1.44587,-0.026512,-0.040246,-0.051690,0.824178,-0.621725,-0.000495,0.000000,-0.436000,0.000000,0.000000,0.000000,0.000000
1.44787,-0.026512,-0.039865,-0.047875,0.823033,-0.615433,-0.000017,0.000000,-0.436000,0.000000,0.000000,0.000000,0.000000
1.44987,-0.026512,-0.039483,-0.044442,0.822270,-0.609141,0.000459,0.000000,-0.436000,0.000000,0.000000,0.000000,0.000000
1.45187,-0.026512,-0.039102,-0.041009,0.821126,-0.602659,0.001409,0.000000,-0.436000,0.000000,0.000000,0.000000,0.000000
1.45387,-0.026512,-0.038720,-0.037194,0.819600,-0.595985,0.001879,0.000000,-0.436000,0.000000,0.000000,0.000000,0.000000
1.45587,-0.026512,-0.038339,-0.033761,0.818074,-0.589311,0.002348,0.000000,-0.436000,0.000000,0.000000,0.000000,0.000000
1.45787,-0.026131,-0.037957,-0.030327,0.816930,-0.582637,0.002814,0.000000,-0.436000,0.000000,0.000000,0.000000,0.000000
1.45987,-0.026131,-0.037576,-0.026894,0.815785,-0.575773,0.002807,0.000000,-0.436000,0.000000,0.000000,0.000000,0.000000
1.46187,-0.026131,-0.037194,-0.019646,0.814260,-0.565268,0.011717,0.000000,-0.436000,0.000000,0.000000,0.000000,0.000000
1.46387,-0.026131,-0.036813,-0.019646,0.811971,-0.559949,-0.001426,0.000000,-0.436000,0.000000,0.000000,0.000000,0.000000
1.46587,-0.026131,-0.036431,-0.014687,0.810445,-0.550795,0.003251,0.000000,-0.436000,0.000000,0.000000,0.000000,0.000000
1.46787,-0.026131,-0.035668,-0.011253,0.809300,-0.543359,0.002778,0.000000,-0.436000,0.000000,0.000000,0.000000,0.000000
1.46987,-0.026131,-0.035287,-0.007820,0.808156,-0.535923,0.002308,0.000000,-0.436000,0.000000,0.000000,0.000000,0.000000
1.47187,-0.026131,-0.034905,-0.004387,0.806249,-0.528487,0.001841,0.000000,-0.436000,0.000000,0.000000,0.000000,0.000000
1.47387,-0.026131,-0.034524,-0.000954,0.804723,-0.520860,0.000913,0.000000,-0.436000,0.000000,0.000000,0.000000,0.000000
1.47587,-0.025749,-0.034142,0.002480,0.803578,-0.513233,0.000913,0.000000,-0.436000,0.000000,0.000000,0.000000,0.000000
1.47787,-0.026131,-0.033761,0.005913,0.802052,-0.505796,0.000453,0.000000,-0.436000,0.000000,0.000000,0.000000,0.000000
1.47987,-0.026131,-0.033380,0.012016,0.800145,-0.494534,0.009159,0.000000,-0.436000,0.000000,0.000000,0.000000,0.000000
1.48187,-0.026131,-0.032617,0.012016,0.798238,-0.488632,-0.005031,0.000000,-0.436000,0.000000,0.000000,0.000000,0.000000
1.48387,-0.026131,-0.032235,0.016975,0.797093,-0.479292,-0.000911,0.000000,-0.436000,0.000000,0.000000,0.000000,0.000000
1.48587,-0.026131,-0.031854,0.020027,0.795568,-0.471664,-0.000906,0.000000,-0.436000,0.000000,0.000000,0.000000,0.000000
1.48787,-0.026131,-0.031090,0.023079,0.793660,-0.463846,-0.000449,0.000000,-0.436000,0.000000,0.000000,0.000000,0.000000
1.48987,-0.026131,-0.030708,0.026512,0.792134,-0.456218,0.000458,0.000000,-0.436000,0.000000,0.000000,0.000000,0.000000
1.49187,-0.026131,-0.030327,0.029564,0.790990,-0.448591,0.000458,0.000000,-0.436000,0.000000,0.000000,0.000000,0.000000
1.49387,-0.026131,-0.029945,0.032998,0.789464,-0.440773,0.000908,0.000000,-0.436000,0.000000,0.000000,0.000000,0.000000
1.49587,-0.026131,-0.029564,0.035668,0.787938,-0.433146,0.000907,0.000000,-0.436000,0.000000,0.000000,0.000000,0.000000
1.49786,-0.026131,-0.029182,0.038720,0.786412,-0.425518,0.001801,0.000000,-0.436000,0.000000,0.000000,0.000000,0.000000
1.49986,-0.026131,-0.028801,0.041390,0.785268,-0.417891,0.002690,0.000000,-0.436000,0.000000,0.000000,0.000000,0.000000
1.50186,-0.026131,-0.028038,0.044442,0.784123,-0.410454,0.003129,0.000000,-0.436000,0.000000,0.000000,0.000000,0.000000
1.50386,-0.026131,-0.027657,0.047494,0.782598,-0.403017,0.003567,0.000000,-0.436000,0.000000,0.000000,0.000000,0.000000
1.50586,-0.026131,-0.027275,0.050546,0.781071,-0.395579,0.004001,0.000000,-0.436000,0.000000,0.000000,0.000000,0.000000
1.50786,-0.026131,-0.026894,0.056268,0.779926,-0.384500,0.012826,0.000000,-0.436000,0.000000,0.000000,0.000000,0.000000
1.50986,-0.025749,-0.026512,0.056268,0.778400,-0.378993,0.000007,0.000000,-0.436000,0.000000,0.000000,0.000000,0.000000
1.51186,-0.025749,-0.026131,0.060845,0.776875,-0.369838,0.004406,0.000000,-0.436000,0.000000,0.000000,0.000000,0.000000
1.51386,-0.026131,-0.025749,0.063516,0.775730,-0.362592,0.004395,0.000000,-0.436000,0.000000,0.000000,0.000000,0.000000
1.51586,-0.026131,-0.025368,0.066186,0.774586,-0.355348,0.003509,0.000000,-0.436000,0.000000,0.000000,0.000000,0.000000
1.51786,-0.026131,-0.024986,0.068856,0.773441,-0.348102,0.003500,0.000000,-0.436000,0.000000,0.000000,0.000000,0.000000
1.51986,-0.026131,-0.024605,0.071527,0.772678,-0.341047,0.003057,0.000000,-0.436000,0.000000,0.000000,0.000000,0.000000
1.52186,-0.026131,-0.024605,0.074197,0.771915,-0.333802,0.002178,0.000000,-0.436000,0.000000,0.000000,0.000000,0.000000
1.52386,-0.026131,-0.023842,0.076867,0.771152,-0.326938,0.002174,0.000000,-0.436000,0.000000,0.000000,0.000000,0.000000
1.52586,-0.026131,-0.023460,0.079537,0.770008,-0.320074,0.001302,0.000000,-0.436000,0.000000,0.000000,0.000000,0.000000
1.52786,-0.026512,-0.023460,0.081826,0.768864,-0.313210,0.000435,0.000000,-0.436000,0.000000,0.000000,0.000000,0.000000
1.52986,-0.026512,-0.023079,0.084496,0.768101,-0.306155,0.000002,0.000000,-0.436000,0.000000,0.000000,0.000000,0.000000
1.53186,-0.026512,-0.022697,0.087167,0.767338,-0.299482,-0.000428,0.000000,-0.436000,0.000000,0.000000,0.000000,0.000000
1.53386,-0.026512,-0.022316,0.091744,0.766956,-0.289370,0.006869,0.000000,-0.436000,0.000000,0.000000,0.000000,0.000000
1.53586,-0.026894,-0.021935,0.091744,0.766193,-0.284416,-0.004282,0.000000,-0.436000,0.000000,0.000000,0.000000,0.000000
1.53786,-0.026894,-0.021553,0.095179,0.765812,-0.275837,-0.000424,0.000000,-0.436000,0.000000,0.000000,0.000000,0.000000
1.53986,-0.026894,-0.021553,0.097467,0.765430,-0.269355,-0.000422,0.000000,-0.436000,0.000000,0.000000,0.000000,0.000000
1.54186,-0.027275,-0.021172,0.099756,0.765049,-0.262681,0.000005,0.000000,-0.436000,0.000000,0.000000,0.000000,0.000000
1.54386,-0.027275,-0.021172,0.102045,0.764668,-0.256389,0.000430,0.000000,-0.436000,0.000000,0.000000,0.000000,0.000000
1.54586,-0.027275,-0.020790,0.103952,0.764286,-0.249906,0.001278,0.000000,-0.436000,0.000000,0.000000,0.000000,0.000000
1.54786,-0.027275,-0.020790,0.105860,0.763905,-0.243614,0.001699,0.000000,-0.436000,0.000000,0.000000,0.000000,0.000000
1.54986,-0.027275,-0.020409,0.107767,0.763905,-0.237131,0.002541,0.000000,-0.436000,0.000000,0.000000,0.000000,0.000000
1.55186,-0.027275,-0.020409,0.110056,0.763905,-0.230838,0.002958,0.000000,-0.436000,0.000000,0.000000,0.000000,0.000000
1.55386,-0.027275,-0.020027,0.111963,0.763905,-0.224736,0.003795,0.000000,-0.436000,0.000000,0.000000,0.000000,0.000000
1.55586,-0.027275,-0.020027,0.113871,0.763905,-0.218635,0.003788,0.000000,-0.436000,0.000000,0.000000,0.000000,0.000000
1.55786,-0.027275,-0.019646,0.117685,0.764286,-0.209468,0.011317,0.000000,-0.436000,0.000000,0.000000,0.000000,0.000000
1.55986,-0.027657,-0.019646,0.117685,0.764668,-0.205097,0.001682,0.000000,-0.436000,0.000000,0.000000,0.000000,0.000000
1.56186,-0.027657,-0.019264,0.119974,0.764668,-0.197468,0.005017,0.000000,-0.436000,0.000000,0.000000,0.000000,0.000000
1.56386,-0.027657,-0.019264,0.121881,0.765049,-0.191557,0.005424,0.000000,-0.436000,0.000000,0.000000,0.000000,0.000000
1.56586,-0.027657,-0.018883,0.123407,0.765430,-0.185647,0.004999,0.000000,-0.436000,0.000000,0.000000,0.000000,0.000000
1.56786,-0.028038,-0.018883,0.124933,0.765812,-0.179927,0.004990,0.000000,-0.436000,0.000000,0.000000,0.000000,0.000000
1.56986,-0.028038,-0.018501,0.126078,0.766193,-0.174016,0.004567,0.000000,-0.436000,0.000000,0.000000,0.000000,0.000000
1.57186,-0.028038,-0.018501,0.127604,0.766575,-0.168297,0.003731,0.000000,-0.436000,0.000000,0.000000,0.000000,0.000000
1.57386,-0.028038,-0.018120,0.128748,0.767338,-0.162577,0.003724,0.000000,-0.436000,0.000000,0.000000,0.000000,0.000000
1.57586,-0.028038,-0.018120,0.130274,0.767719,-0.157239,0.002893,0.000000,-0.436000,0.000000,0.000000,0.000000,0.000000
1.57786,-0.028419,-0.017738,0.132181,0.768482,-0.149033,0.008233,0.000000,-0.436000,0.000000,0.000000,0.000000,0.000000
1.57986,-0.028419,-0.017357,0.132181,0.770008,-0.144845,-0.000816,0.000000,-0.436000,0.000000,0.000000,0.000000,0.000000
1.58186,-0.028419,-0.017357,0.133707,0.771152,-0.138362,0.000825,0.000000,-0.436000,0.000000,0.000000,0.000000,0.000000
1.58386,-0.028419,-0.016975,0.134851,0.772297,-0.133214,0.000414,0.000000,-0.436000,0.000000,0.000000,0.000000,0.000000
1.58586,-0.028419,-0.016975,0.135614,0.773060,-0.128257,-0.000404,0.000000,-0.436000,0.000000,0.000000,0.000000,0.000000
1.58786,-0.028419,-0.016594,0.136377,0.773823,-0.123490,-0.000812,0.000000,-0.436000,0.000000,0.000000,0.000000,0.000000
1.58986,-0.028801,-0.016212,0.137140,0.775349,-0.118724,-0.000404,0.000000,-0.436000,0.000000,0.000000,0.000000,0.000000
1.59186,-0.028801,-0.016212,0.137903,0.776875,-0.113957,-0.000811,0.000000,-0.436000,0.000000,0.000000,0.000000,0.000000
1.59386,-0.028801,-0.016212,0.138666,0.778400,-0.109191,-0.000404,0.000000,-0.436000,0.000000,0.000000,0.000000,0.000000
1.59586,-0.028801,-0.015831,0.139048,0.779545,-0.104806,0.000003,0.000000,-0.436000,0.000000,0.000000,0.000000,0.000000
1.59786,-0.028801,-0.015831,0.139811,0.781453,-0.100421,0.000408,0.000000,-0.436000,0.000000,0.000000,0.000000,0.000000
1.59986,-0.028801,-0.015450,0.140192,0.783360,-0.096227,0.000407,0.000000,-0.436000,0.000000,0.000000,0.000000,0.000000
1.60186,-0.028801,-0.015450,0.140574,0.784886,-0.090123,0.005256,0.000000,-0.436000,0.000000,0.000000,0.000000,0.000000
1.60386,-0.028801,-0.015068,0.140574,0.787557,-0.087455,-0.000402,0.000000,-0.436000,0.000000,0.000000,0.000000,0.000000
1.60586,-0.028801,-0.015068,0.140955,0.789845,-0.082689,0.002421,0.000000,-0.436000,0.000000,0.000000,0.000000,0.000000
1.60786,-0.028801,-0.014687,0.140955,0.791753,-0.079067,0.002821,0.000000,-0.436000,0.000000,0.000000,0.000000,0.000000
1.60985,-0.028801,-0.014687,0.140955,0.794042,-0.075825,0.003221,0.000000,-0.436000,0.000000,0.000000,0.000000,0.000000
1.61185,-0.028801,-0.014305,0.140955,0.796712,-0.072394,0.003218,0.000000,-0.436000,0.000000,0.000000,0.000000,0.000000
1.61385,-0.028801,-0.014305,0.140955,0.798619,-0.069534,0.003616,0.000000,-0.436000,0.000000,0.000000,0.000000,0.000000
1.61585,-0.028419,-0.013924,0.140574,0.801290,-0.066483,0.003613,0.000000,-0.436000,0.000000,0.000000,0.000000,0.000000
1.61785,-0.028419,-0.013924,0.140192,0.803960,-0.063814,0.003610,0.000000,-0.436000,0.000000,0.000000,0.000000,0.000000
1.61985,-0.028419,-0.013924,0.140192,0.806249,-0.061336,0.003207,0.000000,-0.436000,0.000000,0.000000,0.000000,0.000000
1.62185,-0.028419,-0.013542,0.139811,0.809300,-0.059048,0.003205,0.000000,-0.436000,0.000000,0.000000,0.000000,0.000000
1.62385,-0.028419,-0.013161,0.139429,0.811971,-0.057142,0.003203,0.000000,-0.436000,0.000000,0.000000,0.000000,0.000000
1.62585,-0.028419,-0.013161,0.138666,0.815404,-0.055236,0.002402,0.000000,-0.436000,0.000000,0.000000,0.000000,0.000000
1.62785,-0.028419,-0.013161,0.137522,0.818074,-0.053138,0.003599,0.000000,-0.436000,0.000000,0.000000,0.000000,0.000000
1.62985,-0.028419,-0.012779,0.137522,0.823033,-0.052186,0.001601,0.000000,-0.436000,0.000000,0.000000,0.000000,0.000000
1.63185,-0.028419,-0.012398,0.136377,0.826467,-0.050851,0.001999,0.000000,-0.436000,0.000000,0.000000,0.000000,0.000000
1.63385,-0.028419,-0.012398,0.135614,0.829900,-0.050088,0.001999,0.000000,-0.436000,0.000000,0.000000,0.000000,0.000000
1.63585,-0.028419,-0.012398,0.134470,0.833714,-0.049516,0.001600,0.000000,-0.436000,0.000000,0.000000,0.000000,0.000000
1.63785,-0.028419,-0.012016,0.133707,0.836766,-0.049135,0.001599,0.000000,-0.436000,0.000000,0.000000,0.000000,0.000000
1.63985,-0.028038,-0.012016,0.132563,0.840962,-0.049135,0.001599,0.000000,-0.436000,0.000000,0.000000,0.000000,0.000000
1.64185,-0.028038,-0.012016,0.131418,0.844778,-0.049135,0.001599,0.000000,-0.436000,0.000000,0.000000,0.000000,0.000000
1.64385,-0.028038,-0.011635,0.130274,0.848593,-0.049135,0.001599,0.000000,-0.436000,0.000000,0.000000,0.000000,0.000000
1.64585,-0.028038,-0.011635,0.128748,0.852789,-0.049516,0.001600,0.000000,-0.436000,0.000000,0.000000,0.000000,0.000000
