sainanliu129-hub/model/applications/Body_GravityPara_Iden/data/excitation/PD-M1-v0_multi_joint_20260305-195641_sim_run.csv
time,cmd_leg_l1_joint,pos_leg_l1_joint,vel_leg_l1_joint,torque_leg_l1_joint,cmd_leg_l2_joint,pos_leg_l2_joint,vel_leg_l2_joint,torque_leg_l2_joint,cmd_leg_l3_joint,pos_leg_l3_joint,vel_leg_l3_joint,torque_leg_l3_joint,cmd_leg_l4_joint,pos_leg_l4_joint,vel_leg_l4_joint,torque_leg_l4_joint,cmd_leg_l5_joint,pos_leg_l5_joint,vel_leg_l5_joint,torque_leg_l5_joint,cmd_leg_l6_joint,pos_leg_l6_joint,vel_leg_l6_joint,torque_leg_l6_joint,cmd_leg_r1_joint,pos_leg_r1_joint,vel_leg_r1_joint,torque_leg_r1_joint,cmd_leg_r2_joint,pos_leg_r2_joint,vel_leg_r2_joint,torque_leg_r2_joint,cmd_leg_r3_joint,pos_leg_r3_joint,vel_leg_r3_joint,torque_leg_r3_joint,cmd_leg_r4_joint,pos_leg_r4_joint,vel_leg_r4_joint,torque_leg_r4_joint,cmd_leg_r5_joint,pos_leg_r5_joint,vel_leg_r5_joint,torque_leg_r5_joint,cmd_leg_r6_joint,pos_leg_r6_joint,vel_leg_r6_joint,torque_leg_r6_joint
0.000000000,0.000000000,-0.000146528,0.000577750,0.847723109,0.000000000,-0.000754132,0.000997605,0.232071908,-0.006823000,-0.010414255,-0.008927423,1.193316650,0.424885005,0.347912366,0.376087079,2.200978480,-0.396259993,-0.378100650,-0.411104356,-0.670398483,0.000000000,0.000010167,-0.002209260,-0.006942934,0.000000000,0.000016667,-0.000349411,0.000395631,0.000000000,0.000735621,-0.000162257,-0.205793081,0.065402001,0.052703399,0.060404291,2.235486571,0.276596010,0.223708123,0.236617553,1.654015264,-0.291951001,-0.276882448,-0.306168026,-0.652425741,0.000000000,0.000002050,0.000011667,-0.000234806
0.001999820,-0.000031000,0.000147034,0.146781153,0.012351553,0.000016000,-0.000752593,0.000769405,0.191793412,-0.006821000,-0.010431991,-0.008867736,1.222725637,0.424870014,0.348663801,0.375717729,2.188749949,-0.396315992,-0.378921946,-0.410647927,-0.666504431,0.000000000,0.000010506,0.000169089,0.005253357,-0.000017000,0.000015932,-0.000367748,0.000199341,-0.000004000,0.000735312,-0.000154659,-0.205426496,0.065428004,0.052824173,0.060387408,2.243229619,0.276553988,0.224181259,0.236567797,1.658785873,-0.291940987,-0.277494787,-0.306169591,-0.652467639,0.000004000,0.000002120,0.000035188,-0.000240324
0.003999639,-0.000061000,-0.000146269,-0.146651665,-0.849024471,0.000031000,-0.000754120,-0.000763614,0.201065575,-0.006816000,-0.010445989,-0.006999065,1.226985297,0.424854010,0.349404508,0.370353656,2.142963989,-0.396375000,-0.379724778,-0.401416137,-0.590457287,0.000000000,0.000014701,0.002097583,-0.001542465,-0.000034000,0.000015369,-0.000281293,-0.001430629,-0.000010000,0.000735070,-0.000120605,-0.206647421,0.065458000,0.052945960,0.060893138,2.216672952,0.276510000,0.224650258,0.234499403,1.626599658,-0.291929990,-0.278093810,-0.299511283,-0.589565107,0.000007000,0.000002322,0.000101111,0.000089953
0.005999459,-0.000091000,0.000146231,0.146250110,0.838404208,0.000045000,-0.000752021,0.001049786,0.240438726,-0.006810000,-0.010459808,-0.006909785,1.190117896,0.424836993,0.350141774,0.368632800,2.133294154,-0.396436006,-0.380503939,-0.389580462,-0.541528724,0.000000000,0.000009665,-0.002517725,-0.007449158,-0.000051000,0.000015091,-0.000139118,-0.003671630,-0.000016000,0.000734803,-0.000133795,-0.209054594,0.065490000,0.053069144,0.061592088,2.179142930,0.276464999,0.225113100,0.231421227,1.608898976,-0.291918993,-0.278670922,-0.288556298,-0.546843042,0.000010000,0.000002743,0.000210110,0.000185291
0.007999279,-0.000120000,-0.000146289,-0.146259958,-0.852331338,0.000057000,-0.000753531,-0.000755154,0.202804069,-0.006802000,-0.010468840,-0.004516023,1.193732101,0.424820006,0.350863581,0.360903644,2.097881727,-0.396499991,-0.381247214,-0.371637569,-0.502597152,0.000000000,0.000013108,0.001721250,0.006181069,-0.000069000,0.000014887,-0.000101652,-0.006258035,-0.000024000,0.000734529,-0.000137016,-0.210385664,0.065523997,0.053193909,0.062382499,2.137414806,0.276419014,0.225568743,0.227821492,1.598700687,-0.291909009,-0.279220677,-0.274877349,-0.518550761,0.000013000,0.000003509,0.000383400,0.000136133
0.009999099,-0.000148000,-0.000145655,0.000316939,0.829902277,0.000069000,-0.000751628,0.000951374,0.247470245,-0.006792000,-0.010477075,-0.004117533,1.144428886,0.424802989,0.351579105,0.357761903,2.106154609,-0.396566004,-0.381955704,-0.354244842,-0.484956394,0.000000000,0.000008609,-0.002249449,-0.006218252,-0.000088000,0.000014785,-0.000051300,-0.008366889,-0.000033000,0.000734168,-0.000180256,-0.212508863,0.065560997,0.053320104,0.063097783,2.093736134,0.276371002,0.226016967,0.224111881,1.592602269,-0.291898012,-0.279739754,-0.259538506,-0.500870040,0.000015000,0.000004501,0.000495990,-0.000130832
0.011998918,-0.000176000,0.000145980,0.145817451,-0.002042252,0.000079000,-0.000750289,0.000669665,0.211740384,-0.006781000,-0.010482222,-0.002573254,1.140598689,0.424784988,0.352282182,0.351538480,2.082215155,-0.396634012,-0.382623621,-0.333958505,-0.469471924,0.000000000,0.000008874,0.000132399,0.005525125,-0.000106000,0.000014552,-0.000116231,-0.010665942,-0.000043000,0.000733761,-0.000203700,-0.213986553,0.065600999,0.053447664,0.063779994,2.052203614,0.276322007,0.226457697,0.220364993,1.587625478,-0.291887999,-0.280226322,-0.243284048,-0.490906434,0.000017000,0.000005698,0.000598268,-0.000349051
0.013998738,-0.000202000,-0.000146091,-0.146035367,-0.858918199,0.000089000,-0.000752204,-0.000957439,0.220574096,-0.006769000,-0.010482420,-0.000099094,1.110258151,0.424766988,0.352968541,0.343179509,2.080904376,-0.396703988,-0.383248879,-0.312629276,-0.466516262,0.000000000,0.000012944,0.002035181,-0.001273231,-0.000125000,0.000014093,-0.000229526,-0.012192635,-0.000055000,0.000733300,-0.000230347,-0.216182929,0.065641999,0.053576370,0.064352746,2.011884821,0.276271999,0.226891218,0.216760621,1.583324880,-0.291877002,-0.280679729,-0.226703435,-0.486930828,0.000018000,0.000007000,0.000650872,-0.000558624
0.015998558,-0.000228000,-0.000145660,0.000215317,0.819870557,0.000097000,-0.000750541,0.000831348,0.260764307,-0.006755000,-0.010482059,0.000180618,1.057762447,0.424748003,0.353648553,0.340005920,2.095829065,-0.396777004,-0.383836745,-0.293932724,-0.471035613,0.000000000,0.000007848,-0.002548170,-0.007094211,-0.000145000,0.000013399,-0.000347088,-0.013528271,-0.000067000,0.000732729,-0.000285722,-0.218860178,0.065686002,0.053705986,0.064808039,1.974000044,0.276219994,0.227317892,0.213337020,1.578402610,-0.291866988,-0.281100030,-0.210150616,-0.487134524,0.000019000,0.000008309,0.000654718,-0.000738672
0.017998378,-0.000252000,0.000145612,0.145636166,-0.009994387,0.000104000,-0.000749406,0.000567358,0.222105086,-0.006740000,-0.010478961,0.001548719,1.055312419,0.424728990,0.354316614,0.334030619,2.074234860,-0.396851003,-0.384384444,-0.273849687,-0.472156616,0.000000000,0.000007679,-0.000084294,0.006451318,-0.000164000,0.000012288,-0.000555701,-0.014921300,-0.000080000,0.000732079,-0.000324744,-0.220856175,0.065732002,0.053836387,0.065200492,1.939366718,0.276167989,0.227738004,0.210055799,1.572501799,-0.291855991,-0.281487914,-0.193942129,-0.490704421,0.000020000,0.000009707,0.000699043,-0.000780880
0.019998197,-0.000276000,-0.000148076,-0.146844002,-0.865954824,0.000111000,-0.000751543,-0.001068427,0.229743460,-0.006724000,-0.010471342,0.003809920,1.027750543,0.424708992,0.354968823,0.326104321,2.073308198,-0.396926999,-0.384892128,-0.253841723,-0.481378178,0.000000000,0.000011591,0.001956119,-0.000536443,-0.000184000,0.000010787,-0.000750491,-0.015648377,-0.000093000,0.000731345,-0.000367222,-0.223484100,0.065779001,0.053967362,0.065487664,1.906499235,0.276113987,0.228151958,0.206977155,1.566003471,-0.291846007,-0.281844461,-0.178273076,-0.496472207,0.000021000,0.000011118,0.000705442,-0.000947129
0.021998017,-0.000298000,-0.000147645,0.000215457,0.816767170,0.000116000,-0.000750062,0.000740650,0.269340382,-0.006707000,-0.010463611,0.003865067,0.978986493,0.424688995,0.355615725,0.323451388,2.087188430,-0.397004992,-0.385366616,-0.237244044,-0.494632316,0.000000000,0.000006527,-0.002532411,-0.006732727,-0.000205000,0.000009139,-0.000823863,-0.016518684,-0.000108000,0.000730469,-0.000437884,-0.226009705,0.065828003,0.054098724,0.065680851,1.876133627,0.276059002,0.228560100,0.204071163,1.558328019,-0.291835994,-0.282170957,-0.163248394,-0.503975976,0.000022000,0.000012490,0.000686007,-0.001006848
0.023997837,-0.000319000,-0.000147286,0.000179541,-0.017245059,0.000121000,-0.000749104,0.000478966,0.229421048,-0.006690000,-0.010453577,0.005016997,0.980374010,0.424668998,0.356251755,0.318014753,2.063920723,-0.397085011,-0.385806177,-0.219780867,-0.501747709,0.000000000,0.000006388,-0.000069419,0.006540039,-0.000225000,0.000007813,-0.000663063,-0.018166563,-0.000123000,0.000729481,-0.000494221,-0.228426153,0.065879002,0.054230406,0.065841067,1.848353749,0.276003003,0.228962633,0.201266407,1.549730356,-0.291826010,-0.282468921,-0.148981606,-0.512681724,0.000022000,0.000013939,0.000724482,-0.000989191
0.025997657,-0.000339000,-0.000147088,0.000099092,-0.019318660,0.000124000,-0.000748297,0.000403313,0.236488994,-0.006671000,-0.010441317,0.006130339,0.956298528,0.424647987,0.356877331,0.312788155,2.061126388,-0.397166014,-0.386213358,-0.203590338,-0.515058354,0.000000000,0.000006871,0.000241613,-0.000448215,-0.000246000,-0.000008230,-0.008021482,-0.021066376,-0.000138000,0.000728347,-0.000566794,-0.231134584,0.065931000,0.054362248,0.065921085,1.821796100,0.275945991,0.229359862,0.198614362,1.540703427,-0.291815996,-0.282739982,-0.135530854,-0.522119538,0.000022000,0.000015356,0.000708322,-0.001245016
0.027997476,-0.000357000,-0.000147102,-0.000007412,-0.021016681,0.000127000,-0.000747520,0.000388685,0.238823655,-0.006653000,-0.010427023,0.007146800,0.933031569,0.424627006,0.357492971,0.307819921,2.057435380,-0.397249013,-0.386590587,-0.188614394,-0.528122851,0.000000000,0.000006871,-0.000000024,-0.001381318,-0.000267000,-0.000010140,-0.000955083,0.020017102,-0.000154000,0.000727260,-0.000543356,-0.233434502,0.065985002,0.054494276,0.066013870,1.797290744,0.275887996,0.229751708,0.195923023,1.530862059,-0.291806012,-0.282985657,-0.122837469,-0.531953150,0.000022000,0.000016544,0.000593941,-0.001342247
0.029997296,-0.000374000,-0.000147317,-0.000107225,-0.022331484,0.000129000,-0.000746765,0.000377578,0.239786311,-0.006634000,-0.010410823,0.008100221,0.911093677,0.424605995,0.358099020,0.303024273,2.052537441,-0.397332996,-0.386940106,-0.174759448,-0.540963172,0.000000000,0.000006546,-0.000162509,-0.000694339,-0.000289000,-0.000013735,-0.001797573,-0.021978202,-0.000170000,0.000725983,-0.000638706,-0.238203683,0.066040002,0.054626293,0.066008638,1.773013563,0.275828987,0.230138622,0.193457090,1.521577865,-0.291795999,-0.283207804,-0.111073323,-0.542202295,0.000023000,0.000017865,0.000660750,-0.001137114
0.031997116,-0.000390000,-0.000147736,-0.000209365,-0.023556243,0.000130000,-0.000746046,0.000359330,0.240391366,-0.006614000,-0.010392808,0.009007421,0.890323978,0.424584001,0.358695737,0.298358529,2.047016715,-0.397419006,-0.387264056,-0.161975362,-0.553516391,0.000000000,0.000006177,-0.000184315,-0.000199546,-0.000311000,-0.000018796,-0.002530216,-0.019175734,-0.000187000,0.000724542,-0.000720556,-0.240231789,0.066096000,0.054758255,0.065980873,1.751240193,0.275768995,0.230520672,0.191024935,1.510938999,-0.291785985,-0.283408030,-0.100112791,-0.552184486,0.000023000,0.000019183,0.000658894,-0.001359545
0.033996936,-0.000404000,-0.000148413,-0.000338613,-0.024639483,0.000130000,-0.000745375,0.000335704,0.240884079,-0.006594000,-0.010373062,0.009872876,0.870368337,0.424562007,0.359283353,0.293808106,2.041099932,-0.397507012,-0.387564531,-0.150237352,-0.565814016,0.000000000,0.000005866,-0.000155712,-0.000100295,-0.000333000,-0.000025046,-0.003125285,-0.016838263,-0.000204000,0.000722947,-0.000797502,-0.242802941,0.066152997,0.054890127,0.065936152,1.730276063,0.275707990,0.230897905,0.188616258,1.500305177,-0.291776001,-0.283587925,-0.089947759,-0.562097456,0.000022000,0.000020446,0.000631791,-0.001487451
0.035996755,-0.000416000,-0.000149448,-0.000517481,-0.025328684,0.000128000,-0.000744753,0.000310767,0.241227637,-0.006572000,-0.010351663,0.010699709,0.850864927,0.424539000,0.359862076,0.289361710,2.034938297,-0.397601008,-0.387843550,-0.139509499,-0.577712054,0.000000000,0.000005607,-0.000129509,-0.000150141,-0.000356000,-0.000032315,-0.003634263,-0.015151908,-0.000223000,0.000721198,-0.000874632,-0.245441292,0.066214003,0.055021880,0.065876188,1.710004658,0.275644988,0.231270356,0.186225884,1.489744756,-0.291765004,-0.283749045,-0.080559986,-0.571806492,0.000019000,0.000021618,0.000585723,-0.001639166
0.037996575,-0.000428000,-0.000150974,-0.000763153,-0.025485971,0.000125000,-0.000744181,0.000286339,0.241046528,-0.006546000,-0.010328676,0.011493444,0.832333417,0.424515009,0.360432087,0.285005180,2.028534954,-0.397702008,-0.388103106,-0.129777779,-0.589512042,0.000000000,0.000005380,-0.000113443,-0.000198458,-0.000379000,-0.000040504,-0.004094575,-0.013950486,-0.000244000,0.000719292,-0.000952813,-0.248600134,0.066279002,0.055153497,0.065808593,1.691251483,0.275579005,0.231638023,0.183833457,1.479230091,-0.291752994,-0.283892853,-0.071903976,-0.581100923,0.000012000,0.000022614,0.000498238,-0.001929782
0.039996395,-0.000438000,-0.000153150,-0.001088083,-0.025213105,0.000120000,-0.000743655,0.000262833,0.240583558,-0.006518000,-0.010304154,0.012261068,0.815236442,0.424488991,0.360993529,0.280720983,2.021981082,-0.397810012,-0.388345149,-0.121021563,-0.601154913,0.000000000,0.000005175,-0.000102625,-0.000221202,-0.000403000,-0.000049551,-0.004523282,-0.012926141,-0.000267000,0.000717229,-0.001031381,-0.252259225,0.066347003,0.055284975,0.065739237,1.673844490,0.275510013,0.232000869,0.181422724,1.468844004,-0.291741014,-0.284020725,-0.063935993,-0.589962181,0.000002000,0.000023252,0.000318878,-0.002489224
0.041996215,-0.000448000,-0.000156144,-0.001496670,-0.024209587,0.000114000,-0.000743175,0.000240144,0.239544603,-0.006487000,-0.010278142,0.013005801,0.798862177,0.424463004,0.361546527,0.276499010,2.015326279,-0.397922993,-0.388571573,-0.113211936,-0.612502131,0.000000000,0.000004991,-0.000091623,-0.000231214,-0.000427000,-0.000059415,-0.004932190,-0.012095723,-0.000291000,0.000715006,-0.001111437,-0.256433408,0.066418998,0.055416316,0.065670387,1.657370227,0.275438994,0.232358843,0.178987273,1.458702463,-0.291729003,-0.284133977,-0.056626008,-0.598480963,-0.000012000,0.000023348,0.000047991,-0.003054410
0.043996034,-0.000457000,-0.000160112,-0.001984382,-0.022645885,0.000107000,-0.000742737,0.000218741,0.238215813,-0.006453000,-0.010250678,0.013731866,0.783434986,0.424436003,0.362091179,0.272326047,2.008764428,-0.398039013,-0.388784158,-0.106292487,-0.623239755,0.000000000,0.000004833,-0.000079348,-0.000243974,-0.000452000,-0.000070065,-0.005325078,-0.011290089,-0.000318000,0.000712621,-0.001192440,-0.260812672,0.066494003,0.055547527,0.065605268,1.642058799,0.275366008,0.232711881,0.176519003,1.448916275,-0.291716009,-0.284233853,-0.049938216,-0.606603608,-0.000028000,0.000022686,-0.000331068,-0.003708888
0.045995854,-0.000466000,-0.000165185,-0.002536364,-0.020424160,0.000098000,-0.000742339,0.000199287,0.236585867,-0.006417000,-0.010221791,0.014443410,0.768869982,0.424407989,0.362627554,0.268187369,2.002317390,-0.398158014,-0.388984534,-0.100187939,-0.633152453,0.000000000,0.000004701,-0.000066048,-0.000262834,-0.000477000,-0.000081482,-0.005708490,-0.010597884,-0.000346000,0.000710068,-0.001276735,-0.265977191,0.066573001,0.055678617,0.065544972,1.627555575,0.275292009,0.233059909,0.174013974,1.439550933,-0.291703999,-0.284321512,-0.043829253,-0.614209769,-0.000047000,0.000021127,-0.000779432,-0.004181346
0.047995674,-0.000474000,-0.000171446,-0.003130405,-0.017721318,0.000088000,-0.000741975,0.000181644,0.234354395,-0.006380000,-0.010191508,0.015141983,0.754797389,0.424380004,0.363155704,0.264075062,1.996085488,-0.398279011,-0.389174194,-0.094830210,-0.642283497,0.000000000,0.000004600,-0.000050255,-0.000287294,-0.000503000,-0.000093648,-0.006083048,-0.009877532,-0.000375000,0.000707340,-0.001364016,-0.271303552,0.066653997,0.055809597,0.065490331,1.614112685,0.275216013,0.233402852,0.171471400,1.430699335,-0.291691989,-0.284398062,-0.038275031,-0.621504518,-0.000069000,0.000018528,-0.001299341,-0.004669335
0.049995494,-0.000482000,-0.000178922,-0.003738225,-0.014547400,0.000077000,-0.000741643,0.000166074,0.231807752,-0.006340000,-0.010159854,0.015826887,0.740905375,0.424351990,0.363675677,0.259986661,1.990187525,-0.398400992,-0.389354493,-0.090149373,-0.650576096,0.000000000,0.000004534,-0.000033213,-0.000322037,-0.000529000,-0.000106552,-0.006451859,-0.009233991,-0.000405000,0.000704430,-0.001454954,-0.276797024,0.066737004,0.055940478,0.065440332,1.601140506,0.275139987,0.233740638,0.168892961,1.422309691,-0.291680008,-0.284464543,-0.033240445,-0.628344816,-0.000093000,0.000014756,-0.001886397,-0.005152027
0.051995313,-0.000490000,-0.000187586,-0.004331706,-0.011165981,0.000065000,-0.000741337,0.000152886,0.228938803,-0.006300000,-0.010126852,0.016500987,0.727786009,0.424324006,0.364187500,0.255911616,1.984634249,-0.398521990,-0.389526628,-0.086067723,-0.657989823,0.000000000,0.000004504,-0.000014783,-0.000363774,-0.000555000,-0.000120183,-0.006815478,-0.008544322,-0.000436000,0.000701330,-0.001550089,-0.282440319,0.066822998,0.056071265,0.065393347,1.588663575,0.275063008,0.234073203,0.166282646,1.414498819,-0.291667998,-0.284521926,-0.028691517,-0.634728437,-0.000118000,0.000009738,-0.002508630,-0.005527290
0.053995133,-0.000498000,-0.000197360,-0.004887145,-0.007739132,0.000053000,-0.000741055,0.000141460,0.225739250,-0.006258000,-0.010092527,0.017162250,0.714527642,0.424295992,0.364691200,0.251849831,1.979502717,-0.398642004,-0.389691638,-0.082504783,-0.664425688,0.000000000,0.000004514,0.000005167,-0.000413181,-0.000582000,-0.000134530,-0.007173579,-0.007806495,-0.000469000,0.000698030,-0.001649695,-0.288218863,0.066910997,0.056201965,0.065350214,1.576994404,0.274984986,0.234400480,0.163638314,1.407184047,-0.291658014,-0.284571106,-0.024589843,-0.640647800,-0.000146000,0.000003697,-0.003020761,-0.005777838
0.055994953,-0.000506000,-0.000208134,-0.005386818,-0.004408999,0.000040000,-0.000740791,0.000131888,0.222506344,-0.006215000,-0.010056904,0.017811764,0.701752217,0.424268007,0.365186791,0.247795461,1.974788178,-0.398759007,-0.389850413,-0.079387576,-0.670007646,0.000000000,0.000004565,0.000025232,-0.000470944,-0.000608000,-0.000149587,-0.007528635,-0.007130130,-0.000501000,0.000694525,-0.001752753,-0.294408114,0.067001000,0.056332582,0.065308516,1.565832290,0.274908006,0.234722414,0.160967080,1.400379239,-0.291648000,-0.284612950,-0.020921998,-0.646329502,-0.000175000,-0.000005315,-0.004506062,-0.006541082
0.057994773,-0.000515000,-0.000219775,-0.005820455,-0.001287705,0.000026000,-0.000740544,0.000123473,0.218952689,-0.006172000,-0.010020006,0.018449094,0.689157609,0.424239993,0.365674282,0.243745411,1.970535005,-0.398871988,-0.390003687,-0.076636901,-0.674648254,0.000000000,0.000004658,0.000046415,-0.000533089,-0.000635000,-0.000165349,-0.007880848,-0.006288692,-0.000535000,0.000690784,-0.001870386,-0.300176459,0.067092001,0.056463116,0.065267058,1.555231126,0.274830997,0.235038957,0.158271707,1.394168998,-0.291639000,-0.284648249,-0.017649736,-0.651516200,-0.000205000,-0.000013779,-0.004231758,-0.004338447
0.059994592,-0.000524000,-0.000232147,-0.006185970,0.001446014,0.000012000,-0.000740313,0.000115350,0.215093417,-0.006128000,-0.009981861,0.019072511,0.676476271,0.424214005,0.366153682,0.239700154,1.966760889,-0.398979992,-0.390152046,-0.074179658,-0.678396190,0.000000000,0.000004795,0.000068812,-0.000602693,-0.000662000,-0.000181798,-0.008224491,-0.005494841,-0.000568000,0.000686822,-0.001981090,-0.306116762,0.067184001,0.056593564,0.065223764,1.544931884,0.274753988,0.235350073,0.155557694,1.388468957,-0.291631997,-0.284677745,-0.014747926,-0.656342085,-0.000236000,-0.000024211,-0.005216192,-0.007294878
0.061994412,-0.000533000,-0.000245115,-0.006484251,0.003872427,-0.000002000,-0.000740099,0.000107079,0.211232146,-0.006084000,-0.009942500,0.019680387,0.664039430,0.424187988,0.366625004,0.235661183,1.963591742,-0.399082005,-0.390295942,-0.071947948,-0.681303585,0.000000000,0.000004977,0.000090776,-0.000680279,-0.000688000,-0.000198930,-0.008565759,-0.004676197,-0.000602000,0.000682620,-0.002101174,-0.311866601,0.067276999,0.056723916,0.065176037,1.534982578,0.274679005,0.235655737,0.152832048,1.383244270,-0.291626990,-0.284702145,-0.012200000,-0.660903119,-0.000267000,-0.000036142,-0.005965230,-0.006574798
0.063994232,-0.000543000,-0.000258554,-0.006719318,0.005982214,-0.000016000,-0.000739902,0.000098248,0.207378907,-0.006040000,-0.009901958,0.020271115,0.651608520,0.424163014,0.367088263,0.231629324,1.960886278,-0.399177015,-0.390435696,-0.069876813,-0.683415476,0.000000000,0.000005201,0.000111821,-0.000761069,-0.000715000,-0.000216731,-0.008900559,-0.003691635,-0.000636000,0.000678165,-0.002227379,-0.317620246,0.067371003,0.056854159,0.065121723,1.525444444,0.274603993,0.235955940,0.150101437,1.378574606,-0.291622996,-0.284722119,-0.009987288,-0.665174873,-0.000300000,-0.000049426,-0.006641955,-0.006372546
0.065994052,-0.000554000,-0.000272351,-0.006898607,0.007678051,-0.000031000,-0.000739726,0.000088303,0.203543380,-0.005996000,-0.009860272,0.020842805,0.639229780,0.424138993,0.367543477,0.227606858,1.958705495,-0.399264008,-0.390571508,-0.067906221,-0.684781679,0.000000000,0.000005464,0.000131917,-0.000843503,-0.000742000,-0.000235190,-0.009229635,-0.002778864,-0.000670000,0.000673448,-0.002358214,-0.323163721,0.067465998,0.056984281,0.065060803,1.516372084,0.274531990,0.236250670,0.147365317,1.374283312,-0.291621000,-0.284738273,-0.008076693,-0.669043280,-0.000332000,-0.000064040,-0.007307254,-0.006441226
0.067993871,-0.000566000,-0.000286412,-0.007030692,0.008990089,-0.000045000,-0.000739573,0.000076505,0.199454453,-0.005953000,-0.009817484,0.021393953,0.626956548,0.424116999,0.367990667,0.223595393,1.957026346,-0.399342000,-0.390703467,-0.065979548,-0.685450132,0.000000000,0.000005769,0.000152141,-0.000927301,-0.000769000,-0.000254296,-0.009552965,-0.001828318,-0.000703000,0.000668459,-0.002494499,-0.328528049,0.067561999,0.057114262,0.064990519,1.507765441,0.274461001,0.236539934,0.144631792,1.370566960,-0.291624010,-0.284751177,-0.006452228,-0.672640758,-0.000366000,-0.000079890,-0.007924983,-0.006306845
0.069993691,-0.000578000,-0.000300660,-0.007123577,0.009956759,-0.000063000,-0.000739448,0.000062567,0.195698381,-0.005907000,-0.009773642,0.021920752,0.614550452,0.424095988,0.368429872,0.219602514,1.955903768,-0.399416000,-0.390831564,-0.064048393,-0.685473545,0.000000000,0.000006108,0.000169861,-0.001015549,-0.000797000,-0.000274034,-0.009868888,-0.000841326,-0.000738000,0.000663190,-0.002634685,-0.333407427,0.067662999,0.057244080,0.064909058,1.499696469,0.274392992,0.236823750,0.141908218,1.367241494,-0.291637003,-0.284761421,-0.005121723,-0.676259130,-0.000407000,-0.000096967,-0.008538390,-0.006384973
0.071993511,-0.000589000,-0.000315028,-0.007184266,0.010721555,-0.000082000,-0.000739357,0.000045561,0.190861666,-0.005858000,-0.009728793,0.022424788,0.603248286,0.424077004,0.368861129,0.215628168,1.955215630,-0.399484992,-0.390955791,-0.062113355,-0.685496445,0.000000000,0.000006490,0.000190983,-0.001100261,-0.000825000,-0.000294393,-0.010179557,0.000064525,-0.000775000,0.000657636,-0.002776914,-0.338687329,0.067768998,0.057373714,0.064817253,1.493347659,0.274327010,0.237102151,0.139200253,1.364377610,-0.291660994,-0.284769677,-0.004128355,-0.680319722,-0.000453000,-0.000115483,-0.009258174,-0.007058859
0.073993331,-0.000600000,-0.000329463,-0.007217467,0.011423805,-0.000104000,-0.000739306,0.000025089,0.185819780,-0.005808000,-0.009682982,0.022905587,0.593027267,0.424057990,0.369284481,0.211676332,1.955025844,-0.399549991,-0.391076132,-0.060170639,-0.685415499,0.000000000,0.000006916,0.000212658,-0.001198914,-0.000855000,-0.000315362,-0.010484636,0.001006905,-0.000812000,0.000651793,-0.002921512,-0.344408681,0.067878999,0.057503148,0.064716908,1.488706027,0.274262011,0.237375170,0.136509554,1.361872883,-0.291693985,-0.284776689,-0.003505611,-0.684734040,-0.000505000,-0.000135670,-0.010093230,-0.007790146
0.075993150,-0.000612000,-0.000343921,-0.007229118,0.011977690,-0.000128000,-0.000739307,-0.000000274,0.180015171,-0.005756000,-0.009636259,0.023361601,0.583342716,0.424039990,0.369699987,0.207753002,1.955173413,-0.399612010,-0.391192583,-0.058225811,-0.685345459,0.000000000,0.000007390,0.000237261,-0.001303521,-0.000885000,-0.000336935,-0.010786582,0.001769523,-0.000851000,0.000645657,-0.003067980,-0.349994224,0.067992002,0.057632370,0.064610823,1.485451873,0.274199009,0.237642834,0.133831741,1.359647460,-0.291736990,-0.284783192,-0.003251463,-0.689130165,-0.000562000,-0.000157800,-0.011065352,-0.008631317
0.077992970,-0.000623000,-0.000358374,-0.007226187,0.012305607,-0.000153000,-0.000739370,-0.000031329,0.173767148,-0.005703000,-0.009588673,0.023792768,0.574528020,0.424023002,0.370107711,0.203861970,1.955677996,-0.399672002,-0.391305165,-0.056290840,-0.685373335,0.000000000,0.000007918,0.000263949,-0.001421424,-0.000916000,-0.000359106,-0.011085532,0.002578795,-0.000890000,0.000639222,-0.003217561,-0.356022700,0.068108000,0.057761368,0.064499130,1.483241336,0.274136990,0.237905172,0.131169371,1.357794866,-0.291786999,-0.284789934,-0.003371278,-0.693541763,-0.000623000,-0.000182114,-0.012157022,-0.009391639
0.079992790,-0.000636000,-0.000372794,-0.007210320,0.012657024,-0.000180000,-0.000739506,-0.000068226,0.167381270,-0.005649000,-0.009540278,0.024197342,0.566314534,0.424005985,0.370507733,0.200010969,1.956508561,-0.399729997,-0.391413934,-0.054384614,-0.685559488,0.000000000,0.000008499,0.000290391,-0.001550650,-0.000947000,-0.000381869,-0.011381610,0.003328260,-0.000930000,0.000632482,-0.003370302,-0.361895735,0.068226002,0.057890139,0.064385149,1.482072469,0.274073988,0.238162200,0.128513883,1.356230958,-0.291844010,-0.284797593,-0.003829410,-0.697573784,-0.000688000,-0.000208793,-0.013339530,-0.009995692
0.081992610,-0.000648000,-0.000387172,-0.007188938,0.012718726,-0.000207000,-0.000739730,-0.000111823,0.160580011,-0.005595000,-0.009491126,0.024576078,0.558756742,0.423988998,0.370900135,0.196200820,1.957539202,-0.399785995,-0.391518968,-0.052516790,-0.685847424,0.000000000,0.000009135,0.000318203,-0.001684523,-0.000977000,-0.000405217,-0.011673690,0.004124611,-0.000970000,0.000625428,-0.003526803,-0.367894691,0.068346001,0.058018680,0.064270810,1.481589859,0.274010986,0.238413919,0.125859594,1.354891477,-0.291907012,-0.284806783,-0.004594888,-0.701259177,-0.000756000,-0.000237983,-0.014594532,-0.010506725
0.083992429,-0.000662000,-0.000401496,-0.007162041,0.012851281,-0.000235000,-0.000740053,-0.000161819,0.153955084,-0.005540000,-0.009441271,0.024927770,0.551568060,0.423972011,0.371285008,0.192436472,1.958762690,-0.399841994,-0.391620361,-0.050696706,-0.686201924,0.000000000,0.000009823,0.000343875,-0.001827910,-0.001007000,-0.000429133,-0.011957909,0.005067203,-0.001011000,0.000618054,-0.003686999,-0.373719654,0.068466000,0.058146995,0.064157539,1.481747912,0.273948014,0.238660323,0.123202044,1.353878793,-0.291976005,-0.284818044,-0.005630859,-0.704521467,-0.000825000,-0.000269769,-0.015893316,-0.010861182
0.085992249,-0.000677000,-0.000415767,-0.007135526,0.012733721,-0.000264000,-0.000740491,-0.000218721,0.147219070,-0.005485000,-0.009390764,0.025253271,0.545075498,0.423954993,0.371662446,0.188719213,1.960136172,-0.399897009,-0.391718252,-0.048945139,-0.686788591,0.000000000,0.000010561,0.000368873,-0.001970404,-0.001037000,-0.000453603,-0.012235283,0.006025937,-0.001053000,0.000610349,-0.003852696,-0.379654198,0.068585999,0.058275081,0.064043068,1.481946195,0.273882985,0.238901415,0.120545797,1.353226896,-0.292048991,-0.284831864,-0.006909881,-0.707410751,-0.000896000,-0.000304130,-0.017180545,-0.010929707
0.087992069,-0.000692000,-0.000429993,-0.007112764,0.012506080,-0.000293000,-0.000741056,-0.000282781,0.140387385,-0.005430000,-0.009339659,0.025552633,0.538990148,0.423936993,0.372032548,0.185050691,1.961642661,-0.399953008,-0.391812789,-0.047268604,-0.687435115,0.000000000,0.000011347,0.000392927,-0.002116033,-0.001066000,-0.000478614,-0.012505329,0.007005095,-0.001094000,0.000602301,-0.004023684,-0.385654363,0.068705998,0.058402938,0.063928410,1.482236714,0.273817003,0.239137186,0.117885518,1.352771415,-0.292126000,-0.284848630,-0.008382954,-0.709754115,-0.000968000,-0.000341033,-0.018451218,-0.010973029
0.089991889,-0.000710000,-0.000444181,-0.007094259,0.012294805,-0.000322000,-0.000741764,-0.000353782,0.133754013,-0.005376000,-0.009288007,0.025825788,0.533325998,0.423918009,0.372395415,0.181433640,1.963204048,-0.400009006,-0.391904165,-0.045688196,-0.688306597,0.000000000,0.000012175,0.000414285,-0.002263840,-0.001094000,-0.000504143,-0.012764383,0.008106978,-0.001135000,0.000593903,-0.004199223,-0.391153396,0.068824001,0.058530564,0.063812913,1.482596628,0.273748010,0.239367628,0.115221183,1.352620426,-0.292205006,-0.284868657,-0.010013281,-0.711654658,-0.001041000,-0.000380407,-0.019687276,-0.010907637
0.091991708,-0.000728000,-0.000458354,-0.007086226,0.011783889,-0.000351000,-0.000742628,-0.000432159,0.127317999,-0.005324000,-0.009235862,0.026072843,0.527815000,0.423898011,0.372751152,0.177868673,1.964794408,-0.400068015,-0.391992582,-0.044208323,-0.689224236,0.000000000,0.000013042,0.000433428,-0.002408301,-0.001120000,-0.000530163,-0.013010410,0.009308516,-0.001176000,0.000585144,-0.004379379,-0.396449747,0.068939999,0.058657954,0.063695143,1.482473610,0.273676008,0.239592733,0.112552485,1.352644718,-0.292286992,-0.284892161,-0.011752318,-0.712980392,-0.001112000,-0.000422166,-0.020879517,-0.010791883
0.093991528,-0.000748000,-0.000472529,-0.007087510,0.011330473,-0.000379000,-0.000743664,-0.000517668,0.121093381,-0.005272000,-0.009183279,0.026291528,0.522185436,0.423877001,0.373099880,0.174363894,1.966400909,-0.400128007,-0.392078301,-0.042859773,-0.690459391,0.000000000,0.000013941,0.000449559,-0.002550332,-0.001145000,-0.000556643,-0.013239853,0.010702005,-0.001217000,0.000576014,-0.004564889,-0.401539182,0.069054000,0.058785100,0.063573051,1.481899266,0.273602009,0.239812498,0.109882512,1.352847035,-0.292369992,-0.284919304,-0.013571520,-0.713946746,-0.001183000,-0.000466103,-0.021968110,-0.010357578
0.095991348,-0.000770000,-0.000486732,-0.007101446,0.010716839,-0.000406000,-0.000744883,-0.000609600,0.115362925,-0.005222000,-0.009130309,0.026484863,0.517073262,0.423853993,0.373441706,0.170912741,1.967958348,-0.400191009,-0.392161579,-0.041638893,-0.691693171,0.000000000,0.000014865,0.000461835,-0.002687063,-0.001169000,-0.000583546,-0.013451248,0.012157236,-0.001257000,0.000566505,-0.004754790,-0.406402080,0.069164000,0.058911991,0.063445070,1.480924548,0.273523003,0.240026923,0.107212388,1.353269587,-0.292452008,-0.284950164,-0.015429597,-0.714419885,-0.001252000,-0.000512039,-0.022968183,-0.009997916
0.097991168,-0.000794000,-0.000500993,-0.007130478,0.009964540,-0.000432000,-0.000746299,-0.000708043,0.110114286,-0.005174000,-0.009077005,0.026651736,0.511856059,0.423828989,0.373776743,0.167518930,1.969444474,-0.400258005,-0.392242706,-0.040563505,-0.693114972,0.000000000,0.000015805,0.000470130,-0.002815314,-0.001191000,-0.000610832,-0.013643023,0.013662051,-0.001297000,0.000556606,-0.004949072,-0.410773474,0.069270998,0.059038609,0.063309431,1.479018508,0.273440987,0.240236006,0.104541452,1.353714278,-0.292535007,-0.284984715,-0.017275834,-0.714307534,-0.001318000,-0.000559744,-0.023852739,-0.009485630
0.099990987,-0.000820000,-0.000515346,-0.007176547,0.009090608,-0.000457000,-0.000747924,-0.000812666,0.105353114,-0.005128000,-0.009023421,0.026792033,0.506574174,0.423803002,0.374105112,0.164184087,1.970825632,-0.400328994,-0.392322009,-0.039651434,-0.694744111,0.000000000,0.000016754,0.000474464,-0.002933924,-0.001210000,-0.000638457,-0.013812780,0.015309996,-0.001336000,0.000546311,-0.005147871,-0.414935313,0.069371998,0.059164936,0.063163152,1.476509344,0.273353994,0.240439758,0.101875845,1.354312031,-0.292614996,-0.285022902,-0.019093207,-0.713955060,-0.001381000,-0.000608931,-0.024593231,-0.008819776
0.101990807,-0.000854000,-0.000529828,-0.007241283,0.008109658,-0.000480000,-0.000749770,-0.000923008,0.101075439,-0.005084000,-0.008969610,0.026905622,0.501245036,0.423774004,0.374426931,0.160909434,1.972146811,-0.400402993,-0.392399835,-0.038913183,-0.696496902,0.000000000,0.000017704,0.000474965,-0.003042149,-0.001228000,-0.000666367,-0.013955117,0.017189386,-0.001375000,0.000535610,-0.005350288,-0.418597718,0.069471002,0.059290942,0.063003093,1.472619171,0.273259997,0.240638193,0.099217693,1.354894278,-0.292699993,-0.285064565,-0.020831744,-0.713013090,-0.001442000,-0.000659299,-0.025183935,-0.008110625
0.103990627,-0.000900000,-0.000544506,-0.007338843,0.006395346,-0.000504000,-0.000751849,-0.001039573,0.097558355,-0.005040000,-0.008915620,0.026995007,0.495886916,0.423741013,0.374742307,0.157688158,1.973263716,-0.400480986,-0.392476519,-0.038341586,-0.698208951,0.000000000,0.000018647,0.000471553,-0.003139578,-0.001244000,-0.000694508,-0.014070425,0.019050653,-0.001415000,0.000524499,-0.005555499,-0.422063212,0.069569997,0.059416599,0.062828572,1.468564108,0.273160011,0.240831336,0.096571435,1.355316959,-0.292793989,-0.285109615,-0.022525068,-0.712449855,-0.001503000,-0.000710588,-0.025644858,-0.007505789
0.105990447,-0.000959000,-0.000559490,-0.007492084,0.003608335,-0.000528000,-0.000754178,-0.001164113,0.093964037,-0.004998000,-0.008861489,0.027065615,0.491025489,0.423705995,0.375051322,0.154507332,1.974155911,-0.400563002,-0.392552385,-0.037933410,-0.699966347,0.000000000,0.000019584,0.000468267,-0.003225192,-0.001259000,-0.000722822,-0.014156868,0.020996834,-0.001455000,0.000512975,-0.005762199,-0.425633090,0.069669001,0.059541878,0.062639448,1.464933272,0.273054004,0.241019222,0.093942988,1.355611022,-0.292896003,-0.285158086,-0.024235119,-0.712582499,-0.001565000,-0.000762644,-0.026027747,-0.007176756
0.107990266,-0.001028000,-0.000574936,-0.007722746,-0.000216824,-0.000551000,-0.000756775,-0.001298553,0.090620929,-0.004956000,-0.008807255,0.027116879,0.485980243,0.423667997,0.375354059,0.151368583,1.975034413,-0.400647014,-0.392627771,-0.037692564,-0.701748257,0.000000000,0.000020511,0.000463611,-0.003310501,-0.001272000,-0.000751250,-0.014214074,0.022904810,-0.001496000,0.000501037,-0.005968997,-0.429051814,0.069766998,0.059666752,0.062437264,1.461742368,0.272942007,0.241201885,0.091331630,1.355730282,-0.293006003,-0.285210078,-0.025996240,-0.713132161,-0.001626000,-0.000815404,-0.026379913,-0.007093244
0.109990086,-0.001107000,-0.000591023,-0.008043723,-0.004620914,-0.000575000,-0.000759660,-0.001442854,0.087862394,-0.004914000,-0.008752950,0.027152684,0.481343290,0.423628002,0.375650581,0.148261338,1.975822111,-0.400732994,-0.392702961,-0.037595144,-0.703304934,0.000000000,0.000021420,0.000454797,-0.003390975,-0.001285000,-0.000779732,-0.014241129,0.024872829,-0.001537000,0.000488684,-0.006176592,-0.432634971,0.069863997,0.059791197,0.062222392,1.458675885,0.272825003,0.241379362,0.088738264,1.355679590,-0.293121994,-0.285265747,-0.027834667,-0.713987862,-0.001687000,-0.000868772,-0.026684245,-0.006924829
0.111989906,-0.001196000,-0.000607955,-0.008465829,-0.009511767,-0.000598000,-0.000762856,-0.001597933,0.085124715,-0.004873000,-0.008698600,0.027174912,0.477035632,0.423586011,0.375940942,0.145180424,1.976652282,-0.400821000,-0.392778207,-0.037622977,-0.704672331,0.000000000,0.000022310,0.000444826,-0.003457844,-0.001298000,-0.000808214,-0.014240753,0.026676111,-0.001578000,0.000475914,-0.006384580,-0.436082075,0.069959998,0.059915190,0.061996166,1.455734778,0.272702992,0.241551681,0.086159552,1.355512380,-0.293242991,-0.285325246,-0.029749099,-0.714857586,-0.001748000,-0.000922683,-0.026955513,-0.006830893
0.113989726,-0.001292000,-0.000625949,-0.008997132,-0.014806664,-0.000621000,-0.000766385,-0.001764189,0.083003204,-0.004833000,-0.008644234,0.027183067,0.472738247,0.423541009,0.376225195,0.142126578,1.977558389,-0.400911003,-0.392853736,-0.037764382,-0.705882823,0.000000000,0.000023174,0.000431839,-0.003519410,-0.001309000,-0.000836645,-0.014215541,0.028324192,-0.001619000,0.000462729,-0.006592885,-0.439402088,0.070054002,0.060038710,0.061760018,1.452895325,0.272576988,0.241718863,0.083591056,1.355250521,-0.293368995,-0.285388702,-0.031728420,-0.715630276,-0.001808000,-0.000977086,-0.027201532,-0.006776124
0.115989545,-0.001396000,-0.000645225,-0.009638078,-0.020116925,-0.000644000,-0.000770267,-0.001941235,0.081229034,-0.004794000,-0.008589879,0.027177554,0.468470374,0.423494011,0.376503391,0.139098058,1.978467753,-0.401001990,-0.392929747,-0.038005738,-0.706943647,0.000000000,0.000024007,0.000416395,-0.003569775,-0.001321000,-0.000864973,-0.014163984,0.030039631,-0.001660000,0.000449125,-0.006801729,-0.442596493,0.070147000,0.060161736,0.061513016,1.449846965,0.272446990,0.241880932,0.081034431,1.354988275,-0.293498009,-0.285456236,-0.033766968,-0.716324416,-0.001869000,-0.001031902,-0.027407944,-0.006642345
0.117989365,-0.001506000,-0.000666006,-0.010390382,-0.025523269,-0.000666000,-0.000774525,-0.002128892,0.079799579,-0.004755000,-0.008535561,0.027158530,0.464230341,0.423446000,0.376775579,0.136093561,1.979453566,-0.401093990,-0.393006401,-0.038326782,-0.707770923,0.000000000,0.000024805,0.000399386,-0.003610035,-0.001332000,-0.000893155,-0.014091050,0.031488500,-0.001700000,0.000435104,-0.007010532,-0.445659961,0.070238002,0.060284249,0.061256778,1.446898630,0.272312999,0.242037900,0.078483924,1.354712379,-0.293628991,-0.285527911,-0.035837556,-0.716742335,-0.001930000,-0.001087117,-0.027607502,-0.006680514
0.119989185,-0.001622000,-0.000688507,-0.011250571,-0.030779034,-0.000689000,-0.000779177,-0.002326147,0.079001075,-0.004716000,-0.008481309,0.027126167,0.460306880,0.423395991,0.377041804,0.133112569,1.980584183,-0.401185989,-0.393083825,-0.038711985,-0.708409158,0.000000000,0.000025564,0.000379272,-0.003642406,-0.001344000,-0.000921148,-0.013996341,0.032907536,-0.001739000,0.000420666,-0.007218979,-0.448321459,0.070326999,0.060406231,0.060991148,1.443737302,0.272177011,0.242189775,0.075937545,1.354462954,-0.293761998,-0.285603737,-0.037912647,-0.716849422,-0.001990000,-0.001142713,-0.027798089,-0.006697831
0.121989005,-0.001742000,-0.000712939,-0.012215745,-0.035880905,-0.000711000,-0.000784243,-0.002532708,0.078247524,-0.004678000,-0.008427146,0.027081655,0.456703522,0.423345000,0.377302106,0.130151192,1.981798188,-0.401279002,-0.393162100,-0.039137482,-0.708787129,0.000000000,0.000026282,0.000358970,-0.003661884,-0.001356000,-0.000948918,-0.013885159,0.034076650,-0.001777000,0.000405811,-0.007427785,-0.450588224,0.070413999,0.060527660,0.060714103,1.440369730,0.272038013,0.242336573,0.073399378,1.354379741,-0.293895990,-0.285683688,-0.039975535,-0.716729085,-0.002050000,-0.001198632,-0.027959093,-0.006601062
0.123988824,-0.001865000,-0.000739493,-0.013277369,-0.040609681,-0.000733000,-0.000789738,-0.002747593,0.078106163,-0.004641000,-0.008373101,0.027022549,0.453115944,0.423292011,0.377556537,0.127215636,1.983184762,-0.401371002,-0.393241298,-0.039599230,-0.709066945,0.000000000,0.000026954,0.000336084,-0.003676723,-0.001368000,-0.000976436,-0.013759078,0.035128907,-0.001814000,0.000390538,-0.007636347,-0.452443928,0.070497997,0.060648510,0.060425370,1.436850279,0.271896988,0.242478310,0.070868427,1.354368672,-0.294028014,-0.285767691,-0.042001494,-0.716325865,-0.002110000,-0.001254835,-0.028101943,-0.006555856
0.125988644,-0.001991000,-0.000768345,-0.014425661,-0.044886493,-0.000755000,-0.000795677,-0.002969568,0.078275241,-0.004603000,-0.008319203,0.026949076,0.449607887,0.423238993,0.377805145,0.124303758,1.984632516,-0.401463002,-0.393321439,-0.040070649,-0.709047960,0.000000000,0.000027578,0.000311810,-0.003679592,-0.001382000,-0.001003676,-0.013619899,0.036070025,-0.001850000,0.000374849,-0.007844387,-0.453902318,0.070579000,0.060768758,0.060123685,1.432905887,0.271755010,0.242614999,0.068344385,1.354498045,-0.294160008,-0.285855586,-0.043947594,-0.715419338,-0.002170000,-0.001311300,-0.028232364,-0.006533388
0.127988464,-0.002119000,-0.000799648,-0.015651597,-0.048748175,-0.000776000,-0.000802072,-0.003197479,0.078730884,-0.004567000,-0.008265478,0.026862080,0.446750894,0.423184991,0.378047974,0.121414436,1.986277949,-0.401553005,-0.393402522,-0.040541432,-0.708906194,0.000000000,0.000028151,0.000286870,-0.003673606,-0.001396000,-0.001030625,-0.013474685,0.036694224,-0.001884000,0.000358744,-0.008052393,-0.454970056,0.070657000,0.060888369,0.059805426,1.428574589,0.271611989,0.242746671,0.065835781,1.354836932,-0.294288993,-0.285947195,-0.045804610,-0.714343471,-0.002229000,-0.001368006,-0.028353039,-0.006519893
0.129988284,-0.002248000,-0.000833535,-0.016943835,-0.052122619,-0.000797000,-0.000808932,-0.003430266,0.079734595,-0.004530000,-0.008211961,0.026758908,0.443680589,0.423130006,0.378285079,0.118552437,1.988065939,-0.401641995,-0.393484502,-0.040989791,-0.708469270,0.000000000,0.000028671,0.000260048,-0.003660688,-0.001412000,-0.001057272,-0.013323450,0.037253337,-0.001917000,0.000342225,-0.008259649,-0.455351787,0.070731997,0.061007308,0.059469911,1.423945669,0.271468997,0.242873354,0.063341794,1.355317113,-0.294414014,-0.286042266,-0.047535575,-0.712841303,-0.002288000,-0.001424903,-0.028448464,-0.006408647
0.131988103,-0.002377000,-0.000870117,-0.018290749,-0.054953206,-0.000818000,-0.000816265,-0.003666360,0.080980908,-0.004494000,-0.008158677,0.026641697,0.441319156,0.423074991,0.378516505,0.115713146,1.989959154,-0.401730001,-0.393567307,-0.041402577,-0.707903068,0.000000000,0.000029137,0.000232580,-0.003636996,-0.001429000,-0.001083616,-0.013171989,0.037532977,-0.001947000,0.000325293,-0.008466240,-0.455348422,0.070803002,0.061125539,0.059115168,1.419044301,0.271324992,0.242995085,0.060865258,1.356010342,-0.294535011,-0.286140484,-0.049109075,-0.710947025,-0.002347000,-0.001481962,-0.028529463,-0.006349897
0.133987923,-0.002505000,-0.000909475,-0.019678959,-0.057187484,-0.000839000,-0.000824075,-0.003904799,0.082436272,-0.004458000,-0.008105661,0.026507946,0.439057563,0.423018992,0.378742311,0.112902996,1.992047764,-0.401814997,-0.393650861,-0.041776824,-0.707255169,0.000000000,0.000029547,0.000204980,-0.003605915,-0.001447000,-0.001109659,-0.013021537,0.037672457,-0.001976000,0.000307950,-0.008671172,-0.454389929,0.070871003,0.061243016,0.058738692,1.413644399,0.271180987,0.243111906,0.058410586,1.356828390,-0.294651002,-0.286241493,-0.050504122,-0.708775753,-0.002406000,-0.001539172,-0.028604914,-0.006315790
0.135987743,-0.002641000,-0.000951665,-0.021094887,-0.058785702,-0.000858000,-0.000832363,-0.004144036,0.084080228,-0.004423000,-0.008052943,0.026359021,0.437246277,0.422962993,0.378962547,0.110117823,1.994222123,-0.401901007,-0.393735036,-0.042087819,-0.706336977,0.000000000,0.000029902,0.000177477,-0.003568882,-0.001467000,-0.001135409,-0.012874673,0.037678988,-0.002003000,0.000290202,-0.008874298,-0.453068163,0.070935003,0.061359695,0.058339477,1.408096620,0.271032989,0.243223864,0.055979085,1.357801120,-0.294766992,-0.286344888,-0.051697708,-0.706323830,-0.002464000,-0.001596523,-0.028675582,-0.006282205
0.137987563,-0.002788000,-0.000996753,-0.022544266,-0.060778061,-0.000877000,-0.000841132,-0.004384690,0.086446702,-0.004387000,-0.008000558,0.026192538,0.435578554,0.422904015,0.379177279,0.107366053,1.996570797,-0.401988000,-0.393819756,-0.042359746,-0.705638157,0.000000000,0.000030200,0.000149334,-0.003526562,-0.001488000,-0.001160880,-0.012735567,0.037461306,-0.002030000,0.000272049,-0.009076092,-0.451103308,0.070995003,0.061475524,0.057914627,1.402152866,0.270877987,0.243331024,0.053579782,1.358664081,-0.294885993,-0.286450334,-0.052722819,-0.704203401,-0.002521000,-0.001653972,-0.028724502,-0.006146868
0.139987382,-0.002945000,-0.001044835,-0.024041142,-0.063444761,-0.000895000,-0.000850387,-0.004627363,0.088982056,-0.004352000,-0.007948532,0.026013112,0.434686815,0.422845006,0.379386556,0.104638474,1.998841433,-0.402076006,-0.393904957,-0.042600814,-0.705094838,0.000000000,0.000030445,0.000122255,-0.003476739,-0.001511000,-0.001186093,-0.012606365,0.037151242,-0.002056000,0.000253496,-0.009276901,-0.449053948,0.071053997,0.061590451,0.057463420,1.395893223,0.270716995,0.243433458,0.051217240,1.359158896,-0.295004994,-0.286557593,-0.053629523,-0.702658949,-0.002577000,-0.001711457,-0.028742251,-0.005962430
0.141987202,-0.003109000,-0.001096025,-0.025594615,-0.066589687,-0.000912000,-0.000860132,-0.004872503,0.091985277,-0.004317000,-0.007896894,0.025818947,0.433905640,0.422782987,0.379590439,0.101941654,2.001282802,-0.402164996,-0.393990612,-0.042827379,-0.704692934,0.000000000,0.000030633,0.000093926,-0.003424465,-0.001534000,-0.001211070,-0.012488595,0.036656470,-0.002081000,0.000234545,-0.009475396,-0.446628370,0.071108997,0.061704434,0.056991408,1.390200359,0.270552009,0.243531215,0.048878412,1.359312502,-0.295125991,-0.286666436,-0.054421536,-0.701267858,-0.002633000,-0.001768912,-0.028727495,-0.005761937
0.143987022,-0.003282000,-0.001150438,-0.027206603,-0.069829508,-0.000929000,-0.000870371,-0.005119384,0.095467886,-0.004282000,-0.007845670,0.025612257,0.433568226,0.422719985,0.379788982,0.099271300,2.003656102,-0.402253002,-0.394076703,-0.043045283,-0.704385859,0.000000000,0.000030759,0.000063247,-0.003362911,-0.001559000,-0.001235832,-0.012380921,0.036201226,-0.002105000,0.000215203,-0.009671073,-0.443858058,0.071162999,0.061817425,0.056495577,1.384111297,0.270384014,0.243624360,0.046572541,1.359340759,-0.295246005,-0.286776707,-0.055135397,-0.700244545,-0.002688000,-0.001826312,-0.028700064,-0.005656833
0.145986842,-0.003461000,-0.001208203,-0.028882663,-0.073354135,-0.000946000,-0.000881107,-0.005368291,0.099130258,-0.004247000,-0.007794880,0.025394561,0.433631615,0.422654986,0.379982229,0.096623982,2.006116505,-0.402341008,-0.394163189,-0.043243115,-0.703959965,0.000000000,0.000030824,0.000032645,-0.003288473,-0.001586000,-0.001260403,-0.012285609,0.035566951,-0.002128000,0.000195477,-0.009862987,-0.440756010,0.071214996,0.061929385,0.055980022,1.378559055,0.270213008,0.243712940,0.044289831,1.359235933,-0.295365989,-0.286888232,-0.055762871,-0.699199730,-0.002743000,-0.001883611,-0.028649553,-0.005492247
0.147986661,-0.003645000,-0.001269445,-0.030621048,-0.076798660,-0.000962000,-0.000892345,-0.005618913,0.102979932,-0.004213000,-0.007744548,0.025166462,0.434067722,0.422589004,0.380170228,0.093999097,2.008621486,-0.402429014,-0.394250034,-0.043422655,-0.703551153,0.000000000,0.000030828,0.000002058,-0.003208071,-0.001613000,-0.001284813,-0.012205146,0.034769075,-0.002151000,0.000175376,-0.010050420,-0.437345700,0.071266003,0.062040275,0.055444899,1.373176376,0.270040989,0.243797001,0.042030642,1.359064724,-0.295484990,-0.287000861,-0.056314297,-0.698270671,-0.002799000,-0.001940794,-0.028591471,-0.005403487
0.149986481,-0.003834000,-0.001334279,-0.032416722,-0.080053102,-0.000979000,-0.000904086,-0.005870602,0.107295137,-0.004180000,-0.007694695,0.024926375,0.434584479,0.422520012,0.380353030,0.091401340,2.011236483,-0.402516007,-0.394337211,-0.043588314,-0.703158050,0.000000000,0.000030769,-0.000029619,-0.003121528,-0.001642000,-0.001309088,-0.012137494,0.034038019,-0.002174000,0.000154913,-0.010231351,-0.433930277,0.071315996,0.062150058,0.054891658,1.368258843,0.269867003,0.243876586,0.039792442,1.358947725,-0.295601994,-0.287114439,-0.056789202,-0.697346963,-0.002854000,-0.001997897,-0.028551378,-0.005449054
0.151986301,-0.004026000,-0.001402811,-0.034266057,-0.083133734,-0.000996000,-0.000916332,-0.006123037,0.111493291,-0.004147000,-0.007645344,0.024675620,0.435224690,0.422450006,0.380530684,0.088826935,2.013796703,-0.402601004,-0.394424670,-0.043729364,-0.702668522,0.000000000,0.000030650,-0.000059396,-0.003025483,-0.001672000,-0.001333260,-0.012085828,0.033151788,-0.002195000,0.000134104,-0.010404583,-0.430559003,0.071364999,0.062258702,0.054322069,1.363777609,0.269694000,0.243951728,0.037570855,1.358840047,-0.295717001,-0.287228797,-0.057178708,-0.696343007,-0.002909000,-0.002054899,-0.028501315,-0.005350542
0.153986121,-0.004221000,-0.001475133,-0.036161114,-0.085836416,-0.001013000,-0.000929083,-0.006375171,0.115851846,-0.004114000,-0.007596514,0.024414905,0.436248762,0.422376990,0.380703232,0.086274061,2.016452160,-0.402684987,-0.394512333,-0.043831882,-0.702018644,0.000000000,0.000030474,-0.000088367,-0.002928822,-0.001704000,-0.001357358,-0.012049288,0.032238362,-0.002216000,0.000112974,-0.010564785,-0.426694897,0.071414001,0.062366174,0.053735631,1.359708305,0.269522011,0.244022464,0.035368459,1.358957059,-0.295830011,-0.287343761,-0.057482127,-0.695301309,-0.002965000,-0.002111802,-0.028451369,-0.005290472
0.155985940,-0.004418000,-0.001551322,-0.038094663,-0.088196321,-0.001031000,-0.000942336,-0.006626393,0.120346904,-0.004082000,-0.007548223,0.024145210,0.437646350,0.422302991,0.380870714,0.083740589,2.019086951,-0.402767003,-0.394600122,-0.043894107,-0.701355183,0.000000000,0.000030241,-0.000116405,-0.002828594,-0.001737000,-0.001381421,-0.012031147,0.031189494,-0.002237000,0.000091570,-0.010702403,-0.423034496,0.071462996,0.062472440,0.053133257,1.356353483,0.269351006,0.244088834,0.033184807,1.359279896,-0.295938998,-0.287459159,-0.057698816,-0.694241222,-0.003021000,-0.002168644,-0.028420962,-0.005341227
0.157985760,-0.004616000,-0.001631438,-0.040057770,-0.090139590,-0.001050000,-0.000956088,-0.006876262,0.124679934,-0.004051000,-0.007500493,0.023865255,0.439116173,0.422226995,0.381033173,0.081229634,2.021841760,-0.402846992,-0.394687941,-0.043909647,-0.700594908,0.000000000,0.000029957,-0.000142044,-0.002725354,-0.001772000,-0.001405485,-0.012032151,0.030134229,-0.002257000,0.000069984,-0.010792812,-0.419806640,0.071512997,0.062577474,0.052516652,1.353699439,0.269183993,0.244150866,0.031015896,1.359807483,-0.296043009,-0.287574780,-0.057810430,-0.692977292,-0.003078000,-0.002225441,-0.028398780,-0.005342582
0.159985580,-0.004813000,-0.001715519,-0.042040532,-0.091603771,-0.001069000,-0.000970336,-0.007124024,0.128840178,-0.004021000,-0.007453343,0.023574833,0.440692924,0.422147989,0.381190656,0.078741654,2.024627606,-0.402925014,-0.394775686,-0.043872379,-0.699759404,0.000000000,0.000029627,-0.000165075,-0.002623751,-0.001808000,-0.001429597,-0.012056029,0.028974246,-0.002277000,0.000048477,-0.010753408,-0.417310947,0.071562998,0.062681247,0.051886494,1.352003743,0.269019991,0.244208589,0.028861350,1.360756537,-0.296144009,-0.287690379,-0.057799518,-0.691486532,-0.003135000,-0.002282236,-0.028397361,-0.005426102
0.161985400,-0.005009000,-0.001803578,-0.044029528,-0.092427492,-0.001090000,-0.000985073,-0.007368443,0.133093578,-0.003991000,-0.007406795,0.023273893,0.442387205,0.422066987,0.381343209,0.076276506,2.027374327,-0.402999014,-0.394863243,-0.043778791,-0.698882772,0.000000000,0.000029253,-0.000186983,-0.002524909,-0.001845000,-0.001453818,-0.012110376,0.027842112,-0.002296000,0.000028112,-0.010182777,-0.417773961,0.071615003,0.062783728,0.051240852,1.350972815,0.268860996,0.244262046,0.026728601,1.362065796,-0.296238989,-0.287805732,-0.057676771,-0.690042111,-0.003194000,-0.002339020,-0.028391978,-0.005450881
0.163985219,-0.005203000,-0.001895606,-0.046013725,-0.092685371,-0.001112000,-0.001000291,-0.007609082,0.136841817,-0.003963000,-0.007360867,0.022964406,0.444490591,0.421983987,0.381490866,0.073828475,2.030144052,-0.403070003,-0.394950456,-0.043606348,-0.697778562,0.000000000,0.000028843,-0.000204600,-0.002424828,-0.001884000,-0.001478267,-0.012224718,0.026787286,-0.002315000,-0.000016408,-0.022259703,-0.430292882,0.071667999,0.062884889,0.050580416,1.351228864,0.268707991,0.244311280,0.024617070,1.363805804,-0.296328992,-0.287920577,-0.057422519,-0.688332029,-0.003253000,-0.002395756,-0.028367779,-0.005690171
0.165985039,-0.005393000,-0.001991571,-0.047982876,-0.092334156,-0.001135000,-0.001015963,-0.007835956,0.140357139,-0.003935000,-0.007315582,0.022642033,0.446394630,0.421898991,0.381633681,0.071407376,2.032975242,-0.403138012,-0.395037176,-0.043359823,-0.696629185,0.000000000,0.000028389,-0.000227474,-0.002333386,-0.001924000,-0.001501423,-0.011578103,0.025882910,-0.002333000,-0.000028264,-0.005927958,-0.149871104,0.071722999,0.062984819,0.049965128,1.352476649,0.268561006,0.244356067,0.022393372,1.366040123,-0.296411991,-0.288034384,-0.056903493,-0.686544208,-0.003314000,-0.002455336,-0.029790179,-0.005987823
0.167984859,-0.005581000,-0.002091403,-0.049916090,-0.091221909,-0.001160000,-0.001032120,-0.008078461,0.143405826,-0.003908000,-0.007270955,0.022313565,0.448773545,0.421810001,0.381771680,0.068999563,2.035794730,-0.403203011,-0.395123215,-0.043019926,-0.695439053,0.000000000,0.000027932,-0.000228118,-0.002222378,-0.001966000,-0.001525832,-0.012204376,0.020430896,-0.002352000,-0.000049500,-0.010618209,-0.521025304,0.071778998,0.063083267,0.049223843,1.353622700,0.268418014,0.244396993,0.020463044,1.369732908,-0.296489000,-0.288147480,-0.056547985,-0.684906237,-0.003376000,-0.002511972,-0.028318012,-0.002087416
0.169984679,-0.005771000,-0.002195017,-0.051806789,-0.089687571,-0.001188000,-0.001048720,-0.008300015,0.146377457,-0.003882000,-0.007227011,0.021972231,0.451192725,0.421716988,0.381904912,0.066616229,2.038571711,-0.403266996,-0.395208421,-0.042603002,-0.694278873,0.000000000,0.000027464,-0.000233897,-0.002174437,-0.002013000,-0.001550539,-0.012353527,0.022097372,-0.002371000,-0.000072581,-0.011540255,-0.414300818,0.071836002,0.063180319,0.048526057,1.358323869,0.268270999,0.244433803,0.018404927,1.371836516,-0.296564013,-0.288259094,-0.055807106,-0.682269837,-0.003440000,-0.002569277,-0.028652580,-0.006814895
0.171984498,-0.005962000,-0.002302341,-0.053662203,-0.088203775,-0.001217000,-0.001065752,-0.008516212,0.148148407,-0.003856000,-0.007183766,0.021622640,0.453812724,0.421618998,0.382033418,0.064252949,2.041221652,-0.403329998,-0.395292666,-0.042122370,-0.693319547,0.000000000,0.000026983,-0.000240548,-0.002110730,-0.002063000,-0.001575521,-0.012490736,0.020564584,-0.002391000,-0.000096363,-0.011891415,-0.392285160,0.071893997,0.063275987,0.047833775,1.362723717,0.268119991,0.244466486,0.016341463,1.374854322,-0.296636999,-0.288368964,-0.054934675,-0.680676999,-0.003504000,-0.002627297,-0.029010042,-0.006540314
0.173984318,-0.006154000,-0.002413300,-0.055479427,-0.086630589,-0.001248000,-0.001083211,-0.008729337,0.149636844,-0.003831000,-0.007141233,0.021266339,0.456818234,0.421516001,0.382157228,0.061904898,2.043713233,-0.403391987,-0.395375846,-0.041589757,-0.692539097,0.000000000,0.000026500,-0.000241667,-0.002043200,-0.002117000,-0.001600857,-0.012668026,0.018673710,-0.002412000,-0.000120626,-0.012131186,-0.383267056,0.071951002,0.063370243,0.047128272,1.367674294,0.267967999,0.244495104,0.014309140,1.377918567,-0.296707004,-0.288476952,-0.053994289,-0.679429692,-0.003571000,-0.002685822,-0.029262467,-0.006128411
0.175984138,-0.006348000,-0.002527815,-0.057257150,-0.084992486,-0.001281000,-0.001101089,-0.008939136,0.150608460,-0.003806000,-0.007099425,0.020903830,0.459893824,0.421409994,0.382276370,0.059571194,2.046076938,-0.403452992,-0.395457879,-0.041016918,-0.691911677,0.000000000,0.000026029,-0.000235756,-0.001991168,-0.002175000,-0.001626622,-0.012882779,0.016620941,-0.002433000,-0.000145291,-0.012332355,-0.376916348,0.072008997,0.063463067,0.046411962,1.373043347,0.267814010,0.244519710,0.012302971,1.380956077,-0.296775997,-0.288582922,-0.052984737,-0.678264467,-0.003638000,-0.002744899,-0.029538227,-0.006267302
0.177983957,-0.006543000,-0.002645810,-0.058997859,-0.083412004,-0.001316000,-0.001119380,-0.009145281,0.151055610,-0.003782000,-0.007058353,0.020536385,0.463315893,0.421299011,0.382390872,0.057250741,2.048443355,-0.403513014,-0.395538709,-0.040414663,-0.691415015,0.000000000,0.000025578,-0.000225342,-0.001960321,-0.002235000,-0.001652888,-0.013132661,0.014399440,-0.002453000,-0.000170314,-0.012511583,-0.371324406,0.072067000,0.063554449,0.045690786,1.379345706,0.267661005,0.244540336,0.010313020,1.383935001,-0.296842009,-0.288686764,-0.051920988,-0.677397532,-0.003705000,-0.002804565,-0.029833382,-0.006284115
0.179983777,-0.006739000,-0.002767215,-0.060702105,-0.081776374,-0.001351000,-0.001138076,-0.009348002,0.150968830,-0.003758000,-0.007018024,0.020164431,0.466774347,0.421186000,0.382500758,0.054943000,2.050694350,-0.403571993,-0.395618292,-0.039791838,-0.691024321,0.000000000,0.000025153,-0.000212478,-0.001944381,-0.002300000,-0.001679719,-0.013415505,0.012216675,-0.002474000,-0.000195667,-0.012676725,-0.365842679,0.072126001,0.063644379,0.044965383,1.386170231,0.267509997,0.244557016,0.008340268,1.387112163,-0.296905994,-0.288788382,-0.050808951,-0.676598499,-0.003774000,-0.002864827,-0.030130765,-0.006186129
0.181983597,-0.006935000,-0.002891953,-0.062369207,-0.080090138,-0.001388000,-0.001157170,-0.009547114,0.150919847,-0.003735000,-0.006978448,0.019787968,0.470546155,0.421068996,0.382606057,0.052649493,2.053018521,-0.403629005,-0.395696606,-0.039156687,-0.690712581,0.000000000,0.000024753,-0.000200121,-0.001938005,-0.002367000,-0.001707198,-0.013739481,0.009747644,-0.002493000,-0.000221335,-0.012833879,-0.360869878,0.072186001,0.063732850,0.044235465,1.393786524,0.267363012,0.244569794,0.006388842,1.390542417,-0.296968013,-0.288887713,-0.049665858,-0.675956710,-0.003843000,-0.002925729,-0.030451170,-0.006223829
0.183983417,-0.007133000,-0.003019947,-0.063997062,-0.078258597,-0.001426000,-0.001176656,-0.009742928,0.150333949,-0.003712000,-0.006939632,0.019407668,0.474349723,0.420949012,0.382706793,0.050368202,2.055279008,-0.403683990,-0.395773615,-0.038504669,-0.690365476,0.000000000,0.000024381,-0.000185789,-0.001932684,-0.002437000,-0.001735402,-0.014101980,0.007367097,-0.002512000,-0.000247306,-0.012985469,-0.355419905,0.072245002,0.063819851,0.043500347,1.402203682,0.267221004,0.244578722,0.004463934,1.394321737,-0.297028005,-0.288984727,-0.048506898,-0.675435477,-0.003913000,-0.002987271,-0.030770900,-0.006131288
0.185983236,-0.007330000,-0.003151123,-0.065588118,-0.076515155,-0.001465000,-0.001196528,-0.009935867,0.149500490,-0.003689000,-0.006901583,0.019024783,0.478456289,0.420828015,0.382802987,0.048096566,2.057552608,-0.403737992,-0.395849281,-0.037832780,-0.689993302,0.000000000,0.000024041,-0.000169858,-0.001935877,-0.002509000,-0.001764411,-0.014504798,0.004961927,-0.002530000,-0.000273573,-0.013133627,-0.350009671,0.072305001,0.063905364,0.042756565,1.410872578,0.267084986,0.244583875,0.002576777,1.398470116,-0.297086000,-0.289079421,-0.047346798,-0.674988800,-0.003982000,-0.003049463,-0.031095843,-0.006077156
0.187983056,-0.007529000,-0.003285399,-0.067137787,-0.074534010,-0.001505000,-0.001216779,-0.010125713,0.148427481,-0.003667000,-0.006864306,0.018638205,0.482839041,0.420704007,0.382894665,0.045839179,2.059980555,-0.403789014,-0.395923585,-0.037151880,-0.689714035,0.000000000,0.000023735,-0.000153384,-0.001946836,-0.002585000,-0.001794301,-0.014945032,0.002657417,-0.002546000,-0.000300130,-0.013278664,-0.344308538,0.072365999,0.063989374,0.042004904,1.420444084,0.266957998,0.244585333,0.000728737,1.402966936,-0.297141999,-0.289171802,-0.046190706,-0.674578050,-0.004052000,-0.003112249,-0.031392902,-0.005841406
0.189982876,-0.007727000,-0.003422697,-0.068648917,-0.072669725,-0.001545000,-0.001237405,-0.010312985,0.147108163,-0.003646000,-0.006827809,0.018248487,0.487240800,0.420578003,0.382981853,0.043593922,2.062402268,-0.403838009,-0.395996483,-0.036449369,-0.689296819,0.000000000,0.000023463,-0.000135824,-0.001962666,-0.002662000,-0.001825149,-0.015423989,0.000232004,-0.002560000,-0.000326970,-0.013419951,-0.338027125,0.072428003,0.064071862,0.041243769,1.430904886,0.266840011,0.244583188,-0.001072532,1.407989562,-0.297196001,-0.289261896,-0.045046911,-0.674187789,-0.004122000,-0.003175623,-0.031687432,-0.005725977
0.191982696,-0.007925000,-0.003562931,-0.070117044,-0.070594659,-0.001586000,-0.001258399,-0.010497159,0.145837095,-0.003624000,-0.006792100,0.017854493,0.491650864,0.420450985,0.383064581,0.041364173,2.064895277,-0.403885007,-0.396067938,-0.035727263,-0.688878230,0.000000000,0.000023224,-0.000119404,-0.001985136,-0.002742000,-0.001857021,-0.015935681,-0.001978941,-0.002572000,-0.000354084,-0.013556739,-0.331181629,0.072489999,0.064152807,0.040472871,1.442298562,0.266732991,0.244577542,-0.002822990,1.413475803,-0.297248006,-0.289349735,-0.043919580,-0.673791959,-0.004191000,-0.003239567,-0.031971985,-0.005558204
0.193982515,-0.008124000,-0.003706013,-0.071541322,-0.068449800,-0.001626000,-0.001279756,-0.010678124,0.144316434,-0.003603000,-0.006757184,0.017457994,0.496665951,0.420323998,0.383142875,0.039147023,2.067495731,-0.403928995,-0.396137906,-0.034984247,-0.688459505,0.000000000,0.000023019,-0.000102659,-0.002007683,-0.002823000,-0.001889981,-0.016480277,-0.004215442,-0.002583000,-0.000381463,-0.013689513,-0.323791726,0.072552003,0.064232186,0.039689414,1.454349210,0.266638011,0.244568517,-0.004512489,1.419514758,-0.297298014,-0.289435366,-0.042815263,-0.673375387,-0.004260000,-0.003304014,-0.032223546,-0.005260191
0.195982335,-0.008321000,-0.003851857,-0.072921914,-0.066355883,-0.001667000,-0.001301467,-0.010855880,0.143110271,-0.003583000,-0.006723071,0.017056847,0.501678787,0.420195013,0.383216771,0.036948039,2.070288612,-0.403970987,-0.396206339,-0.034216375,-0.687946203,0.000000000,0.000022843,-0.000087879,-0.002034537,-0.002906000,-0.001924088,-0.017053306,-0.006256389,-0.002590000,-0.000409098,-0.013817460,-0.316132880,0.072616003,0.064309970,0.038891685,1.467131459,0.266557992,0.244556250,-0.006133508,1.426094369,-0.297347009,-0.289518839,-0.041736823,-0.672914800,-0.004328000,-0.003368917,-0.032451407,-0.005005124
0.197982155,-0.008519000,-0.004000365,-0.074253674,-0.064001463,-0.001707000,-0.001323528,-0.011030030,0.141648356,-0.003562000,-0.006689769,0.016650839,0.506740564,0.420065999,0.383286308,0.034768397,2.073104040,-0.404009014,-0.396273191,-0.033425897,-0.687456976,0.000000000,0.000022696,-0.000073501,-0.002058794,-0.002991000,-0.001959389,-0.017650561,-0.008227550,-0.002595000,-0.000436975,-0.013938774,-0.307373420,0.072679996,0.064386128,0.038079289,1.481257556,0.266492993,0.244540890,-0.007679878,1.433337000,-0.297394007,-0.289600227,-0.040693915,-0.672496220,-0.004395000,-0.003434208,-0.032645495,-0.004670337
0.199981975,-0.008716000,-0.004151442,-0.075538593,-0.061745894,-0.001748000,-0.001345928,-0.011200212,0.140488128,-0.003542000,-0.006657285,0.016242086,0.512427353,0.419937998,0.383351515,0.032603271,2.076055461,-0.404044986,-0.396338384,-0.032596389,-0.686791204,0.000000000,0.000022574,-0.000061033,-0.002084814,-0.003078000,-0.001995930,-0.018270549,-0.010147567,-0.002596000,-0.000465082,-0.014053564,-0.298126607,0.072743997,0.064460628,0.037249733,1.496175157,0.266443998,0.244522605,-0.009142439,1.441193149,-0.297439009,-0.289679601,-0.039686978,-0.671985626,-0.004462000,-0.003499806,-0.032798684,-0.004291295
0.201981794,-0.008910000,-0.004304990,-0.076773978,-0.059374668,-0.001789000,-0.001368661,-0.011366756,0.139050617,-0.003521000,-0.006625630,0.015827615,0.518124419,0.419806987,0.383412438,0.030461559,2.079241224,-0.404076993,-0.396401862,-0.031738956,-0.686196236,-0.000001000,0.000022477,-0.000048541,-0.002107926,-0.003168000,-0.002033750,-0.018909775,-0.012020047,-0.002596000,-0.000493402,-0.014159883,-0.287825106,0.072811998,0.064533431,0.036401499,1.511954592,0.266406000,0.244501577,-0.010514230,1.449649224,-0.297482014,-0.289757029,-0.038713972,-0.671374498,-0.004528000,-0.003565669,-0.032931864,-0.003997516
0.203981614,-0.009102000,-0.004460899,-0.077954628,-0.056700436,-0.001833000,-0.001391718,-0.011528271,0.137625534,-0.003500000,-0.006594807,0.015411489,0.524470612,0.419672012,0.383469104,0.028333076,2.082340988,-0.404105991,-0.396463534,-0.030836205,-0.685453381,-0.000002000,0.000022364,-0.000056437,-0.002234693,-0.003265000,-0.002072885,-0.019567856,-0.013967239,-0.002595000,-0.000521917,-0.014257452,-0.277370517,0.072881997,0.064604515,0.035542223,1.529775990,0.266368002,0.244477954,-0.011811542,1.458328036,-0.297520995,-0.289832547,-0.037758900,-0.670661774,-0.004595000,-0.003631731,-0.033031017,-0.003632662
0.205981434,-0.009292000,-0.004619057,-0.079078856,-0.053870800,-0.001880000,-0.001415090,-0.011685980,0.135325764,-0.003479000,-0.006564817,0.014995050,0.531090814,0.419533014,0.383521533,0.026214413,2.085365252,-0.404132009,-0.396523308,-0.029886955,-0.684717627,-0.000004000,0.000022226,-0.000068862,-0.002301903,-0.003368000,-0.002113390,-0.020252146,-0.016413670,-0.002592000,-0.000550611,-0.014346744,-0.266774150,0.072956003,0.064673878,0.034681240,1.548903184,0.266330987,0.244451833,-0.013060497,1.466641340,-0.297558993,-0.289906118,-0.036785326,-0.669684494,-0.004662000,-0.003697991,-0.033129876,-0.003445548
0.207981254,-0.009480000,-0.004779348,-0.080145730,-0.050907429,-0.001928000,-0.001438771,-0.011840375,0.132176835,-0.003457000,-0.006535658,0.014579383,0.537954907,0.419391990,0.383569739,0.024103277,2.088333230,-0.404155999,-0.396581093,-0.028892428,-0.684004746,-0.000008000,0.000022029,-0.000098898,-0.002454790,-0.003476000,-0.002155323,-0.020966679,-0.019205558,-0.002589000,-0.000579466,-0.014427931,-0.255745717,0.073032998,0.064741529,0.033825585,1.569697835,0.266297013,0.244423280,-0.014276607,1.474830823,-0.297594011,-0.289977715,-0.035798736,-0.668857211,-0.004729000,-0.003764445,-0.033226825,-0.003239332
0.209981073,-0.009667000,-0.004941656,-0.081153791,-0.047827723,-0.001977000,-0.001462753,-0.011991057,0.128756451,-0.003434000,-0.006507328,0.014164809,0.545322029,0.419247001,0.383613741,0.022000832,2.091386404,-0.404177994,-0.396636823,-0.027864980,-0.683416797,-0.000012000,0.000021680,-0.000174019,-0.002753666,-0.003590000,-0.002198753,-0.021715105,-0.022207039,-0.002586000,-0.000608470,-0.014502030,-0.244854473,0.073110998,0.064807487,0.032979019,1.591707630,0.266263992,0.244392343,-0.015468232,1.483132486,-0.297627002,-0.290047297,-0.034790808,-0.667965154,-0.004796000,-0.003831081,-0.033318196,-0.003018904
0.211980893,-0.009854000,-0.005105864,-0.082104231,-0.044759179,-0.002027000,-0.001487031,-0.012138999,0.125053546,-0.003413000,-0.006479822,0.013753266,0.553184338,0.419101000,0.383653548,0.019903452,2.094393029,-0.404199004,-0.396690446,-0.026811602,-0.682928319,-0.000018000,0.000021149,-0.000265709,-0.002909183,-0.003707000,-0.002243760,-0.022503490,-0.025496883,-0.002581000,-0.000637611,-0.014570234,-0.234081425,0.073190004,0.064871772,0.032142553,1.614279013,0.266232014,0.244359069,-0.016636829,1.491470892,-0.297659010,-0.290114831,-0.033766959,-0.667132679,-0.004863000,-0.003897887,-0.033402769,-0.002795912
0.213980713,-0.010042000,-0.005271862,-0.082999054,-0.041813861,-0.002077000,-0.001511600,-0.012284515,0.121088455,-0.003391000,-0.006453141,0.013340407,0.560643626,0.418951988,0.383689195,0.017823567,2.097564608,-0.404217988,-0.396741955,-0.025754804,-0.682627084,-0.000024000,0.000020352,-0.000398611,-0.003201191,-0.003828000,-0.002290417,-0.023328306,-0.028712440,-0.002576000,-0.000666873,-0.014631251,-0.222834524,0.073269002,0.064934407,0.031317564,1.637383378,0.266202986,0.244323502,-0.017783577,1.499859126,-0.297690004,-0.290180310,-0.032739988,-0.666453027,-0.004929000,-0.003964854,-0.033483854,-0.002575105
0.215980533,-0.010230000,-0.005439550,-0.083843759,-0.039098821,-0.002127000,-0.001536456,-0.012428046,0.117151289,-0.003370000,-0.006427281,0.012929874,0.568651568,0.418803006,0.383720702,0.015753390,2.100684462,-0.404237986,-0.396791340,-0.024692029,-0.682344366,-0.000031000,0.000019261,-0.000545545,-0.003349170,-0.003952000,-0.002338800,-0.024191559,-0.031972514,-0.002570000,-0.000696246,-0.014686132,-0.211715430,0.073348999,0.064995412,0.030502515,1.660695003,0.266175985,0.244285697,-0.018902598,1.508423290,-0.297719985,-0.290243758,-0.031723700,-0.665887421,-0.004996000,-0.004031934,-0.033539683,-0.002246782
0.217980352,-0.010420000,-0.005608829,-0.084639721,-0.036487212,-0.002177000,-0.001561596,-0.012569843,0.113250808,-0.003350000,-0.006402246,0.012517776,0.576556024,0.418653011,0.383748113,0.013705711,2.103998718,-0.404256999,-0.396838657,-0.023658602,-0.682395870,-0.000039000,0.000017835,-0.000712769,-0.003528619,-0.004079000,-0.002388980,-0.025090255,-0.035150950,-0.002563000,-0.000725712,-0.014733209,-0.200419673,0.073426999,0.065054810,0.029699136,1.684528948,0.266151011,0.244245704,-0.019996320,1.517059740,-0.297751009,-0.290305204,-0.030723093,-0.665394461,-0.005061000,-0.004099138,-0.033602116,-0.002080021
0.219980172,-0.010613000,-0.005779616,-0.085393346,-0.034194699,-0.002226000,-0.001587016,-0.012710216,0.109391646,-0.003331000,-0.006378037,0.012104208,0.584445978,0.418502986,0.383771475,0.011681033,2.107347740,-0.404278010,-0.396883970,-0.022656667,-0.682473428,-0.000047000,0.000016032,-0.000901603,-0.003717648,-0.004207000,-0.002441028,-0.026023827,-0.038257197,-0.002556000,-0.000755260,-0.014773838,-0.188989414,0.073504001,0.065112617,0.028903267,1.707988062,0.266128004,0.244203600,-0.021052358,1.525782550,-0.297780991,-0.290364740,-0.029768186,-0.665164589,-0.005127000,-0.004166392,-0.033627132,-0.001679780
0.221979992,-0.010808000,-0.005951840,-0.086111901,-0.032300693,-0.002273000,-0.001612716,-0.012849942,0.105864406,-0.003313000,-0.006354662,0.011687431,0.592319981,0.418352991,0.383790849,0.009686687,2.110787165,-0.404298991,-0.396927404,-0.021716865,-0.682865776,-0.000057000,0.000013844,-0.001094011,-0.003807072,-0.004337000,-0.002495000,-0.026985802,-0.041073765,-0.002549000,-0.000784872,-0.014806102,-0.177681929,0.073578000,0.065168849,0.028116043,1.731445957,0.266108990,0.244159453,-0.022073294,1.534495151,-0.297812998,-0.290422447,-0.028853421,-0.664892391,-0.005191000,-0.004233698,-0.033653088,-0.001481901
0.223979812,-0.011007000,-0.006125440,-0.086799935,-0.030665058,-0.002319000,-0.001638692,-0.012987911,0.102970367,-0.003296000,-0.006332127,0.011267400,0.600219252,0.418204010,0.383806295,0.007723380,2.114264815,-0.404321015,-0.396969085,-0.020840439,-0.683268432,-0.000067000,0.000011203,-0.001320537,-0.004049576,-0.004467000,-0.002550950,-0.027975043,-0.043737822,-0.002540000,-0.000814535,-0.014831407,-0.166545369,0.073650002,0.065223513,0.027332037,1.754302388,0.266092002,0.244113366,-0.023043369,1.543339468,-0.297845006,-0.290478470,-0.028011502,-0.664895783,-0.005255000,-0.004300977,-0.033639162,-0.001073971
0.225979631,-0.011210000,-0.006300371,-0.087465751,-0.029481618,-0.002362000,-0.001664942,-0.013125099,0.100399360,-0.003282000,-0.006310440,0.010843590,0.608146750,0.418056995,0.383817883,0.005793975,2.117833871,-0.404345989,-0.397009160,-0.020037467,-0.683773479,-0.000079000,0.000008103,-0.001549742,-0.004149291,-0.004597000,-0.002608913,-0.028981850,-0.046036746,-0.002531000,-0.000844229,-0.014846863,-0.154983246,0.073717996,0.065276619,0.026552812,1.776964150,0.266077995,0.244065433,-0.023966744,1.552072824,-0.297879010,-0.290532942,-0.027235762,-0.664862250,-0.005317000,-0.004368198,-0.033610447,-0.000782241
0.227979451,-0.011419000,-0.006476602,-0.088115462,-0.028708346,-0.002402000,-0.001691464,-0.013260849,0.098741334,-0.003269000,-0.006289617,0.010411536,0.615547821,0.417910993,0.383825706,0.003911478,2.121529936,-0.404372990,-0.397047832,-0.019336192,-0.684530186,-0.000091000,0.000004532,-0.001785676,-0.004397191,-0.004727000,-0.002668916,-0.030001404,-0.048021756,-0.002522000,-0.000873935,-0.014853456,-0.143635137,0.073781997,0.065328167,0.025774322,1.798821386,0.266066998,0.244015767,-0.024832783,1.560779137,-0.297915012,-0.290586035,-0.026546615,-0.664999174,-0.005379000,-0.004435270,-0.033536269,-0.000336230
0.229979271,-0.011632000,-0.006654122,-0.088759965,-0.028527148,-0.002439000,-0.001718254,-0.013395036,0.097980776,-0.003258000,-0.006269671,0.009973148,0.623096814,0.417768002,0.383829851,0.002072265,2.125194392,-0.404404014,-0.397085310,-0.018739022,-0.685344335,-0.000103000,-0.000001668,-0.003099969,-0.004578274,-0.004856000,-0.002730973,-0.031028328,-0.049717325,-0.002512000,-0.000903636,-0.014850029,-0.132483818,0.073840998,0.065378157,0.024994663,1.819969430,0.266059011,0.243964494,-0.025636737,1.569377441,-0.297953993,-0.290637943,-0.025953748,-0.665231012,-0.005439000,-0.004502157,-0.033443590,-0.000034461
0.231979091,-0.011852000,-0.006832928,-0.089403203,-0.028664375,-0.002473000,-0.001745335,-0.013540452,0.098113802,-0.003249000,-0.006250619,0.009525799,0.630469788,0.417627007,0.383830421,0.000284988,2.128973668,-0.404437006,-0.397121850,-0.018269866,-0.686389832,-0.000117000,-0.000004253,-0.001292408,-0.001427921,-0.004984000,-0.002795084,-0.032055402,-0.051045722,-0.002502000,-0.000933308,-0.014836150,-0.121276764,0.073895000,0.065426579,0.024210993,1.840166095,0.266054988,0.243911751,-0.026371618,1.577826132,-0.297995001,-0.290688887,-0.025472412,-0.665610163,-0.005498000,-0.004568774,-0.033308439,0.000398105
0.233978910,-0.012080000,-0.007013046,-0.090058968,-0.029417748,-0.002502000,-0.001772652,-0.013658662,0.099436243,-0.003243000,-0.006232479,0.009070169,0.637731217,0.417490005,0.383827516,-0.001452312,2.132735695,-0.404475003,-0.397157694,-0.017921946,-0.687365007,-0.000132000,-0.000009689,-0.002718224,-0.007720494,-0.005109000,-0.002861237,-0.033076662,-0.052047704,-0.002492000,-0.000962930,-0.014811151,-0.110314029,0.073942997,0.065473422,0.023421660,1.859477955,0.266054988,0.243857682,-0.027034438,1.586127060,-0.298038989,-0.290739091,-0.025101676,-0.665974336,-0.005555000,-0.004635052,-0.033138861,0.000783697
0.235978730,-0.012321000,-0.007194512,-0.090732737,-0.030813232,-0.002531000,-0.001800229,-0.013788585,0.101631760,-0.003238000,-0.006215273,0.008603174,0.644586300,0.417353988,0.383821256,-0.003129893,2.136614207,-0.404518992,-0.397193132,-0.017719392,-0.688571846,-0.000160000,-0.000015945,-0.003127949,-0.004633439,-0.005234000,-0.002929403,-0.034082797,-0.052545037,-0.002477000,-0.000992479,-0.014774501,-0.099617081,0.073990002,0.065518669,0.022623729,1.877659704,0.266066998,0.243802444,-0.027618978,1.594253643,-0.298083991,-0.290788789,-0.024849054,-0.666400207,-0.005612000,-0.004700894,-0.032921187,0.001239218
0.237978550,-0.012576000,-0.007377416,-0.091451874,-0.033348994,-0.002560000,-0.001828057,-0.013914101,0.104166053,-0.003233000,-0.006199016,0.008128125,0.651679674,0.417219996,0.383811748,-0.004754117,2.140342288,-0.404569000,-0.397228488,-0.017677983,-0.690011754,-0.000205000,-0.000023325,-0.003689873,-0.005666159,-0.005361000,-0.002999537,-0.035067439,-0.052913414,-0.002456000,-0.001021923,-0.014722145,-0.087783202,0.074037999,0.065562306,0.021818359,1.896207887,0.266093999,0.243746190,-0.028127017,1.602656295,-0.298130989,-0.290838184,-0.024697626,-0.666643747,-0.005668000,-0.004766286,-0.032695685,0.001514052
0.239978370,-0.012842000,-0.007561894,-0.092239287,-0.036967142,-0.002590000,-0.001856123,-0.014032640,0.106672022,-0.003228000,-0.006183720,0.007648293,0.659225280,0.417086989,0.383799086,-0.006331049,2.144024308,-0.404624999,-0.397264105,-0.017808418,-0.691610318,-0.000265000,-0.000032665,-0.004670135,-0.007870701,-0.005488000,-0.003071598,-0.036030248,-0.053406663,-0.002432000,-0.001051229,-0.014652772,-0.074628932,0.074086003,0.065604317,0.021005298,1.915663831,0.266133010,0.243689080,-0.028555112,1.611526235,-0.298177987,-0.290887477,-0.024646644,-0.666832007,-0.005723000,-0.004831207,-0.032460808,0.001822094
0.241978189,-0.013119000,-0.007748112,-0.093108899,-0.041203920,-0.002619000,-0.001884414,-0.014145559,0.108803324,-0.003223000,-0.006169388,0.007166085,0.667151851,0.416954011,0.383783354,-0.007865739,2.147631502,-0.404686987,-0.397300338,-0.018116375,-0.693299374,-0.000339000,-0.000044860,-0.006097375,-0.010203740,-0.005617000,-0.003145534,-0.036968233,-0.053818068,-0.002402000,-0.001080362,-0.014566484,-0.061046182,0.074133001,0.065644688,0.020185935,1.935758083,0.266184986,0.243631265,-0.028907179,1.620640644,-0.298227012,-0.290936823,-0.024672693,-0.666745001,-0.005778000,-0.004895632,-0.032212215,0.002157047
0.243978009,-0.013403000,-0.007936256,-0.094072130,-0.045962870,-0.002647000,-0.001912923,-0.014254385,0.111155952,-0.003218000,-0.006156021,0.006683541,0.675406254,0.416823000,0.383764628,-0.009362994,2.151134204,-0.404754013,-0.397337546,-0.018603911,-0.695026890,-0.000428000,-0.000060754,-0.007946970,-0.012392445,-0.005746000,-0.003221298,-0.037881712,-0.054383122,-0.002369000,-0.001109286,-0.014462021,-0.046189676,0.074180000,0.065683405,0.019358104,1.956174775,0.266247988,0.243572913,-0.029176307,1.630077997,-0.298278004,-0.290986383,-0.024779987,-0.666638546,-0.005831000,-0.004959577,-0.031972414,0.002402760
0.245977829,-0.013692000,-0.008126515,-0.095129437,-0.050733285,-0.002675000,-0.001941641,-0.014359025,0.113762114,-0.003214000,-0.006143618,0.006201440,0.683942621,0.416691989,0.383742979,-0.010824818,2.154684207,-0.404826999,-0.397376070,-0.019262293,-0.696654341,-0.000529000,-0.000081173,-0.010209854,-0.014522509,-0.005875000,-0.003298835,-0.038768442,-0.054891972,-0.002332000,-0.001137965,-0.014339551,-0.030950993,0.074225001,0.065720452,0.018523859,1.977253621,0.266319990,0.243514180,-0.029366449,1.639656331,-0.298330992,-0.291036308,-0.024962771,-0.666478214,-0.005885000,-0.005022993,-0.031708307,0.002827174
0.247977649,-0.013985000,-0.008319067,-0.096276136,-0.055279191,-0.002702000,-0.001970562,-0.014460822,0.116332988,-0.003210000,-0.006132178,0.005719912,0.692458788,0.416561991,0.383718475,-0.012251960,2.158167043,-0.404904991,-0.397416249,-0.020089539,-0.698265393,-0.000643000,-0.000106785,-0.012805833,-0.016232981,-0.006006000,-0.003378085,-0.039625393,-0.055363055,-0.002292000,-0.001166360,-0.014197357,-0.015052182,0.074268997,0.065755819,0.017683258,1.998384220,0.266402006,0.243455224,-0.029477969,1.649265757,-0.298384994,-0.291086743,-0.025217180,-0.666268120,-0.005937000,-0.005085924,-0.031465546,0.003028014
0.249977468,-0.014279000,-0.008514078,-0.097505369,-0.059501497,-0.002727000,-0.001999681,-0.014559339,0.119181778,-0.003206000,-0.006121697,0.005240215,0.701235737,0.416433007,0.383691179,-0.013648034,2.161647649,-0.404987007,-0.397458394,-0.021072087,-0.699735162,-0.000769000,-0.000138197,-0.015706144,-0.017785579,-0.006137000,-0.003458998,-0.040456187,-0.056033081,-0.002249000,-0.001194432,-0.014036301,0.001172414,0.074309997,0.065789494,0.016837671,2.019850576,0.266492009,0.243396195,-0.029514537,1.658962934,-0.298442990,-0.291137800,-0.025528485,-0.665905380,-0.005989000,-0.005148332,-0.031204055,0.003442600
0.251977288,-0.014573000,-0.008711685,-0.098803503,-0.063101739,-0.002750000,-0.002028988,-0.014653691,0.122580854,-0.003203000,-0.006112172,0.004762919,0.710243985,0.416303992,0.383661147,-0.015015825,2.165147797,-0.405074000,-0.397502772,-0.022189221,-0.700971426,-0.000905000,-0.000175933,-0.018867831,-0.019099498,-0.006268000,-0.003541517,-0.041259537,-0.056673864,-0.002204000,-0.001222144,-0.013855848,0.017731550,0.074349001,0.065821465,0.015985136,2.041059064,0.266588002,0.243337254,-0.029470306,1.668636466,-0.298503011,-0.291189631,-0.025915506,-0.665721563,-0.006040000,-0.005210224,-0.030945775,0.003751039
0.253977108,-0.014864000,-0.008911996,-0.100155306,-0.066035502,-0.002772000,-0.002058476,-0.014743698,0.126507860,-0.003200000,-0.006103597,0.004287238,0.719185029,0.416175991,0.383628438,-0.016354418,2.168617823,-0.405166000,-0.397549637,-0.023432458,-0.702102252,-0.001051000,-0.000220377,-0.022221765,-0.020041913,-0.006400000,-0.003625586,-0.042034374,-0.057298627,-0.002156000,-0.001249456,-0.013655750,0.034317782,0.074383996,0.065851722,0.015128898,2.062341797,0.266690999,0.243278545,-0.029354541,1.678108473,-0.298566014,-0.291242360,-0.026364511,-0.665449071,-0.006090000,-0.005271583,-0.030679604,0.004117535
0.255976928,-0.015150000,-0.009115078,-0.101541233,-0.068057733,-0.002791000,-0.002088132,-0.014828018,0.130671988,-0.003197000,-0.006095970,0.003813459,0.728359930,0.416049004,0.383593109,-0.017664859,2.172113408,-0.405261993,-0.397599221,-0.024792003,-0.703129283,-0.001206000,-0.000271832,-0.025727812,-0.020770479,-0.006532000,-0.003711151,-0.042782644,-0.058025973,-0.002106000,-0.001276328,-0.013436317,0.051198715,0.074415997,0.065880256,0.014266782,2.083055659,0.266797990,0.243220220,-0.029162598,1.687499769,-0.298633009,-0.291296121,-0.026880671,-0.665210800,-0.006140000,-0.005332388,-0.030402179,0.004508837
0.257976747,-0.015429000,-0.009320956,-0.102938680,-0.069058743,-0.002807000,-0.002117941,-0.014904751,0.135608113,-0.003195000,-0.006089287,0.003341551,0.737761181,0.415921986,0.383555212,-0.018948121,2.175638448,-0.405360997,-0.397651722,-0.026250650,-0.703954451,-0.001370000,-0.000330523,-0.029345225,-0.021267501,-0.006665000,-0.003798158,-0.043503598,-0.058744081,-0.002056000,-0.001302722,-0.013196903,0.068086011,0.074442998,0.065907058,0.013400813,2.103541266,0.266909987,0.243162420,-0.028900030,1.696577596,-0.298703015,-0.291351058,-0.027468685,-0.665080881,-0.006189000,-0.005392648,-0.030130226,0.004812021
0.259976567,-0.015698999,-0.009529601,-0.104322962,-0.068950472,-0.002821000,-0.002147885,-0.014971664,0.141269056,-0.003193000,-0.006083545,0.002870905,0.747104053,0.415796012,0.383514802,-0.020205065,2.179130532,-0.405463994,-0.397707292,-0.027784680,-0.704507241,-0.001541000,-0.000396623,-0.033050126,-0.021626304,-0.006797000,-0.003886562,-0.044201755,-0.059569585,-0.002004000,-0.001328601,-0.012939390,0.084385232,0.074464999,0.065932116,0.012529197,2.123185264,0.267024994,0.243105291,-0.028564446,1.705436504,-0.298777014,-0.291407313,-0.028127243,-0.664932031,-0.006237000,-0.005452346,-0.029848877,0.005176930
0.261976387,-0.015958000,-0.009740938,-0.105668278,-0.067662085,-0.002832000,-0.002177939,-0.015027160,0.147314331,-0.003192000,-0.006078742,0.002401453,0.756686000,0.415668994,0.383471930,-0.021435917,2.182660220,-0.405571014,-0.397766058,-0.029383308,-0.704939253,-0.001719000,-0.000470199,-0.036787969,-0.021694965,-0.006930000,-0.003976310,-0.044874072,-0.060268501,-0.001951000,-0.001353927,-0.012663072,0.100697247,0.074483000,0.065955420,0.011652289,2.142031444,0.267141014,0.243048974,-0.028158392,1.713924148,-0.298855007,-0.291465031,-0.028858843,-0.664853119,-0.006284000,-0.005511458,-0.029555982,0.005559250
0.263976207,-0.016204000,-0.009954833,-0.106947511,-0.065134952,-0.002839000,-0.002208077,-0.015068873,0.153985742,-0.003191000,-0.006074877,0.001932530,0.766223595,0.415542990,0.383426650,-0.022640314,2.186094054,-0.405681014,-0.397828134,-0.031037920,-0.705271094,-0.001903000,-0.000551267,-0.040534265,-0.021621903,-0.007063000,-0.004067356,-0.045523154,-0.061076886,-0.001898000,-0.001378664,-0.012368397,0.116710996,0.074493997,0.065976966,0.010772702,2.160358601,0.267259002,0.242993593,-0.027690524,1.721923599,-0.298936993,-0.291524351,-0.029660400,-0.664822273,-0.006331000,-0.005569954,-0.029248236,0.005950682
0.265976026,-0.016434999,-0.010171098,-0.108132264,-0.061322972,-0.002842000,-0.002238265,-0.015094033,0.161506027,-0.003190000,-0.006071949,0.001464076,0.776015769,0.415417999,0.383379011,-0.023819170,2.189556003,-0.405793011,-0.397893597,-0.032731638,-0.705410526,-0.002092000,-0.000639785,-0.044259028,-0.021373953,-0.007195000,-0.004159658,-0.046151007,-0.061878239,-0.001845000,-0.001402777,-0.012056430,0.132142026,0.074500002,0.065996740,0.009887266,2.177255657,0.267376006,0.242939281,-0.027155945,1.729548807,-0.299023986,-0.291585425,-0.030536604,-0.664834124,-0.006376000,-0.005627840,-0.028943011,0.006237637
0.267975846,-0.016652999,-0.010389484,-0.109193443,-0.056193840,-0.002840000,-0.002268465,-0.015099994,0.169803176,-0.003192000,-0.006069957,0.000996228,0.786063683,0.415291995,0.383329063,-0.024974218,2.193049335,-0.405910999,-0.397962482,-0.034442152,-0.705298229,-0.002297000,-0.000735644,-0.047929410,-0.020939666,-0.007328000,-0.004253170,-0.046756059,-0.062559222,-0.001792000,-0.001426232,-0.011727673,0.147004614,0.074499004,0.066014738,0.008998748,2.193369465,0.267495990,0.242886154,-0.026563726,1.736570183,-0.299116999,-0.291648403,-0.031489228,-0.664962657,-0.006421000,-0.005685061,-0.028610240,0.006672196
0.269975666,-0.016868001,-0.010609703,-0.110109040,-0.050151661,-0.002827000,-0.002298625,-0.015080399,0.179090703,-0.003202000,-0.006068907,0.000524630,0.795511083,0.415167004,0.383276874,-0.026094559,2.196455355,-0.406042010,-0.398034867,-0.036192434,-0.705397841,-0.002548000,-0.000839133,-0.051744333,-0.021535117,-0.007463000,-0.004347856,-0.047343035,-0.063346734,-0.001734000,-0.001448998,-0.011383046,0.161300487,0.074491002,0.066030943,0.008102634,2.208067363,0.267628014,0.242834346,-0.025903939,1.743295283,-0.299221992,-0.291713481,-0.032538868,-0.665289792,-0.006466000,-0.005741611,-0.028275269,0.006961182
0.271975486,-0.017082000,-0.010831458,-0.110877842,-0.044417909,-0.002805000,-0.002328666,-0.015020100,0.190915674,-0.003218000,-0.006068832,0.000037628,0.803037516,0.415042996,0.383222579,-0.027147685,2.199820206,-0.406185001,-0.398111006,-0.038069857,-0.706346843,-0.002845000,-0.000951876,-0.056371412,-0.025597529,-0.007598000,-0.004443690,-0.047916620,-0.064324507,-0.001672000,-0.001471041,-0.011021648,0.176462721,0.074478000,0.066045319,0.007188041,2.221455796,0.267773986,0.242784058,-0.025144005,1.750217278,-0.299338996,-0.291781009,-0.033764338,-0.666339762,-0.006511000,-0.005797524,-0.027956444,0.007176250
0.273975305,-0.017294001,-0.011054471,-0.111506277,-0.039243563,-0.002774000,-0.002358490,-0.014912085,0.204344001,-0.003242000,-0.006069763,-0.000465597,0.809483664,0.414918989,0.383166319,-0.028129543,2.202902466,-0.406340003,-0.398191229,-0.040111289,-0.707765709,-0.003185000,-0.001076034,-0.062079185,-0.031064688,-0.007735000,-0.004540642,-0.048476001,-0.065255786,-0.001606000,-0.001492325,-0.010642032,0.192177152,0.074459001,0.066057822,0.006251149,2.234361116,0.267931998,0.242735517,-0.024270256,1.757212418,-0.299468011,-0.291851432,-0.035211408,-0.667855966,-0.006556000,-0.005852842,-0.027658992,0.007372730
0.275975125,-0.017502001,-0.011278470,-0.111999659,-0.034515985,-0.002735000,-0.002387999,-0.014754803,0.219189772,-0.003272000,-0.006071740,-0.000988278,0.814308930,0.414795995,0.383108254,-0.029032670,2.205602180,-0.406506002,-0.398275919,-0.042344985,-0.709519487,-0.003564000,-0.001213822,-0.068893868,-0.036651527,-0.007873000,-0.004638691,-0.049024700,-0.066361269,-0.001537000,-0.001512814,-0.010244207,0.208400688,0.074435003,0.066068400,0.005289392,2.246598586,0.268101007,0.242688967,-0.023275346,1.764048696,-0.299607009,-0.291925247,-0.036907578,-0.669663491,-0.006600000,-0.005907610,-0.027383938,0.007569849
0.277974945,-0.017707000,-0.011503192,-0.112360958,-0.030020478,-0.002688000,-0.002417098,-0.014549108,0.235105666,-0.003307000,-0.006074800,-0.001530180,0.818165932,0.414671987,0.383048536,-0.029858885,2.207920381,-0.406682014,-0.398365472,-0.044776583,-0.711386582,-0.003979000,-0.001367238,-0.076708300,-0.041655488,-0.008012000,-0.004737817,-0.049563049,-0.067516751,-0.001465000,-0.001532470,-0.009828292,0.224838922,0.074405000,0.066077010,0.004304892,2.258524199,0.268281996,0.242644634,-0.022166395,1.770592697,-0.299755991,-0.292002935,-0.038843743,-0.671428986,-0.006643000,-0.005961832,-0.027110999,0.007876141
0.279974765,-0.017907999,-0.011728385,-0.112596541,-0.025875027,-0.002635000,-0.002445692,-0.014297296,0.252083629,-0.003348000,-0.006078978,-0.002088904,0.821344513,0.414550006,0.382987302,-0.030617094,2.209732257,-0.406866014,-0.398460264,-0.047396197,-0.713211561,-0.004427000,-0.001537993,-0.085377365,-0.045875976,-0.008150000,-0.004838001,-0.050091828,-0.068722617,-0.001390000,-0.001551260,-0.009394726,0.241484263,0.074371003,0.066083604,0.003296952,2.269816970,0.268472999,0.242602746,-0.020943855,1.776942758,-0.299914986,-0.292084962,-0.041013431,-0.673129829,-0.006686000,-0.006015494,-0.026831213,0.008234317
0.281974584,-0.018103000,-0.011953806,-0.112710419,-0.021964008,-0.002577000,-0.002473697,-0.014002572,0.269580732,-0.003393000,-0.006084309,-0.002665349,0.823515746,0.414427996,0.382924684,-0.031308978,2.211284537,-0.407059014,-0.398560624,-0.050179933,-0.714779720,-0.004903000,-0.001727476,-0.094741301,-0.049249634,-0.008289000,-0.004939212,-0.050605686,-0.069763354,-0.001312000,-0.001569144,-0.008942051,0.258336601,0.074332997,0.066088144,0.002269885,2.281077812,0.268673986,0.242563505,-0.019620445,1.782963492,-0.300081998,-0.292171763,-0.043400500,-0.674740230,-0.006728000,-0.006068615,-0.026560399,0.008516472
0.283974404,-0.018293001,-0.012179213,-0.112703489,-0.018077443,-0.002513000,-0.002501034,-0.013668558,0.287360901,-0.003443000,-0.006090823,-0.003256983,0.825278582,0.414306015,0.382860797,-0.031943414,2.212450909,-0.407260001,-0.398666848,-0.053111837,-0.716228218,-0.005405000,-0.001936682,-0.104603334,-0.051584836,-0.008427000,-0.005041423,-0.051105216,-0.070885443,-0.001232000,-0.001586085,-0.008470634,0.275352133,0.074290998,0.066090598,0.001227046,2.292215789,0.268884003,0.242527089,-0.018208214,1.788730676,-0.300258994,-0.292263708,-0.045972686,-0.676060340,-0.006770000,-0.006121186,-0.026285245,0.008870486
0.285974224,-0.018476000,-0.012404370,-0.112578389,-0.014342635,-0.002446000,-0.002527631,-0.013298128,0.305767951,-0.003496000,-0.006098550,-0.003863638,0.826300103,0.414184988,0.382795748,-0.032524520,2.213290964,-0.407467008,-0.398779191,-0.056171728,-0.717470058,-0.005928000,-0.002166316,-0.114816857,-0.053138246,-0.008565000,-0.005144597,-0.051587276,-0.071875444,-0.001151000,-0.001602046,-0.007980371,0.292244235,0.074244998,0.066090939,0.000170297,2.303168212,0.269102007,0.242493662,-0.016713472,1.794258507,-0.300442994,-0.292361154,-0.048722870,-0.677343259,-0.006810000,-0.006173222,-0.026018270,0.009156546
0.287974044,-0.018652000,-0.012629040,-0.112335174,-0.010556429,-0.002375000,-0.002553420,-0.012894845,0.323993489,-0.003553000,-0.006107514,-0.004481953,0.827153423,0.414063990,0.382729620,-0.033064196,2.213885608,-0.407678992,-0.398897833,-0.059320582,-0.718337951,-0.006471000,-0.002416718,-0.125200735,-0.053750268,-0.008701000,-0.005248702,-0.052052246,-0.072861569,-0.001068000,-0.001616991,-0.007472494,0.308715562,0.074196003,0.066089145,-0.000896779,2.313898756,0.269327998,0.242463363,-0.015149386,1.799515518,-0.300633997,-0.292464379,-0.051612484,-0.678272043,-0.006850000,-0.006224672,-0.025724913,0.009613977
0.289973863,-0.018820999,-0.012852987,-0.111973681,-0.006743884,-0.002302000,-0.002578342,-0.012460891,0.342383619,-0.003611000,-0.006117736,-0.005111236,0.827485094,0.413944006,0.382662483,-0.033568376,2.214255818,-0.407896012,-0.399022878,-0.062522626,-0.718819446,-0.007028000,-0.002688014,-0.135648305,-0.053800392,-0.008837000,-0.005353690,-0.052494370,-0.073631980,-0.000984000,-0.001630882,-0.006945675,0.325068283,0.074143998,0.066085204,-0.001970505,2.324618189,0.269560993,0.242436307,-0.013528015,1.804586541,-0.300832003,-0.292573601,-0.054610872,-0.678928167,-0.006889000,-0.006275535,-0.025431281,0.009937158
0.291973683,-0.018981000,-0.013075978,-0.111495445,-0.002931142,-0.002228000,-0.002602342,-0.012000091,0.360401763,-0.003672000,-0.006129232,-0.005747623,0.828138326,0.413823992,0.382594386,-0.034048596,2.214501424,-0.408116996,-0.399154372,-0.065747246,-0.719011513,-0.007597000,-0.002979993,-0.145989577,-0.052972545,-0.008970000,-0.005459521,-0.052915131,-0.074437234,-0.000899000,-0.001643684,-0.006401021,0.340977257,0.074088998,0.066079107,-0.003048643,2.335242833,0.269800991,0.242412592,-0.011857569,1.809487931,-0.301037014,-0.292688991,-0.057695364,-0.679376794,-0.006926000,-0.006325789,-0.025127349,0.010301246
0.293973503,-0.019131999,-0.013297774,-0.110897902,0.001078629,-0.002153000,-0.002625373,-0.011515316,0.377835003,-0.003735000,-0.006142014,-0.006391081,0.828461292,0.413704008,0.382525370,-0.034508130,2.214635508,-0.408340991,-0.399292305,-0.068966132,-0.718888199,-0.008174000,-0.003292218,-0.156112172,-0.051569414,-0.009102000,-0.005566138,-0.053308944,-0.074953944,-0.000813000,-0.001655362,-0.005838866,0.356457502,0.074033000,0.066070848,-0.004129402,2.345728820,0.270047009,0.242392303,-0.010144410,1.814271843,-0.301247001,-0.292810688,-0.060848400,-0.679664976,-0.006962000,-0.006375371,-0.024790866,0.010776748
0.295973323,-0.019273000,-0.013518133,-0.110179361,0.005245890,-0.002078000,-0.002647392,-0.011009382,0.394734573,-0.003798000,-0.006156094,-0.007039958,0.828741482,0.413585007,0.382455463,-0.034953544,2.214682484,-0.408565998,-0.399436601,-0.072148083,-0.718434763,-0.008756000,-0.003624010,-0.165896107,-0.049550474,-0.009232000,-0.005673488,-0.053674654,-0.075432466,-0.000728000,-0.001665880,-0.005258890,0.371506506,0.073973998,0.066060433,-0.005207514,2.356604730,0.270296991,0.242375494,-0.008404327,1.818915996,-0.301461995,-0.292938753,-0.064032446,-0.679623959,-0.006997000,-0.006424234,-0.024431557,0.011192783
0.297973142,-0.019404000,-0.013736808,-0.109337498,0.009641506,-0.002004000,-0.002668361,-0.010484686,0.410867980,-0.003861000,-0.006171475,-0.007690859,0.829513153,0.413466007,0.382384672,-0.035395570,2.214747492,-0.408793002,-0.399587103,-0.075251169,-0.717545570,-0.009339000,-0.003974491,-0.175240546,-0.047021927,-0.009360000,-0.005781511,-0.054011644,-0.075778814,-0.000643000,-0.001675205,-0.004662682,0.385538478,0.073913999,0.066047869,-0.006281902,2.367180181,0.270552993,0.242362208,-0.006643159,1.823399307,-0.301681012,-0.293073203,-0.067225027,-0.679357202,-0.007031000,-0.006472338,-0.024052036,0.011572339
0.299972962,-0.019523000,-0.013953549,-0.108370746,0.014226241,-0.001932000,-0.002688250,-0.009944484,0.425994470,-0.003925000,-0.006188160,-0.008342109,0.830700598,0.413347989,0.382312993,-0.035839171,2.214844255,-0.409020990,-0.399743617,-0.078256738,-0.716455167,-0.009921000,-0.004342567,-0.184038084,-0.043955259,-0.009484000,-0.005890147,-0.054318184,-0.076002402,-0.000558000,-0.001683306,-0.004050251,0.398864372,0.073852003,0.066033170,-0.007349729,2.377998386,0.270812005,0.242352469,-0.004869589,1.827890521,-0.301905006,-0.293214000,-0.070398659,-0.678827481,-0.007063000,-0.006519651,-0.023656415,0.011918764
0.301972782,-0.019638000,-0.014168097,-0.107273856,0.019177649,-0.001858000,-0.002707032,-0.009391053,0.439894587,-0.003993000,-0.006206148,-0.008994362,0.831982023,0.413228005,0.382240426,-0.036283732,2.215070379,-0.409251988,-0.399905909,-0.081146252,-0.715133882,-0.010522000,-0.004727010,-0.192221631,-0.040564096,-0.009607000,-0.005999325,-0.054588757,-0.075906558,-0.000473000,-0.001690150,-0.003422242,0.411475142,0.073781997,0.066016351,-0.008409506,2.388707672,0.271079987,0.242346291,-0.003088728,1.832259653,-0.302139014,-0.293361087,-0.073543122,-0.678213143,-0.007094000,-0.006566107,-0.023227974,0.012341628
0.303972602,-0.019755000,-0.014380213,-0.106057935,0.023585757,-0.001778000,-0.002724669,-0.008818259,0.453749409,-0.004068000,-0.006225450,-0.009650844,0.832519856,0.413105994,0.382166981,-0.036722159,2.215235247,-0.409491986,-0.400073765,-0.083928197,-0.713862698,-0.011167000,-0.005127356,-0.200172636,-0.039184504,-0.009729000,-0.006108985,-0.054829795,-0.075849910,-0.000387000,-0.001695713,-0.002781320,0.423376555,0.073696002,0.065997400,-0.009475360,2.397560732,0.271362007,0.242343766,-0.001262893,1.836918605,-0.302390009,-0.293514525,-0.076719315,-0.678058168,-0.007125000,-0.006611664,-0.022778443,0.012685626
0.305972421,-0.019871000,-0.014589699,-0.104743120,0.026848293,-0.001691000,-0.002741097,-0.008214056,0.468546033,-0.004152000,-0.006246087,-0.010318552,0.831536886,0.412981004,0.382092712,-0.037134632,2.215283888,-0.409738988,-0.400247099,-0.086666604,-0.713244630,-0.011849000,-0.005544471,-0.208557775,-0.041305874,-0.009851000,-0.006219083,-0.055049372,-0.075802177,-0.000299000,-0.001699971,-0.002129257,0.434905745,0.073596001,0.065976255,-0.010572208,2.402612409,0.271656990,0.242345116,0.000675376,1.841913864,-0.302655995,-0.293674620,-0.080047267,-0.678887801,-0.007156000,-0.006656334,-0.022334804,0.012878799
0.307972241,-0.019987000,-0.014796381,-0.103340711,0.029377907,-0.001600000,-0.002756248,-0.007575396,0.484278519,-0.004243000,-0.006268090,-0.011001578,0.828629147,0.412854999,0.382017689,-0.037511693,2.215011908,-0.409994006,-0.400425870,-0.089385522,-0.712904640,-0.012566000,-0.005979533,-0.217530914,-0.044237482,-0.009971000,-0.006329588,-0.055252574,-0.075829101,-0.000211000,-0.001702900,-0.001464476,0.446380756,0.073482998,0.065952837,-0.011709026,2.405007221,0.271966010,0.242350615,0.002749375,1.846683958,-0.302937001,-0.293841757,-0.083568844,-0.680128326,-0.007187000,-0.006700154,-0.021910406,0.012999052
0.309972061,-0.020101000,-0.015000112,-0.101865936,0.031113205,-0.001504000,-0.002770054,-0.006902970,0.500005498,-0.004341000,-0.006291493,-0.011701091,0.824466494,0.412728995,0.381941989,-0.037849867,2.214471857,-0.410255998,-0.400610088,-0.092108939,-0.712880701,-0.013311000,-0.006433730,-0.227098304,-0.047220938,-0.010091000,-0.006440468,-0.055439742,-0.075692067,-0.000121000,-0.001704474,-0.000786843,0.457190168,0.073357001,0.065927054,-0.012891563,2.405256844,0.272287995,0.242360560,0.004972366,1.851113909,-0.303232998,-0.294016375,-0.087308552,-0.681624595,-0.007218000,-0.006743170,-0.021507905,0.013088225
0.311971881,-0.020212000,-0.015200770,-0.100328785,0.032338104,-0.001404000,-0.002782454,-0.006200231,0.516007667,-0.004445000,-0.006316331,-0.012419459,0.819084647,0.412602991,0.381865701,-0.038144123,2.213698111,-0.410524011,-0.400799786,-0.094849072,-0.712998291,-0.014081000,-0.006907949,-0.237109579,-0.049410833,-0.010209000,-0.006551695,-0.055613395,-0.075605800,-0.000029000,-0.001704667,-0.000096402,0.467892165,0.073220000,0.065898807,-0.014123397,2.403519419,0.272621989,0.242375260,0.007350139,1.855022869,-0.303541005,-0.294198929,-0.091277421,-0.683259832,-0.007248000,-0.006785432,-0.021130678,0.013158292
0.313971700,-0.020318000,-0.015398244,-0.098737178,0.033202230,-0.001301000,-0.002793395,-0.005470509,0.532061698,-0.004554000,-0.006342645,-0.013157005,0.812832323,0.412476987,0.381788910,-0.038395352,2.212649377,-0.410798013,-0.400994994,-0.097604189,-0.713122914,-0.014872000,-0.007402789,-0.247420201,-0.050841946,-0.010326000,-0.006663234,-0.055769642,-0.075345711,0.000063000,-0.001703452,0.000607203,0.478480421,0.073072001,0.065868004,-0.015401760,2.400469350,0.272967994,0.242395000,0.009869968,1.858289887,-0.303860992,-0.294389818,-0.095444175,-0.684655159,-0.007277000,-0.006826952,-0.020760287,0.013325052
0.315971520,-0.020419000,-0.015592433,-0.097094417,0.033952191,-0.001195000,-0.002802830,-0.004717365,0.547943262,-0.004668000,-0.006370472,-0.013913285,0.806011756,0.412351996,0.381711698,-0.038606227,2.211326537,-0.411078006,-0.401195738,-0.100372030,-0.713253449,-0.015678000,-0.007918538,-0.257874226,-0.051460144,-0.010442000,-0.006775053,-0.055909480,-0.075044226,0.000156000,-0.001700808,0.001322348,0.488370928,0.072915003,0.065834552,-0.016725949,2.396072610,0.273324996,0.242420049,0.012524415,1.860987472,-0.304192990,-0.294589389,-0.099785672,-0.685856488,-0.007305000,-0.006867722,-0.020384713,0.013537376
0.317971340,-0.020514000,-0.015783239,-0.095403148,0.034595552,-0.001087000,-0.002810720,-0.003945272,0.563719644,-0.004787000,-0.006399850,-0.014688940,0.798623699,0.412230015,0.381634145,-0.038776448,2.209807510,-0.411363006,-0.401402044,-0.103152828,-0.713393753,-0.016496001,-0.008455096,-0.268279205,-0.051073634,-0.010556000,-0.006887117,-0.056031907,-0.074699102,0.000251000,-0.001696710,0.002048886,0.497878104,0.072748996,0.065798368,-0.018092103,2.390906902,0.273694009,0.242450647,0.015299106,1.863087488,-0.304535002,-0.294797944,-0.104277447,-0.686897300,-0.007332000,-0.006907723,-0.020000924,0.013760189
