sainanliu129-hub/model/applications/Body_GravityPara_Iden/data/excitation/PD-M1-v0_multi_joint_20260305-195729_real_run_stillleg_zero_PD-M1-v0_multi_joint_20260325-034534.csv
time,cmd_leg_l1_joint,pos_leg_l1_joint,vel_leg_l1_joint,torque_leg_l1_joint,acc_leg_l1_joint,cmd_torque_leg_l1_joint,cmd_leg_l2_joint,pos_leg_l2_joint,vel_leg_l2_joint,torque_leg_l2_joint,acc_leg_l2_joint,cmd_torque_leg_l2_joint,cmd_leg_l3_joint,pos_leg_l3_joint,vel_leg_l3_joint,torque_leg_l3_joint,acc_leg_l3_joint,cmd_torque_leg_l3_joint,cmd_leg_l4_joint,pos_leg_l4_joint,vel_leg_l4_joint,torque_leg_l4_joint,acc_leg_l4_joint,cmd_torque_leg_l4_joint,cmd_leg_l5_joint,pos_leg_l5_joint,vel_leg_l5_joint,torque_leg_l5_joint,acc_leg_l5_joint,cmd_torque_leg_l5_joint,cmd_leg_l6_joint,pos_leg_l6_joint,vel_leg_l6_joint,torque_leg_l6_joint,acc_leg_l6_joint,cmd_torque_leg_l6_joint,cmd_leg_r1_joint,pos_leg_r1_joint,vel_leg_r1_joint,torque_leg_r1_joint,acc_leg_r1_joint,cmd_torque_leg_r1_joint,cmd_leg_r2_joint,pos_leg_r2_joint,vel_leg_r2_joint,torque_leg_r2_joint,acc_leg_r2_joint,cmd_torque_leg_r2_joint,cmd_leg_r3_joint,pos_leg_r3_joint,vel_leg_r3_joint,torque_leg_r3_joint,acc_leg_r3_joint,cmd_torque_leg_r3_joint,cmd_leg_r4_joint,pos_leg_r4_joint,vel_leg_r4_joint,torque_leg_r4_joint,acc_leg_r4_joint,cmd_torque_leg_r4_joint,cmd_leg_r5_joint,pos_leg_r5_joint,vel_leg_r5_joint,torque_leg_r5_joint,acc_leg_r5_joint,cmd_torque_leg_r5_joint,cmd_leg_r6_joint,pos_leg_r6_joint,vel_leg_r6_joint,torque_leg_r6_joint,acc_leg_r6_joint,cmd_torque_leg_r6_joint
0.000000000,-0.003624000,-0.003508027,-0.002711025,0.003095218,0.000000000,0.002969091,0.003624000,-0.005885691,0.018184784,2.290420508,0.000000000,2.291760517,-0.006294000,-0.004231352,-0.035209496,0.209468800,0.000000000,0.210106204,0.314527005,0.247709221,0.287375155,2.174472773,0.000000000,2.177882872,-0.369459003,-0.351810944,-0.385233211,-0.688242475,0.000000000,-0.688383193,-0.002633000,-0.002496438,-0.003367129,-0.004242306,0.000000000,-0.004228890,0.000000000,0.000010356,-0.000271426,0.000441738,0.000000000,0.000431021,0.000000000,0.000828774,-0.001522166,-0.201027052,0.000000000,-0.201144935,0.000000000,0.004693696,0.000885601,-1.354566698,0.000000000,-1.354190980,0.000000000,0.012194926,-0.002679985,-0.751339127,0.000000000,-0.751243188,0.000000000,0.006756250,-0.014800503,-0.640741968,0.000000000,-0.640742624,0.000000000,0.000002715,0.000055362,-0.000429744,0.000000000,-0.000431797
0.001999820,-0.003624000,-0.003513439,-0.002705979,0.002969091,0.000000000,0.003517422,0.003624000,-0.005849350,0.018170530,2.291760517,0.000000000,2.281753162,-0.006294000,-0.004301768,-0.035208551,0.210106204,0.000000000,0.230100267,0.316051990,0.248284019,0.287399044,2.177882872,0.000000000,2.237731609,-0.370030999,-0.352581416,-0.385236168,-0.688383193,0.000000000,-0.668315774,-0.001314000,-0.002503174,-0.003368056,-0.004228890,0.000000000,0.129759272,0.000000000,0.000010026,-0.000272136,0.000431021,0.000000000,0.000470263,0.000000000,0.000825733,-0.001520882,-0.201144935,0.000000000,-0.200309544,0.000000000,0.004695401,0.000853036,-1.354190980,0.000000000,-1.353939131,0.000000000,0.012189471,-0.002727645,-0.751243188,0.000000000,-0.750559843,0.000000000,0.006726643,-0.014803861,-0.640742624,0.000000000,-0.637740773,0.000000000,0.000002794,0.000055758,-0.000431797,0.000000000,-0.000440922
0.003999639,-0.004005000,-0.003519539,-0.003049801,0.003517422,0.000000000,-0.034499671,0.003624000,-0.005814055,0.017647678,2.281753162,0.000000000,2.283547026,-0.006294000,-0.004372432,-0.035332384,0.230100267,0.000000000,0.252987100,0.316433996,0.248859725,0.287853317,2.237731609,0.000000000,2.222267552,-0.370983988,-0.353349898,-0.384240805,-0.668315774,0.000000000,-0.689792818,-0.001754000,-0.002464579,0.019297782,0.129759272,0.000000000,0.016951039,0.000000000,0.000009719,-0.000268055,0.000470263,0.000000000,0.000479850,0.000000000,0.000822700,-0.001516518,-0.200309544,0.000000000,-0.199546315,0.000000000,0.004697070,0.000834668,-1.353939131,0.000000000,-1.353997944,0.000000000,0.012183798,-0.002836599,-0.750559843,0.000000000,-0.749427050,0.000000000,0.006697644,-0.014499225,-0.637740773,0.000000000,-0.635676126,0.000000000,0.000002865,0.000048858,-0.000440922,0.000000000,-0.000428494
0.005999459,-0.003624000,-0.003526226,-0.003343647,-0.034499671,0.000000000,0.008486400,0.003624000,-0.005779001,0.017527196,2.283547026,0.000000000,2.276308173,-0.006294000,-0.004443179,-0.035374004,0.252987100,0.000000000,0.274038016,0.317196995,0.249436108,0.288191296,2.222267552,0.000000000,2.231652826,-0.371556014,-0.354119160,-0.384631149,-0.689792818,0.000000000,-0.668749361,-0.002195000,-0.002418578,0.023000511,0.016951039,0.000000000,-0.042794577,0.000000000,0.000009437,-0.000264285,0.000479850,0.000000000,0.000488615,0.000000000,0.000819674,-0.001513406,-0.199546315,0.000000000,-0.198756553,0.000000000,0.004698704,0.000817464,-1.353997944,0.000000000,-1.354073323,0.000000000,0.012177871,-0.002963333,-0.749427050,0.000000000,-0.748151862,0.000000000,0.006669634,-0.014005312,-0.635676126,0.000000000,-0.634249425,0.000000000,0.000002930,0.000043638,-0.000428494,0.000000000,-0.000420201
0.007999279,-0.003624000,-0.003532624,-0.003199280,0.008486400,0.000000000,0.008352024,0.003624000,-0.005743696,0.017652356,2.276308173,0.000000000,2.263442003,-0.006294000,-0.004514006,-0.035414008,0.274038016,0.000000000,0.295075120,0.317577988,0.250012915,0.288403444,2.231652826,0.000000000,2.217776288,-0.372319013,-0.354886077,-0.383458772,-0.668749361,0.000000000,-0.671686409,-0.002195000,-0.002385552,0.016512942,-0.042794577,0.000000000,-0.027688180,0.000000000,0.000009179,-0.000262108,0.000488615,0.000000000,0.000503799,0.000000000,0.000816655,-0.001509980,-0.198756553,0.000000000,-0.197975829,0.000000000,0.004700292,0.000794400,-1.354073323,0.000000000,-1.354003028,0.000000000,0.012171702,-0.003084635,-0.748151862,0.000000000,-0.746899966,0.000000000,0.006642845,-0.013394372,-0.634249425,0.000000000,-0.633278924,0.000000000,0.000002986,0.000037124,-0.000420201,0.000000000,-0.000407344
0.009999099,-0.003624000,-0.003538904,-0.003139782,0.008352024,0.000000000,0.008684903,0.003624000,-0.005708328,0.017683934,2.263442003,0.000000000,2.252674610,-0.006294000,-0.004584655,-0.035324821,0.295075120,0.000000000,0.313139344,0.318340987,0.250589444,0.288264831,2.217776288,0.000000000,2.230539889,-0.373272002,-0.355650676,-0.382299183,-0.671686409,0.000000000,-0.694022806,-0.001755000,-0.002360228,0.012661808,-0.027688180,0.000000000,0.025169861,0.000000000,0.000008944,-0.000262152,0.000503799,0.000000000,0.000529060,0.000000000,0.000813646,-0.001504936,-0.197975829,0.000000000,-0.197234570,0.000000000,0.004701822,0.000765077,-1.354003028,0.000000000,-1.353774519,0.000000000,0.012165316,-0.003192640,-0.746899966,0.000000000,-0.745728939,0.000000000,0.006617420,-0.012712391,-0.633278924,0.000000000,-0.632648239,0.000000000,0.000003030,0.000028620,-0.000407344,0.000000000,-0.000387585
0.011998918,-0.003624000,-0.003545392,-0.003244119,0.008684903,0.000000000,0.009966510,0.003624000,-0.005673315,0.017506366,2.252674610,0.000000000,2.246738834,-0.006294000,-0.004655155,-0.035250368,0.313139344,0.000000000,0.331494560,0.318722993,0.251166158,0.288356978,2.230539889,0.000000000,2.217586192,-0.374035001,-0.356416395,-0.382859546,-0.694022806,0.000000000,-0.692154796,-0.001756000,-0.002324668,0.017780044,0.025169861,0.000000000,0.006923771,0.000000000,0.000008734,-0.000264137,0.000529060,0.000000000,0.000562753,0.000000000,0.000810648,-0.001499158,-0.197234570,0.000000000,-0.196513176,0.000000000,0.004703278,0.000728371,-1.353774519,0.000000000,-1.353358142,0.000000000,0.012158753,-0.003281868,-0.745728939,0.000000000,-0.744680109,0.000000000,0.006593435,-0.011992633,-0.632648239,0.000000000,-0.632270441,0.000000000,0.000003062,0.000020669,-0.000387585,0.000000000,-0.000368202
0.013998738,-0.003624000,-0.003552048,-0.003327977,0.009966510,0.000000000,0.011150189,0.003624000,-0.005638528,0.017393536,2.246738834,0.000000000,2.239402890,-0.006294000,-0.004725250,-0.035047865,0.331494560,0.000000000,0.346838269,0.319485992,0.251742348,0.288095099,2.217586192,0.000000000,2.231247407,-0.374798000,-0.357182513,-0.383058914,-0.692154796,0.000000000,-0.691272796,-0.001756000,-0.002284952,0.019857859,0.006923771,0.000000000,-0.002997327,0.000000000,0.000008548,-0.000268196,0.000562753,0.000000000,0.000605526,0.000000000,0.000807663,-0.001492967,-0.196513176,0.000000000,-0.195804665,0.000000000,0.004704646,0.000684474,-1.353358142,0.000000000,-1.352754175,0.000000000,0.012152050,-0.003351220,-0.744680109,0.000000000,-0.743763798,0.000000000,0.006570919,-0.011258017,-0.632270441,0.000000000,-0.632083371,0.000000000,0.000003084,0.000014462,-0.000368202,0.000000000,-0.000352819
0.015998558,-0.003624000,-0.003558801,-0.003376483,0.011150189,0.000000000,0.012144292,0.003624000,-0.005603916,0.017306101,2.239402890,0.000000000,2.231542242,-0.006294000,-0.004794984,-0.034867617,0.346838269,0.000000000,0.362582909,0.320248991,0.252318188,0.287919776,2.231247407,0.000000000,2.244315535,-0.375560999,-0.357949050,-0.383268706,-0.691272796,0.000000000,-0.690318754,-0.001756000,-0.002244394,0.020279094,-0.002997327,0.000000000,-0.008293911,0.000000000,0.000008389,-0.000273549,0.000605526,0.000000000,0.000652704,0.000000000,0.000804691,-0.001485982,-0.195804665,0.000000000,-0.195118103,0.000000000,0.004705915,0.000634604,-1.352754175,0.000000000,-1.351986756,0.000000000,0.012145246,-0.003401915,-0.743763798,0.000000000,-0.742973693,0.000000000,0.006549871,-0.010524015,-0.632083371,0.000000000,-0.632042919,0.000000000,0.000003097,0.000008463,-0.000352819,0.000000000,-0.000337095
0.017998378,-0.003624000,-0.003565616,-0.003407817,0.012144292,0.000000000,0.013047965,0.003624000,-0.005569456,0.017229828,2.231542242,0.000000000,2.223472491,-0.006294000,-0.004864382,-0.034699037,0.362582909,0.000000000,0.378495630,0.321011990,0.252893809,0.287810666,2.244315535,0.000000000,2.256926808,-0.376323014,-0.358715989,-0.383469461,-0.690318754,0.000000000,-0.689250431,-0.001757000,-0.002204736,0.019829030,-0.008293911,0.000000000,-0.011123486,0.000000000,0.000008261,-0.000279696,0.000652704,0.000000000,0.000701089,0.000000000,0.000801736,-0.001478172,-0.195118103,0.000000000,-0.194454621,0.000000000,0.004707073,0.000579715,-1.351986756,0.000000000,-1.351074617,0.000000000,0.012138375,-0.003435574,-0.742973693,0.000000000,-0.742300433,0.000000000,0.006530267,-0.009801929,-0.632042919,0.000000000,-0.632114547,0.000000000,0.000003101,0.000002534,-0.000337095,0.000000000,-0.000320638
0.019998197,-0.003624000,-0.003572478,-0.003430937,0.013047965,0.000000000,0.013910113,0.003624000,-0.005535146,0.017155298,2.223472491,0.000000000,2.215405673,-0.006294000,-0.004933456,-0.034537597,0.378495630,0.000000000,0.394478091,0.321774006,0.253469321,0.287755896,2.256926808,0.000000000,2.269096622,-0.377086014,-0.359483282,-0.383646743,-0.689250431,0.000000000,-0.688312403,-0.001757000,-0.002166883,0.018926553,-0.011123486,0.000000000,-0.012383369,0.000000000,0.000008168,-0.000286275,0.000701089,0.000000000,0.000748231,0.000000000,0.000798797,-0.001469595,-0.194454621,0.000000000,-0.193813361,0.000000000,0.004708115,0.000520972,-1.351074617,0.000000000,-1.350041949,0.000000000,0.012131466,-0.003454432,-0.742300433,0.000000000,-0.741729989,0.000000000,0.006512067,-0.009099737,-0.632114547,0.000000000,-0.632271547,0.000000000,0.000003097,-0.000003039,-0.000320638,0.000000000,-0.000304310
0.021998017,-0.003624000,-0.003579381,-0.003451394,0.013910113,0.000000000,0.014761568,0.003624000,-0.005500993,0.017076365,2.215405673,0.000000000,2.207483305,-0.006294000,-0.005002216,-0.034380406,0.394478091,0.000000000,0.410467309,0.322537005,0.254044817,0.287748133,2.269096622,0.000000000,2.280995418,-0.378230006,-0.360250893,-0.383805514,-0.688312403,0.000000000,-0.725899957,-0.002640000,-0.002131207,0.017837780,-0.012383369,0.000000000,-0.102133945,0.000000000,0.000008113,-0.000292995,0.000748231,0.000000000,0.000792059,0.000000000,0.000795877,-0.001460330,-0.193813361,0.000000000,-0.193192933,0.000000000,0.004709033,0.000459428,-1.350041949,0.000000000,-1.348910928,0.000000000,0.012124545,-0.003460697,-0.741729989,0.000000000,-0.741248270,0.000000000,0.006495221,-0.008423127,-0.632271547,0.000000000,-0.632492584,0.000000000,0.000003084,-0.000008121,-0.000304310,0.000000000,-0.000288582
0.023997837,-0.003624000,-0.003585781,-0.003200372,0.014761568,0.000000000,0.014024297,0.003624000,-0.005466335,0.017329330,2.207483305,0.000000000,2.191909968,-0.006294000,-0.005070903,-0.034343667,0.410467309,0.000000000,0.429160154,0.323682010,0.254621353,0.288267791,2.280995418,0.000000000,2.313209073,-0.378991991,-0.361024587,-0.386846699,-0.725899957,0.000000000,-0.716070639,-0.002640000,-0.002128049,0.001578946,-0.102133945,0.000000000,-0.056229232,0.000000000,-0.000008101,-0.000299675,0.000792059,0.000000000,0.002558160,0.000000000,0.000792976,-0.001451004,-0.193192933,0.000000000,-0.192579198,0.000000000,0.004709825,0.000396146,-1.348910928,0.000000000,-1.347704636,0.000000000,0.012117632,-0.003456570,-0.741248270,0.000000000,-0.740840935,0.000000000,0.006479669,-0.007776067,-0.632492584,0.000000000,-0.632760401,0.000000000,0.000003066,-0.000011783,-0.000288582,0.000000000,-0.000276321
0.025997657,-0.003624000,-0.003591939,-0.003078755,0.014024297,0.000000000,0.013992883,0.003624000,-0.005431548,0.017393509,2.191909968,0.000000000,2.180570273,-0.006294000,-0.005139616,-0.034356949,0.429160154,0.000000000,0.448991977,0.323682010,0.255199315,0.288980921,2.313209073,0.000000000,2.271633189,-0.378991991,-0.361803349,-0.389380873,-0.716070639,0.000000000,-0.630160427,-0.002640000,-0.002141759,-0.006854521,-0.056229232,0.000000000,-0.030867381,0.000000000,-0.000008127,-0.000267047,0.002558160,0.000000000,0.002376448,0.000000000,0.000790096,-0.001440500,-0.192579198,0.000000000,-0.191998068,0.000000000,0.004710492,0.000333852,-1.347704636,0.000000000,-1.346485296,0.000000000,0.012110734,-0.003448983,-0.740840935,0.000000000,-0.740459154,0.000000000,0.006465354,-0.007157639,-0.632760401,0.000000000,-0.633071817,0.000000000,0.000003036,-0.000018852,-0.000276321,0.000000000,-0.000253280
0.027997476,-0.003624000,-0.003598189,-0.003125485,0.013992883,0.000000000,0.014923427,0.003624000,-0.005396870,0.017339001,2.180570273,0.000000000,2.171946124,-0.006294000,-0.005207462,-0.033923223,0.448991977,0.000000000,0.458466313,0.325971007,0.255775295,0.287990253,2.271633189,0.000000000,2.386877553,-0.380328000,-0.362573289,-0.384970165,-0.630160427,0.000000000,-0.699909732,0.000449000,-0.002163509,-0.010875204,-0.030867381,0.000000000,0.294951428,0.000000000,-0.000008180,-0.000239415,0.002376448,0.000000000,0.002225867,0.000000000,0.000787237,-0.001429583,-0.191998068,0.000000000,-0.191432487,0.000000000,0.004711032,0.000270055,-1.346485296,0.000000000,-1.345195698,0.000000000,0.012103870,-0.003431737,-0.740459154,0.000000000,-0.740148205,0.000000000,0.006452202,-0.006575815,-0.633071817,0.000000000,-0.633396774,0.000000000,0.000003001,-0.000023100,-0.000253280,0.000000000,-0.000237622
0.029997296,-0.003624000,-0.003606189,-0.003999805,0.014923427,0.000000000,0.020720397,0.003624000,-0.005364783,0.016043270,2.171946124,0.000000000,2.192133843,-0.006294000,-0.005275478,-0.034008233,0.458466313,0.000000000,0.479722349,0.326734006,0.256353494,0.289099268,2.386877553,0.000000000,2.390667604,-0.382043004,-0.363347059,-0.386885169,-0.699909732,0.000000000,-0.789591204,-0.002643000,-0.002083291,0.040108722,0.294951428,0.000000000,-0.170596045,0.000000000,-0.000008252,-0.000214518,0.002225867,0.000000000,0.002092671,0.000000000,0.000784403,-0.001417588,-0.191432487,0.000000000,-0.190898106,0.000000000,0.004711446,0.000206879,-1.345195698,0.000000000,-1.343884241,0.000000000,0.012097054,-0.003408315,-0.740148205,0.000000000,-0.739884119,0.000000000,0.006440145,-0.006028472,-0.633396774,0.000000000,-0.633734335,0.000000000,0.000002959,-0.000027900,-0.000237622,0.000000000,-0.000219695
0.031997116,-0.003624000,-0.003613102,-0.003456392,0.020720397,0.000000000,0.018384237,0.003624000,-0.005331618,0.016582527,2.192133843,0.000000000,2.170509407,-0.006294000,-0.005344313,-0.034418099,0.479722349,0.000000000,0.508559305,0.327497005,0.256936428,0.291467250,2.390667604,0.000000000,2.385209769,-0.382806003,-0.364138038,-0.395489466,-0.789591204,0.000000000,-0.762301404,-0.002643000,-0.002058869,0.012211041,-0.170596045,0.000000000,-0.093751159,0.000000000,-0.000008334,-0.000194274,0.002092671,0.000000000,0.001986987,0.000000000,0.000781585,-0.001409243,-0.190898106,0.000000000,-0.190285904,0.000000000,0.004711733,0.000143834,-1.343884241,0.000000000,-1.342539934,0.000000000,0.012090295,-0.003379663,-0.739884119,0.000000000,-0.739660822,0.000000000,0.006429109,-0.005517916,-0.633734335,0.000000000,-0.634070508,0.000000000,0.000002923,-0.000023581,-0.000219695,0.000000000,-0.000228383
0.033996936,-0.003624000,-0.003619479,-0.003188758,0.018384237,0.000000000,0.017550548,0.003624000,-0.005298080,0.016768897,2.170509407,0.000000000,2.156760950,-0.006294000,-0.005413561,-0.034624264,0.508559305,0.000000000,0.532905923,0.328258991,0.257522784,0.293177669,2.385209769,0.000000000,2.384145805,-0.383376986,-0.364941782,-0.401872040,-0.762301404,0.000000000,-0.720631717,-0.003086000,-0.002063875,-0.002502637,-0.093751159,0.000000000,-0.096186098,0.000000000,-0.000008424,-0.000176201,0.001986987,0.000000000,0.001894335,0.000000000,0.000778794,-0.001395825,-0.190285904,0.000000000,-0.189796082,0.000000000,0.004711894,0.000080525,-1.342539934,0.000000000,-1.341153667,0.000000000,0.012083602,-0.003346256,-0.739660822,0.000000000,-0.739475550,0.000000000,0.006419027,-0.005041219,-0.634070508,0.000000000,-0.634406775,0.000000000,0.000002879,-0.000029447,-0.000228383,0.000000000,-0.000207277
0.035996755,-0.003624000,-0.003625406,-0.002963457,0.017550548,0.000000000,0.016908217,0.003624000,-0.005264184,0.016947991,2.156760950,0.000000000,2.143075276,-0.006294000,-0.005482918,-0.034678770,0.532905923,0.000000000,0.553853158,0.329403996,0.258111352,0.294284438,2.384145805,0.000000000,2.411426193,-0.383949995,-0.365751896,-0.405056928,-0.720631717,0.000000000,-0.687614105,-0.001760000,-0.002099023,-0.017574133,-0.096186098,0.000000000,0.084226612,0.000000000,-0.000008517,-0.000159312,0.001894335,0.000000000,0.001808728,0.000000000,0.000776030,-0.001382216,-0.189796082,0.000000000,-0.189318313,0.000000000,0.004711933,0.000019381,-1.341153667,0.000000000,-1.339781630,0.000000000,0.012076979,-0.003311529,-0.739475550,0.000000000,-0.739304043,0.000000000,0.006409833,-0.004596675,-0.634406775,0.000000000,-0.634741489,0.000000000,0.000002829,-0.000034470,-0.000207277,0.000000000,-0.000187882
0.037996575,-0.003624000,-0.003631966,-0.003279905,0.016908217,0.000000000,0.019396943,0.003624000,-0.005231342,0.016421257,2.143075276,0.000000000,2.145654142,-0.006294000,-0.005552221,-0.034651560,0.553853158,0.000000000,0.572936573,0.329784989,0.258701634,0.295140882,2.411426193,0.000000000,2.392118859,-0.384521991,-0.366563783,-0.405943540,-0.687614105,0.000000000,-0.660848873,-0.002203000,-0.002103166,-0.002071485,0.084226612,0.000000000,-0.004200500,0.000000000,-0.000008610,-0.000143944,0.001808728,0.000000000,0.001731774,0.000000000,0.000773296,-0.001367545,-0.189318313,0.000000000,-0.188872916,0.000000000,0.004711852,-0.000040054,-1.339781630,0.000000000,-1.338414463,0.000000000,0.012070428,-0.003275333,-0.739304043,0.000000000,-0.739147549,0.000000000,0.006401465,-0.004184033,-0.634741489,0.000000000,-0.635068911,0.000000000,0.000002773,-0.000038384,-0.000187882,0.000000000,-0.000171155
0.039996395,-0.003624000,-0.003638701,-0.003367835,0.019396943,0.000000000,0.020612137,0.003624000,-0.005198866,0.016237928,2.145654142,0.000000000,2.140569762,-0.006294000,-0.005621137,-0.034458530,0.572936573,0.000000000,0.588159606,0.330547988,0.259292370,0.295368113,2.392118859,0.000000000,2.401384685,-0.384903014,-0.367372909,-0.404563226,-0.660848873,0.000000000,-0.621506801,-0.002203000,-0.002106203,-0.001518381,-0.004200500,0.000000000,-0.005466066,0.000000000,-0.000008702,-0.000130438,0.001731774,0.000000000,0.001665189,0.000000000,0.000770588,-0.001354270,-0.188872916,0.000000000,-0.188403477,0.000000000,0.004711657,-0.000097611,-1.338414463,0.000000000,-1.337057097,0.000000000,0.012063952,-0.003238375,-0.739147549,0.000000000,-0.739001140,0.000000000,0.006393859,-0.003802964,-0.635068911,0.000000000,-0.635383597,0.000000000,0.000002720,-0.000037676,-0.000171155,0.000000000,-0.000167769
0.041996215,-0.003624000,-0.003645602,-0.003450695,0.020612137,0.000000000,0.021816328,0.003624000,-0.005166785,0.016040546,2.140569762,0.000000000,2.135915456,-0.006294000,-0.005689528,-0.034195670,0.588159606,0.000000000,0.601653691,0.330929995,0.259882801,0.295215166,2.401384685,0.000000000,2.389306722,-0.385475993,-0.368173453,-0.400271824,-0.621506801,0.000000000,-0.610708480,-0.001761000,-0.002108479,-0.001138014,-0.005466066,0.000000000,0.038353306,0.000000000,-0.000008791,-0.000118158,0.001665189,0.000000000,0.001605222,0.000000000,0.000767909,-0.001339853,-0.188403477,0.000000000,-0.187968089,0.000000000,0.004711351,-0.000153282,-1.337057097,0.000000000,-1.335710721,0.000000000,0.012057549,-0.003201066,-0.739001140,0.000000000,-0.738861947,0.000000000,0.006386957,-0.003451442,-0.635383597,0.000000000,-0.635685335,0.000000000,0.000002666,-0.000038679,-0.000167769,0.000000000,-0.000159491
0.043996034,-0.003624000,-0.003652984,-0.003690936,0.021816328,0.000000000,0.023961725,0.003624000,-0.005135460,0.015662324,2.135915456,0.000000000,2.135566599,-0.005913000,-0.005757102,-0.033787132,0.601653691,0.000000000,0.719917752,0.331310987,0.260472020,0.294609546,2.389306722,0.000000000,2.380458860,-0.385856986,-0.368963427,-0.394986866,-0.610708480,0.000000000,-0.584399967,-0.001761000,-0.002095096,0.006691308,0.038353306,0.000000000,0.014742033,0.000000000,-0.000008876,-0.000106434,0.001605222,0.000000000,0.001547961,0.000000000,0.000765260,-0.001324692,-0.187968089,0.000000000,-0.187558110,0.000000000,0.004710937,-0.000206825,-1.335710721,0.000000000,-1.334382069,0.000000000,0.012051222,-0.003163908,-0.738861947,0.000000000,-0.738726366,0.000000000,0.006380701,-0.003127694,-0.635685335,0.000000000,-0.635973548,0.000000000,0.000002611,-0.000040809,-0.000159491,0.000000000,-0.000147839
0.045995854,-0.003624000,-0.003660906,-0.003961214,0.023961725,0.000000000,0.026334595,0.003242000,-0.005104744,0.015358292,2.135566599,0.000000000,2.025130910,-0.005913000,-0.005823071,-0.032984759,0.719917752,0.000000000,0.720520229,0.331692994,0.261057990,0.292984905,2.380458860,0.000000000,2.379123442,-0.386238009,-0.369738224,-0.387398337,-0.584399967,0.000000000,-0.566177387,-0.001761000,-0.002073883,0.010606446,0.014742033,0.000000000,0.001467413,0.000000000,-0.000008956,-0.000095393,0.001547961,0.000000000,0.001494073,0.000000000,0.000762642,-0.001309457,-0.187558110,0.000000000,-0.187158504,0.000000000,0.004710419,-0.000258965,-1.334382069,0.000000000,-1.333055510,0.000000000,0.012044969,-0.003126364,-0.738726366,0.000000000,-0.738598276,0.000000000,0.006375040,-0.002830766,-0.635973548,0.000000000,-0.636245533,0.000000000,0.000002555,-0.000041901,-0.000147839,0.000000000,-0.000139137
0.047995674,-0.003624000,-0.003669420,-0.004256941,0.026334595,0.000000000,0.028914413,0.003242000,-0.005074750,0.014996735,2.025130910,0.000000000,2.024783477,-0.006294000,-0.005887283,-0.032106529,0.720520229,0.000000000,0.610610272,0.332455993,0.261640131,0.291070907,2.379123442,0.000000000,2.404151989,-0.386619985,-0.370494934,-0.378355277,-0.566177387,0.000000000,-0.554014296,-0.001761000,-0.002048464,0.012709522,0.001467413,0.000000000,-0.007080607,0.000000000,-0.000009030,-0.000086012,0.001494073,0.000000000,0.001448957,0.000000000,0.000760059,-0.001291941,-0.187158504,0.000000000,-0.186820410,0.000000000,0.004709805,-0.000307085,-1.333055510,0.000000000,-1.331792544,0.000000000,0.012038784,-0.003092410,-0.738598276,0.000000000,-0.738448953,0.000000000,0.006369925,-0.002557316,-0.636245533,0.000000000,-0.636506041,0.000000000,0.000002499,-0.000044194,-0.000139137,0.000000000,-0.000126889
0.049995494,-0.003624000,-0.003678202,-0.004391106,0.028914413,0.000000000,0.030609208,0.003624000,-0.005045427,0.014661784,2.024783477,0.000000000,2.132606213,-0.005913000,-0.005950556,-0.031636656,0.610610272,0.000000000,0.726264495,0.333218992,0.262220069,0.289968650,2.404151989,0.000000000,2.423549930,-0.387001008,-0.371232690,-0.368877871,-0.554014296,0.000000000,-0.544905334,-0.001762000,-0.002021977,0.013243789,-0.007080607,0.000000000,-0.011377562,0.000000000,-0.000009098,-0.000076598,0.001448957,0.000000000,0.001402954,0.000000000,0.000757507,-0.001276205,-0.186820410,0.000000000,-0.186451012,0.000000000,0.004709099,-0.000352864,-1.331792544,0.000000000,-1.330556510,0.000000000,0.012032667,-0.003058699,-0.738448953,0.000000000,-0.738302167,0.000000000,0.006365307,-0.002309080,-0.636506041,0.000000000,-0.636745042,0.000000000,0.000002444,-0.000044078,-0.000126889,0.000000000,-0.000121689
0.051995313,-0.003624000,-0.003687208,-0.004502966,0.030609208,0.000000000,0.032201732,0.003624000,-0.005016553,0.014437025,2.132606213,0.000000000,2.129482752,-0.005913000,-0.006012491,-0.030967696,0.726264495,0.000000000,0.728738019,0.333981991,0.262797053,0.288492069,2.423549930,0.000000000,2.445795098,-0.387382001,-0.371950094,-0.358702009,-0.544905334,0.000000000,-0.539835921,-0.001762000,-0.001996600,0.012688538,-0.011377562,0.000000000,-0.012363715,0.000000000,-0.000009160,-0.000066803,0.001402954,0.000000000,0.001354178,0.000000000,0.000754984,-0.001261682,-0.186451012,0.000000000,-0.186062440,0.000000000,0.004708301,-0.000399313,-1.330556510,0.000000000,-1.329278918,0.000000000,0.012026622,-0.003022084,-0.738302167,0.000000000,-0.738180647,0.000000000,0.006361138,-0.002084401,-0.636745042,0.000000000,-0.636962484,0.000000000,0.000002393,-0.000042947,-0.000121689,0.000000000,-0.000119714
0.053995133,-0.003624000,-0.003696387,-0.004589897,0.032201732,0.000000000,0.033671804,0.003242000,-0.004988063,0.014244800,2.129482752,0.000000000,2.017151115,-0.005913000,-0.006073184,-0.030346997,0.728738019,0.000000000,0.731950275,0.334744006,0.263371468,0.287207492,2.445795098,0.000000000,2.466775663,-0.387764007,-0.372646613,-0.348259591,-0.539835921,0.000000000,-0.537737456,-0.001762000,-0.001972631,0.011984007,-0.012363715,0.000000000,-0.012783061,0.000000000,-0.000009216,-0.000058993,0.001354178,0.000000000,0.001315923,0.000000000,0.000752497,-0.001243696,-0.186062440,0.000000000,-0.185762432,0.000000000,0.004707420,-0.000440843,-1.329278918,0.000000000,-1.328089000,0.000000000,0.012020640,-0.002991334,-0.738180647,0.000000000,-0.738021321,0.000000000,0.006357385,-0.001876582,-0.636962484,0.000000000,-0.637173999,0.000000000,0.000002341,-0.000044833,-0.000119714,0.000000000,-0.000109153
0.055994953,-0.003624000,-0.003705826,-0.004719189,0.033671804,0.000000000,0.035408979,0.003242000,-0.004960175,0.013943778,2.017151115,0.000000000,2.016033027,-0.005913000,-0.006132745,-0.029780697,0.731950275,0.000000000,0.736071004,0.335507005,0.263943707,0.286119663,2.466775663,0.000000000,2.486557291,-0.388145000,-0.373322205,-0.337795983,-0.537737456,0.000000000,-0.537711839,-0.001762000,-0.001949384,0.011623506,-0.012783061,0.000000000,-0.014107617,0.000000000,-0.000009265,-0.000051552,0.001315923,0.000000000,0.001279073,0.000000000,0.000750049,-0.001224461,-0.185762432,0.000000000,-0.185501589,0.000000000,0.004706458,-0.000481023,-1.328089000,0.000000000,-1.326906778,0.000000000,0.012014719,-0.002960616,-0.738021321,0.000000000,-0.737865656,0.000000000,0.006354007,-0.001688778,-0.637173999,0.000000000,-0.637366575,0.000000000,0.000002289,-0.000047761,-0.000109153,0.000000000,-0.000095551
0.057994773,-0.003624000,-0.003715447,-0.004810852,0.035408979,0.000000000,0.036952915,0.003242000,-0.004932925,0.013625050,2.016033027,0.000000000,2.015496621,-0.005913000,-0.006191396,-0.029325871,0.736071004,0.000000000,0.742454643,0.336270005,0.264514331,0.285311972,2.486557291,0.000000000,2.504449733,-0.388336003,-0.373977314,-0.327554569,-0.537711839,0.000000000,-0.519923300,-0.001320000,-0.001927410,0.010987375,-0.014107617,0.000000000,0.030150754,0.000000000,-0.000009307,-0.000043537,0.001279073,0.000000000,0.001238259,0.000000000,0.000747635,-0.001207125,-0.185501589,0.000000000,-0.185207642,0.000000000,0.004705419,-0.000519270,-1.326906778,0.000000000,-1.325746562,0.000000000,0.012008858,-0.002930371,-0.737865656,0.000000000,-0.737710442,0.000000000,0.006350968,-0.001519499,-0.637366575,0.000000000,-0.637540699,0.000000000,0.000002240,-0.000047717,-0.000095551,0.000000000,-0.000090691
0.059994592,-0.003624000,-0.003725481,-0.005016796,0.036952915,0.000000000,0.039187011,0.003242000,-0.004906629,0.013148011,2.015496621,0.000000000,2.018812273,-0.005913000,-0.006249125,-0.028864654,0.742454643,0.000000000,0.748431522,0.336652011,0.265083257,0.284463050,2.504449733,0.000000000,2.498677076,-0.388716996,-0.374609481,-0.316083703,-0.519923300,0.000000000,-0.527150018,-0.002205000,-0.001891728,0.017841029,0.030150754,0.000000000,-0.082382915,0.000000000,-0.000009343,-0.000036414,0.001238259,0.000000000,0.001201789,0.000000000,0.000745258,-0.001188931,-0.185207642,0.000000000,-0.184943463,0.000000000,0.004704309,-0.000555437,-1.325746562,0.000000000,-1.324612807,0.000000000,0.012003054,-0.002901735,-0.737710442,0.000000000,-0.737547409,0.000000000,0.006348236,-0.001366018,-0.637540699,0.000000000,-0.637700930,0.000000000,0.000002193,-0.000047738,-0.000090691,0.000000000,-0.000085950
0.061994412,-0.003624000,-0.003735250,-0.004884626,0.039187011,0.000000000,0.039480898,0.003242000,-0.004880422,0.013103574,2.018812273,0.000000000,2.012368151,-0.005913000,-0.006305963,-0.028418863,0.748431522,0.000000000,0.754503911,0.337033004,0.265650526,0.283634206,2.498677076,0.000000000,2.492802408,-0.388716996,-0.375219613,-0.305065665,-0.527150018,0.000000000,-0.496811377,-0.002205000,-0.001880445,0.005641137,-0.082382915,0.000000000,-0.048838866,0.000000000,-0.000009372,-0.000029820,0.001201789,0.000000000,0.001167644,0.000000000,0.000742916,-0.001171230,-0.184943463,0.000000000,-0.184678175,0.000000000,0.004703130,-0.000589562,-1.324612807,0.000000000,-1.323505868,0.000000000,0.011997305,-0.002874474,-0.737547409,0.000000000,-0.737378047,0.000000000,0.006345781,-0.001227580,-0.637700930,0.000000000,-0.637846381,0.000000000,0.000002151,-0.000046637,-0.000085950,0.000000000,-0.000084825
0.063994232,-0.003624000,-0.003744991,-0.004870558,0.039480898,0.000000000,0.040439646,0.003242000,-0.004854594,0.012913890,2.012368151,0.000000000,2.009317183,-0.005913000,-0.006361651,-0.027844542,0.754503911,0.000000000,0.757342555,0.337415010,0.266215112,0.282293340,2.492802408,0.000000000,2.490800584,-0.389097989,-0.375802951,-0.291668884,-0.496811377,0.000000000,-0.514448439,-0.002205000,-0.001882097,-0.000825607,-0.048838866,0.000000000,-0.030287034,0.000000000,-0.000009396,-0.000023501,0.001167644,0.000000000,0.001134398,0.000000000,0.000740613,-0.001151972,-0.184678175,0.000000000,-0.184459051,0.000000000,0.004701886,-0.000621996,-1.323505868,0.000000000,-1.322418749,0.000000000,0.011991609,-0.002848267,-0.737378047,0.000000000,-0.737204503,0.000000000,0.006343576,-0.001102594,-0.637846381,0.000000000,-0.637978847,0.000000000,0.000002111,-0.000048209,-0.000084825,0.000000000,-0.000076307
0.065994052,-0.003624000,-0.003754821,-0.004915402,0.040439646,0.000000000,0.041741111,0.003242000,-0.004829300,0.012647145,2.009317183,0.000000000,2.008160920,-0.005913000,-0.006416187,-0.027267779,0.757342555,0.000000000,0.759798134,0.337796003,0.266777166,0.281027013,2.490800584,0.000000000,2.488364912,-0.389288992,-0.376362027,-0.279538334,-0.514448439,0.000000000,-0.511736235,-0.002648000,-0.001890406,-0.004154828,-0.030287034,0.000000000,-0.064754028,0.000000000,-0.000009413,-0.000017172,0.001134398,0.000000000,0.001100437,0.000000000,0.000738348,-0.001132771,-0.184459051,0.000000000,-0.184249576,0.000000000,0.004700582,-0.000652273,-1.322418749,0.000000000,-1.321363223,0.000000000,0.011985962,-0.002823533,-0.737204503,0.000000000,-0.737023622,0.000000000,0.006341596,-0.000989829,-0.637978847,0.000000000,-0.638099364,0.000000000,0.000002074,-0.000049147,-0.000076307,0.000000000,-0.000069899
0.067993871,-0.003624000,-0.003764541,-0.004859943,0.041741111,0.000000000,0.042463537,0.003242000,-0.004804271,0.012514588,2.008160920,0.000000000,2.004044820,-0.005913000,-0.006469520,-0.026666717,0.759798134,0.000000000,0.761362364,0.338178009,0.267336492,0.279662963,2.488364912,0.000000000,2.486860175,-0.389288992,-0.376896296,-0.267134399,-0.511736235,0.000000000,-0.493004747,-0.002648000,-0.001917010,-0.013301919,-0.064754028,0.000000000,-0.036060132,0.000000000,-0.000009424,-0.000011528,0.001100437,0.000000000,0.001069737,0.000000000,0.000736122,-0.001113508,-0.184249576,0.000000000,-0.184052436,0.000000000,0.004699221,-0.000680842,-1.321363223,0.000000000,-1.320330092,0.000000000,0.011980362,-0.002799905,-0.737023622,0.000000000,-0.736837854,0.000000000,0.006339819,-0.000888765,-0.638099364,0.000000000,-0.638207044,0.000000000,0.000002041,-0.000048999,-0.000069899,0.000000000,-0.000066999
0.069993691,-0.003624000,-0.003774332,-0.004895726,0.042463537,0.000000000,0.043709565,0.003242000,-0.004779746,0.012262671,2.004044820,0.000000000,2.002771720,-0.005913000,-0.006521510,-0.025995223,0.761362364,0.000000000,0.760951772,0.338941008,0.267892500,0.278003988,2.486860175,0.000000000,2.511726765,-0.389288992,-0.377402852,-0.253277882,-0.493004747,0.000000000,-0.481203766,-0.002648000,-0.001952139,-0.017564488,-0.036060132,0.000000000,-0.020391339,0.000000000,-0.000009430,-0.000006117,0.001069737,0.000000000,0.001039763,0.000000000,0.000733935,-0.001093608,-0.184052436,0.000000000,-0.183880995,0.000000000,0.004697806,-0.000707864,-1.320330092,0.000000000,-1.319316573,0.000000000,0.011974808,-0.002777137,-0.736837854,0.000000000,-0.736648856,0.000000000,0.006338222,-0.000798209,-0.638207044,0.000000000,-0.638303152,0.000000000,0.000002012,-0.000049794,-0.000066999,0.000000000,-0.000061804
0.071993511,-0.003624000,-0.003784224,-0.004945916,0.043709565,0.000000000,0.045047767,0.003242000,-0.004755837,0.011954393,2.002771720,0.000000000,2.002948725,-0.005913000,-0.006572329,-0.025409547,0.760951772,0.000000000,0.762149364,0.339704007,0.268445607,0.276553322,2.511726765,0.000000000,2.535295951,-0.389288992,-0.377880371,-0.238759878,-0.481203766,0.000000000,-0.474217914,-0.002648000,-0.001990536,-0.019198272,-0.020391339,0.000000000,-0.011865944,0.000000000,-0.000009431,-0.000000914,0.001039763,0.000000000,0.001010400,0.000000000,0.000731788,-0.001073672,-0.183880995,0.000000000,-0.183721733,0.000000000,0.004696340,-0.000733057,-1.319316573,0.000000000,-1.318330141,0.000000000,0.011969297,-0.002755579,-0.736648856,0.000000000,-0.736453978,0.000000000,0.006336788,-0.000717012,-0.638303152,0.000000000,-0.638389064,0.000000000,0.000001988,-0.000050222,-0.000061804,0.000000000,-0.000058094
0.073993331,-0.003624000,-0.003794203,-0.004989487,0.045047767,0.000000000,0.046357823,0.003242000,-0.004732599,0.011619173,2.002948725,0.000000000,2.003925675,-0.005913000,-0.006622145,-0.024908330,0.762149364,0.000000000,0.764972389,0.340465993,0.268996275,0.275333976,2.535295951,0.000000000,2.557310952,-0.389097989,-0.378328207,-0.223917697,-0.474217914,0.000000000,-0.451850022,-0.003091000,-0.002029355,-0.019409722,-0.011865944,0.000000000,-0.052113312,0.000000000,-0.000009426,0.000003952,0.001010400,0.000000000,0.000982405,0.000000000,0.000729681,-0.001053617,-0.183721733,0.000000000,-0.183576554,0.000000000,0.004694827,-0.000756777,-1.318330141,0.000000000,-1.317363525,0.000000000,0.011963827,-0.002734807,-0.736453978,0.000000000,-0.736256136,0.000000000,0.006335499,-0.000644552,-0.638389064,0.000000000,-0.638464785,0.000000000,0.000001968,-0.000050399,-0.000058094,0.000000000,-0.000055578
0.075993150,-0.003624000,-0.003803972,-0.004884652,0.046357823,0.000000000,0.046806300,0.003242000,-0.004709711,0.011443630,2.003925675,0.000000000,2.001390701,-0.005913000,-0.006671100,-0.024477478,0.764972389,0.000000000,0.769142046,0.341228992,0.269544690,0.274207528,2.557310952,0.000000000,2.578871948,-0.389097989,-0.378743392,-0.207592795,-0.451850022,0.000000000,-0.456300986,-0.003091000,-0.002082247,-0.026446177,-0.052113312,0.000000000,-0.026763105,0.000000000,-0.000009417,0.000008411,0.000982405,0.000000000,0.000956222,0.000000000,0.000727615,-0.001033515,-0.183576554,0.000000000,-0.183443854,0.000000000,0.004693269,-0.000779043,-1.317363525,0.000000000,-1.316417146,0.000000000,0.011958397,-0.002714874,-0.736256136,0.000000000,-0.736054848,0.000000000,0.006334339,-0.000580006,-0.638464785,0.000000000,-0.638531053,0.000000000,0.000001953,-0.000050367,-0.000055578,0.000000000,-0.000054165
0.077992970,-0.003624000,-0.003813636,-0.004831832,0.046806300,0.000000000,0.047537660,0.003242000,-0.004687380,0.011165908,2.001390701,0.000000000,2.001324796,-0.005913000,-0.006719360,-0.024130558,0.769142046,0.000000000,0.775012969,0.341991991,0.270091428,0.273368975,2.578871948,0.000000000,2.598492514,-0.389288992,-0.379126952,-0.191780021,-0.456300986,0.000000000,-0.481795934,-0.002648000,-0.002140645,-0.029198927,-0.026763105,0.000000000,0.031736749,0.000000000,-0.000009404,0.000012855,0.000956222,0.000000000,0.000929650,0.000000000,0.000725590,-0.001012913,-0.183443854,0.000000000,-0.183334178,0.000000000,0.004691670,-0.000799888,-1.316417146,0.000000000,-1.315491063,0.000000000,0.011953006,-0.002695648,-0.736054848,0.000000000,-0.735850965,0.000000000,0.006333295,-0.000522335,-0.638531053,0.000000000,-0.638589431,0.000000000,0.000001943,-0.000051324,-0.000054165,0.000000000,-0.000050443
0.079992790,-0.003624000,-0.003823501,-0.004932784,0.047537660,0.000000000,0.049160124,0.003242000,-0.004666036,0.010671573,2.001324796,0.000000000,2.006439470,-0.005913000,-0.006767092,-0.023865834,0.775012969,0.000000000,0.782592603,0.342373997,0.270637331,0.272951793,2.598492514,0.000000000,2.591105261,-0.389288992,-0.379482970,-0.178008559,-0.481795934,0.000000000,-0.484967330,-0.002648000,-0.002184795,-0.022074660,0.031736749,0.000000000,0.015944409,0.000000000,-0.000009386,0.000017153,0.000929650,0.000000000,0.000903454,0.000000000,0.000723606,-0.000992034,-0.183334178,0.000000000,-0.183242615,0.000000000,0.004690032,-0.000819285,-1.315491063,0.000000000,-1.314586719,0.000000000,0.011947652,-0.002677203,-0.735850965,0.000000000,-0.735643862,0.000000000,0.006332353,-0.000470848,-0.638589431,0.000000000,-0.638640636,0.000000000,0.000001938,-0.000052365,-0.000050443,0.000000000,-0.000047024
0.081992610,-0.003624000,-0.003833490,-0.004994271,0.049160124,0.000000000,0.050572521,0.003242000,-0.004645540,0.010248157,2.006439470,0.000000000,2.010190756,-0.005913000,-0.006814172,-0.023540124,0.782592603,0.000000000,0.788607638,0.342754990,0.271182088,0.272378125,2.591105261,0.000000000,2.584838786,-0.389288992,-0.379811657,-0.164343940,-0.484967330,0.000000000,-0.490597002,-0.002648000,-0.002220051,-0.017627995,0.015944409,0.000000000,0.006865688,0.000000000,-0.000009364,0.000020926,0.000903454,0.000000000,0.000879832,0.000000000,0.000721664,-0.000971352,-0.183242615,0.000000000,-0.183158379,0.000000000,0.004688358,-0.000837480,-1.314586719,0.000000000,-1.313699228,0.000000000,0.011942333,-0.002659323,-0.735643862,0.000000000,-0.735434999,0.000000000,0.006331502,-0.000425405,-0.638640636,0.000000000,-0.638683844,0.000000000,-0.000001939,-0.000052445,-0.000047024,0.000000000,0.000345112
0.083992429,-0.003624000,-0.003843551,-0.005030643,0.050572521,0.000000000,0.051850645,0.003242000,-0.004625826,0.009856921,2.010190756,0.000000000,2.013436573,-0.005913000,-0.006860521,-0.023174778,0.788607638,0.000000000,0.793518424,0.343136996,0.271725489,0.271700767,2.584838786,0.000000000,2.579458905,-0.388906986,-0.380113660,-0.151001478,-0.490597002,0.000000000,-0.459400235,-0.002648000,-0.002249490,-0.014719915,0.006865688,0.000000000,0.001573352,0.000000000,-0.000009340,0.000024259,0.000879832,0.000000000,0.000858360,0.000000000,0.000719760,-0.000952074,-0.183158379,0.000000000,-0.183053329,0.000000000,0.004686649,-0.000854413,-1.313699228,0.000000000,-1.312830663,0.000000000,0.011937049,-0.002642019,-0.735434999,0.000000000,-0.735224229,0.000000000,0.006330732,-0.000385154,-0.638683844,0.000000000,-0.638720425,0.000000000,-0.000001938,0.000021677,0.000345112,0.000000000,0.000134257
0.085992249,-0.003624000,-0.003853667,-0.005058312,0.051850645,0.000000000,0.053085450,0.003242000,-0.004606852,0.009487372,2.013436573,0.000000000,2.016401933,-0.005913000,-0.006905933,-0.022705937,0.793518424,0.000000000,0.795821744,0.343517989,0.272266615,0.270563227,2.579458905,0.000000000,2.577429700,-0.388906986,-0.380384139,-0.135239331,-0.459400235,0.000000000,-0.476876092,-0.002648000,-0.002274891,-0.012700064,0.001573352,0.000000000,-0.001602021,0.000000000,-0.000009312,0.000027512,0.000858360,0.000000000,0.000837013,0.000000000,0.000717898,-0.000931442,-0.183053329,0.000000000,-0.182990654,0.000000000,0.004684910,-0.000870172,-1.312830663,0.000000000,-1.311979684,0.000000000,0.011931798,-0.002625247,-0.735224229,0.000000000,-0.735011802,0.000000000,0.006330033,-0.000349494,-0.638720425,0.000000000,-0.638751166,0.000000000,0.000001939,0.000054500,0.000134257,0.000000000,-0.000350957
0.087992069,-0.003624000,-0.003863808,-0.005070600,0.053085450,0.000000000,0.054235901,0.003242000,-0.004588600,0.009126011,2.016401933,0.000000000,2.019387513,-0.005531000,-0.006950433,-0.022250413,0.795821744,0.000000000,0.906748946,0.343901008,0.272805665,0.269524605,2.577429700,0.000000000,2.574956606,-0.388716996,-0.380625624,-0.120742318,-0.476876092,0.000000000,-0.474484137,-0.002205000,-0.002297360,-0.011234641,-0.001602021,0.000000000,0.041274424,0.000000000,-0.000009281,0.000031081,0.000837013,0.000000000,0.000813538,0.000000000,0.000716081,-0.000909015,-0.182990654,0.000000000,-0.182981301,0.000000000,0.004683141,-0.000884627,-1.311979684,0.000000000,-1.311149994,0.000000000,0.011926580,-0.002608988,-0.735011802,0.000000000,-0.734797776,0.000000000,0.006329397,-0.000317827,-0.638751166,0.000000000,-0.638776953,0.000000000,0.000001939,-0.000005125,-0.000350957,0.000000000,-0.000181397
0.089991889,-0.003624000,-0.003874403,-0.005297626,0.054235901,0.000000000,0.056649094,0.003242000,-0.004571418,0.008590816,2.019387513,0.000000000,2.026609301,-0.005913000,-0.006993355,-0.021460703,0.906748946,0.000000000,0.792505016,0.344282001,0.273341231,0.267783154,2.574956606,0.000000000,2.577571214,-0.388716996,-0.380837245,-0.105810537,-0.474484137,0.000000000,-0.495547705,-0.002205000,-0.002302267,-0.002453483,0.041274424,0.000000000,0.016805516,0.000000000,-0.000009248,0.000034512,0.000813538,0.000000000,0.000790595,0.000000000,0.000714307,-0.000887121,-0.182981301,0.000000000,-0.182972348,0.000000000,0.004681344,-0.000899004,-1.311149994,0.000000000,-1.310313906,0.000000000,0.011921397,-0.002591863,-0.734797776,0.000000000,-0.734592066,0.000000000,0.006328817,-0.000290117,-0.638776953,0.000000000,-0.638797089,0.000000000,0.000001938,-0.000032592,-0.000181397,0.000000000,-0.000103186
0.091991708,-0.003624000,-0.003885084,-0.005340521,0.056649094,0.000000000,0.058030170,0.003242000,-0.004555062,0.008178194,2.026609301,0.000000000,2.031293178,-0.005531000,-0.007035380,-0.021012923,0.792505016,0.000000000,0.902903882,0.344664007,0.273874915,0.266841816,2.577571214,0.000000000,2.574681537,-0.388716996,-0.381022541,-0.092647903,-0.495547705,0.000000000,-0.514242151,-0.002205000,-0.002298123,0.002072053,0.016805516,0.000000000,0.003520592,0.000000000,-0.000009212,0.000036828,0.000790595,0.000000000,0.000773647,0.000000000,0.000712576,-0.000865406,-0.182972348,0.000000000,-0.182971673,0.000000000,0.004679525,-0.000909436,-1.310313906,0.000000000,-1.309561111,0.000000000,0.011916239,-0.002578927,-0.734592066,0.000000000,-0.734358222,0.000000000,0.006328288,-0.000264334,-0.638797089,0.000000000,-0.638816962,0.000000000,-0.000001940,-0.000044544,-0.000103186,0.000000000,0.000322669
0.093991528,-0.003624000,-0.003895928,-0.005421766,0.058030170,0.000000000,0.059645434,0.003242000,-0.004539458,0.007801869,2.031293178,0.000000000,2.035369990,-0.005531000,-0.007075977,-0.020298544,0.902903882,0.000000000,0.898284827,0.345427006,0.274405833,0.265459252,2.574681537,0.000000000,2.599168169,-0.388716996,-0.381183800,-0.080629548,-0.514242151,0.000000000,-0.532112683,-0.002205000,-0.002289308,0.004407505,0.003520592,0.000000000,-0.004009986,0.000000000,-0.000009174,0.000039611,0.000773647,0.000000000,0.000753921,0.000000000,0.000710885,-0.000846039,-0.182971673,0.000000000,-0.182928928,0.000000000,0.004677681,-0.000922592,-1.309561111,0.000000000,-1.308739218,0.000000000,0.011911117,-0.002560948,-0.734358222,0.000000000,-0.734162491,0.000000000,0.006327800,-0.000244341,-0.638816962,0.000000000,-0.638824414,0.000000000,-0.000001938,0.000024333,0.000322669,0.000000000,0.000126692
0.095991348,-0.003624000,-0.003906801,-0.005436408,0.059645434,0.000000000,0.060887180,0.003242000,-0.004524521,0.007468341,2.035369990,0.000000000,2.038668403,-0.005531000,-0.007115462,-0.019742330,0.898284827,0.000000000,0.896927089,0.345807999,0.274935072,0.264619447,2.599168169,0.000000000,2.595773545,-0.388716996,-0.381324140,-0.070170029,-0.532112683,0.000000000,-0.547665629,-0.002205000,-0.002278482,0.005412783,-0.004009986,0.000000000,-0.007962078,0.000000000,-0.000009135,0.000041961,0.000753921,0.000000000,0.000736425,0.000000000,0.000709236,-0.000824796,-0.182928928,0.000000000,-0.182940655,0.000000000,0.004675817,-0.000932112,-1.308739218,0.000000000,-1.307994189,0.000000000,0.011906023,-0.002547125,-0.734162491,0.000000000,-0.733938967,0.000000000,0.006327351,-0.000224312,-0.638824414,0.000000000,-0.638836016,0.000000000,0.000001939,0.000054831,0.000126692,0.000000000,-0.000351847
0.097991168,-0.003624000,-0.003917668,-0.005433797,0.060887180,0.000000000,0.062030808,0.003242000,-0.004510213,0.007154093,2.038668403,0.000000000,2.041709343,-0.005531000,-0.007153837,-0.019187782,0.896927089,0.000000000,0.895291792,0.346570998,0.275462760,0.263843997,2.595773545,0.000000000,2.616148867,-0.388716996,-0.381445750,-0.060804990,-0.547665629,0.000000000,-0.561999920,-0.002205000,-0.002267003,0.005739603,-0.007962078,0.000000000,-0.010051373,0.000000000,-0.000009094,0.000044455,0.000736425,0.000000000,0.000717940,0.000000000,0.000707633,-0.000801861,-0.182940655,0.000000000,-0.183003707,0.000000000,0.004673935,-0.000941577,-1.307994189,0.000000000,-1.307245003,0.000000000,0.011900958,-0.002532077,-0.733938967,0.000000000,-0.733726049,0.000000000,0.006326935,-0.000207849,-0.638836016,0.000000000,-0.638840807,0.000000000,0.000001939,-0.000005649,-0.000351847,0.000000000,-0.000179858
0.099990987,-0.003624000,-0.003928450,-0.005390739,0.062030808,0.000000000,0.062936525,0.003242000,-0.004496501,0.006855960,2.041709343,0.000000000,2.044555268,-0.005531000,-0.007191344,-0.018753353,0.895291792,0.000000000,0.896126483,0.347333997,0.275989739,0.263489407,2.616148867,0.000000000,2.633577514,-0.388716996,-0.381551122,-0.052686180,-0.561999920,0.000000000,-0.574432241,-0.002205000,-0.002255651,0.005675699,-0.010051373,0.000000000,-0.011016922,0.000000000,-0.000009051,0.000046680,0.000717940,0.000000000,0.000700823,0.000000000,0.000706073,-0.000779828,-0.183003707,0.000000000,-0.183058866,0.000000000,0.004672035,-0.000950123,-1.307245003,0.000000000,-1.306511749,0.000000000,0.011895924,-0.002517171,-0.733726049,0.000000000,-0.733514011,0.000000000,0.006326548,-0.000193369,-0.638840807,0.000000000,-0.638842888,0.000000000,-0.000001938,-0.000032729,-0.000179858,0.000000000,0.000288864
0.101990807,-0.003624000,-0.003939086,-0.005318490,0.062936525,0.000000000,0.063661768,0.003242000,-0.004483362,0.006569653,2.044555268,0.000000000,2.047296471,-0.005531000,-0.007228168,-0.018412048,0.896126483,0.000000000,0.898873544,0.347714990,0.276516690,0.263475386,2.633577514,0.000000000,2.624457748,-0.388716996,-0.381642391,-0.045634424,-0.574432241,0.000000000,-0.585256296,-0.002205000,-0.002244813,0.005419190,-0.011016922,0.000000000,-0.011383048,0.000000000,-0.000009008,0.000048514,0.000700823,0.000000000,0.000685821,0.000000000,0.000704555,-0.000759615,-0.183058866,0.000000000,-0.183084363,0.000000000,0.004670120,-0.000957870,-1.306511749,0.000000000,-1.305792176,0.000000000,0.011890920,-0.002502285,-0.733514011,0.000000000,-0.733303707,0.000000000,0.006326187,-0.000180648,-0.638842888,0.000000000,-0.638842539,0.000000000,0.000001938,0.000029427,0.000288864,0.000000000,-0.000279548
0.103990627,-0.003624000,-0.003949595,-0.005254421,0.063661768,0.000000000,0.064419610,0.003242000,-0.004470790,0.006285901,2.047296471,0.000000000,2.050141183,-0.005531000,-0.007264217,-0.018024931,0.898873544,0.000000000,0.900364291,0.348096997,0.277043427,0.263368746,2.624457748,0.000000000,2.616073788,-0.388716996,-0.381720920,-0.039264794,-0.585256296,0.000000000,-0.595428562,-0.002205000,-0.002234612,0.005100477,-0.011383048,0.000000000,-0.011507907,0.000000000,-0.000008964,0.000050694,0.000685821,0.000000000,0.000668763,0.000000000,0.000703081,-0.000736891,-0.183084363,0.000000000,-0.183179560,0.000000000,0.004668191,-0.000964873,-1.305792176,0.000000000,-1.305085435,0.000000000,0.011885945,-0.002487351,-0.733303707,0.000000000,-0.733095629,0.000000000,0.006325848,-0.000169487,-0.638842539,0.000000000,-0.638840010,0.000000000,0.000001938,-0.000017166,-0.000279548,0.000000000,-0.000147012
0.105990447,-0.004005000,-0.003959989,-0.005196809,0.064419610,0.000000000,0.024590121,0.003242000,-0.004458784,0.006003077,2.050141183,0.000000000,2.053125696,-0.005531000,-0.007299416,-0.017599400,0.900364291,0.000000000,0.900744258,0.348477989,0.277569792,0.263182547,2.616073788,0.000000000,2.608214860,-0.388716996,-0.381788004,-0.033541977,-0.595428562,0.000000000,-0.604918690,-0.002205000,-0.002225098,0.004756895,-0.011507907,0.000000000,-0.011492613,0.000000000,-0.000008918,0.000052610,0.000668763,0.000000000,0.000653126,0.000000000,0.000701652,-0.000714891,-0.183179560,0.000000000,-0.183270894,0.000000000,0.004666250,-0.000970994,-1.305085435,0.000000000,-1.304395175,0.000000000,0.011881000,-0.002472562,-0.733095629,0.000000000,-0.732888389,0.000000000,0.006325529,-0.000159638,-0.638840010,0.000000000,-0.638835744,0.000000000,-0.000001938,-0.000037806,-0.000147012,0.000000000,0.000303362
0.107990266,-0.003624000,-0.003970797,-0.005403980,0.024590121,0.000000000,0.067525270,0.003242000,-0.004447402,0.005691015,2.053125696,0.000000000,2.056948945,-0.005531000,-0.007333634,-0.017109170,0.900744258,0.000000000,0.899382101,0.348859996,0.278095542,0.262874871,2.608214860,0.000000000,2.601322255,-0.388716996,-0.381844848,-0.028421793,-0.604918690,0.000000000,-0.613730474,-0.002205000,-0.002216028,0.004535173,-0.011492613,0.000000000,-0.011778954,0.000000000,-0.000008873,0.000053977,0.000653126,0.000000000,0.000640552,0.000000000,0.000700263,-0.000694534,-0.183270894,0.000000000,-0.183336633,0.000000000,0.004664298,-0.000976054,-1.304395175,0.000000000,-1.303726050,0.000000000,0.011876083,-0.002458147,-0.732888389,0.000000000,-0.732680317,0.000000000,0.006325227,-0.000151026,-0.638835744,0.000000000,-0.638829702,0.000000000,-0.000001937,0.000027361,0.000303362,0.000000000,0.000118006
0.109990086,-0.004005000,-0.003981489,-0.005346010,0.067525270,0.000000000,0.027725561,0.003242000,-0.004436561,0.005420239,2.056948945,0.000000000,2.059992279,-0.005531000,-0.007366873,-0.016619435,0.899382101,0.000000000,0.897752743,0.349240988,0.278620658,0.262558227,2.601322255,0.000000000,2.594469395,-0.388716996,-0.381892569,-0.023860620,-0.613730474,0.000000000,-0.621874944,-0.002205000,-0.002207785,0.004121711,-0.011778954,0.000000000,-0.011436603,0.000000000,-0.000008828,0.000055924,0.000640552,0.000000000,0.000624694,0.000000000,0.000698916,-0.000673939,-0.183336633,0.000000000,-0.183419447,0.000000000,0.004662336,-0.000981220,-1.303726050,0.000000000,-1.303051585,0.000000000,0.011871199,-0.002442449,-0.732680317,0.000000000,-0.732483340,0.000000000,0.006324939,-0.000143745,-0.638829702,0.000000000,-0.638821346,0.000000000,0.000001941,0.000057484,0.000118006,0.000000000,-0.000359553
0.111989906,-0.004005000,-0.003992582,-0.005546611,0.027725561,0.000000000,0.030042399,0.003242000,-0.004426338,0.005111520,2.059992279,0.000000000,2.064069369,-0.005150000,-0.007399029,-0.016077822,0.897752743,0.000000000,1.002939339,0.349622995,0.279144928,0.262135105,2.594469395,0.000000000,2.588490843,-0.388716996,-0.381932214,-0.019822362,-0.621874944,0.000000000,-0.629349018,-0.002205000,-0.002200004,0.003890083,-0.011436603,0.000000000,-0.011564386,0.000000000,-0.000008782,0.000057462,0.000624694,0.000000000,0.000611104,0.000000000,0.000697615,-0.000650706,-0.183419447,0.000000000,-0.183575146,0.000000000,0.004660368,-0.000984566,-1.303051585,0.000000000,-1.302416383,0.000000000,0.011866342,-0.002428339,-0.732483340,0.000000000,-0.732276862,0.000000000,0.006324666,-0.000136756,-0.638821346,0.000000000,-0.638813575,0.000000000,0.000001940,-0.000003351,-0.000359553,0.000000000,-0.000186555
0.113989726,-0.004005000,-0.004004235,-0.005826438,0.030042399,0.000000000,0.032866919,0.003242000,-0.004416740,0.004799369,2.064069369,0.000000000,2.068401523,-0.005150000,-0.007429510,-0.015240729,1.002939339,0.000000000,0.992669317,0.350003988,0.279667192,0.261131551,2.588490843,0.000000000,2.586700770,-0.388716996,-0.381964368,-0.016076848,-0.629349018,0.000000000,-0.636747900,-0.002205000,-0.002192655,0.003674842,-0.011564386,0.000000000,-0.011695252,0.000000000,-0.000008736,0.000059514,0.000611104,0.000000000,0.000594669,0.000000000,0.000696357,-0.000629163,-0.183575146,0.000000000,-0.183704857,0.000000000,0.004658391,-0.000988958,-1.302416383,0.000000000,-1.301755025,0.000000000,0.011861519,-0.002411672,-0.732276862,0.000000000,-0.732090668,0.000000000,0.006324403,-0.000131580,-0.638813575,0.000000000,-0.638801691,0.000000000,0.000001938,-0.000030187,-0.000186555,0.000000000,-0.000110018
0.115989545,-0.004005000,-0.004016397,-0.006081446,0.032866919,0.000000000,0.035605444,0.003242000,-0.004407749,0.004495250,2.068401523,0.000000000,2.072724872,-0.005150000,-0.007458361,-0.014425608,0.992669317,0.000000000,0.982432879,0.350385994,0.280187562,0.260185333,2.586700770,0.000000000,2.584686694,-0.388716996,-0.381990089,-0.012860556,-0.636747900,0.000000000,-0.643292314,-0.002205000,-0.002185843,0.003406093,-0.011695252,0.000000000,-0.011619672,0.000000000,-0.000008691,0.000060817,0.000594669,0.000000000,0.000582463,0.000000000,0.000695142,-0.000607409,-0.183704857,0.000000000,-0.183851708,0.000000000,0.004656410,-0.000990611,-1.301755025,0.000000000,-1.301154693,0.000000000,0.011856723,-0.002397895,-0.732090668,0.000000000,-0.731885667,0.000000000,0.006324152,-0.000125508,-0.638801691,0.000000000,-0.638793586,0.000000000,-0.000001938,-0.000042014,-0.000110018,0.000000000,0.000315260
0.117989365,-0.004005000,-0.004029022,-0.006312160,0.035605444,0.000000000,0.038255775,0.003242000,-0.004399356,0.004196581,2.072724872,0.000000000,2.077094769,-0.005150000,-0.007485617,-0.013628054,0.982432879,0.000000000,0.972140385,0.350766987,0.280706124,0.259281100,2.584686694,0.000000000,2.582424413,-0.388716996,-0.382010296,-0.010103880,-0.643292314,0.000000000,-0.649087247,-0.002205000,-0.002179592,0.003125455,-0.011619672,0.000000000,-0.011453566,0.000000000,-0.000008646,0.000061881,0.000582463,0.000000000,0.000571669,0.000000000,0.000693967,-0.000587732,-0.183851708,0.000000000,-0.183962763,0.000000000,0.004654426,-0.000992428,-1.301154693,0.000000000,-1.300549594,0.000000000,0.011851957,-0.002382633,-0.731885667,0.000000000,-0.731693148,0.000000000,0.006323909,-0.000121318,-0.638793586,0.000000000,-0.638780975,0.000000000,0.000001937,0.000027596,0.000315260,0.000000000,-0.000274237
0.119989185,-0.003624000,-0.004042062,-0.006520143,0.038255775,0.000000000,0.081433465,0.003242000,-0.004391548,0.003903810,2.077094769,0.000000000,2.081497675,-0.005150000,-0.007511309,-0.012846037,0.972140385,0.000000000,0.961754755,0.351148993,0.281222942,0.258408847,2.582424413,0.000000000,2.580109021,-0.388716996,-0.382025796,-0.007749850,-0.649087247,0.000000000,-0.654213277,-0.002205000,-0.002173899,0.002846545,-0.011453566,0.000000000,-0.011235996,0.000000000,-0.000008602,0.000063415,0.000571669,0.000000000,0.000558277,0.000000000,0.000692836,-0.000565629,-0.183962763,0.000000000,-0.184141258,0.000000000,0.004652439,-0.000993733,-1.300549594,0.000000000,-1.299955350,0.000000000,0.011847223,-0.002367043,-0.731693148,0.000000000,-0.731504938,0.000000000,0.006323674,-0.000117631,-0.638780975,0.000000000,-0.638767682,0.000000000,-0.000001937,-0.000015120,-0.000274237,0.000000000,0.000238760
0.121989005,-0.003624000,-0.004054955,-0.006446578,0.081433465,0.000000000,0.082391752,0.003242000,-0.004384254,0.003647473,2.081497675,0.000000000,2.085222221,-0.005150000,-0.007535525,-0.012108243,0.961754755,0.000000000,0.951949982,0.351529986,0.281738161,0.257609509,2.580109021,0.000000000,2.577312323,-0.388716996,-0.382037292,-0.005747881,-0.654213277,0.000000000,-0.658743055,-0.002205000,-0.002168988,0.002455163,-0.011235996,0.000000000,-0.010619560,0.000000000,-0.000008559,0.000064688,0.000558277,0.000000000,0.000546469,0.000000000,0.000691744,-0.000546054,-0.184141258,0.000000000,-0.184273703,0.000000000,0.004650451,-0.000994698,-1.299955350,0.000000000,-1.299368253,0.000000000,0.011842521,-0.002350958,-0.731504938,0.000000000,-0.731322271,0.000000000,0.006323445,-0.000114250,-0.638767682,0.000000000,-0.638754202,0.000000000,0.000001938,0.000041084,0.000238760,0.000000000,-0.000312693
0.123988824,-0.003624000,-0.004067677,-0.006360921,0.082391752,0.000000000,0.083263395,0.003242000,-0.004377479,0.003387375,2.085222221,0.000000000,2.089179683,-0.005150000,-0.007558291,-0.011382612,0.951949982,0.000000000,0.942007819,0.351911992,0.282251800,0.256819475,2.577312323,0.000000000,2.574613300,-0.388716996,-0.382045400,-0.004053889,-0.658743055,0.000000000,-0.662739663,-0.002205000,-0.002164678,0.002155257,-0.010619560,0.000000000,-0.010202569,0.000000000,-0.000008516,0.000066023,0.000546469,0.000000000,0.000534385,0.000000000,0.000690697,-0.000523815,-0.184273703,0.000000000,-0.184479017,0.000000000,0.004648462,-0.000994500,-1.299368253,0.000000000,-1.298807583,0.000000000,0.011837850,-0.002335541,-0.731322271,0.000000000,-0.731136804,0.000000000,0.006323223,-0.000110923,-0.638754202,0.000000000,-0.638741239,0.000000000,0.000001938,-0.000007844,-0.000312693,0.000000000,-0.000173534
0.125988644,-0.003624000,-0.004080210,-0.006266909,0.083263395,0.000000000,0.084067751,0.003242000,-0.004371214,0.003132478,2.089179683,0.000000000,2.093164414,-0.005150000,-0.007579619,-0.010664083,0.942007819,0.000000000,0.931817806,0.352293015,0.282763866,0.256032981,2.574613300,0.000000000,2.571926350,-0.388716996,-0.382050646,-0.002623089,-0.662739663,0.000000000,-0.666277221,-0.002205000,-0.002160867,0.001905446,-0.010202569,0.000000000,-0.009877504,0.000000000,-0.000008475,0.000067297,0.000534385,0.000000000,0.000522756,0.000000000,0.000689692,-0.000502626,-0.184479017,0.000000000,-0.184672645,0.000000000,0.004646475,-0.000994016,-1.298807583,0.000000000,-1.298253644,0.000000000,0.011833212,-0.002319446,-0.731136804,0.000000000,-0.730958196,0.000000000,0.006323007,-0.000108337,-0.638741239,0.000000000,-0.638726692,0.000000000,-0.000001937,-0.000029214,-0.000173534,0.000000000,0.000278810
0.127988464,-0.003624000,-0.004092537,-0.006163585,0.084067751,0.000000000,0.084797423,0.003242000,-0.004365451,0.002881672,2.093164414,0.000000000,2.097199200,-0.005150000,-0.007599525,-0.009953309,0.931817806,0.000000000,0.921399154,0.352674007,0.283274360,0.255247159,2.571926350,0.000000000,2.569332015,-0.388716996,-0.382053491,-0.001422446,-0.666277221,0.000000000,-0.669403130,-0.002205000,-0.002157482,0.001692402,-0.009877504,0.000000000,-0.009613906,0.000000000,-0.000008434,0.000068289,0.000522756,0.000000000,0.000512862,0.000000000,0.000688726,-0.000483406,-0.184672645,0.000000000,-0.184832658,0.000000000,0.004644490,-0.000993015,-1.298253644,0.000000000,-1.297711976,0.000000000,0.011828605,-0.002303113,-0.730958196,0.000000000,-0.730783340,0.000000000,0.006322795,-0.000105964,-0.638726692,0.000000000,-0.638712022,0.000000000,0.000001938,0.000036197,0.000278810,0.000000000,-0.000298778
0.129988284,-0.003624000,-0.004104639,-0.006050759,0.084797423,0.000000000,0.085449310,0.003242000,-0.004360181,0.002634919,2.097199200,0.000000000,2.101282584,-0.005150000,-0.007618027,-0.009251101,0.921399154,0.000000000,0.910775042,0.353437006,0.283783283,0.254461098,2.569332015,0.000000000,2.590968105,-0.388716996,-0.382054338,-0.000423494,-0.669403130,0.000000000,-0.672157550,-0.002205000,-0.002154471,0.001505471,-0.009613906,0.000000000,-0.009386761,0.000000000,-0.000008395,0.000069702,0.000512862,0.000000000,0.000500720,0.000000000,0.000687802,-0.000461838,-0.184832658,0.000000000,-0.185058024,0.000000000,0.004642508,-0.000991462,-1.297711976,0.000000000,-1.297183654,0.000000000,0.011824032,-0.002286586,-0.730783340,0.000000000,-0.730611950,0.000000000,0.006322587,-0.000103725,-0.638712022,0.000000000,-0.638697421,0.000000000,0.000001938,-0.000008197,-0.000298778,0.000000000,-0.000172512
0.131988103,-0.003624000,-0.004116436,-0.005898862,0.085449310,0.000000000,0.085847865,0.003242000,-0.004355385,0.002397897,2.101282584,0.000000000,2.105280604,-0.005150000,-0.007635381,-0.008677023,0.910775042,0.000000000,0.902722766,0.353819013,0.284291369,0.254043148,2.590968105,0.000000000,2.585975044,-0.388716996,-0.382054013,0.000162346,-0.672157550,0.000000000,-0.673855907,-0.002205000,-0.002151843,0.001313990,-0.009386761,0.000000000,-0.009107976,0.000000000,-0.000008358,0.000070934,0.000500720,0.000000000,0.000489761,0.000000000,0.000686920,-0.000441143,-0.185058024,0.000000000,-0.185275413,0.000000000,0.004640530,-0.000989320,-1.297183654,0.000000000,-1.296669886,0.000000000,0.011819492,-0.002269921,-0.730611950,0.000000000,-0.730443646,0.000000000,0.006322384,-0.000101628,-0.638697421,0.000000000,-0.638682841,0.000000000,-0.000001937,-0.000027229,-0.000172512,0.000000000,0.000273153
0.133987923,-0.004005000,-0.004127926,-0.005744827,0.085847865,0.000000000,0.045589930,0.003242000,-0.004351056,0.002164684,2.105280604,0.000000000,2.109325060,-0.005150000,-0.007651561,-0.008089632,0.902722766,0.000000000,0.894035432,0.354200006,0.284798490,0.253560495,2.585975044,0.000000000,2.581438861,-0.388716996,-0.382052646,0.000683330,-0.673855907,0.000000000,-0.675475187,-0.002205000,-0.002149527,0.001157866,-0.009107976,0.000000000,-0.008898156,0.000000000,-0.000008322,0.000071900,0.000489761,0.000000000,0.000480497,0.000000000,0.000686076,-0.000422398,-0.185275413,0.000000000,-0.185459357,0.000000000,0.004638557,-0.000986859,-1.296669886,0.000000000,-1.296164750,0.000000000,0.011814987,-0.002252798,-0.730443646,0.000000000,-0.730280759,0.000000000,0.006322185,-0.000099797,-0.638682841,0.000000000,-0.638667874,0.000000000,0.000001938,0.000039266,0.000273153,0.000000000,-0.000307518
0.135987743,-0.004005000,-0.004139619,-0.005846754,0.045589930,0.000000000,0.047412751,0.003242000,-0.004347249,0.001903429,2.109325060,0.000000000,2.114152308,-0.005150000,-0.007666491,-0.007465113,0.894035432,0.000000000,0.884153262,0.354582012,0.285304445,0.252977688,2.581438861,0.000000000,2.577752196,-0.388716996,-0.382050377,0.001134479,-0.675475187,0.000000000,-0.676987114,-0.002205000,-0.002147238,0.001144477,-0.008898156,0.000000000,-0.009091425,0.000000000,-0.000008288,0.000073147,0.000480497,0.000000000,0.000469807,0.000000000,0.000685274,-0.000401101,-0.185459357,0.000000000,-0.185713111,0.000000000,0.004636590,-0.000983539,-1.296164750,0.000000000,-1.295680919,0.000000000,0.011810515,-0.002235942,-0.730280759,0.000000000,-0.730118103,0.000000000,0.006321989,-0.000097968,-0.638667874,0.000000000,-0.638653271,0.000000000,0.000001938,-0.000004796,-0.000307518,0.000000000,-0.000182211
0.137987563,-0.004005000,-0.004151490,-0.005935119,0.047412751,0.000000000,0.049177720,0.003242000,-0.004343938,0.001655149,2.114152308,0.000000000,2.118827206,-0.005150000,-0.007680165,-0.006837251,0.884153262,0.000000000,0.873838547,0.354963005,0.285809164,0.252359509,2.577752196,0.000000000,2.574331055,-0.388716996,-0.382047337,0.001520351,-0.676987114,0.000000000,-0.678391458,-0.002205000,-0.002145098,0.001070088,-0.009091425,0.000000000,-0.009096235,0.000000000,-0.000008256,0.000074535,0.000469807,0.000000000,0.000458542,0.000000000,0.000684512,-0.000381111,-0.185713111,0.000000000,-0.185948681,0.000000000,0.004634630,-0.000980305,-1.295680919,0.000000000,-1.295196982,0.000000000,0.011806079,-0.002218019,-0.730118103,0.000000000,-0.729965295,0.000000000,0.006321796,-0.000096511,-0.638653271,0.000000000,-0.638637906,0.000000000,0.000001937,-0.000023348,-0.000182211,0.000000000,-0.000129357
0.139987382,-0.003624000,-0.004163502,-0.006006089,0.049177720,0.000000000,0.091471014,0.003242000,-0.004341116,0.001411118,2.118827206,0.000000000,2.123544740,-0.005150000,-0.007692592,-0.006213268,0.873838547,0.000000000,0.863256851,0.355345011,0.286312592,0.251713920,2.574331055,0.000000000,2.571250302,-0.388716996,-0.382043658,0.001839195,-0.678391458,0.000000000,-0.679669687,-0.002205000,-0.002143150,0.000973916,-0.009096235,0.000000000,-0.009019675,0.000000000,-0.000008226,0.000075766,0.000458542,0.000000000,0.000448392,0.000000000,0.000683789,-0.000361364,-0.185948681,0.000000000,-0.186189978,0.000000000,0.004632678,-0.000976347,-1.295196982,0.000000000,-1.294731666,0.000000000,0.011801678,-0.002200314,-0.729965295,0.000000000,-0.729813179,0.000000000,0.006321606,-0.000094732,-0.638637906,0.000000000,-0.638623815,0.000000000,-0.000001937,-0.000030916,-0.000129357,0.000000000,0.000283664
0.141987202,-0.004005000,-0.004175104,-0.005801084,0.091471014,0.000000000,0.050936832,0.003242000,-0.004338709,0.001203715,2.123544740,0.000000000,2.127551694,-0.004768000,-0.007703841,-0.005624529,0.863256851,0.000000000,0.961719240,0.355726004,0.286814780,0.251093866,2.571250302,0.000000000,2.568002371,-0.388716996,-0.382039463,0.002097749,-0.679669687,0.000000000,-0.680828774,-0.002205000,-0.002141660,0.000745385,-0.009019675,0.000000000,-0.008520626,0.000000000,-0.000008199,0.000076931,0.000448392,0.000000000,0.000438885,0.000000000,0.000683102,-0.000343656,-0.186189978,0.000000000,-0.186395200,0.000000000,0.004630735,-0.000972203,-1.294731666,0.000000000,-1.294272906,0.000000000,0.011797314,-0.002182005,-0.729813179,0.000000000,-0.729667669,0.000000000,0.006321420,-0.000093070,-0.638623815,0.000000000,-0.638609728,0.000000000,0.000001937,0.000041083,0.000283664,0.000000000,-0.000312559
0.143987022,-0.004005000,-0.004186974,-0.005934971,0.050936832,0.000000000,0.052959199,0.003242000,-0.004336817,0.000945647,2.127551694,0.000000000,2.132851344,-0.004768000,-0.007713319,-0.004739106,0.961719240,0.000000000,0.944385995,0.355726004,0.287314511,0.249865551,2.568002371,0.000000000,2.545167723,-0.388716996,-0.382034508,0.002477239,-0.680828774,0.000000000,-0.682408390,-0.002205000,-0.002140112,0.000773771,-0.008520626,0.000000000,-0.008757729,0.000000000,-0.000008174,0.000078431,0.000438885,0.000000000,0.000427772,0.000000000,0.000682456,-0.000323131,-0.186395200,0.000000000,-0.186675826,0.000000000,0.004628800,-0.000967722,-1.294272906,0.000000000,-1.293824325,0.000000000,0.011792987,-0.002163447,-0.729667669,0.000000000,-0.729526266,0.000000000,0.006321237,-0.000091542,-0.638609728,0.000000000,-0.638595569,0.000000000,0.000001937,-0.000000652,-0.000312559,0.000000000,-0.000193904
0.145986842,-0.004005000,-0.004199120,-0.006073157,0.052959199,0.000000000,0.055035331,0.003242000,-0.004335413,0.000702288,2.132851344,0.000000000,2.137956633,-0.004768000,-0.007720869,-0.003775028,0.944385995,0.000000000,0.924725574,0.356108010,0.287811210,0.248349503,2.545167723,0.000000000,2.548699215,-0.388716996,-0.382028588,0.002960169,-0.682408390,0.000000000,-0.684379699,-0.002205000,-0.002138635,0.000738645,-0.008757729,0.000000000,-0.008807167,0.000000000,-0.000008152,0.000079689,0.000427772,0.000000000,0.000418274,0.000000000,0.000681849,-0.000303676,-0.186675826,0.000000000,-0.186943286,0.000000000,0.004626877,-0.000961891,-1.293824325,0.000000000,-1.293409608,0.000000000,0.011788696,-0.002145852,-0.729526266,0.000000000,-0.729380245,0.000000000,0.006321058,-0.000089579,-0.638595569,0.000000000,-0.638583044,0.000000000,0.000001937,-0.000018118,-0.000193904,0.000000000,-0.000144205
0.147986661,-0.004005000,-0.004211469,-0.006174708,0.055035331,0.000000000,0.056925941,0.003242000,-0.004334481,0.000465879,2.137956633,0.000000000,2.143039115,-0.004768000,-0.007726618,-0.002874742,0.924725574,0.000000000,0.905996258,0.356489003,0.288305141,0.246965503,2.548699215,0.000000000,2.551402951,-0.388716996,-0.382022091,0.003248667,-0.684379699,0.000000000,-0.685856550,-0.002205000,-0.002137314,0.000660386,-0.008807167,0.000000000,-0.008718161,0.000000000,-0.000008132,0.000080860,0.000418274,0.000000000,0.000409550,0.000000000,0.000681279,-0.000284858,-0.186943286,0.000000000,-0.187207036,0.000000000,0.004624966,-0.000956074,-1.293409608,0.000000000,-1.292997873,0.000000000,0.011784441,-0.002127296,-0.729380245,0.000000000,-0.729243404,0.000000000,0.006320881,-0.000088326,-0.638583044,0.000000000,-0.638568750,0.000000000,-0.000001937,-0.000024780,-0.000144205,0.000000000,0.000266219
0.149986481,-0.004005000,-0.004223958,-0.006244427,0.056925941,0.000000000,0.058651401,0.002861000,-0.004334004,0.000238456,2.143039115,0.000000000,2.039750281,-0.004768000,-0.007730677,-0.002029071,0.905996258,0.000000000,0.888021530,0.356489003,0.288796521,0.245690229,2.551402951,0.000000000,2.529429554,-0.388716996,-0.382015307,0.003391720,-0.685856550,0.000000000,-0.686948820,-0.002205000,-0.002136190,0.000562197,-0.008718161,0.000000000,-0.008552646,0.000000000,-0.000008115,0.000081881,0.000409550,0.000000000,0.000401989,0.000000000,0.000680744,-0.000267886,-0.187207036,0.000000000,-0.187438679,0.000000000,0.004623066,-0.000950010,-1.292997873,0.000000000,-1.292595157,0.000000000,0.011780224,-0.002108279,-0.729243404,0.000000000,-0.729112240,0.000000000,0.006320707,-0.000087109,-0.638568750,0.000000000,-0.638554604,0.000000000,0.000001937,0.000047505,0.000266219,0.000000000,-0.000330824
0.151986301,-0.004005000,-0.004236741,-0.006391434,0.058651401,0.000000000,0.060845255,0.002861000,-0.004334183,-0.000089423,2.039750281,0.000000000,2.047217402,-0.004768000,-0.007732834,-0.001078831,0.888021530,0.000000000,0.867141319,0.356871009,0.289284695,0.244086963,2.529429554,0.000000000,2.534119480,-0.388716996,-0.382007889,0.003709203,-0.686948820,0.000000000,-0.688601165,-0.002205000,-0.002134364,0.000912986,-0.008552646,0.000000000,-0.009734482,0.000000000,-0.000008101,0.000082980,0.000401989,0.000000000,0.000394293,0.000000000,0.000680250,-0.000247134,-0.187438679,0.000000000,-0.187767629,0.000000000,0.004621180,-0.000943614,-1.292595157,0.000000000,-1.292203590,0.000000000,0.011776046,-0.002089261,-0.729112240,0.000000000,-0.728983479,0.000000000,0.006320536,-0.000085341,-0.638554604,0.000000000,-0.638542380,0.000000000,0.000001937,0.000005200,-0.000330824,0.000000000,-0.000210576
0.153986121,-0.004005000,-0.004249719,-0.006489087,0.060845255,0.000000000,0.062780840,0.002861000,-0.004335032,-0.000424546,2.047217402,0.000000000,2.055038880,-0.004768000,-0.007733306,-0.000235898,0.867141319,0.000000000,0.848209104,0.357252002,0.289770058,0.242681650,2.534119480,0.000000000,2.537515892,-0.388716996,-0.382000342,0.003773354,-0.688601165,0.000000000,-0.689546255,-0.002205000,-0.002132404,0.000979806,-0.009734482,0.000000000,-0.010122499,0.000000000,-0.000008091,0.000084843,0.000394293,0.000000000,0.000382638,0.000000000,0.000679791,-0.000229332,-0.187767629,0.000000000,-0.188039945,0.000000000,0.004619307,-0.000936740,-1.292203590,0.000000000,-1.291826739,0.000000000,0.011771907,-0.002069601,-0.728983479,0.000000000,-0.728861771,0.000000000,0.006320368,-0.000084263,-0.638542380,0.000000000,-0.638528412,0.000000000,0.000001937,-0.000011151,-0.000210576,0.000000000,-0.000164030
0.155985940,-0.004005000,-0.004262824,-0.006552510,0.062780840,0.000000000,0.064536374,0.002861000,-0.004336507,-0.000737432,2.055038880,0.000000000,2.062535275,-0.004768000,-0.007732187,0.000559490,0.848209104,0.000000000,0.829900162,0.357252002,0.290252819,0.241380128,2.537515892,0.000000000,2.516273558,-0.388716996,-0.381992851,0.003745802,-0.689546255,0.000000000,-0.690225061,-0.002205000,-0.002130514,0.000944866,-0.010122499,0.000000000,-0.010214151,0.000000000,-0.000008084,0.000086215,0.000382638,0.000000000,0.000374128,0.000000000,0.000679368,-0.000211723,-0.188039945,0.000000000,-0.188317917,0.000000000,0.004617449,-0.000929508,-1.291826739,0.000000000,-1.291462100,0.000000000,0.011767807,-0.002049899,-0.728861771,0.000000000,-0.728742846,0.000000000,0.006320202,-0.000082977,-0.638528412,0.000000000,-0.638515297,0.000000000,0.000001936,-0.000017089,-0.000164030,0.000000000,-0.000147112
0.157985760,-0.004005000,-0.004276049,-0.006612676,0.064536374,0.000000000,0.066286318,0.002861000,-0.004338592,-0.001042273,2.062535275,0.000000000,2.070023004,-0.004768000,-0.007729344,0.001421479,0.829900162,0.000000000,0.809594723,0.358015001,0.290732442,0.239811571,2.516273558,0.000000000,2.545322303,-0.388716996,-0.381985110,0.003870322,-0.690225061,0.000000000,-0.691361382,-0.002205000,-0.002128761,0.000876541,-0.010214151,0.000000000,-0.010197080,0.000000000,-0.000008080,0.000087632,0.000374128,0.000000000,0.000365752,0.000000000,0.000678979,-0.000194227,-0.188317917,0.000000000,-0.188603282,0.000000000,0.004615605,-0.000922080,-1.291462100,0.000000000,-1.291106123,0.000000000,0.011763747,-0.002029811,-0.728742846,0.000000000,-0.728629209,0.000000000,0.006320038,-0.000081670,-0.638515297,0.000000000,-0.638502505,0.000000000,-0.000001937,-0.000019190,-0.000147112,0.000000000,0.000250283
0.159985580,-0.004005000,-0.004289261,-0.006606256,0.066286318,0.000000000,0.067658351,0.002861000,-0.004341251,-0.001329758,2.070023004,0.000000000,2.077281580,-0.004768000,-0.007725157,0.002093263,0.809594723,0.000000000,0.793209649,0.358015001,0.291209966,0.238762308,2.545322303,0.000000000,2.522617620,-0.388716996,-0.381977890,0.003610034,-0.691361382,0.000000000,-0.691351080,-0.002205000,-0.002127285,0.000738030,-0.010197080,0.000000000,-0.009952470,0.000000000,0.000008081,0.000088882,0.000365752,0.000000000,-0.001363972,0.000000000,0.000678622,-0.000178514,-0.188603282,0.000000000,-0.188857243,0.000000000,0.004613778,-0.000914043,-1.291106123,0.000000000,-1.290768484,0.000000000,0.011759728,-0.002009835,-0.728629209,0.000000000,-0.728517296,0.000000000,0.006319878,-0.000080101,-0.638502505,0.000000000,-0.638490776,0.000000000,0.000001938,0.000055249,0.000250283,0.000000000,-0.000352902
0.161985400,-0.004005000,-0.004302468,-0.006603635,0.067658351,0.000000000,0.069051304,0.002861000,-0.004344473,-0.001611158,2.077281580,0.000000000,2.084562496,-0.004768000,-0.007719466,0.002845490,0.793209649,0.000000000,0.774577401,0.358397007,0.291684780,0.237406919,2.522617620,0.000000000,2.526389529,-0.388716996,-0.381970748,0.003571054,-0.691351080,0.000000000,-0.691962076,-0.002205000,-0.002126030,0.000627523,-0.009952470,0.000000000,-0.009765138,0.000000000,0.000008082,0.000051625,-0.001363972,0.000000000,-0.001153460,0.000000000,0.000678303,-0.000159878,-0.188857243,0.000000000,-0.189187902,0.000000000,0.004611962,-0.000908250,-1.290768484,0.000000000,-1.290383361,0.000000000,0.011755760,-0.001983904,-0.728517296,0.000000000,-0.728450985,0.000000000,0.006319714,-0.000082026,-0.638490776,0.000000000,-0.638468723,0.000000000,0.000001939,0.000017057,-0.000352902,0.000000000,-0.000244480
0.163985219,-0.004005000,-0.004315607,-0.006569435,0.069051304,0.000000000,0.070258392,0.002861000,-0.004348239,-0.001882585,2.084562496,0.000000000,2.091772135,-0.004768000,-0.007712393,0.003536604,0.774577401,0.000000000,0.756934580,0.358778000,0.292157125,0.236172218,2.526389529,0.000000000,2.529395562,-0.388716996,-0.381963877,0.003435570,-0.691962076,0.000000000,-0.692271327,-0.002205000,-0.002125024,0.000503171,-0.009765138,0.000000000,-0.009513314,0.000000000,0.000008083,0.000019677,-0.001153460,0.000000000,-0.000972857,0.000000000,0.000678019,-0.000141935,-0.189187902,0.000000000,-0.189513089,0.000000000,0.004610161,-0.000901015,-1.290383361,0.000000000,-1.290035005,0.000000000,0.011751839,-0.001960627,-0.728450985,0.000000000,-0.728368756,0.000000000,0.006319552,-0.000080905,-0.638468723,0.000000000,-0.638455555,0.000000000,0.000001939,-0.000000001,-0.000244480,0.000000000,-0.000195978
0.165985039,-0.004005000,-0.004328622,-0.006507272,0.070258392,0.000000000,0.071294098,0.002861000,-0.004352525,-0.002143053,2.091772135,0.000000000,2.098881959,-0.004768000,-0.007704041,0.004176177,0.756934580,0.000000000,0.740093960,0.359158993,0.292627195,0.235035359,2.529395562,0.000000000,2.531849757,-0.388716996,-0.381957396,0.003240359,-0.692271327,0.000000000,-0.692371314,-0.002205000,-0.002124263,0.000380596,-0.009513314,0.000000000,-0.009241761,0.000000000,0.000008082,-0.000007892,-0.000972857,0.000000000,-0.000816827,0.000000000,0.000677770,-0.000124569,-0.189513089,0.000000000,-0.189835097,0.000000000,0.004608375,-0.000892887,-1.290035005,0.000000000,-1.289711428,0.000000000,0.011747961,-0.001938700,-0.728368756,0.000000000,-0.728279698,0.000000000,0.006319395,-0.000078486,-0.638455555,0.000000000,-0.638446570,0.000000000,0.000001938,-0.000006771,-0.000195978,0.000000000,-0.000176657
0.167984859,-0.004005000,-0.004341461,-0.006419558,0.071294098,0.000000000,0.072166615,0.002861000,-0.004357311,-0.002393397,2.098881959,0.000000000,2.105905105,-0.004768000,-0.007694503,0.004768845,0.740093960,0.000000000,0.723977364,0.359540999,0.293095160,0.233982500,2.531849757,0.000000000,2.533903888,-0.388716996,-0.381951382,0.003006757,-0.692371314,0.000000000,-0.692314941,-0.002205000,-0.002123733,0.000264596,-0.009241761,0.000000000,-0.008965458,0.000000000,0.000008079,-0.000031687,-0.000816827,0.000000000,-0.000682012,0.000000000,0.000677555,-0.000107696,-0.189835097,0.000000000,-0.190155526,0.000000000,0.004606608,-0.000884094,-1.289711428,0.000000000,-1.289407922,0.000000000,0.011744126,-0.001917479,-0.728279698,0.000000000,-0.728188301,0.000000000,0.006319244,-0.000075591,-0.638446570,0.000000000,-0.638439521,0.000000000,0.000001938,-0.000008667,-0.000176657,0.000000000,-0.000171184
0.169984679,-0.004005000,-0.004354077,-0.006308431,0.072166615,0.000000000,0.072883039,0.002861000,-0.004362580,-0.002634080,2.105905105,0.000000000,2.112846552,-0.004387000,-0.007683866,0.005318566,0.723977364,0.000000000,0.816817015,0.359540999,0.293561166,0.233002621,2.533903888,0.000000000,2.511433645,-0.388716996,-0.381945880,0.002751201,-0.692314941,0.000000000,-0.692144495,-0.002205000,-0.002123419,0.000157419,-0.008965458,0.000000000,-0.008692571,0.000000000,0.000008077,-0.000052210,-0.000682012,0.000000000,-0.000565690,0.000000000,0.000677372,-0.000091240,-0.190155526,0.000000000,-0.190475899,0.000000000,0.004604859,-0.000874775,-1.289407922,0.000000000,-1.289121587,0.000000000,0.011740333,-0.001896583,-0.728188301,0.000000000,-0.728097235,0.000000000,0.006319099,-0.000072642,-0.638439521,0.000000000,-0.638433222,0.000000000,0.000001937,-0.000008335,-0.000171184,0.000000000,-0.000172064
0.171984498,-0.004005000,-0.004366660,-0.006291194,0.072883039,0.000000000,0.074126732,0.002861000,-0.004368354,-0.002887049,2.112846552,0.000000000,2.120209732,-0.004387000,-0.007671429,0.006218656,0.816817015,0.000000000,0.792922639,0.359921992,0.294023543,0.231188524,2.511433645,0.000000000,2.519187618,-0.388716996,-0.381940089,0.002895592,-0.692144495,0.000000000,-0.693140285,-0.002205000,-0.002123130,0.000144378,-0.008692571,0.000000000,-0.008684677,0.000000000,-0.000008077,-0.000069527,-0.000565690,0.000000000,0.001254088,0.000000000,0.000677222,-0.000075279,-0.190475899,0.000000000,-0.190794147,0.000000000,0.004603128,-0.000866043,-1.289121587,0.000000000,-1.288826969,0.000000000,0.011736584,-0.001874501,-0.728097235,0.000000000,-0.728017384,0.000000000,0.006318959,-0.000070167,-0.638433222,0.000000000,-0.638426076,0.000000000,0.000001937,-0.000007149,-0.000172064,0.000000000,-0.000175398
0.173984318,-0.004005000,-0.004379129,-0.006234745,0.074126732,0.000000000,0.075136656,0.002861000,-0.004374604,-0.003125003,2.120209732,0.000000000,2.127368546,-0.004387000,-0.007657382,0.007023458,0.792922639,0.000000000,0.770726079,0.359921992,0.294482719,0.229588328,2.519187618,0.000000000,2.501557921,-0.388716996,-0.381934358,0.002865250,-0.693140285,0.000000000,-0.693633177,-0.002205000,-0.002122980,0.000074833,-0.008684677,0.000000000,-0.008502089,0.000000000,-0.000008078,-0.000045943,0.001254088,0.000000000,0.001120816,0.000000000,0.000677102,-0.000059839,-0.190794147,0.000000000,-0.191109362,0.000000000,0.004601423,-0.000852685,-1.288826969,0.000000000,-1.288644544,0.000000000,0.011732863,-0.001860486,-0.728017384,0.000000000,-0.727881968,0.000000000,0.006318832,-0.000063313,-0.638426076,0.000000000,-0.638432763,0.000000000,0.000001936,-0.000007108,-0.000175398,0.000000000,-0.000175482
0.175984138,-0.004005000,-0.004391474,-0.006172272,0.075136656,0.000000000,0.076099195,0.002861000,-0.004381316,-0.003356396,2.127368546,0.000000000,2.134510493,-0.004387000,-0.007641649,0.007866706,0.770726079,0.000000000,0.747180508,0.360303998,0.294938310,0.227795433,2.501557921,0.000000000,2.509653837,-0.388716996,-0.381928445,0.002956794,-0.693633177,0.000000000,-0.694491092,-0.002205000,-0.002122947,0.000016438,-0.008502089,0.000000000,-0.008339393,0.000000000,-0.000008078,-0.000025594,0.001120816,0.000000000,0.001005817,0.000000000,0.000677011,-0.000045310,-0.191109362,0.000000000,-0.191412253,0.000000000,0.004599742,-0.000840917,-1.288644544,0.000000000,-1.288432862,0.000000000,0.011729179,-0.001842178,-0.727881968,0.000000000,-0.727779383,0.000000000,0.006318710,-0.000060948,-0.638432763,0.000000000,-0.638427168,0.000000000,0.000001936,-0.000004529,-0.000175482,0.000000000,-0.000182801
0.177983957,-0.004005000,-0.004403616,-0.006071414,0.076099195,0.000000000,0.076823161,0.002861000,-0.004388468,-0.003575969,2.134510493,0.000000000,2.141509913,-0.004387000,-0.007624419,0.008615065,0.747180508,0.000000000,0.725355823,0.360684991,0.295390742,0.226216114,2.509653837,0.000000000,2.516367170,-0.388716996,-0.381922677,0.002883853,-0.694491092,0.000000000,-0.694866633,-0.002205000,-0.002123076,-0.000064542,-0.008339393,0.000000000,-0.008096123,0.000000000,-0.000008078,-0.000007695,0.001005817,0.000000000,0.000904597,0.000000000,0.000676949,-0.000031038,-0.191412253,0.000000000,-0.191717424,0.000000000,0.004598083,-0.000829464,-1.288432862,0.000000000,-1.288220559,0.000000000,0.011725534,-0.001822080,-0.727779383,0.000000000,-0.727692049,0.000000000,0.006318590,-0.000059997,-0.638427168,0.000000000,-0.638417743,0.000000000,0.000001936,-0.000002040,-0.000182801,0.000000000,-0.000189869
0.179983777,-0.004005000,-0.004415491,-0.005937543,0.076823161,0.000000000,0.077331899,0.002861000,-0.004396035,-0.003783341,2.141509913,0.000000000,2.148351253,-0.004387000,-0.007605853,0.009282852,0.725355823,0.000000000,0.704973977,0.360684991,0.295840369,0.224813350,2.516367170,0.000000000,2.497937351,-0.388716996,-0.381917271,0.002702924,-0.694866633,0.000000000,-0.694898593,-0.002205000,-0.002123374,-0.000148947,-0.008096123,0.000000000,-0.007826053,0.000000000,-0.000008077,0.000008103,0.000904597,0.000000000,0.000815164,0.000000000,0.000676916,-0.000016878,-0.191717424,0.000000000,-0.192028112,0.000000000,0.004596448,-0.000818195,-1.288220559,0.000000000,-1.288010495,0.000000000,0.011721933,-0.001800779,-0.727692049,0.000000000,-0.727615971,0.000000000,0.006318471,-0.000059614,-0.638417743,0.000000000,-0.638406783,0.000000000,0.000001936,0.000000099,-0.000189869,0.000000000,-0.000195947
0.181983597,-0.004005000,-0.004427099,-0.005803886,0.077331899,0.000000000,0.077813359,0.002861000,-0.004404006,-0.003985268,2.148351253,0.000000000,2.155184224,-0.004387000,-0.007585859,0.009997140,0.704973977,0.000000000,0.683134231,0.361066997,0.296286758,0.223194589,2.497937351,0.000000000,2.505376747,-0.388716996,-0.381911899,0.002685853,-0.694898593,0.000000000,-0.695392953,-0.002205000,-0.002123786,-0.000205936,-0.007826053,0.000000000,-0.007622405,0.000000000,-0.000008076,0.000022107,0.000815164,0.000000000,0.000735823,0.000000000,0.000676910,-0.000002873,-0.192028112,0.000000000,-0.192343261,0.000000000,0.004594834,-0.000807023,-1.288010495,0.000000000,-1.287804583,0.000000000,0.011718376,-0.001778629,-0.727615971,0.000000000,-0.727548712,0.000000000,0.006318352,-0.000059384,-0.638406783,0.000000000,-0.638395434,0.000000000,0.000001936,0.000002090,-0.000195947,0.000000000,-0.000201609
0.183983417,-0.004005000,-0.004438374,-0.005637362,0.077813359,0.000000000,0.078073454,0.002861000,-0.004412358,-0.004176416,2.155184224,0.000000000,2.161882037,-0.004387000,-0.007564609,0.010624709,0.683134231,0.000000000,0.662899249,0.361066997,0.296730294,0.221767763,2.505376747,0.000000000,2.487502706,-0.388716996,-0.381906819,0.002540210,-0.695392953,0.000000000,-0.695492343,-0.002205000,-0.002124336,-0.000274760,-0.007622405,0.000000000,-0.007371204,0.000000000,-0.000008075,0.000034528,0.000735823,0.000000000,0.000665424,0.000000000,0.000676932,0.000010876,-0.192343261,0.000000000,-0.192660424,0.000000000,0.004593244,-0.000795609,-1.287804583,0.000000000,-1.287610640,0.000000000,0.011714863,-0.001756195,-0.727548712,0.000000000,-0.727486315,0.000000000,0.006318234,-0.000058942,-0.638395434,0.000000000,-0.638384778,0.000000000,0.000001936,0.000004254,-0.000201609,0.000000000,-0.000207771
0.185983236,-0.004005000,-0.004449318,-0.005472110,0.078073454,0.000000000,0.078305511,0.002861000,-0.004421082,-0.004361849,2.161882037,0.000000000,2.168556011,-0.004387000,-0.007542016,0.011296792,0.662899249,0.000000000,0.641275301,0.361447990,0.297170560,0.220133074,2.487502706,0.000000000,2.495378084,-0.388716996,-0.381901721,0.002548926,-0.695492343,0.000000000,-0.696032335,-0.002205000,-0.002124972,-0.000318168,-0.007371204,0.000000000,-0.007183482,0.000000000,0.000008074,0.000045576,0.000665424,0.000000000,-0.001118324,0.000000000,0.000676980,0.000024363,-0.192660424,0.000000000,-0.192979328,0.000000000,0.004591676,-0.000784258,-1.287610640,0.000000000,-1.287421715,0.000000000,0.011711397,-0.001733172,-0.727486315,0.000000000,-0.727431016,0.000000000,0.006318117,-0.000058458,-0.638384778,0.000000000,-0.638374336,0.000000000,0.000001936,0.000006448,-0.000207771,0.000000000,-0.000214030
0.187983056,-0.004005000,-0.004459868,-0.005275214,0.078305511,0.000000000,0.078316652,0.002861000,-0.004430155,-0.004536601,2.168556011,0.000000000,2.175087737,-0.004387000,-0.007518255,0.011880604,0.641275301,0.000000000,0.621316088,0.361447990,0.297607953,0.218696420,2.495378084,0.000000000,2.477961900,-0.388716996,-0.381896877,0.002421854,-0.696032335,0.000000000,-0.696160600,-0.002205000,-0.002125722,-0.000375015,-0.007183482,0.000000000,-0.006946065,0.000000000,0.000008073,0.000016467,-0.001118324,0.000000000,-0.000953649,0.000000000,0.000677057,0.000038136,-0.192979328,0.000000000,-0.193312532,0.000000000,0.004590127,-0.000774847,-1.287421715,0.000000000,-1.287194274,0.000000000,0.011707987,-0.001704803,-0.727431016,0.000000000,-0.727417292,0.000000000,0.006317995,-0.000060905,-0.638374336,0.000000000,-0.638355068,0.000000000,0.000001937,0.000010499,-0.000214030,0.000000000,-0.000225606
0.189982876,-0.004005000,-0.004470030,-0.005080804,0.078316652,0.000000000,0.078300400,0.002861000,-0.004439567,-0.004705777,2.175087737,0.000000000,2.181589526,-0.004387000,-0.007493240,0.012507251,0.621316088,0.000000000,0.600031742,0.361829996,0.298042069,0.217058202,2.477961900,0.000000000,2.486314810,-0.388716996,-0.381891992,0.002442606,-0.696160600,0.000000000,-0.696713321,-0.002205000,-0.002126538,-0.000407862,-0.006946065,0.000000000,-0.006770240,0.000000000,0.000008072,-0.000008241,-0.000953649,0.000000000,-0.000813848,0.000000000,0.000677160,0.000051874,-0.193312532,0.000000000,-0.193652758,0.000000000,0.004588598,-0.000764565,-1.287194274,0.000000000,-1.286992352,0.000000000,0.011704630,-0.001678555,-0.727417292,0.000000000,-0.727391813,0.000000000,0.006317875,-0.000060443,-0.638355068,0.000000000,-0.638344165,0.000000000,0.000001938,0.000012332,-0.000225606,0.000000000,-0.000230913
0.191982696,-0.004005000,-0.004479742,-0.004856031,0.078300400,0.000000000,0.078064531,0.002861000,-0.004449296,-0.004864411,2.181589526,0.000000000,2.187943023,-0.004387000,-0.007467152,0.013044126,0.600031742,0.000000000,0.580472750,0.361829996,0.298473317,0.215623964,2.486314810,0.000000000,2.469269595,-0.388716996,-0.381887347,0.002322375,-0.696713321,0.000000000,-0.696840928,-0.002205000,-0.002127448,-0.000455164,-0.006770240,0.000000000,-0.006543759,0.000000000,-0.000008072,-0.000029451,-0.000813848,0.000000000,0.001026925,0.000000000,0.000677291,0.000065244,-0.193652758,0.000000000,-0.193992254,0.000000000,0.004587092,-0.000753312,-1.286992352,0.000000000,-1.286818801,0.000000000,0.011701322,-0.001654019,-0.727391813,0.000000000,-0.727357258,0.000000000,0.006317758,-0.000058273,-0.638344165,0.000000000,-0.638338555,0.000000000,0.000001939,0.000014315,-0.000230913,0.000000000,-0.000236703
0.193982515,-0.004005000,-0.004489012,-0.004635192,0.078064531,0.000000000,0.077803830,0.002861000,-0.004459331,-0.005017693,2.187943023,0.000000000,2.194262631,-0.004387000,-0.007439906,0.013623011,0.580472750,0.000000000,0.559634436,0.361829996,0.298901301,0.213992175,2.469269595,0.000000000,2.453834722,-0.388716996,-0.381882654,0.002346760,-0.696840928,0.000000000,-0.697384603,-0.002205000,-0.002128406,-0.000479162,-0.006543759,0.000000000,-0.006378678,0.000000000,-0.000008071,-0.000008754,0.001026925,0.000000000,0.000909849,0.000000000,0.000677446,0.000077609,-0.193992254,0.000000000,-0.194316044,0.000000000,0.004585614,-0.000739445,-1.286818801,0.000000000,-1.286712256,0.000000000,0.011698051,-0.001635356,-0.727357258,0.000000000,-0.727283323,0.000000000,0.006317653,-0.000052306,-0.638338555,0.000000000,-0.638344947,0.000000000,0.000001941,0.000014797,-0.000236703,0.000000000,-0.000238277
0.195982335,-0.004005000,-0.004497842,-0.004414854,0.077803830,0.000000000,0.077498989,0.002861000,-0.004469664,-0.005166270,2.194262631,0.000000000,2.200560251,-0.004387000,-0.007411447,0.014229853,0.559634436,0.000000000,0.537818784,0.362210989,0.299325703,0.212200645,2.453834722,0.000000000,2.463827024,-0.388716996,-0.381877729,0.002462673,-0.697384603,0.000000000,-0.698211923,-0.002205000,-0.002129395,-0.000494504,-0.006378678,0.000000000,-0.006235107,0.000000000,-0.000008071,0.000009065,0.000909849,0.000000000,0.000809026,0.000000000,0.000677624,0.000089345,-0.194316044,0.000000000,-0.194632271,0.000000000,0.004584162,-0.000725989,-1.286712256,0.000000000,-1.286604056,0.000000000,0.011694822,-0.001614678,-0.727283323,0.000000000,-0.727226318,0.000000000,0.006317556,-0.000048884,-0.638344947,0.000000000,-0.638344794,0.000000000,0.000001944,0.000017530,-0.000238277,0.000000000,-0.000246345
0.197982155,-0.004005000,-0.004506169,-0.004163580,0.077498989,0.000000000,0.076965643,0.002861000,-0.004480271,-0.005303694,2.200560251,0.000000000,2.206683754,-0.004387000,-0.007381972,0.014737636,0.537818784,0.000000000,0.517955067,0.362592995,0.299746989,0.210643050,2.463827024,0.000000000,2.472417292,-0.388716996,-0.381872926,0.002401214,-0.698211923,0.000000000,-0.698522553,-0.002205000,-0.002130455,-0.000529590,-0.006235107,0.000000000,-0.006028312,0.000000000,0.000008070,0.000024677,0.000809026,0.000000000,-0.000999779,0.000000000,0.000677826,0.000100768,-0.194632271,0.000000000,-0.194947899,0.000000000,0.004582737,-0.000712789,-1.286604056,0.000000000,-1.286497586,0.000000000,0.011691637,-0.001592616,-0.727226318,0.000000000,-0.727181941,0.000000000,0.006317462,-0.000046855,-0.638344794,0.000000000,-0.638341093,0.000000000,0.000001949,0.000020207,-0.000246345,0.000000000,-0.000254382
0.199981975,-0.004005000,-0.004513942,-0.003886718,0.076965643,0.000000000,0.076228568,0.002861000,-0.004491131,-0.005430049,2.206683754,0.000000000,2.212628685,-0.004387000,-0.007351650,0.015160870,0.517955067,0.000000000,0.499763167,0.362592995,0.300165551,0.209281234,2.472417292,0.000000000,2.455658583,-0.388716996,-0.381868484,0.002220991,-0.698522553,0.000000000,-0.698459109,-0.002205000,-0.002131591,-0.000568209,-0.006028312,0.000000000,-0.005803666,0.000000000,0.000008070,-0.000000480,-0.000999779,0.000000000,-0.000857438,0.000000000,0.000678051,0.000112569,-0.194947899,0.000000000,-0.195278809,0.000000000,0.004581334,-0.000702077,-1.286497586,0.000000000,-1.286340906,0.000000000,0.011688508,-0.001564220,-0.727181941,0.000000000,-0.727186172,0.000000000,0.006317364,-0.000048842,-0.638341093,0.000000000,-0.638325571,0.000000000,0.000001955,0.000024197,-0.000254382,0.000000000,-0.000266344
0.201981794,-0.004005000,-0.004521178,-0.003617745,0.076228568,0.000000000,0.075478764,0.002861000,-0.004502235,-0.005552190,2.212628685,0.000000000,2.218547756,-0.004387000,-0.007320394,0.015627844,0.499763167,0.000000000,0.480316465,0.362973988,0.300580989,0.207719052,2.455658583,0.000000000,2.464586842,-0.388716996,-0.381864090,0.002197280,-0.698459109,0.000000000,-0.698835834,-0.002205000,-0.002132753,-0.000581086,-0.005803666,0.000000000,-0.005649602,0.000000000,-0.000008069,-0.000021749,-0.000857438,0.000000000,0.000983074,0.000000000,0.000678300,0.000124413,-0.195278809,0.000000000,-0.195617402,0.000000000,0.004579953,-0.000690620,-1.286340906,0.000000000,-1.286207592,0.000000000,0.011685433,-0.001537694,-0.727186172,0.000000000,-0.727180459,0.000000000,0.006317268,-0.000048271,-0.638325571,0.000000000,-0.638317437,0.000000000,0.000001963,0.000025738,-0.000266344,0.000000000,-0.000271514
0.203981614,-0.004005000,-0.004527826,-0.003323990,0.075478764,0.000000000,0.074526201,0.002861000,-0.004513565,-0.005664834,2.218547756,0.000000000,2.224316053,-0.004387000,-0.007288380,0.016007084,0.480316465,0.000000000,0.462638609,0.362973988,0.300993709,0.206359650,2.464586842,0.000000000,2.448180053,-0.388716996,-0.381860005,0.002042376,-0.698835834,0.000000000,-0.698808268,-0.002205000,-0.002133968,-0.000607641,-0.005649602,0.000000000,-0.005451282,0.000000000,-0.000008068,-0.000001047,0.000983074,0.000000000,0.000865952,0.000000000,0.000678570,0.000135336,-0.195617402,0.000000000,-0.195941371,0.000000000,0.004578601,-0.000676078,-1.286207592,0.000000000,-1.286152327,0.000000000,0.011682397,-0.001517993,-0.727180459,0.000000000,-0.727128728,0.000000000,0.006317182,-0.000042923,-0.638317437,0.000000000,-0.638323964,0.000000000,0.000001972,0.000025680,-0.000271514,0.000000000,-0.000272268
0.205981434,-0.004005000,-0.004533905,-0.003039570,0.074526201,0.000000000,0.073565790,0.002861000,-0.004525111,-0.005773158,2.224316053,0.000000000,2.230048222,-0.004387000,-0.007255520,0.016430143,0.462638609,0.000000000,0.443729104,0.363355994,0.301403314,0.204802712,2.448180053,0.000000000,2.457503464,-0.388716996,-0.381855926,0.002039509,-0.698808268,0.000000000,-0.699212365,-0.002205000,-0.002135191,-0.000611238,-0.005451282,0.000000000,-0.005317505,0.000000000,0.000008068,0.000016768,0.000865952,0.000000000,-0.000954806,0.000000000,0.000678861,0.000145592,-0.195941371,0.000000000,-0.196256093,0.000000000,0.004577278,-0.000662153,-1.286152327,0.000000000,-1.286091037,0.000000000,0.011679405,-0.001496236,-0.727128728,0.000000000,-0.727094356,0.000000000,0.006317102,-0.000039979,-0.638323964,0.000000000,-0.638324253,0.000000000,0.000001983,0.000028072,-0.000272268,0.000000000,-0.000280222
0.207981254,-0.004005000,-0.004539368,-0.002731687,0.073565790,0.000000000,0.072407058,0.002861000,-0.004536856,-0.005872214,2.230048222,0.000000000,2.235627051,-0.004387000,-0.007221990,0.016764980,0.443729104,0.000000000,0.426624743,0.363355994,0.301810219,0.203452242,2.457503464,0.000000000,2.441400486,-0.388716996,-0.381852125,0.001900542,-0.699212365,0.000000000,-0.699201436,-0.002205000,-0.002136452,-0.000630591,-0.005317505,0.000000000,-0.005135025,0.000000000,-0.000008067,-0.000006556,-0.000954806,0.000000000,0.000896982,0.000000000,0.000679173,0.000156082,-0.196256093,0.000000000,-0.196582076,0.000000000,0.004575977,-0.000650639,-1.286091037,0.000000000,-1.285981718,0.000000000,0.011676468,-0.001468110,-0.727094356,0.000000000,-0.727108813,0.000000000,0.006317019,-0.000041410,-0.638324253,0.000000000,-0.638311816,0.000000000,0.000001998,0.000032244,-0.000280222,0.000000000,-0.000293597
0.209981073,-0.004005000,-0.004544237,-0.002434531,0.072407058,0.000000000,0.071245642,0.002861000,-0.004548790,-0.005967134,2.235627051,0.000000000,2.241166310,-0.004387000,-0.007187704,0.017143449,0.426624743,0.000000000,0.408318321,0.363355994,0.302214032,0.201906630,2.441400486,0.000000000,2.426879832,-0.388716996,-0.381848305,0.001909931,-0.699201436,0.000000000,-0.699614182,-0.002205000,-0.002137709,-0.000628517,-0.005135025,0.000000000,-0.005013878,0.000000000,0.000008067,0.000012666,0.000896982,0.000000000,-0.000931492,0.000000000,0.000679505,0.000166046,-0.196582076,0.000000000,-0.196901819,0.000000000,0.004574705,-0.000636331,-1.285981718,0.000000000,-1.285943764,0.000000000,0.011673575,-0.001446820,-0.727108813,0.000000000,-0.727077364,0.000000000,0.006316944,-0.000037391,-0.638311816,0.000000000,-0.638315684,0.000000000,0.000002015,0.000031958,-0.000293597,0.000000000,-0.000294482
0.211980893,-0.004005000,-0.004548526,-0.002144665,0.071245642,0.000000000,0.070063659,0.002861000,-0.004560907,-0.006058614,2.241166310,0.000000000,2.246679750,-0.004387000,-0.007152600,0.017551894,0.408318321,0.000000000,0.389101670,0.363736987,0.302614437,0.200202859,2.426879832,0.000000000,2.437764025,-0.388716996,-0.381844276,0.002014552,-0.699614182,0.000000000,-0.700318824,-0.002205000,-0.002138948,-0.000619590,-0.005013878,0.000000000,-0.004914022,0.000000000,0.000008066,-0.000009642,-0.000931492,0.000000000,-0.000805275,0.000000000,0.000679857,0.000176060,-0.196901819,0.000000000,-0.197228363,0.000000000,0.004573456,-0.000624472,-1.285943764,0.000000000,-1.285857121,0.000000000,0.011670737,-0.001419027,-0.727077364,0.000000000,-0.727095654,0.000000000,0.006316868,-0.000038171,-0.638315684,0.000000000,-0.638305749,0.000000000,0.000002036,0.000035462,-0.000294482,0.000000000,-0.000306548
0.213980713,-0.004005000,-0.004552188,-0.001830653,0.070063659,0.000000000,0.068678180,0.002861000,-0.004573188,-0.006140191,2.246679750,0.000000000,2.252015567,-0.004387000,-0.007116873,0.017863732,0.389101670,0.000000000,0.371892892,0.363736987,0.303011904,0.198733451,2.437764025,0.000000000,2.423102576,-0.388716996,-0.381840384,0.001945899,-0.700318824,0.000000000,-0.700516966,-0.002205000,-0.002140212,-0.000631993,-0.004914022,0.000000000,-0.004751015,0.000000000,-0.000008066,-0.000028572,-0.000805275,0.000000000,0.001021328,0.000000000,0.000680229,0.000185935,-0.197228363,0.000000000,-0.197557399,0.000000000,0.004572233,-0.000611904,-1.285857121,0.000000000,-1.285793676,0.000000000,0.011667951,-0.001392865,-0.727095654,0.000000000,-0.727105650,0.000000000,0.006316794,-0.000037006,-0.638305749,0.000000000,-0.638301583,0.000000000,0.000002060,0.000037034,-0.000306548,0.000000000,-0.000313454
