sainanliu129-hub/model/applications/Excitation_Trajectory_E1/excitation_trajectory/TLBO_E1/excitation_trajectory_TLBO_E1_2.csv
time,leg_l1_joint,leg_l2_joint,leg_l3_joint,leg_l4_joint,leg_l5_joint,leg_l6_joint,leg_r1_joint,leg_r2_joint,leg_r3_joint,leg_r4_joint,leg_r5_joint,leg_r6_joint
0.00000,0.000000,0.000000,0.000000,0.000000,0.000000,0.000000,0.000000,-0.000000,0.000000,0.000000,0.000000,0.000000
0.00200,0.000000,0.000000,0.000000,0.000000,0.000000,0.000000,0.000000,-0.000000,0.000000,0.000000,0.000000,0.000000
0.00400,0.000000,0.000000,0.000000,0.000000,0.000000,0.000000,0.000000,-0.000000,0.000000,0.000000,0.000000,0.000000
0.00600,0.000000,0.000000,0.000000,0.000000,0.000000,0.000000,0.000000,-0.000001,0.000000,0.000000,0.000000,0.000000
0.00800,0.000000,0.000000,0.000000,0.000000,0.000000,0.000000,0.000000,-0.000002,0.000000,0.000000,0.000000,0.000000
0.01000,0.000000,0.000000,0.000000,0.000000,0.000000,0.000000,0.000000,-0.000004,0.000000,0.000000,0.000000,0.000000
0.01200,0.000000,0.000000,0.000000,0.000000,0.000000,0.000000,0.000000,-0.000007,0.000000,0.000000,0.000000,0.000000
0.01400,0.000000,0.000000,0.000000,0.000000,0.000000,0.000000,0.000000,-0.000012,0.000000,0.000000,0.000000,0.000000
0.01600,0.000000,0.000000,0.000000,0.000000,0.000000,0.000000,0.000000,-0.000018,0.000000,0.000000,0.000000,0.000000
0.01800,0.000000,0.000000,0.000000,0.000000,0.000000,0.000000,0.000000,-0.000025,0.000000,0.000000,0.000000,0.000000
0.02000,0.000000,0.000000,0.000000,0.000000,0.000000,0.000000,0.000000,-0.000034,0.000000,0.000000,0.000000,0.000000
0.02200,0.000000,0.000000,0.000000,0.000000,0.000000,0.000000,0.000000,-0.000045,0.000000,0.000000,0.000000,0.000000
0.02400,0.000000,0.000000,0.000000,0.000000,0.000000,0.000000,0.000000,-0.000058,0.000000,0.000000,0.000000,0.000000
0.02600,0.000000,0.000000,0.000000,0.000000,0.000000,0.000000,0.000000,-0.000074,0.000000,0.000000,0.000000,0.000000
0.02800,0.000000,0.000000,0.000000,0.000000,0.000000,0.000000,0.000000,-0.000092,0.000000,0.000000,0.000000,0.000000
0.03000,0.000000,0.000000,0.000000,0.000000,0.000000,0.000000,0.000000,-0.000113,0.000000,0.000000,0.000000,0.000000
0.03200,0.000000,0.000000,0.000000,0.000000,0.000000,0.000000,0.000000,-0.000137,0.000000,0.000000,0.000000,0.000000
0.03400,0.000000,0.000000,0.000000,0.000000,0.000000,0.000000,0.000000,-0.000164,0.000000,0.000000,0.000000,0.000000
0.03600,0.000000,0.000000,0.000000,0.000000,0.000000,0.000000,0.000000,-0.000194,0.000000,0.000000,0.000000,0.000000
0.03800,0.000000,0.000000,0.000000,0.000000,0.000000,0.000000,0.000000,-0.000227,0.000000,0.000000,0.000000,0.000000
0.04000,0.000000,0.000000,0.000000,0.000000,0.000000,0.000000,0.000000,-0.000264,0.000000,0.000000,0.000000,0.000000
0.04200,0.000000,0.000000,0.000000,0.000000,0.000000,0.000000,0.000000,-0.000305,0.000000,0.000000,0.000000,0.000000
0.04400,0.000000,0.000000,0.000000,0.000000,0.000000,0.000000,0.000000,-0.000349,0.000000,0.000000,0.000000,0.000000
0.04600,0.000000,0.000000,0.000000,0.000000,0.000000,0.000000,0.000000,-0.000398,0.000000,0.000000,0.000000,0.000000
0.04800,0.000000,0.000000,0.000000,0.000000,0.000000,0.000000,0.000000,-0.000451,0.000000,0.000000,0.000000,0.000000
0.05000,0.000000,0.000000,0.000000,0.000000,0.000000,0.000000,0.000000,-0.000508,0.000000,0.000000,0.000000,0.000000
0.05200,0.000000,0.000000,0.000000,0.000000,0.000000,0.000000,0.000000,-0.000570,0.000000,0.000000,0.000000,0.000000
0.05400,0.000000,0.000000,0.000000,0.000000,0.000000,0.000000,0.000000,-0.000636,0.000000,0.000000,0.000000,0.000000
0.05600,0.000000,0.000000,0.000000,0.000000,0.000000,0.000000,0.000000,-0.000707,0.000000,0.000000,0.000000,0.000000
0.05800,0.000000,0.000000,0.000000,0.000000,0.000000,0.000000,0.000000,-0.000783,0.000000,0.000000,0.000000,0.000000
0.06000,0.000000,0.000000,0.000000,0.000000,0.000000,0.000000,0.000000,-0.000864,0.000000,0.000000,0.000000,0.000000
0.06200,0.000000,0.000000,0.000000,0.000000,0.000000,0.000000,0.000000,-0.000950,0.000000,0.000000,0.000000,0.000000
0.06400,0.000000,0.000000,0.000000,0.000000,0.000000,0.000000,0.000000,-0.001042,0.000000,0.000000,0.000000,0.000000
0.06600,0.000000,0.000000,0.000000,0.000000,0.000000,0.000000,0.000000,-0.001139,0.000000,0.000000,0.000000,0.000000
0.06800,0.000000,0.000000,0.000000,0.000000,0.000000,0.000000,0.000000,-0.001242,0.000000,0.000000,0.000000,0.000000
0.07000,0.000000,0.000000,0.000000,0.000000,0.000000,0.000000,0.000000,-0.001351,0.000000,0.000000,0.000000,0.000000
0.07200,0.000000,0.000000,0.000000,0.000000,0.000000,0.000000,0.000000,-0.001465,0.000000,0.000000,0.000000,0.000000
0.07400,0.000000,0.000000,0.000000,0.000000,0.000000,0.000000,0.000000,-0.001586,0.000000,0.000000,0.000000,0.000000
0.07600,0.000000,0.000000,0.000000,0.000000,0.000000,0.000000,0.000000,-0.001712,0.000000,0.000000,0.000000,0.000000
0.07800,0.000000,0.000000,0.000000,0.000000,0.000000,0.000000,0.000000,-0.001845,0.000000,0.000000,0.000000,0.000000
0.08000,0.000000,0.000000,0.000000,0.000000,0.000000,0.000000,0.000000,-0.001984,0.000000,0.000000,0.000000,0.000000
0.08200,0.000000,0.000000,0.000000,0.000000,0.000000,0.000000,0.000000,-0.002130,0.000000,0.000000,0.000000,0.000000
0.08400,0.000000,0.000000,0.000000,0.000000,0.000000,0.000000,0.000000,-0.002283,0.000000,0.000000,0.000000,0.000000
0.08600,0.000000,0.000000,0.000000,0.000000,0.000000,0.000000,0.000000,-0.002442,0.000000,0.000000,0.000000,0.000000
0.08800,0.000000,0.000000,0.000000,0.000000,0.000000,0.000000,0.000000,-0.002608,0.000000,0.000000,0.000000,0.000000
0.09000,0.000000,0.000000,0.000000,0.000000,0.000000,0.000000,0.000000,-0.002781,0.000000,0.000000,0.000000,0.000000
0.09200,0.000000,0.000000,0.000000,0.000000,0.000000,0.000000,0.000000,-0.002961,0.000000,0.000000,0.000000,0.000000
0.09400,0.000000,0.000000,0.000000,0.000000,0.000000,0.000000,0.000000,-0.003148,0.000000,0.000000,0.000000,0.000000
0.09600,0.000000,0.000000,0.000000,0.000000,0.000000,0.000000,0.000000,-0.003342,0.000000,0.000000,0.000000,0.000000
0.09800,0.000000,0.000000,0.000000,0.000000,0.000000,0.000000,0.000000,-0.003544,0.000000,0.000000,0.000000,0.000000
0.10000,0.000000,0.000000,0.000000,0.000000,0.000000,0.000000,0.000000,-0.003753,0.000000,0.000000,0.000000,0.000000
0.10200,0.000000,0.000000,0.000000,0.000000,0.000000,0.000000,0.000000,-0.003970,0.000000,0.000000,0.000000,0.000000
0.10400,0.000000,0.000000,0.000000,0.000000,0.000000,0.000000,0.000000,-0.004195,0.000000,0.000000,0.000000,0.000000
0.10600,0.000000,0.000000,0.000000,0.000000,0.000000,0.000000,0.000000,-0.004427,0.000000,0.000000,0.000000,0.000000
0.10800,0.000000,0.000000,0.000000,0.000000,0.000000,0.000000,0.000000,-0.004667,0.000000,0.000000,0.000000,0.000000
0.11000,0.000000,0.000000,0.000000,0.000000,0.000000,0.000000,0.000000,-0.004915,0.000000,0.000000,0.000000,0.000000
0.11200,0.000000,0.000000,0.000000,0.000000,0.000000,0.000000,0.000000,-0.005172,0.000000,0.000000,0.000000,0.000000
0.11400,0.000000,0.000000,0.000000,0.000000,0.000000,0.000000,0.000000,-0.005436,0.000000,0.000000,0.000000,0.000000
0.11600,0.000000,0.000000,0.000000,0.000000,0.000000,0.000000,0.000000,-0.005708,0.000000,0.000000,0.000000,0.000000
0.11800,0.000000,0.000000,0.000000,0.000000,0.000000,0.000000,0.000000,-0.005989,0.000000,0.000000,0.000000,0.000000
0.12000,0.000000,0.000000,0.000000,0.000000,0.000000,0.000000,0.000000,-0.006278,0.000000,0.000000,0.000000,0.000000
0.12200,0.000000,0.000000,0.000000,0.000000,0.000000,0.000000,0.000000,-0.006576,0.000000,0.000000,0.000000,0.000000
0.12400,0.000000,0.000000,0.000000,0.000000,0.000000,0.000000,0.000000,-0.006882,0.000000,0.000000,0.000000,0.000000
0.12600,0.000000,0.000000,0.000000,0.000000,0.000000,0.000000,0.000000,-0.007196,0.000000,0.000000,0.000000,0.000000
0.12800,0.000000,0.000000,0.000000,0.000000,0.000000,0.000000,0.000000,-0.007520,0.000000,0.000000,0.000000,0.000000
0.13000,0.000000,0.000000,0.000000,0.000000,0.000000,0.000000,0.000000,-0.007852,0.000000,0.000000,0.000000,0.000000
0.13200,0.000000,0.000000,0.000000,0.000000,0.000000,0.000000,0.000000,-0.008193,0.000000,0.000000,0.000000,0.000000
0.13400,0.000000,0.000000,0.000000,0.000000,0.000000,0.000000,0.000000,-0.008542,0.000000,0.000000,0.000000,0.000000
0.13600,0.000000,0.000000,0.000000,0.000000,0.000000,0.000000,0.000000,-0.008901,0.000000,0.000000,0.000000,0.000000
0.13800,0.000000,0.000000,0.000000,0.000000,0.000000,0.000000,0.000000,-0.009269,0.000000,0.000000,0.000000,0.000000
0.14000,0.000000,0.000000,0.000000,0.000000,0.000000,0.000000,0.000000,-0.009645,0.000000,0.000000,0.000000,0.000000
0.14200,0.000000,0.000000,0.000000,0.000000,0.000000,0.000000,0.000000,-0.010031,0.000000,0.000000,0.000000,0.000000
0.14400,0.000000,0.000000,0.000000,0.000000,0.000000,0.000000,0.000000,-0.010426,0.000000,0.000000,0.000000,0.000000
0.14600,0.000000,0.000000,0.000000,0.000000,0.000000,0.000000,0.000000,-0.010830,0.000000,0.000000,0.000000,0.000000
0.14800,0.000000,0.000000,0.000000,0.000000,0.000000,0.000000,0.000000,-0.011244,0.000000,0.000000,0.000000,0.000000
0.15000,0.000000,0.000000,0.000000,0.000000,0.000000,0.000000,0.000000,-0.011667,0.000000,0.000000,0.000000,0.000000
0.15200,0.000000,0.000000,0.000000,0.000000,0.000000,0.000000,0.000000,-0.012099,0.000000,0.000000,0.000000,0.000000
0.15400,0.000000,0.000000,0.000000,0.000000,0.000000,0.000000,0.000000,-0.012541,0.000000,0.000000,0.000000,0.000000
0.15600,0.000000,0.000000,0.000000,0.000000,0.000000,0.000000,0.000000,-0.012992,0.000000,0.000000,0.000000,0.000000
0.15800,0.000000,0.000000,0.000000,0.000000,0.000000,0.000000,0.000000,-0.013452,0.000000,0.000000,0.000000,0.000000
0.16000,0.000000,0.000000,0.000000,0.000000,0.000000,0.000000,0.000000,-0.013923,0.000000,0.000000,0.000000,0.000000
0.16200,0.000000,0.000000,0.000000,0.000000,0.000000,0.000000,0.000000,-0.014403,0.000000,0.000000,0.000000,0.000000
0.16400,0.000000,0.000000,0.000000,0.000000,0.000000,0.000000,0.000000,-0.014892,0.000000,0.000000,0.000000,0.000000
0.16600,0.000000,0.000000,0.000000,0.000000,0.000000,0.000000,0.000000,-0.015391,0.000000,0.000000,0.000000,0.000000
0.16800,0.000000,0.000000,0.000000,0.000000,0.000000,0.000000,0.000000,-0.015900,0.000000,0.000000,0.000000,0.000000
0.17000,0.000000,0.000000,0.000000,0.000000,0.000000,0.000000,0.000000,-0.016419,0.000000,0.000000,0.000000,0.000000
0.17200,0.000000,0.000000,0.000000,0.000000,0.000000,0.000000,0.000000,-0.016947,0.000000,0.000000,0.000000,0.000000
0.17400,0.000000,0.000000,0.000000,0.000000,0.000000,0.000000,0.000000,-0.017485,0.000000,0.000000,0.000000,0.000000
0.17600,0.000000,0.000000,0.000000,0.000000,0.000000,0.000000,0.000000,-0.018033,0.000000,0.000000,0.000000,0.000000
0.17800,0.000000,0.000000,0.000000,0.000000,0.000000,0.000000,0.000000,-0.018591,0.000000,0.000000,0.000000,0.000000
0.18000,0.000000,0.000000,0.000000,0.000000,0.000000,0.000000,0.000000,-0.019159,0.000000,0.000000,0.000000,0.000000
0.18200,0.000000,0.000000,0.000000,0.000000,0.000000,0.000000,0.000000,-0.019737,0.000000,0.000000,0.000000,0.000000
0.18400,0.000000,0.000000,0.000000,0.000000,0.000000,0.000000,0.000000,-0.020325,0.000000,0.000000,0.000000,0.000000
0.18600,0.000000,0.000000,0.000000,0.000000,0.000000,0.000000,0.000000,-0.020923,0.000000,0.000000,0.000000,0.000000
0.18800,0.000000,0.000000,0.000000,0.000000,0.000000,0.000000,0.000000,-0.021530,0.000000,0.000000,0.000000,0.000000
0.19000,0.000000,0.000000,0.000000,0.000000,0.000000,0.000000,0.000000,-0.022148,0.000000,0.000000,0.000000,0.000000
0.19200,0.000000,0.000000,0.000000,0.000000,0.000000,0.000000,0.000000,-0.022776,0.000000,0.000000,0.000000,0.000000
0.19400,0.000000,0.000000,0.000000,0.000000,0.000000,0.000000,0.000000,-0.023414,0.000000,0.000000,0.000000,0.000000
0.19600,0.000000,0.000000,0.000000,0.000000,0.000000,0.000000,0.000000,-0.024062,0.000000,0.000000,0.000000,0.000000
0.19800,0.000000,0.000000,0.000000,0.000000,0.000000,0.000000,0.000000,-0.024720,0.000000,0.000000,0.000000,0.000000
0.20000,0.000000,0.000000,0.000000,0.000000,0.000000,0.000000,0.000000,-0.025388,0.000000,0.000000,0.000000,0.000000
0.20200,0.000000,0.000000,0.000000,0.000000,0.000000,0.000000,0.000000,-0.026066,0.000000,0.000000,0.000000,0.000000
0.20400,0.000000,0.000000,0.000000,0.000000,0.000000,0.000000,0.000000,-0.026754,0.000000,0.000000,0.000000,0.000000
0.20600,0.000000,0.000000,0.000000,0.000000,0.000000,0.000000,0.000000,-0.027452,0.000000,0.000000,0.000000,0.000000
0.20800,0.000000,0.000000,0.000000,0.000000,0.000000,0.000000,0.000000,-0.028161,0.000000,0.000000,0.000000,0.000000
0.21000,0.000000,0.000000,0.000000,0.000000,0.000000,0.000000,0.000000,-0.028879,0.000000,0.000000,0.000000,0.000000
0.21200,0.000000,0.000000,0.000000,0.000000,0.000000,0.000000,0.000000,-0.029608,0.000000,0.000000,0.000000,0.000000
0.21400,0.000000,0.000000,0.000000,0.000000,0.000000,0.000000,0.000000,-0.030346,0.000000,0.000000,0.000000,0.000000
0.21600,0.000000,0.000000,0.000000,0.000000,0.000000,0.000000,0.000000,-0.031095,0.000000,0.000000,0.000000,0.000000
0.21800,0.000000,0.000000,0.000000,0.000000,0.000000,0.000000,0.000000,-0.031854,0.000000,0.000000,0.000000,0.000000
0.22000,0.000000,0.000000,0.000000,0.000000,0.000000,0.000000,0.000000,-0.032623,0.000000,0.000000,0.000000,0.000000
0.22200,0.000000,0.000000,0.000000,0.000000,0.000000,0.000000,0.000000,-0.033402,0.000000,0.000000,0.000000,0.000000
0.22400,0.000000,0.000000,0.000000,0.000000,0.000000,0.000000,0.000000,-0.034192,0.000000,0.000000,0.000000,0.000000
0.22600,0.000000,0.000000,0.000000,0.000000,0.000000,0.000000,0.000000,-0.034991,0.000000,0.000000,0.000000,0.000000
0.22800,0.000000,0.000000,0.000000,0.000000,0.000000,0.000000,0.000000,-0.035800,0.000000,0.000000,0.000000,0.000000
0.23000,0.000000,0.000000,0.000000,0.000000,0.000000,0.000000,0.000000,-0.036620,0.000000,0.000000,0.000000,0.000000
0.23200,0.000000,0.000000,0.000000,0.000000,0.000000,0.000000,0.000000,-0.037449,0.000000,0.000000,0.000000,0.000000
0.23400,0.000000,0.000000,0.000000,0.000000,0.000000,0.000000,0.000000,-0.038289,0.000000,0.000000,0.000000,0.000000
0.23600,0.000000,0.000000,0.000000,0.000000,0.000000,0.000000,0.000000,-0.039138,0.000000,0.000000,0.000000,0.000000
0.23800,0.000000,0.000000,0.000000,0.000000,0.000000,0.000000,0.000000,-0.039998,0.000000,0.000000,0.000000,0.000000
0.24000,0.000000,0.000000,0.000000,0.000000,0.000000,0.000000,0.000000,-0.040867,0.000000,0.000000,0.000000,0.000000
0.24200,0.000000,0.000000,0.000000,0.000000,0.000000,0.000000,0.000000,-0.041747,0.000000,0.000000,0.000000,0.000000
0.24400,0.000000,0.000000,0.000000,0.000000,0.000000,0.000000,0.000000,-0.042636,0.000000,0.000000,0.000000,0.000000
0.24600,0.000000,0.000000,0.000000,0.000000,0.000000,0.000000,0.000000,-0.043535,0.000000,0.000000,0.000000,0.000000
0.24800,0.000000,0.000000,0.000000,0.000000,0.000000,0.000000,0.000000,-0.044444,0.000000,0.000000,0.000000,0.000000
0.25000,0.000000,0.000000,0.000000,0.000000,0.000000,0.000000,0.000000,-0.045364,0.000000,0.000000,0.000000,0.000000
0.25200,0.000000,0.000000,0.000000,0.000000,0.000000,0.000000,0.000000,-0.046292,0.000000,0.000000,0.000000,0.000000
0.25400,0.000000,0.000000,0.000000,0.000000,0.000000,0.000000,0.000000,-0.047231,0.000000,0.000000,0.000000,0.000000
0.25600,0.000000,0.000000,0.000000,0.000000,0.000000,0.000000,0.000000,-0.048180,0.000000,0.000000,0.000000,0.000000
0.25800,0.000000,0.000000,0.000000,0.000000,0.000000,0.000000,0.000000,-0.049138,0.000000,0.000000,0.000000,0.000000
0.26000,0.000000,0.000000,0.000000,0.000000,0.000000,0.000000,0.000000,-0.050106,0.000000,0.000000,0.000000,0.000000
0.26200,0.000000,0.000000,0.000000,0.000000,0.000000,0.000000,0.000000,-0.051084,0.000000,0.000000,0.000000,0.000000
0.26400,0.000000,0.000000,0.000000,0.000000,0.000000,0.000000,0.000000,-0.052071,0.000000,0.000000,0.000000,0.000000
0.26600,0.000000,0.000000,0.000000,0.000000,0.000000,0.000000,0.000000,-0.053068,0.000000,0.000000,0.000000,0.000000
0.26800,0.000000,0.000000,0.000000,0.000000,0.000000,0.000000,0.000000,-0.054074,0.000000,0.000000,0.000000,0.000000
0.27000,0.000000,0.000000,0.000000,0.000000,0.000000,0.000000,0.000000,-0.055091,0.000000,0.000000,0.000000,0.000000
0.27200,0.000000,0.000000,0.000000,0.000000,0.000000,0.000000,0.000000,-0.056116,0.000000,0.000000,0.000000,0.000000
0.27400,0.000000,0.000000,0.000000,0.000000,0.000000,0.000000,0.000000,-0.057151,0.000000,0.000000,0.000000,0.000000
0.27600,0.000000,0.000000,0.000000,0.000000,0.000000,0.000000,0.000000,-0.058196,0.000000,0.000000,0.000000,0.000000
0.27800,0.000000,0.000000,0.000000,0.000000,0.000000,0.000000,0.000000,-0.059250,0.000000,0.000000,0.000000,0.000000
0.28000,0.000000,0.000000,0.000000,0.000000,0.000000,0.000000,0.000000,-0.060313,0.000000,0.000000,0.000000,0.000000
0.28200,0.000000,0.000000,0.000000,0.000000,0.000000,0.000000,0.000000,-0.061386,0.000000,0.000000,0.000000,0.000000
0.28400,0.000000,0.000000,0.000000,0.000000,0.000000,0.000000,0.000000,-0.062468,0.000000,0.000000,0.000000,0.000000
0.28600,0.000000,0.000000,0.000000,0.000000,0.000000,0.000000,0.000000,-0.063559,0.000000,0.000000,0.000000,0.000000
0.28800,0.000000,0.000000,0.000000,0.000000,0.000000,0.000000,0.000000,-0.064659,0.000000,0.000000,0.000000,0.000000
0.29000,0.000000,0.000000,0.000000,0.000000,0.000000,0.000000,0.000000,-0.065768,0.000000,0.000000,0.000000,0.000000
0.29200,0.000000,0.000000,0.000000,0.000000,0.000000,0.000000,0.000000,-0.066887,0.000000,0.000000,0.000000,0.000000
0.29400,0.000000,0.000000,0.000000,0.000000,0.000000,0.000000,0.000000,-0.068014,0.000000,0.000000,0.000000,0.000000
0.29600,0.000000,0.000000,0.000000,0.000000,0.000000,0.000000,0.000000,-0.069151,0.000000,0.000000,0.000000,0.000000
0.29800,0.000000,0.000000,0.000000,0.000000,0.000000,0.000000,0.000000,-0.070296,0.000000,0.000000,0.000000,0.000000
0.30000,0.000000,0.000000,0.000000,0.000000,0.000000,0.000000,0.000000,-0.071450,0.000000,0.000000,0.000000,0.000000
0.30200,0.000000,0.000000,0.000000,0.000000,0.000000,0.000000,0.000000,-0.072613,0.000000,0.000000,0.000000,0.000000
0.30400,0.000000,0.000000,0.000000,0.000000,0.000000,0.000000,0.000000,-0.073785,0.000000,0.000000,0.000000,0.000000
0.30600,0.000000,0.000000,0.000000,0.000000,0.000000,0.000000,0.000000,-0.074965,0.000000,0.000000,0.000000,0.000000
0.30800,0.000000,0.000000,0.000000,0.000000,0.000000,0.000000,0.000000,-0.076154,0.000000,0.000000,0.000000,0.000000
0.31000,0.000000,0.000000,0.000000,0.000000,0.000000,0.000000,0.000000,-0.077352,0.000000,0.000000,0.000000,0.000000
0.31200,0.000000,0.000000,0.000000,0.000000,0.000000,0.000000,0.000000,-0.078558,0.000000,0.000000,0.000000,0.000000
0.31400,0.000000,0.000000,0.000000,0.000000,0.000000,0.000000,0.000000,-0.079773,0.000000,0.000000,0.000000,0.000000
0.31600,0.000000,0.000000,0.000000,0.000000,0.000000,0.000000,0.000000,-0.080996,0.000000,0.000000,0.000000,0.000000
0.31800,0.000000,0.000000,0.000000,0.000000,0.000000,0.000000,0.000000,-0.082227,0.000000,0.000000,0.000000,0.000000
0.32000,0.000000,0.000000,0.000000,0.000000,0.000000,0.000000,0.000000,-0.083467,0.000000,0.000000,0.000000,0.000000
0.32200,0.000000,0.000000,0.000000,0.000000,0.000000,0.000000,0.000000,-0.084715,0.000000,0.000000,0.000000,0.000000
0.32400,0.000000,0.000000,0.000000,0.000000,0.000000,0.000000,0.000000,-0.085971,0.000000,0.000000,0.000000,0.000000
0.32600,0.000000,0.000000,0.000000,0.000000,0.000000,0.000000,0.000000,-0.087235,0.000000,0.000000,0.000000,0.000000
0.32800,0.000000,0.000000,0.000000,0.000000,0.000000,0.000000,0.000000,-0.088507,0.000000,0.000000,0.000000,0.000000
0.33000,0.000000,0.000000,0.000000,0.000000,0.000000,0.000000,0.000000,-0.089787,0.000000,0.000000,0.000000,0.000000
0.33200,0.000000,0.000000,0.000000,0.000000,0.000000,0.000000,0.000000,-0.091075,0.000000,0.000000,0.000000,0.000000
0.33400,0.000000,0.000000,0.000000,0.000000,0.000000,0.000000,0.000000,-0.092371,0.000000,0.000000,0.000000,0.000000
0.33600,0.000000,0.000000,0.000000,0.000000,0.000000,0.000000,0.000000,-0.093674,0.000000,0.000000,0.000000,0.000000
0.33800,0.000000,0.000000,0.000000,0.000000,0.000000,0.000000,0.000000,-0.094985,0.000000,0.000000,0.000000,0.000000
0.34000,0.000000,0.000000,0.000000,0.000000,0.000000,0.000000,0.000000,-0.096304,0.000000,0.000000,0.000000,0.000000
0.34200,0.000000,0.000000,0.000000,0.000000,0.000000,0.000000,0.000000,-0.097630,0.000000,0.000000,0.000000,0.000000
0.34400,0.000000,0.000000,0.000000,0.000000,0.000000,0.000000,0.000000,-0.098964,0.000000,0.000000,0.000000,0.000000
0.34600,0.000000,0.000000,0.000000,0.000000,0.000000,0.000000,0.000000,-0.100305,0.000000,0.000000,0.000000,0.000000
0.34800,0.000000,0.000000,0.000000,0.000000,0.000000,0.000000,0.000000,-0.101654,0.000000,0.000000,0.000000,0.000000
0.35000,0.000000,0.000000,0.000000,0.000000,0.000000,0.000000,0.000000,-0.103009,0.000000,0.000000,0.000000,0.000000
0.35200,0.000000,0.000000,0.000000,0.000000,0.000000,0.000000,0.000000,-0.104372,0.000000,0.000000,0.000000,0.000000
0.35400,0.000000,0.000000,0.000000,0.000000,0.000000,0.000000,0.000000,-0.105742,0.000000,0.000000,0.000000,0.000000
0.35600,0.000000,0.000000,0.000000,0.000000,0.000000,0.000000,0.000000,-0.107118,0.000000,0.000000,0.000000,0.000000
0.35800,0.000000,0.000000,0.000000,0.000000,0.000000,0.000000,0.000000,-0.108502,0.000000,0.000000,0.000000,0.000000
0.36000,0.000000,0.000000,0.000000,0.000000,0.000000,0.000000,0.000000,-0.109893,0.000000,0.000000,0.000000,0.000000
0.36200,0.000000,0.000000,0.000000,0.000000,0.000000,0.000000,0.000000,-0.111290,0.000000,0.000000,0.000000,0.000000
0.36400,0.000000,0.000000,0.000000,0.000000,0.000000,0.000000,0.000000,-0.112694,0.000000,0.000000,0.000000,0.000000
0.36600,0.000000,0.000000,0.000000,0.000000,0.000000,0.000000,0.000000,-0.114104,0.000000,0.000000,0.000000,0.000000
0.36800,0.000000,0.000000,0.000000,0.000000,0.000000,0.000000,0.000000,-0.115521,0.000000,0.000000,0.000000,0.000000
0.37000,0.000000,0.000000,0.000000,0.000000,0.000000,0.000000,0.000000,-0.116945,0.000000,0.000000,0.000000,0.000000
0.37200,0.000000,0.000000,0.000000,0.000000,0.000000,0.000000,0.000000,-0.118375,0.000000,0.000000,0.000000,0.000000
0.37400,0.000000,0.000000,0.000000,0.000000,0.000000,0.000000,0.000000,-0.119811,0.000000,0.000000,0.000000,0.000000
0.37600,0.000000,0.000000,0.000000,0.000000,0.000000,0.000000,0.000000,-0.121253,0.000000,0.000000,0.000000,0.000000
0.37800,0.000000,0.000000,0.000000,0.000000,0.000000,0.000000,0.000000,-0.122701,0.000000,0.000000,0.000000,0.000000
0.38000,0.000000,0.000000,0.000000,0.000000,0.000000,0.000000,0.000000,-0.124155,0.000000,0.000000,0.000000,0.000000
0.38200,0.000000,0.000000,0.000000,0.000000,0.000000,0.000000,0.000000,-0.125615,0.000000,0.000000,0.000000,0.000000
0.38400,0.000000,0.000000,0.000000,0.000000,0.000000,0.000000,0.000000,-0.127081,0.000000,0.000000,0.000000,0.000000
0.38600,0.000000,0.000000,0.000000,0.000000,0.000000,0.000000,0.000000,-0.128553,0.000000,0.000000,0.000000,0.000000
0.38800,0.000000,0.000000,0.000000,0.000000,0.000000,0.000000,0.000000,-0.130031,0.000000,0.000000,0.000000,0.000000
0.39000,0.000000,0.000000,0.000000,0.000000,0.000000,0.000000,0.000000,-0.131513,0.000000,0.000000,0.000000,0.000000
0.39200,0.000000,0.000000,0.000000,0.000000,0.000000,0.000000,0.000000,-0.133002,0.000000,0.000000,0.000000,0.000000
0.39400,0.000000,0.000000,0.000000,0.000000,0.000000,0.000000,0.000000,-0.134496,0.000000,0.000000,0.000000,0.000000
0.39600,0.000000,0.000000,0.000000,0.000000,0.000000,0.000000,0.000000,-0.135995,0.000000,0.000000,0.000000,0.000000
0.39800,0.000000,0.000000,0.000000,0.000000,0.000000,0.000000,0.000000,-0.137499,0.000000,0.000000,0.000000,0.000000
0.40000,0.000000,0.000000,0.000000,0.000000,0.000000,0.000000,0.000000,-0.139008,0.000000,0.000000,0.000000,0.000000
0.40200,0.000000,0.000000,0.000000,0.000000,0.000000,0.000000,0.000000,-0.140523,0.000000,0.000000,0.000000,0.000000
0.40400,0.000000,0.000000,0.000000,0.000000,0.000000,0.000000,0.000000,-0.142042,0.000000,0.000000,0.000000,0.000000
0.40600,0.000000,0.000000,0.000000,0.000000,0.000000,0.000000,0.000000,-0.143566,0.000000,0.000000,0.000000,0.000000
0.40800,0.000000,0.000000,0.000000,0.000000,0.000000,0.000000,0.000000,-0.145095,0.000000,0.000000,0.000000,0.000000
0.41000,0.000000,0.000000,0.000000,0.000000,0.000000,0.000000,0.000000,-0.146628,0.000000,0.000000,0.000000,0.000000
0.41200,0.000000,0.000000,0.000000,0.000000,0.000000,0.000000,0.000000,-0.148166,0.000000,0.000000,0.000000,0.000000
0.41400,0.000000,0.000000,0.000000,0.000000,0.000000,0.000000,0.000000,-0.149708,0.000000,0.000000,0.000000,0.000000
0.41600,0.000000,0.000000,0.000000,0.000000,0.000000,0.000000,0.000000,-0.151255,0.000000,0.000000,0.000000,0.000000
0.41800,0.000000,0.000000,0.000000,0.000000,0.000000,0.000000,0.000000,-0.152806,0.000000,0.000000,0.000000,0.000000
0.42000,0.000000,0.000000,0.000000,0.000000,0.000000,0.000000,0.000000,-0.154361,0.000000,0.000000,0.000000,0.000000
0.42200,0.000000,0.000000,0.000000,0.000000,0.000000,0.000000,0.000000,-0.155920,0.000000,0.000000,0.000000,0.000000
0.42400,0.000000,0.000000,0.000000,0.000000,0.000000,0.000000,0.000000,-0.157484,0.000000,0.000000,0.000000,0.000000
0.42600,0.000000,0.000000,0.000000,0.000000,0.000000,0.000000,0.000000,-0.159051,0.000000,0.000000,0.000000,0.000000
0.42800,0.000000,0.000000,0.000000,0.000000,0.000000,0.000000,0.000000,-0.160621,0.000000,0.000000,0.000000,0.000000
0.43000,0.000000,0.000000,0.000000,0.000000,0.000000,0.000000,0.000000,-0.162196,0.000000,0.000000,0.000000,0.000000
0.43200,0.000000,0.000000,0.000000,0.000000,0.000000,0.000000,0.000000,-0.163774,0.000000,0.000000,0.000000,0.000000
0.43400,0.000000,0.000000,0.000000,0.000000,0.000000,0.000000,0.000000,-0.165355,0.000000,0.000000,0.000000,0.000000
0.43600,0.000000,0.000000,0.000000,0.000000,0.000000,0.000000,0.000000,-0.166940,0.000000,0.000000,0.000000,0.000000
0.43800,0.000000,0.000000,0.000000,0.000000,0.000000,0.000000,0.000000,-0.168528,0.000000,0.000000,0.000000,0.000000
0.44000,0.000000,0.000000,0.000000,0.000000,0.000000,0.000000,0.000000,-0.170119,0.000000,0.000000,0.000000,0.000000
0.44200,0.000000,0.000000,0.000000,0.000000,0.000000,0.000000,0.000000,-0.171714,0.000000,0.000000,0.000000,0.000000
0.44400,0.000000,0.000000,0.000000,0.000000,0.000000,0.000000,0.000000,-0.173311,0.000000,0.000000,0.000000,0.000000
0.44600,0.000000,0.000000,0.000000,0.000000,0.000000,0.000000,0.000000,-0.174911,0.000000,0.000000,0.000000,0.000000
0.44800,0.000000,0.000000,0.000000,0.000000,0.000000,0.000000,0.000000,-0.176514,0.000000,0.000000,0.000000,0.000000
0.45000,0.000000,0.000000,0.000000,0.000000,0.000000,0.000000,0.000000,-0.178119,0.000000,0.000000,0.000000,0.000000
0.45200,0.000000,0.000000,0.000000,0.000000,0.000000,0.000000,0.000000,-0.179728,0.000000,0.000000,0.000000,0.000000
0.45400,0.000000,0.000000,0.000000,0.000000,0.000000,0.000000,0.000000,-0.181338,0.000000,0.000000,0.000000,0.000000
0.45600,0.000000,0.000000,0.000000,0.000000,0.000000,0.000000,0.000000,-0.182951,0.000000,0.000000,0.000000,0.000000
0.45800,0.000000,0.000000,0.000000,0.000000,0.000000,0.000000,0.000000,-0.184566,0.000000,0.000000,0.000000,0.000000
0.46000,0.000000,0.000000,0.000000,0.000000,0.000000,0.000000,0.000000,-0.186183,0.000000,0.000000,0.000000,0.000000
0.46200,0.000000,0.000000,0.000000,0.000000,0.000000,0.000000,0.000000,-0.187803,0.000000,0.000000,0.000000,0.000000
0.46400,0.000000,0.000000,0.000000,0.000000,0.000000,0.000000,0.000000,-0.189424,0.000000,0.000000,0.000000,0.000000
0.46600,0.000000,0.000000,0.000000,0.000000,0.000000,0.000000,0.000000,-0.191047,0.000000,0.000000,0.000000,0.000000
0.46800,0.000000,0.000000,0.000000,0.000000,0.000000,0.000000,0.000000,-0.192672,0.000000,0.000000,0.000000,0.000000
0.47000,0.000000,0.000000,0.000000,0.000000,0.000000,0.000000,0.000000,-0.194298,0.000000,0.000000,0.000000,0.000000
0.47200,0.000000,0.000000,0.000000,0.000000,0.000000,0.000000,0.000000,-0.195926,0.000000,0.000000,0.000000,0.000000
0.47400,0.000000,0.000000,0.000000,0.000000,0.000000,0.000000,0.000000,-0.197556,0.000000,0.000000,0.000000,0.000000
0.47600,0.000000,0.000000,0.000000,0.000000,0.000000,0.000000,0.000000,-0.199186,0.000000,0.000000,0.000000,0.000000
0.47800,0.000000,0.000000,0.000000,0.000000,0.000000,0.000000,0.000000,-0.200818,0.000000,0.000000,0.000000,0.000000
0.48000,0.000000,0.000000,0.000000,0.000000,0.000000,0.000000,0.000000,-0.202451,0.000000,0.000000,0.000000,0.000000
0.48200,0.000000,0.000000,0.000000,0.000000,0.000000,0.000000,0.000000,-0.204085,0.000000,0.000000,0.000000,0.000000
0.48400,0.000000,0.000000,0.000000,0.000000,0.000000,0.000000,0.000000,-0.205720,0.000000,0.000000,0.000000,0.000000
0.48600,0.000000,0.000000,0.000000,0.000000,0.000000,0.000000,0.000000,-0.207356,0.000000,0.000000,0.000000,0.000000
0.48800,0.000000,0.000000,0.000000,0.000000,0.000000,0.000000,0.000000,-0.208992,0.000000,0.000000,0.000000,0.000000
0.49000,0.000000,0.000000,0.000000,0.000000,0.000000,0.000000,0.000000,-0.210629,0.000000,0.000000,0.000000,0.000000
0.49200,0.000000,0.000000,0.000000,0.000000,0.000000,0.000000,0.000000,-0.212267,0.000000,0.000000,0.000000,0.000000
0.49400,0.000000,0.000000,0.000000,0.000000,0.000000,0.000000,0.000000,-0.213905,0.000000,0.000000,0.000000,0.000000
0.49600,0.000000,0.000000,0.000000,0.000000,0.000000,0.000000,0.000000,-0.215543,0.000000,0.000000,0.000000,0.000000
0.49800,0.000000,0.000000,0.000000,0.000000,0.000000,0.000000,0.000000,-0.217181,0.000000,0.000000,0.000000,0.000000
0.50000,0.000000,0.000000,0.000000,0.000000,0.000000,0.000000,0.000000,-0.218819,0.000000,0.000000,0.000000,0.000000
0.50200,0.000000,0.000000,0.000000,0.000000,0.000000,0.000000,0.000000,-0.220457,0.000000,0.000000,0.000000,0.000000
0.50400,0.000000,0.000000,0.000000,0.000000,0.000000,0.000000,0.000000,-0.222095,0.000000,0.000000,0.000000,0.000000
0.50600,0.000000,0.000000,0.000000,0.000000,0.000000,0.000000,0.000000,-0.223733,0.000000,0.000000,0.000000,0.000000
0.50800,0.000000,0.000000,0.000000,0.000000,0.000000,0.000000,0.000000,-0.225371,0.000000,0.000000,0.000000,0.000000
0.51000,0.000000,0.000000,0.000000,0.000000,0.000000,0.000000,0.000000,-0.227008,0.000000,0.000000,0.000000,0.000000
0.51200,0.000000,0.000000,0.000000,0.000000,0.000000,0.000000,0.000000,-0.228644,0.000000,0.000000,0.000000,0.000000
0.51400,0.000000,0.000000,0.000000,0.000000,0.000000,0.000000,0.000000,-0.230280,0.000000,0.000000,0.000000,0.000000
0.51600,0.000000,0.000000,0.000000,0.000000,0.000000,0.000000,0.000000,-0.231915,0.000000,0.000000,0.000000,0.000000
0.51800,0.000000,0.000000,0.000000,0.000000,0.000000,0.000000,0.000000,-0.233549,0.000000,0.000000,0.000000,0.000000
0.52000,0.000000,0.000000,0.000000,0.000000,0.000000,0.000000,0.000000,-0.235182,0.000000,0.000000,0.000000,0.000000
0.52200,0.000000,0.000000,0.000000,0.000000,0.000000,0.000000,0.000000,-0.236814,0.000000,0.000000,0.000000,0.000000
0.52400,0.000000,0.000000,0.000000,0.000000,0.000000,0.000000,0.000000,-0.238444,0.000000,0.000000,0.000000,0.000000
0.52600,0.000000,0.000000,0.000000,0.000000,0.000000,0.000000,0.000000,-0.240074,0.000000,0.000000,0.000000,0.000000
0.52800,0.000000,0.000000,0.000000,0.000000,0.000000,0.000000,0.000000,-0.241702,0.000000,0.000000,0.000000,0.000000
0.53000,0.000000,0.000000,0.000000,0.000000,0.000000,0.000000,0.000000,-0.243328,0.000000,0.000000,0.000000,0.000000
0.53200,0.000000,0.000000,0.000000,0.000000,0.000000,0.000000,0.000000,-0.244953,0.000000,0.000000,0.000000,0.000000
0.53400,0.000000,0.000000,0.000000,0.000000,0.000000,0.000000,0.000000,-0.246576,0.000000,0.000000,0.000000,0.000000
0.53600,0.000000,0.000000,0.000000,0.000000,0.000000,0.000000,0.000000,-0.248197,0.000000,0.000000,0.000000,0.000000
0.53800,0.000000,0.000000,0.000000,0.000000,0.000000,0.000000,0.000000,-0.249817,0.000000,0.000000,0.000000,0.000000
0.54000,0.000000,0.000000,0.000000,0.000000,0.000000,0.000000,0.000000,-0.251434,0.000000,0.000000,0.000000,0.000000
0.54200,0.000000,0.000000,0.000000,0.000000,0.000000,0.000000,0.000000,-0.253049,0.000000,0.000000,0.000000,0.000000
0.54400,0.000000,0.000000,0.000000,0.000000,0.000000,0.000000,0.000000,-0.254662,0.000000,0.000000,0.000000,0.000000
0.54600,0.000000,0.000000,0.000000,0.000000,0.000000,0.000000,0.000000,-0.256272,0.000000,0.000000,0.000000,0.000000
0.54800,0.000000,0.000000,0.000000,0.000000,0.000000,0.000000,0.000000,-0.257881,0.000000,0.000000,0.000000,0.000000
0.55000,0.000000,0.000000,0.000000,0.000000,0.000000,0.000000,0.000000,-0.259486,0.000000,0.000000,0.000000,0.000000
0.55200,0.000000,0.000000,0.000000,0.000000,0.000000,0.000000,0.000000,-0.261089,0.000000,0.000000,0.000000,0.000000
0.55400,0.000000,0.000000,0.000000,0.000000,0.000000,0.000000,0.000000,-0.262689,0.000000,0.000000,0.000000,0.000000
0.55600,0.000000,0.000000,0.000000,0.000000,0.000000,0.000000,0.000000,-0.264286,0.000000,0.000000,0.000000,0.000000
0.55800,0.000000,0.000000,0.000000,0.000000,0.000000,0.000000,0.000000,-0.265881,0.000000,0.000000,0.000000,0.000000
0.56000,0.000000,0.000000,0.000000,0.000000,0.000000,0.000000,0.000000,-0.267472,0.000000,0.000000,0.000000,0.000000
0.56200,0.000000,0.000000,0.000000,0.000000,0.000000,0.000000,0.000000,-0.269060,0.000000,0.000000,0.000000,0.000000
0.56400,0.000000,0.000000,0.000000,0.000000,0.000000,0.000000,0.000000,-0.270645,0.000000,0.000000,0.000000,0.000000
0.56600,0.000000,0.000000,0.000000,0.000000,0.000000,0.000000,0.000000,-0.272226,0.000000,0.000000,0.000000,0.000000
0.56800,0.000000,0.000000,0.000000,0.000000,0.000000,0.000000,0.000000,-0.273804,0.000000,0.000000,0.000000,0.000000
0.57000,0.000000,0.000000,0.000000,0.000000,0.000000,0.000000,0.000000,-0.275379,0.000000,0.000000,0.000000,0.000000
0.57200,0.000000,0.000000,0.000000,0.000000,0.000000,0.000000,0.000000,-0.276949,0.000000,0.000000,0.000000,0.000000
0.57400,0.000000,0.000000,0.000000,0.000000,0.000000,0.000000,0.000000,-0.278516,0.000000,0.000000,0.000000,0.000000
0.57600,0.000000,0.000000,0.000000,0.000000,0.000000,0.000000,0.000000,-0.280080,0.000000,0.000000,0.000000,0.000000
0.57800,0.000000,0.000000,0.000000,0.000000,0.000000,0.000000,0.000000,-0.281639,0.000000,0.000000,0.000000,0.000000
0.58000,0.000000,0.000000,0.000000,0.000000,0.000000,0.000000,0.000000,-0.283194,0.000000,0.000000,0.000000,0.000000
0.58200,0.000000,0.000000,0.000000,0.000000,0.000000,0.000000,0.000000,-0.284745,0.000000,0.000000,0.000000,0.000000
0.58400,0.000000,0.000000,0.000000,0.000000,0.000000,0.000000,0.000000,-0.286292,0.000000,0.000000,0.000000,0.000000
0.58600,0.000000,0.000000,0.000000,0.000000,0.000000,0.000000,0.000000,-0.287834,0.000000,0.000000,0.000000,0.000000
0.58800,0.000000,0.000000,0.000000,0.000000,0.000000,0.000000,0.000000,-0.289372,0.000000,0.000000,0.000000,0.000000
0.59000,0.000000,0.000000,0.000000,0.000000,0.000000,0.000000,0.000000,-0.290905,0.000000,0.000000,0.000000,0.000000
0.59200,0.000000,0.000000,0.000000,0.000000,0.000000,0.000000,0.000000,-0.292434,0.000000,0.000000,0.000000,0.000000
0.59400,0.000000,0.000000,0.000000,0.000000,0.000000,0.000000,0.000000,-0.293958,0.000000,0.000000,0.000000,0.000000
0.59600,0.000000,0.000000,0.000000,0.000000,0.000000,0.000000,0.000000,-0.295477,0.000000,0.000000,0.000000,0.000000
0.59800,0.000000,0.000000,0.000000,0.000000,0.000000,0.000000,0.000000,-0.296992,0.000000,0.000000,0.000000,0.000000
0.60000,0.000000,0.000000,0.000000,0.000000,0.000000,0.000000,0.000000,-0.298501,0.000000,0.000000,0.000000,0.000000
0.60200,0.000000,0.000000,0.000000,0.000000,0.000000,0.000000,0.000000,-0.300005,0.000000,0.000000,0.000000,0.000000
0.60400,0.000000,0.000000,0.000000,0.000000,0.000000,0.000000,0.000000,-0.301504,0.000000,0.000000,0.000000,0.000000
0.60600,0.000000,0.000000,0.000000,0.000000,0.000000,0.000000,0.000000,-0.302998,0.000000,0.000000,0.000000,0.000000
0.60800,0.000000,0.000000,0.000000,0.000000,0.000000,0.000000,0.000000,-0.304487,0.000000,0.000000,0.000000,0.000000
0.61000,0.000000,0.000000,0.000000,0.000000,0.000000,0.000000,0.000000,-0.305969,0.000000,0.000000,0.000000,0.000000
0.61200,0.000000,0.000000,0.000000,0.000000,0.000000,0.000000,0.000000,-0.307447,0.000000,0.000000,0.000000,0.000000
0.61400,0.000000,0.000000,0.000000,0.000000,0.000000,0.000000,0.000000,-0.308919,0.000000,0.000000,0.000000,0.000000
0.61600,0.000000,0.000000,0.000000,0.000000,0.000000,0.000000,0.000000,-0.310385,0.000000,0.000000,0.000000,0.000000
0.61800,0.000000,0.000000,0.000000,0.000000,0.000000,0.000000,0.000000,-0.311845,0.000000,0.000000,0.000000,0.000000
0.62000,0.000000,0.000000,0.000000,0.000000,0.000000,0.000000,0.000000,-0.313299,0.000000,0.000000,0.000000,0.000000
0.62200,0.000000,0.000000,0.000000,0.000000,0.000000,0.000000,0.000000,-0.314747,0.000000,0.000000,0.000000,0.000000
0.62400,0.000000,0.000000,0.000000,0.000000,0.000000,0.000000,0.000000,-0.316189,0.000000,0.000000,0.000000,0.000000
0.62600,0.000000,0.000000,0.000000,0.000000,0.000000,0.000000,0.000000,-0.317625,0.000000,0.000000,0.000000,0.000000
0.62800,0.000000,0.000000,0.000000,0.000000,0.000000,0.000000,0.000000,-0.319055,0.000000,0.000000,0.000000,0.000000
0.63000,0.000000,0.000000,0.000000,0.000000,0.000000,0.000000,0.000000,-0.320479,0.000000,0.000000,0.000000,0.000000
0.63200,0.000000,0.000000,0.000000,0.000000,0.000000,0.000000,0.000000,-0.321896,0.000000,0.000000,0.000000,0.000000
0.63400,0.000000,0.000000,0.000000,0.000000,0.000000,0.000000,0.000000,-0.323306,0.000000,0.000000,0.000000,0.000000
0.63600,0.000000,0.000000,0.000000,0.000000,0.000000,0.000000,0.000000,-0.324710,0.000000,0.000000,0.000000,0.000000
0.63800,0.000000,0.000000,0.000000,0.000000,0.000000,0.000000,0.000000,-0.326107,0.000000,0.000000,0.000000,0.000000
0.64000,0.000000,0.000000,0.000000,0.000000,0.000000,0.000000,0.000000,-0.327498,0.000000,0.000000,0.000000,0.000000
0.64200,0.000000,0.000000,0.000000,0.000000,0.000000,0.000000,0.000000,-0.328882,0.000000,0.000000,0.000000,0.000000
0.64400,0.000000,0.000000,0.000000,0.000000,0.000000,0.000000,0.000000,-0.330258,0.000000,0.000000,0.000000,0.000000
0.64600,0.000000,0.000000,0.000000,0.000000,0.000000,0.000000,0.000000,-0.331628,0.000000,0.000000,0.000000,0.000000
0.64800,0.000000,0.000000,0.000000,0.000000,0.000000,0.000000,0.000000,-0.332991,0.000000,0.000000,0.000000,0.000000
0.65000,0.000000,0.000000,0.000000,0.000000,0.000000,0.000000,0.000000,-0.334346,0.000000,0.000000,0.000000,0.000000
0.65200,0.000000,0.000000,0.000000,0.000000,0.000000,0.000000,0.000000,-0.335695,0.000000,0.000000,0.000000,0.000000
0.65400,0.000000,0.000000,0.000000,0.000000,0.000000,0.000000,0.000000,-0.337036,0.000000,0.000000,0.000000,0.000000
0.65600,0.000000,0.000000,0.000000,0.000000,0.000000,0.000000,0.000000,-0.338370,0.000000,0.000000,0.000000,0.000000
0.65800,0.000000,0.000000,0.000000,0.000000,0.000000,0.000000,0.000000,-0.339696,0.000000,0.000000,0.000000,0.000000
0.66000,0.000000,0.000000,0.000000,0.000000,0.000000,0.000000,0.000000,-0.341015,0.000000,0.000000,0.000000,0.000000
0.66200,0.000000,0.000000,0.000000,0.000000,0.000000,0.000000,0.000000,-0.342326,0.000000,0.000000,0.000000,0.000000
0.66400,0.000000,0.000000,0.000000,0.000000,0.000000,0.000000,0.000000,-0.343629,0.000000,0.000000,0.000000,0.000000
0.66600,0.000000,0.000000,0.000000,0.000000,0.000000,0.000000,0.000000,-0.344925,0.000000,0.000000,0.000000,0.000000
0.66800,0.000000,0.000000,0.000000,0.000000,0.000000,0.000000,0.000000,-0.346213,0.000000,0.000000,0.000000,0.000000
0.67000,0.000000,0.000000,0.000000,0.000000,0.000000,0.000000,0.000000,-0.347493,0.000000,0.000000,0.000000,0.000000
0.67200,0.000000,0.000000,0.000000,0.000000,0.000000,0.000000,0.000000,-0.348765,0.000000,0.000000,0.000000,0.000000
0.67400,0.000000,0.000000,0.000000,0.000000,0.000000,0.000000,0.000000,-0.350029,0.000000,0.000000,0.000000,0.000000
0.67600,0.000000,0.000000,0.000000,0.000000,0.000000,0.000000,0.000000,-0.351285,0.000000,0.000000,0.000000,0.000000
0.67800,0.000000,0.000000,0.000000,0.000000,0.000000,0.000000,0.000000,-0.352533,0.000000,0.000000,0.000000,0.000000
0.68000,0.000000,0.000000,0.000000,0.000000,0.000000,0.000000,0.000000,-0.353773,0.000000,0.000000,0.000000,0.000000
0.68200,0.000000,0.000000,0.000000,0.000000,0.000000,0.000000,0.000000,-0.355004,0.000000,0.000000,0.000000,0.000000
0.68400,0.000000,0.000000,0.000000,0.000000,0.000000,0.000000,0.000000,-0.356227,0.000000,0.000000,0.000000,0.000000
0.68600,0.000000,0.000000,0.000000,0.000000,0.000000,0.000000,0.000000,-0.357442,0.000000,0.000000,0.000000,0.000000
0.68800,0.000000,0.000000,0.000000,0.000000,0.000000,0.000000,0.000000,-0.358648,0.000000,0.000000,0.000000,0.000000
0.69000,0.000000,0.000000,0.000000,0.000000,0.000000,0.000000,0.000000,-0.359846,0.000000,0.000000,0.000000,0.000000
0.69200,0.000000,0.000000,0.000000,0.000000,0.000000,0.000000,0.000000,-0.361035,0.000000,0.000000,0.000000,0.000000
0.69400,0.000000,0.000000,0.000000,0.000000,0.000000,0.000000,0.000000,-0.362215,0.000000,0.000000,0.000000,0.000000
0.69600,0.000000,0.000000,0.000000,0.000000,0.000000,0.000000,0.000000,-0.363387,0.000000,0.000000,0.000000,0.000000
0.69800,0.000000,0.000000,0.000000,0.000000,0.000000,0.000000,0.000000,-0.364550,0.000000,0.000000,0.000000,0.000000
0.70000,0.000000,0.000000,0.000000,0.000000,0.000000,0.000000,0.000000,-0.365704,0.000000,0.000000,0.000000,0.000000
0.70200,0.000000,0.000000,0.000000,0.000000,0.000000,0.000000,0.000000,-0.366849,0.000000,0.000000,0.000000,0.000000
0.70400,0.000000,0.000000,0.000000,0.000000,0.000000,0.000000,0.000000,-0.367986,0.000000,0.000000,0.000000,0.000000
0.70600,0.000000,0.000000,0.000000,0.000000,0.000000,0.000000,0.000000,-0.369113,0.000000,0.000000,0.000000,0.000000
0.70800,0.000000,0.000000,0.000000,0.000000,0.000000,0.000000,0.000000,-0.370232,0.000000,0.000000,0.000000,0.000000
0.71000,0.000000,0.000000,0.000000,0.000000,0.000000,0.000000,0.000000,-0.371341,0.000000,0.000000,0.000000,0.000000
0.71200,0.000000,0.000000,0.000000,0.000000,0.000000,0.000000,0.000000,-0.372441,0.000000,0.000000,0.000000,0.000000
0.71400,0.000000,0.000000,0.000000,0.000000,0.000000,0.000000,0.000000,-0.373532,0.000000,0.000000,0.000000,0.000000
0.71600,0.000000,0.000000,0.000000,0.000000,0.000000,0.000000,0.000000,-0.374614,0.000000,0.000000,0.000000,0.000000
0.71800,0.000000,0.000000,0.000000,0.000000,0.000000,0.000000,0.000000,-0.375687,0.000000,0.000000,0.000000,0.000000
0.72000,0.000000,0.000000,0.000000,0.000000,0.000000,0.000000,0.000000,-0.376750,0.000000,0.000000,0.000000,0.000000
0.72200,0.000000,0.000000,0.000000,0.000000,0.000000,0.000000,0.000000,-0.377804,0.000000,0.000000,0.000000,0.000000
0.72400,0.000000,0.000000,0.000000,0.000000,0.000000,0.000000,0.000000,-0.378849,0.000000,0.000000,0.000000,0.000000
0.72600,0.000000,0.000000,0.000000,0.000000,0.000000,0.000000,0.000000,-0.379884,0.000000,0.000000,0.000000,0.000000
0.72800,0.000000,0.000000,0.000000,0.000000,0.000000,0.000000,0.000000,-0.380909,0.000000,0.000000,0.000000,0.000000
0.73000,0.000000,0.000000,0.000000,0.000000,0.000000,0.000000,0.000000,-0.381926,0.000000,0.000000,0.000000,0.000000
0.73200,0.000000,0.000000,0.000000,0.000000,0.000000,0.000000,0.000000,-0.382932,0.000000,0.000000,0.000000,0.000000
0.73400,0.000000,0.000000,0.000000,0.000000,0.000000,0.000000,0.000000,-0.383929,0.000000,0.000000,0.000000,0.000000
0.73600,0.000000,0.000000,0.000000,0.000000,0.000000,0.000000,0.000000,-0.384916,0.000000,0.000000,0.000000,0.000000
0.73800,0.000000,0.000000,0.000000,0.000000,0.000000,0.000000,0.000000,-0.385894,0.000000,0.000000,0.000000,0.000000
0.74000,0.000000,0.000000,0.000000,0.000000,0.000000,0.000000,0.000000,-0.386862,0.000000,0.000000,0.000000,0.000000
0.74200,0.000000,0.000000,0.000000,0.000000,0.000000,0.000000,0.000000,-0.387820,0.000000,0.000000,0.000000,0.000000
0.74400,0.000000,0.000000,0.000000,0.000000,0.000000,0.000000,0.000000,-0.388769,0.000000,0.000000,0.000000,0.000000
0.74600,0.000000,0.000000,0.000000,0.000000,0.000000,0.000000,0.000000,-0.389708,0.000000,0.000000,0.000000,0.000000
0.74800,0.000000,0.000000,0.000000,0.000000,0.000000,0.000000,0.000000,-0.390636,0.000000,0.000000,0.000000,0.000000
0.75000,0.000000,0.000000,0.000000,0.000000,0.000000,0.000000,0.000000,-0.391556,0.000000,0.000000,0.000000,0.000000
0.75200,0.000000,0.000000,0.000000,0.000000,0.000000,0.000000,0.000000,-0.392465,0.000000,0.000000,0.000000,0.000000
0.75400,0.000000,0.000000,0.000000,0.000000,0.000000,0.000000,0.000000,-0.393364,0.000000,0.000000,0.000000,0.000000
0.75600,0.000000,0.000000,0.000000,0.000000,0.000000,0.000000,0.000000,-0.394253,0.000000,0.000000,0.000000,0.000000
0.75800,0.000000,0.000000,0.000000,0.000000,0.000000,0.000000,0.000000,-0.395133,0.000000,0.000000,0.000000,0.000000
0.76000,0.000000,0.000000,0.000000,0.000000,0.000000,0.000000,0.000000,-0.396002,0.000000,0.000000,0.000000,0.000000
0.76200,0.000000,0.000000,0.000000,0.000000,0.000000,0.000000,0.000000,-0.396862,0.000000,0.000000,0.000000,0.000000
0.76400,0.000000,0.000000,0.000000,0.000000,0.000000,0.000000,0.000000,-0.397711,0.000000,0.000000,0.000000,0.000000
0.76600,0.000000,0.000000,0.000000,0.000000,0.000000,0.000000,0.000000,-0.398551,0.000000,0.000000,0.000000,0.000000
0.76800,0.000000,0.000000,0.000000,0.000000,0.000000,0.000000,0.000000,-0.399380,0.000000,0.000000,0.000000,0.000000
0.77000,0.000000,0.000000,0.000000,0.000000,0.000000,0.000000,0.000000,-0.400200,0.000000,0.000000,0.000000,0.000000
0.77200,0.000000,0.000000,0.000000,0.000000,0.000000,0.000000,0.000000,-0.401009,0.000000,0.000000,0.000000,0.000000
0.77400,0.000000,0.000000,0.000000,0.000000,0.000000,0.000000,0.000000,-0.401808,0.000000,0.000000,0.000000,0.000000
0.77600,0.000000,0.000000,0.000000,0.000000,0.000000,0.000000,0.000000,-0.402598,0.000000,0.000000,0.000000,0.000000
0.77800,0.000000,0.000000,0.000000,0.000000,0.000000,0.000000,0.000000,-0.403377,0.000000,0.000000,0.000000,0.000000
0.78000,0.000000,0.000000,0.000000,0.000000,0.000000,0.000000,0.000000,-0.404146,0.000000,0.000000,0.000000,0.000000
0.78200,0.000000,0.000000,0.000000,0.000000,0.000000,0.000000,0.000000,-0.404905,0.000000,0.000000,0.000000,0.000000
0.78400,0.000000,0.000000,0.000000,0.000000,0.000000,0.000000,0.000000,-0.405654,0.000000,0.000000,0.000000,0.000000
0.78600,0.000000,0.000000,0.000000,0.000000,0.000000,0.000000,0.000000,-0.406392,0.000000,0.000000,0.000000,0.000000
0.78800,0.000000,0.000000,0.000000,0.000000,0.000000,0.000000,0.000000,-0.407121,0.000000,0.000000,0.000000,0.000000
0.79000,0.000000,0.000000,0.000000,0.000000,0.000000,0.000000,0.000000,-0.407839,0.000000,0.000000,0.000000,0.000000
0.79200,0.000000,0.000000,0.000000,0.000000,0.000000,0.000000,0.000000,-0.408548,0.000000,0.000000,0.000000,0.000000
0.79400,0.000000,0.000000,0.000000,0.000000,0.000000,0.000000,0.000000,-0.409246,0.000000,0.000000,0.000000,0.000000
0.79600,0.000000,0.000000,0.000000,0.000000,0.000000,0.000000,0.000000,-0.409934,0.000000,0.000000,0.000000,0.000000
0.79800,0.000000,0.000000,0.000000,0.000000,0.000000,0.000000,0.000000,-0.410612,0.000000,0.000000,0.000000,0.000000
0.80000,0.000000,0.000000,0.000000,0.000000,0.000000,0.000000,0.000000,-0.411280,0.000000,0.000000,0.000000,0.000000
0.80200,0.000000,0.000000,0.000000,0.000000,0.000000,0.000000,0.000000,-0.411938,0.000000,0.000000,0.000000,0.000000
0.80400,0.000000,0.000000,0.000000,0.000000,0.000000,0.000000,0.000000,-0.412586,0.000000,0.000000,0.000000,0.000000
0.80600,0.000000,0.000000,0.000000,0.000000,0.000000,0.000000,0.000000,-0.413224,0.000000,0.000000,0.000000,0.000000
0.80800,0.000000,0.000000,0.000000,0.000000,0.000000,0.000000,0.000000,-0.413852,0.000000,0.000000,0.000000,0.000000
0.81000,0.000000,0.000000,0.000000,0.000000,0.000000,0.000000,0.000000,-0.414470,0.000000,0.000000,0.000000,0.000000
0.81200,0.000000,0.000000,0.000000,0.000000,0.000000,0.000000,0.000000,-0.415077,0.000000,0.000000,0.000000,0.000000
0.81400,0.000000,0.000000,0.000000,0.000000,0.000000,0.000000,0.000000,-0.415675,0.000000,0.000000,0.000000,0.000000
0.81600,0.000000,0.000000,0.000000,0.000000,0.000000,0.000000,0.000000,-0.416263,0.000000,0.000000,0.000000,0.000000
0.81800,0.000000,0.000000,0.000000,0.000000,0.000000,0.000000,0.000000,-0.416841,0.000000,0.000000,0.000000,0.000000
0.82000,0.000000,0.000000,0.000000,0.000000,0.000000,0.000000,0.000000,-0.417409,0.000000,0.000000,0.000000,0.000000
0.82200,0.000000,0.000000,0.000000,0.000000,0.000000,0.000000,0.000000,-0.417967,0.000000,0.000000,0.000000,0.000000
0.82400,0.000000,0.000000,0.000000,0.000000,0.000000,0.000000,0.000000,-0.418515,0.000000,0.000000,0.000000,0.000000
0.82600,0.000000,0.000000,0.000000,0.000000,0.000000,0.000000,0.000000,-0.419053,0.000000,0.000000,0.000000,0.000000
0.82800,0.000000,0.000000,0.000000,0.000000,0.000000,0.000000,0.000000,-0.419581,0.000000,0.000000,0.000000,0.000000
0.83000,0.000000,0.000000,0.000000,0.000000,0.000000,0.000000,0.000000,-0.420100,0.000000,0.000000,0.000000,0.000000
0.83200,0.000000,0.000000,0.000000,0.000000,0.000000,0.000000,0.000000,-0.420609,0.000000,0.000000,0.000000,0.000000
0.83400,0.000000,0.000000,0.000000,0.000000,0.000000,0.000000,0.000000,-0.421108,0.000000,0.000000,0.000000,0.000000
0.83600,0.000000,0.000000,0.000000,0.000000,0.000000,0.000000,0.000000,-0.421597,0.000000,0.000000,0.000000,0.000000
0.83800,0.000000,0.000000,0.000000,0.000000,0.000000,0.000000,0.000000,-0.422077,0.000000,0.000000,0.000000,0.000000
0.84000,0.000000,0.000000,0.000000,0.000000,0.000000,0.000000,0.000000,-0.422548,0.000000,0.000000,0.000000,0.000000
0.84200,0.000000,0.000000,0.000000,0.000000,0.000000,0.000000,0.000000,-0.423008,0.000000,0.000000,0.000000,0.000000
0.84400,0.000000,0.000000,0.000000,0.000000,0.000000,0.000000,0.000000,-0.423459,0.000000,0.000000,0.000000,0.000000
0.84600,0.000000,0.000000,0.000000,0.000000,0.000000,0.000000,0.000000,-0.423901,0.000000,0.000000,0.000000,0.000000
0.84800,0.000000,0.000000,0.000000,0.000000,0.000000,0.000000,0.000000,-0.424333,0.000000,0.000000,0.000000,0.000000
0.85000,0.000000,0.000000,0.000000,0.000000,0.000000,0.000000,0.000000,-0.424756,0.000000,0.000000,0.000000,0.000000
0.85200,0.000000,0.000000,0.000000,0.000000,0.000000,0.000000,0.000000,-0.425170,0.000000,0.000000,0.000000,0.000000
0.85400,0.000000,0.000000,0.000000,0.000000,0.000000,0.000000,0.000000,-0.425574,0.000000,0.000000,0.000000,0.000000
0.85600,0.000000,0.000000,0.000000,0.000000,0.000000,0.000000,0.000000,-0.425969,0.000000,0.000000,0.000000,0.000000
0.85800,0.000000,0.000000,0.000000,0.000000,0.000000,0.000000,0.000000,-0.426355,0.000000,0.000000,0.000000,0.000000
0.86000,0.000000,0.000000,0.000000,0.000000,0.000000,0.000000,0.000000,-0.426731,0.000000,0.000000,0.000000,0.000000
0.86200,0.000000,0.000000,0.000000,0.000000,0.000000,0.000000,0.000000,-0.427099,0.000000,0.000000,0.000000,0.000000
0.86400,0.000000,0.000000,0.000000,0.000000,0.000000,0.000000,0.000000,-0.427458,0.000000,0.000000,0.000000,0.000000
0.86600,0.000000,0.000000,0.000000,0.000000,0.000000,0.000000,0.000000,-0.427807,0.000000,0.000000,0.000000,0.000000
0.86800,0.000000,0.000000,0.000000,0.000000,0.000000,0.000000,0.000000,-0.428148,0.000000,0.000000,0.000000,0.000000
0.87000,0.000000,0.000000,0.000000,0.000000,0.000000,0.000000,0.000000,-0.428480,0.000000,0.000000,0.000000,0.000000
0.87200,0.000000,0.000000,0.000000,0.000000,0.000000,0.000000,0.000000,-0.428804,0.000000,0.000000,0.000000,0.000000
0.87400,0.000000,0.000000,0.000000,0.000000,0.000000,0.000000,0.000000,-0.429118,0.000000,0.000000,0.000000,0.000000
0.87600,0.000000,0.000000,0.000000,0.000000,0.000000,0.000000,0.000000,-0.429424,0.000000,0.000000,0.000000,0.000000
0.87800,0.000000,0.000000,0.000000,0.000000,0.000000,0.000000,0.000000,-0.429722,0.000000,0.000000,0.000000,0.000000
0.88000,0.000000,0.000000,0.000000,0.000000,0.000000,0.000000,0.000000,-0.430011,0.000000,0.000000,0.000000,0.000000
0.88200,0.000000,0.000000,0.000000,0.000000,0.000000,0.000000,0.000000,-0.430292,0.000000,0.000000,0.000000,0.000000
0.88400,0.000000,0.000000,0.000000,0.000000,0.000000,0.000000,0.000000,-0.430564,0.000000,0.000000,0.000000,0.000000
0.88600,0.000000,0.000000,0.000000,0.000000,0.000000,0.000000,0.000000,-0.430828,0.000000,0.000000,0.000000,0.000000
0.88800,0.000000,0.000000,0.000000,0.000000,0.000000,0.000000,0.000000,-0.431085,0.000000,0.000000,0.000000,0.000000
0.89000,0.000000,0.000000,0.000000,0.000000,0.000000,0.000000,0.000000,-0.431333,0.000000,0.000000,0.000000,0.000000
0.89200,0.000000,0.000000,0.000000,0.000000,0.000000,0.000000,0.000000,-0.431573,0.000000,0.000000,0.000000,0.000000
0.89400,0.000000,0.000000,0.000000,0.000000,0.000000,0.000000,0.000000,-0.431805,0.000000,0.000000,0.000000,0.000000
0.89600,0.000000,0.000000,0.000000,0.000000,0.000000,0.000000,0.000000,-0.432030,0.000000,0.000000,0.000000,0.000000
0.89800,0.000000,0.000000,0.000000,0.000000,0.000000,0.000000,0.000000,-0.432247,0.000000,0.000000,0.000000,0.000000
0.90000,0.000000,0.000000,0.000000,0.000000,0.000000,0.000000,0.000000,-0.432456,0.000000,0.000000,0.000000,0.000000
0.90200,0.000000,0.000000,0.000000,0.000000,0.000000,0.000000,0.000000,-0.432658,0.000000,0.000000,0.000000,0.000000
0.90400,0.000000,0.000000,0.000000,0.000000,0.000000,0.000000,0.000000,-0.432852,0.000000,0.000000,0.000000,0.000000
0.90600,0.000000,0.000000,0.000000,0.000000,0.000000,0.000000,0.000000,-0.433039,0.000000,0.000000,0.000000,0.000000
0.90800,0.000000,0.000000,0.000000,0.000000,0.000000,0.000000,0.000000,-0.433219,0.000000,0.000000,0.000000,0.000000
0.91000,0.000000,0.000000,0.000000,0.000000,0.000000,0.000000,0.000000,-0.433392,0.000000,0.000000,0.000000,0.000000
0.91200,0.000000,0.000000,0.000000,0.000000,0.000000,0.000000,0.000000,-0.433558,0.000000,0.000000,0.000000,0.000000
0.91400,0.000000,0.000000,0.000000,0.000000,0.000000,0.000000,0.000000,-0.433717,0.000000,0.000000,0.000000,0.000000
0.91600,0.000000,0.000000,0.000000,0.000000,0.000000,0.000000,0.000000,-0.433870,0.000000,0.000000,0.000000,0.000000
0.91800,0.000000,0.000000,0.000000,0.000000,0.000000,0.000000,0.000000,-0.434016,0.000000,0.000000,0.000000,0.000000
0.92000,0.000000,0.000000,0.000000,0.000000,0.000000,0.000000,0.000000,-0.434155,0.000000,0.000000,0.000000,0.000000
0.92200,0.000000,0.000000,0.000000,0.000000,0.000000,0.000000,0.000000,-0.434288,0.000000,0.000000,0.000000,0.000000
0.92400,0.000000,0.000000,0.000000,0.000000,0.000000,0.000000,0.000000,-0.434414,0.000000,0.000000,0.000000,0.000000
0.92600,0.000000,0.000000,0.000000,0.000000,0.000000,0.000000,0.000000,-0.434535,0.000000,0.000000,0.000000,0.000000
0.92800,0.000000,0.000000,0.000000,0.000000,0.000000,0.000000,0.000000,-0.434649,0.000000,0.000000,0.000000,0.000000
0.93000,0.000000,0.000000,0.000000,0.000000,0.000000,0.000000,0.000000,-0.434758,0.000000,0.000000,0.000000,0.000000
0.93200,0.000000,0.000000,0.000000,0.000000,0.000000,0.000000,0.000000,-0.434861,0.000000,0.000000,0.000000,0.000000
0.93400,0.000000,0.000000,0.000000,0.000000,0.000000,0.000000,0.000000,-0.434958,0.000000,0.000000,0.000000,0.000000
0.93600,0.000000,0.000000,0.000000,0.000000,0.000000,0.000000,0.000000,-0.435050,0.000000,0.000000,0.000000,0.000000
0.93800,0.000000,0.000000,0.000000,0.000000,0.000000,0.000000,0.000000,-0.435136,0.000000,0.000000,0.000000,0.000000
0.94000,0.000000,0.000000,0.000000,0.000000,0.000000,0.000000,0.000000,-0.435217,0.000000,0.000000,0.000000,0.000000
0.94200,0.000000,0.000000,0.000000,0.000000,0.000000,0.000000,0.000000,-0.435293,0.000000,0.000000,0.000000,0.000000
0.94400,0.000000,0.000000,0.000000,0.000000,0.000000,0.000000,0.000000,-0.435364,0.000000,0.000000,0.000000,0.000000
0.94600,0.000000,0.000000,0.000000,0.000000,0.000000,0.000000,0.000000,-0.435430,0.000000,0.000000,0.000000,0.000000
0.94800,0.000000,0.000000,0.000000,0.000000,0.000000,0.000000,0.000000,-0.435492,0.000000,0.000000,0.000000,0.000000
0.95000,0.000000,0.000000,0.000000,0.000000,0.000000,0.000000,0.000000,-0.435549,0.000000,0.000000,0.000000,0.000000
0.95200,0.000000,0.000000,0.000000,0.000000,0.000000,0.000000,0.000000,-0.435602,0.000000,0.000000,0.000000,0.000000
0.95400,0.000000,0.000000,0.000000,0.000000,0.000000,0.000000,0.000000,-0.435651,0.000000,0.000000,0.000000,0.000000
0.95600,0.000000,0.000000,0.000000,0.000000,0.000000,0.000000,0.000000,-0.435695,0.000000,0.000000,0.000000,0.000000
0.95800,0.000000,0.000000,0.000000,0.000000,0.000000,0.000000,0.000000,-0.435736,0.000000,0.000000,0.000000,0.000000
0.96000,0.000000,0.000000,0.000000,0.000000,0.000000,0.000000,0.000000,-0.435773,0.000000,0.000000,0.000000,0.000000
0.96200,0.000000,0.000000,0.000000,0.000000,0.000000,0.000000,0.000000,-0.435806,0.000000,0.000000,0.000000,0.000000
0.96400,0.000000,0.000000,0.000000,0.000000,0.000000,0.000000,0.000000,-0.435836,0.000000,0.000000,0.000000,0.000000
0.96600,0.000000,0.000000,0.000000,0.000000,0.000000,0.000000,0.000000,-0.435863,0.000000,0.000000,0.000000,0.000000
0.96800,0.000000,0.000000,0.000000,0.000000,0.000000,0.000000,0.000000,-0.435887,0.000000,0.000000,0.000000,0.000000
0.97000,0.000000,0.000000,0.000000,0.000000,0.000000,0.000000,0.000000,-0.435908,0.000000,0.000000,0.000000,0.000000
0.97200,0.000000,0.000000,0.000000,0.000000,0.000000,0.000000,0.000000,-0.435926,0.000000,0.000000,0.000000,0.000000
0.97400,0.000000,0.000000,0.000000,0.000000,0.000000,0.000000,0.000000,-0.435942,0.000000,0.000000,0.000000,0.000000
0.97600,0.000000,0.000000,0.000000,0.000000,0.000000,0.000000,0.000000,-0.435955,0.000000,0.000000,0.000000,0.000000
0.97800,0.000000,0.000000,0.000000,0.000000,0.000000,0.000000,0.000000,-0.435966,0.000000,0.000000,0.000000,0.000000
0.98000,0.000000,0.000000,0.000000,0.000000,0.000000,0.000000,0.000000,-0.435975,0.000000,0.000000,0.000000,0.000000
0.98200,0.000000,0.000000,0.000000,0.000000,0.000000,0.000000,0.000000,-0.435982,0.000000,0.000000,0.000000,0.000000
0.98400,0.000000,0.000000,0.000000,0.000000,0.000000,0.000000,0.000000,-0.435988,0.000000,0.000000,0.000000,0.000000
0.98600,0.000000,0.000000,0.000000,0.000000,0.000000,0.000000,0.000000,-0.435993,0.000000,0.000000,0.000000,0.000000
0.98800,0.000000,0.000000,0.000000,0.000000,0.000000,0.000000,0.000000,-0.435996,0.000000,0.000000,0.000000,0.000000
0.99000,0.000000,0.000000,0.000000,0.000000,0.000000,0.000000,0.000000,-0.435998,0.000000,0.000000,0.000000,0.000000
0.99200,0.000000,0.000000,0.000000,0.000000,0.000000,0.000000,0.000000,-0.435999,0.000000,0.000000,0.000000,0.000000
0.99400,0.000000,0.000000,0.000000,0.000000,0.000000,0.000000,0.000000,-0.436000,0.000000,0.000000,0.000000,0.000000
0.99600,0.000000,0.000000,0.000000,0.000000,0.000000,0.000000,0.000000,-0.436000,0.000000,0.000000,0.000000,0.000000
0.99800,0.000000,0.000000,0.000000,0.000000,0.000000,0.000000,0.000000,-0.436000,0.000000,0.000000,0.000000,0.000000
1.00000,0.000000,0.000000,0.000000,0.000000,0.000000,0.000000,0.000000,-0.436000,0.000000,0.000000,0.000000,0.000000
1.00200,0.000000,-0.000000,-0.000000,0.000000,-0.000000,-0.000000,0.000000,-0.436000,0.000000,0.000000,0.000000,0.000000
1.00400,0.000000,-0.000000,-0.000001,0.000001,-0.000000,-0.000000,0.000000,-0.436000,0.000000,0.000000,0.000000,0.000000
1.00600,0.000001,-0.000000,-0.000004,0.000005,-0.000001,-0.000000,0.000000,-0.436000,0.000000,0.000000,0.000000,0.000000
1.00800,0.000001,-0.000001,-0.000010,0.000011,-0.000003,-0.000001,0.000000,-0.436000,0.000000,0.000000,0.000000,0.000000
1.01000,0.000003,-0.000002,-0.000019,0.000021,-0.000006,-0.000002,0.000000,-0.436000,0.000000,0.000000,0.000000,0.000000
1.01200,0.000005,-0.000004,-0.000033,0.000037,-0.000010,-0.000004,0.000000,-0.436000,0.000000,0.000000,0.000000,0.000000
1.01400,0.000007,-0.000006,-0.000052,0.000058,-0.000016,-0.000006,0.000000,-0.436000,0.000000,0.000000,0.000000,0.000000
1.01600,0.000011,-0.000009,-0.000077,0.000086,-0.000024,-0.000009,0.000000,-0.436000,0.000000,0.000000,0.000000,0.000000
1.01800,0.000015,-0.000013,-0.000109,0.000122,-0.000035,-0.000013,0.000000,-0.436000,0.000000,0.000000,0.000000,0.000000
1.02000,0.000021,-0.000017,-0.000150,0.000167,-0.000047,-0.000018,0.000000,-0.436000,0.000000,0.000000,0.000000,0.000000
1.02200,0.000028,-0.000023,-0.000199,0.000222,-0.000063,-0.000024,0.000000,-0.436000,0.000000,0.000000,0.000000,0.000000
1.02400,0.000036,-0.000029,-0.000257,0.000288,-0.000081,-0.000031,0.000000,-0.436000,0.000000,0.000000,0.000000,0.000000
1.02600,0.000046,-0.000037,-0.000326,0.000364,-0.000103,-0.000039,0.000000,-0.436000,0.000000,0.000000,0.000000,0.000000
1.02800,0.000057,-0.000046,-0.000406,0.000454,-0.000129,-0.000049,0.000000,-0.436000,0.000000,0.000000,0.000000,0.000000
1.03000,0.000070,-0.000057,-0.000498,0.000556,-0.000158,-0.000060,0.000000,-0.436000,0.000000,0.000000,0.000000,0.000000
1.03200,0.000084,-0.000069,-0.000602,0.000673,-0.000191,-0.000072,0.000000,-0.436000,0.000000,0.000000,0.000000,0.000000
1.03400,0.000101,-0.000082,-0.000720,0.000805,-0.000228,-0.000087,0.000000,-0.436000,0.000000,0.000000,0.000000,0.000000
1.03600,0.000119,-0.000097,-0.000852,0.000953,-0.000270,-0.000102,0.000000,-0.436000,0.000000,0.000000,0.000000,0.000000
1.03800,0.000140,-0.000114,-0.000999,0.001117,-0.000317,-0.000120,0.000000,-0.436000,0.000000,0.000000,0.000000,0.000000
1.04000,0.000162,-0.000133,-0.001162,0.001299,-0.000368,-0.000140,0.000000,-0.436000,0.000000,0.000000,0.000000,0.000000
1.04200,0.000187,-0.000153,-0.001340,0.001499,-0.000425,-0.000161,0.000000,-0.436000,0.000000,0.000000,0.000000,0.000000
1.04400,0.000215,-0.000176,-0.001536,0.001718,-0.000487,-0.000185,0.000000,-0.436000,0.000000,0.000000,0.000000,0.000000
1.04600,0.000245,-0.000200,-0.001750,0.001957,-0.000555,-0.000210,0.000000,-0.436000,0.000000,0.000000,0.000000,0.000000
1.04800,0.000277,-0.000227,-0.001982,0.002217,-0.000628,-0.000238,0.000000,-0.436000,0.000000,0.000000,0.000000,0.000000
1.05000,0.000312,-0.000255,-0.002234,0.002498,-0.000708,-0.000269,0.000000,-0.436000,0.000000,0.000000,0.000000,0.000000
1.05200,0.000350,-0.000286,-0.002505,0.002801,-0.000794,-0.000301,0.000000,-0.436000,0.000000,0.000000,0.000000,0.000000
1.05400,0.000391,-0.000319,-0.002796,0.003127,-0.000886,-0.000336,0.000000,-0.436000,0.000000,0.000000,0.000000,0.000000
1.05600,0.000435,-0.000355,-0.003109,0.003477,-0.000985,-0.000374,0.000000,-0.436000,0.000000,0.000000,0.000000,0.000000
1.05800,0.000482,-0.000393,-0.003443,0.003850,-0.001091,-0.000414,0.000000,-0.436000,0.000000,0.000000,0.000000,0.000000
1.06000,0.000531,-0.000434,-0.003800,0.004249,-0.001204,-0.000457,0.000000,-0.436000,0.000000,0.000000,0.000000,0.000000
1.06200,0.000585,-0.000478,-0.004180,0.004674,-0.001324,-0.000503,0.000000,-0.436000,0.000000,0.000000,0.000000,0.000000
1.06400,0.000641,-0.000524,-0.004583,0.005125,-0.001452,-0.000551,0.000000,-0.436000,0.000000,0.000000,0.000000,0.000000
1.06600,0.000701,-0.000572,-0.005010,0.005603,-0.001588,-0.000602,0.000000,-0.436000,0.000000,0.000000,0.000000,0.000000
1.06800,0.000764,-0.000624,-0.005463,0.006108,-0.001731,-0.000657,0.000000,-0.436000,0.000000,0.000000,0.000000,0.000000
1.07000,0.000831,-0.000679,-0.005940,0.006642,-0.001882,-0.000714,0.000000,-0.436000,0.000000,0.000000,0.000000,0.000000
1.07200,0.000901,-0.000736,-0.006443,0.007205,-0.002042,-0.000775,0.000000,-0.436000,0.000000,0.000000,0.000000,0.000000
1.07400,0.000975,-0.000797,-0.006973,0.007798,-0.002210,-0.000838,0.000000,-0.436000,0.000000,0.000000,0.000000,0.000000
1.07600,0.001053,-0.000860,-0.007530,0.008421,-0.002386,-0.000905,0.000000,-0.436000,0.000000,0.000000,0.000000,0.000000
1.07800,0.001135,-0.000927,-0.008115,0.009074,-0.002571,-0.000976,0.000000,-0.436000,0.000000,0.000000,0.000000,0.000000
1.08000,0.001221,-0.000997,-0.008727,0.009759,-0.002766,-0.001049,0.000000,-0.436000,0.000000,0.000000,0.000000,0.000000
1.08200,0.001310,-0.001070,-0.009368,0.010476,-0.002969,-0.001126,0.000000,-0.436000,0.000000,0.000000,0.000000,0.000000
1.08400,0.001404,-0.001147,-0.010039,0.011225,-0.003181,-0.001207,0.000000,-0.436000,0.000000,0.000000,0.000000,0.000000
1.08600,0.001502,-0.001227,-0.010738,0.012008,-0.003403,-0.001291,0.000000,-0.436000,0.000000,0.000000,0.000000,0.000000
1.08800,0.001604,-0.001310,-0.011468,0.012824,-0.003634,-0.001379,0.000000,-0.436000,0.000000,0.000000,0.000000,0.000000
1.09000,0.001710,-0.001397,-0.012229,0.013675,-0.003875,-0.001470,0.000000,-0.436000,0.000000,0.000000,0.000000,0.000000
1.09200,0.001821,-0.001488,-0.013021,0.014560,-0.004126,-0.001565,0.000000,-0.436000,0.000000,0.000000,0.000000,0.000000
1.09400,0.001936,-0.001582,-0.013844,0.015481,-0.004387,-0.001664,0.000000,-0.436000,0.000000,0.000000,0.000000,0.000000
1.09600,0.002056,-0.001679,-0.014699,0.016437,-0.004658,-0.001767,0.000000,-0.436000,0.000000,0.000000,0.000000,0.000000
1.09800,0.002180,-0.001781,-0.015587,0.017430,-0.004939,-0.001874,0.000000,-0.436000,0.000000,0.000000,0.000000,0.000000
1.10000,0.002309,-0.001886,-0.016507,0.018459,-0.005231,-0.001985,0.000000,-0.436000,0.000000,0.000000,0.000000,0.000000
1.10200,0.002442,-0.001995,-0.017461,0.019526,-0.005533,-0.002099,0.000000,-0.436000,0.000000,0.000000,0.000000,0.000000
1.10400,0.002580,-0.002108,-0.018449,0.020630,-0.005846,-0.002218,0.000000,-0.436000,0.000000,0.000000,0.000000,0.000000
1.10600,0.002723,-0.002225,-0.019470,0.021772,-0.006170,-0.002341,0.000000,-0.436000,0.000000,0.000000,0.000000,0.000000
1.10800,0.002871,-0.002345,-0.020527,0.022953,-0.006505,-0.002468,0.000000,-0.436000,0.000000,0.000000,0.000000,0.000000
1.11000,0.003024,-0.002470,-0.021618,0.024174,-0.006850,-0.002599,0.000000,-0.436000,0.000000,0.000000,0.000000,0.000000
1.11200,0.003181,-0.002599,-0.022744,0.025433,-0.007207,-0.002735,0.000000,-0.436000,0.000000,0.000000,0.000000,0.000000
1.11400,0.003344,-0.002731,-0.023906,0.026733,-0.007576,-0.002874,0.000000,-0.436000,0.000000,0.000000,0.000000,0.000000
1.11600,0.003511,-0.002868,-0.025105,0.028073,-0.007955,-0.003018,0.000000,-0.436000,0.000000,0.000000,0.000000,0.000000
1.11800,0.003684,-0.003009,-0.026339,0.029454,-0.008347,-0.003167,0.000000,-0.436000,0.000000,0.000000,0.000000,0.000000
1.12000,0.003862,-0.003155,-0.027611,0.030875,-0.008750,-0.003320,0.000000,-0.436000,0.000000,0.000000,0.000000,0.000000
1.12200,0.004045,-0.003304,-0.028920,0.032339,-0.009164,-0.003477,0.000000,-0.436000,0.000000,0.000000,0.000000,0.000000
1.12400,0.004233,-0.003458,-0.030266,0.033844,-0.009591,-0.003639,0.000000,-0.436000,0.000000,0.000000,0.000000,0.000000
1.12600,0.004427,-0.003616,-0.031649,0.035391,-0.010029,-0.003805,0.000000,-0.436000,0.000000,0.000000,0.000000,0.000000
1.12800,0.004625,-0.003779,-0.033071,0.036981,-0.010480,-0.003976,0.000000,-0.436000,0.000000,0.000000,0.000000,0.000000
1.13000,0.004830,-0.003945,-0.034532,0.038614,-0.010943,-0.004152,0.000000,-0.436000,0.000000,0.000000,0.000000,0.000000
1.13200,0.005039,-0.004117,-0.036031,0.040291,-0.011418,-0.004332,0.000000,-0.436000,0.000000,0.000000,0.000000,0.000000
1.13400,0.005254,-0.004292,-0.037569,0.042011,-0.011905,-0.004517,0.000000,-0.436000,0.000000,0.000000,0.000000,0.000000
1.13600,0.005475,-0.004473,-0.039146,0.043774,-0.012405,-0.004706,0.000000,-0.436000,0.000000,0.000000,0.000000,0.000000
1.13800,0.005701,-0.004657,-0.040763,0.045583,-0.012917,-0.004901,0.000000,-0.436000,0.000000,0.000000,0.000000,0.000000
1.14000,0.005933,-0.004847,-0.042420,0.047435,-0.013442,-0.005100,0.000000,-0.436000,0.000000,0.000000,0.000000,0.000000
1.14200,0.006170,-0.005041,-0.044117,0.049333,-0.013980,-0.005304,0.000000,-0.436000,0.000000,0.000000,0.000000,0.000000
1.14400,0.006413,-0.005239,-0.045854,0.051275,-0.014531,-0.005513,0.000000,-0.436000,0.000000,0.000000,0.000000,0.000000
1.14600,0.006662,-0.005442,-0.047631,0.053263,-0.015094,-0.005727,0.000000,-0.436000,0.000000,0.000000,0.000000,0.000000
1.14800,0.006916,-0.005650,-0.049450,0.055297,-0.015670,-0.005945,0.000000,-0.436000,0.000000,0.000000,0.000000,0.000000
1.15000,0.007176,-0.005862,-0.051310,0.057376,-0.016259,-0.006169,0.000000,-0.436000,0.000000,0.000000,0.000000,0.000000
1.15200,0.007442,-0.006080,-0.053211,0.059502,-0.016862,-0.006397,0.000000,-0.436000,0.000000,0.000000,0.000000,0.000000
1.15400,0.007714,-0.006302,-0.055153,0.061674,-0.017477,-0.006631,0.000000,-0.436000,0.000000,0.000000,0.000000,0.000000
1.15600,0.007991,-0.006528,-0.057137,0.063892,-0.018106,-0.006869,0.000000,-0.436000,0.000000,0.000000,0.000000,0.000000
1.15800,0.008275,-0.006760,-0.059163,0.066158,-0.018748,-0.007113,0.000000,-0.436000,0.000000,0.000000,0.000000,0.000000
1.16000,0.008564,-0.006996,-0.061231,0.068470,-0.019403,-0.007362,0.000000,-0.436000,0.000000,0.000000,0.000000,0.000000
1.16200,0.008859,-0.007237,-0.063341,0.070830,-0.020072,-0.007615,0.000000,-0.436000,0.000000,0.000000,0.000000,0.000000
1.16400,0.009160,-0.007483,-0.065494,0.073237,-0.020754,-0.007874,0.000000,-0.436000,0.000000,0.000000,0.000000,0.000000
1.16600,0.009467,-0.007734,-0.067689,0.075692,-0.021450,-0.008138,0.000000,-0.436000,0.000000,0.000000,0.000000,0.000000
1.16800,0.009780,-0.007990,-0.069927,0.078195,-0.022159,-0.008407,0.000000,-0.436000,0.000000,0.000000,0.000000,0.000000
1.17000,0.010099,-0.008250,-0.072208,0.080745,-0.022882,-0.008681,0.000000,-0.436000,0.000000,0.000000,0.000000,0.000000
1.17200,0.010424,-0.008516,-0.074532,0.083344,-0.023618,-0.008961,0.000000,-0.436000,0.000000,0.000000,0.000000,0.000000
1.17400,0.010755,-0.008786,-0.076899,0.085991,-0.024369,-0.009245,0.000000,-0.436000,0.000000,0.000000,0.000000,0.000000
1.17600,0.011092,-0.009062,-0.079310,0.088687,-0.025132,-0.009535,0.000000,-0.436000,0.000000,0.000000,0.000000,0.000000
1.17800,0.011436,-0.009342,-0.081764,0.091431,-0.025910,-0.009830,0.000000,-0.436000,0.000000,0.000000,0.000000,0.000000
1.18000,0.011785,-0.009627,-0.084261,0.094224,-0.026701,-0.010131,0.000000,-0.436000,0.000000,0.000000,0.000000,0.000000
1.18200,0.012140,-0.009918,-0.086802,0.097065,-0.027507,-0.010436,0.000000,-0.436000,0.000000,0.000000,0.000000,0.000000
1.18400,0.012502,-0.010213,-0.089387,0.099956,-0.028326,-0.010747,0.000000,-0.436000,0.000000,0.000000,0.000000,0.000000
1.18600,0.012870,-0.010513,-0.092016,0.102895,-0.029159,-0.011063,0.000000,-0.436000,0.000000,0.000000,0.000000,0.000000
1.18800,0.013243,-0.010819,-0.094689,0.105884,-0.030006,-0.011384,0.000000,-0.436000,0.000000,0.000000,0.000000,0.000000
1.19000,0.013623,-0.011129,-0.097406,0.108922,-0.030867,-0.011711,0.000000,-0.436000,0.000000,0.000000,0.000000,0.000000
1.19200,0.014010,-0.011445,-0.100167,0.112010,-0.031742,-0.012043,0.000000,-0.436000,0.000000,0.000000,0.000000,0.000000
1.19400,0.014402,-0.011765,-0.102972,0.115146,-0.032631,-0.012380,0.000000,-0.436000,0.000000,0.000000,0.000000,0.000000
1.19600,0.014800,-0.012091,-0.105821,0.118332,-0.033533,-0.012723,0.000000,-0.436000,0.000000,0.000000,0.000000,0.000000
1.19800,0.015205,-0.012421,-0.108714,0.121568,-0.034450,-0.013071,0.000000,-0.436000,0.000000,0.000000,0.000000,0.000000
1.20000,0.015616,-0.012757,-0.111652,0.124853,-0.035381,-0.013424,0.000000,-0.436000,0.000000,0.000000,0.000000,0.000000
1.20200,0.016033,-0.013098,-0.114635,0.128188,-0.036326,-0.013782,0.000000,-0.436000,0.000000,0.000000,0.000000,0.000000
1.20400,0.016456,-0.013443,-0.117661,0.131573,-0.037286,-0.014146,0.000000,-0.436000,0.000000,0.000000,0.000000,0.000000
1.20600,0.016886,-0.013794,-0.120732,0.135007,-0.038259,-0.014515,0.000000,-0.436000,0.000000,0.000000,0.000000,0.000000
1.20800,0.017322,-0.014150,-0.123848,0.138491,-0.039246,-0.014890,0.000000,-0.436000,0.000000,0.000000,0.000000,0.000000
1.21000,0.017764,-0.014511,-0.127008,0.142024,-0.040247,-0.015270,0.000000,-0.436000,0.000000,0.000000,0.000000,0.000000
1.21200,0.018212,-0.014877,-0.130212,0.145607,-0.041263,-0.015655,0.000000,-0.436000,0.000000,0.000000,0.000000,0.000000
1.21400,0.018666,-0.015249,-0.133461,0.149240,-0.042292,-0.016046,0.000000,-0.436000,0.000000,0.000000,0.000000,0.000000
1.21600,0.019127,-0.015625,-0.136754,0.152923,-0.043336,-0.016442,0.000000,-0.436000,0.000000,0.000000,0.000000,0.000000
1.21800,0.019594,-0.016006,-0.140092,0.156655,-0.044394,-0.016843,0.000000,-0.436000,0.000000,0.000000,0.000000,0.000000
1.22000,0.020067,-0.016393,-0.143474,0.160437,-0.045465,-0.017250,0.000000,-0.436000,0.000000,0.000000,0.000000,0.000000
1.22200,0.020546,-0.016784,-0.146901,0.164269,-0.046551,-0.017662,0.000000,-0.436000,0.000000,0.000000,0.000000,0.000000
1.22400,0.021031,-0.017181,-0.150372,0.168150,-0.047651,-0.018079,0.000000,-0.436000,0.000000,0.000000,0.000000,0.000000
1.22600,0.021523,-0.017582,-0.153887,0.172081,-0.048765,-0.018502,0.000000,-0.436000,0.000000,0.000000,0.000000,0.000000
1.22800,0.022021,-0.017989,-0.157446,0.176062,-0.049893,-0.018929,0.000000,-0.436000,0.000000,0.000000,0.000000,0.000000
1.23000,0.022525,-0.018401,-0.161050,0.180091,-0.051035,-0.019363,0.000000,-0.436000,0.000000,0.000000,0.000000,0.000000
1.23200,0.023035,-0.018818,-0.164698,0.184171,-0.052191,-0.019801,0.000000,-0.436000,0.000000,0.000000,0.000000,0.000000
1.23400,0.023551,-0.019239,-0.168390,0.188299,-0.053361,-0.020245,0.000000,-0.436000,0.000000,0.000000,0.000000,0.000000
1.23600,0.024074,-0.019666,-0.172126,0.192477,-0.054545,-0.020694,0.000000,-0.436000,0.000000,0.000000,0.000000,0.000000
1.23800,0.024603,-0.020098,-0.175906,0.196704,-0.055743,-0.021149,0.000000,-0.436000,0.000000,0.000000,0.000000,0.000000
1.24000,0.025138,-0.020535,-0.179730,0.200980,-0.056954,-0.021609,0.000000,-0.436000,0.000000,0.000000,0.000000,0.000000
1.24200,0.025678,-0.020977,-0.183598,0.205305,-0.058180,-0.022074,0.000000,-0.436000,0.000000,0.000000,0.000000,0.000000
1.24400,0.026226,-0.021424,-0.187509,0.209679,-0.059420,-0.022544,0.000000,-0.436000,0.000000,0.000000,0.000000,0.000000
1.24600,0.026779,-0.021876,-0.191464,0.214102,-0.060673,-0.023019,0.000000,-0.436000,0.000000,0.000000,0.000000,0.000000
1.24800,0.027338,-0.022333,-0.195463,0.218573,-0.061940,-0.023500,0.000000,-0.436000,0.000000,0.000000,0.000000,0.000000
1.25000,0.027903,-0.022794,-0.199505,0.223093,-0.063221,-0.023986,0.000000,-0.436000,0.000000,0.000000,0.000000,0.000000
1.25200,0.028475,-0.023261,-0.203590,0.227661,-0.064515,-0.024477,0.000000,-0.436000,0.000000,0.000000,0.000000,0.000000
1.25400,0.029052,-0.023733,-0.207719,0.232278,-0.065824,-0.024974,0.000000,-0.436000,0.000000,0.000000,0.000000,0.000000
1.25600,0.029636,-0.024210,-0.211890,0.236942,-0.067146,-0.025475,0.000000,-0.436000,0.000000,0.000000,0.000000,0.000000
1.25800,0.030225,-0.024691,-0.216105,0.241655,-0.068481,-0.025982,0.000000,-0.436000,0.000000,0.000000,0.000000,0.000000
1.26000,0.030820,-0.025177,-0.220362,0.246416,-0.069830,-0.026494,0.000000,-0.436000,0.000000,0.000000,0.000000,0.000000
1.26200,0.031422,-0.025669,-0.224662,0.251224,-0.071193,-0.027011,0.000000,-0.436000,0.000000,0.000000,0.000000,0.000000
1.26400,0.032029,-0.026165,-0.229004,0.256079,-0.072569,-0.027533,0.000000,-0.436000,0.000000,0.000000,0.000000,0.000000
1.26600,0.032642,-0.026666,-0.233388,0.260983,-0.073958,-0.028060,0.000000,-0.436000,0.000000,0.000000,0.000000,0.000000
1.26800,0.033261,-0.027172,-0.237815,0.265933,-0.075361,-0.028592,0.000000,-0.436000,0.000000,0.000000,0.000000,0.000000
1.27000,0.033886,-0.027682,-0.242284,0.270930,-0.076777,-0.029129,0.000000,-0.436000,0.000000,0.000000,0.000000,0.000000
1.27200,0.034517,-0.028198,-0.246795,0.275974,-0.078206,-0.029672,0.000000,-0.436000,0.000000,0.000000,0.000000,0.000000
1.27400,0.035154,-0.028718,-0.251347,0.281064,-0.079649,-0.030219,0.000000,-0.436000,0.000000,0.000000,0.000000,0.000000
1.27600,0.035797,-0.029243,-0.255941,0.286201,-0.081105,-0.030771,0.000000,-0.436000,0.000000,0.000000,0.000000,0.000000
1.27800,0.036445,-0.029772,-0.260576,0.291384,-0.082574,-0.031329,0.000000,-0.436000,0.000000,0.000000,0.000000,0.000000
1.28000,0.037099,-0.030306,-0.265252,0.296614,-0.084055,-0.031891,0.000000,-0.436000,0.000000,0.000000,0.000000,0.000000
1.28200,0.037759,-0.030845,-0.269969,0.301888,-0.085550,-0.032458,0.000000,-0.436000,0.000000,0.000000,0.000000,0.000000
1.28400,0.038424,-0.031389,-0.274727,0.307209,-0.087058,-0.033030,0.000000,-0.436000,0.000000,0.000000,0.000000,0.000000
1.28600,0.039095,-0.031937,-0.279526,0.312575,-0.088579,-0.033607,0.000000,-0.436000,0.000000,0.000000,0.000000,0.000000
1.28800,0.039772,-0.032490,-0.284365,0.317986,-0.090112,-0.034189,0.000000,-0.436000,0.000000,0.000000,0.000000,0.000000
1.29000,0.040454,-0.033048,-0.289243,0.323441,-0.091658,-0.034775,0.000000,-0.436000,0.000000,0.000000,0.000000,0.000000
1.29200,0.041142,-0.033610,-0.294162,0.328942,-0.093217,-0.035367,0.000000,-0.436000,0.000000,0.000000,0.000000,0.000000
1.29400,0.041836,-0.034176,-0.299121,0.334486,-0.094788,-0.035963,0.000000,-0.436000,0.000000,0.000000,0.000000,0.000000
1.29600,0.042535,-0.034747,-0.304118,0.340075,-0.096372,-0.036564,0.000000,-0.436000,0.000000,0.000000,0.000000,0.000000
1.29800,0.043239,-0.035323,-0.309156,0.345708,-0.097968,-0.037169,0.000000,-0.436000,0.000000,0.000000,0.000000,0.000000
1.30000,0.043949,-0.035903,-0.314232,0.351384,-0.099576,-0.037779,0.000000,-0.436000,0.000000,0.000000,0.000000,0.000000
1.30200,0.044665,-0.036487,-0.319346,0.357104,-0.101197,-0.038394,0.000000,-0.436000,0.000000,0.000000,0.000000,0.000000
1.30400,0.045385,-0.037076,-0.324500,0.362866,-0.102830,-0.039014,0.000000,-0.436000,0.000000,0.000000,0.000000,0.000000
1.30600,0.046112,-0.037669,-0.329691,0.368672,-0.104476,-0.039638,0.000000,-0.436000,0.000000,0.000000,0.000000,0.000000
1.30800,0.046843,-0.038266,-0.334921,0.374519,-0.106133,-0.040267,0.000000,-0.436000,0.000000,0.000000,0.000000,0.000000
1.31000,0.047580,-0.038868,-0.340188,0.380409,-0.107802,-0.040900,0.000000,-0.436000,0.000000,0.000000,0.000000,0.000000
1.31200,0.048322,-0.039474,-0.345493,0.386341,-0.109483,-0.041538,0.000000,-0.436000,0.000000,0.000000,0.000000,0.000000
1.31400,0.049069,-0.040085,-0.350835,0.392315,-0.111176,-0.042180,0.000000,-0.436000,0.000000,0.000000,0.000000,0.000000
1.31600,0.049821,-0.040699,-0.356214,0.398330,-0.112880,-0.042827,0.000000,-0.436000,0.000000,0.000000,0.000000,0.000000
1.31800,0.050578,-0.041318,-0.361629,0.404386,-0.114596,-0.043478,0.000000,-0.436000,0.000000,0.000000,0.000000,0.000000
1.32000,0.051341,-0.041941,-0.367081,0.410482,-0.116324,-0.044133,0.000000,-0.436000,0.000000,0.000000,0.000000,0.000000
1.32200,0.052109,-0.042568,-0.372569,0.416619,-0.118063,-0.044793,0.000000,-0.436000,0.000000,0.000000,0.000000,0.000000
1.32400,0.052881,-0.043199,-0.378093,0.422796,-0.119814,-0.045457,0.000000,-0.436000,0.000000,0.000000,0.000000,0.000000
1.32600,0.053659,-0.043834,-0.383653,0.429013,-0.121575,-0.046126,0.000000,-0.436000,0.000000,0.000000,0.000000,0.000000
1.32800,0.054441,-0.044474,-0.389247,0.435269,-0.123348,-0.046798,0.000000,-0.436000,0.000000,0.000000,0.000000,0.000000
1.33000,0.055229,-0.045117,-0.394877,0.441564,-0.125132,-0.047475,0.000000,-0.436000,0.000000,0.000000,0.000000,0.000000
1.33200,0.056021,-0.045764,-0.400541,0.447898,-0.126927,-0.048156,0.000000,-0.436000,0.000000,0.000000,0.000000,0.000000
1.33400,0.056818,-0.046415,-0.406240,0.454270,-0.128733,-0.048841,0.000000,-0.436000,0.000000,0.000000,0.000000,0.000000
1.33600,0.057620,-0.047070,-0.411972,0.460681,-0.130549,-0.049531,0.000000,-0.436000,0.000000,0.000000,0.000000,0.000000
1.33800,0.058426,-0.047729,-0.417738,0.467129,-0.132377,-0.050224,0.000000,-0.436000,0.000000,0.000000,0.000000,0.000000
1.34000,0.059237,-0.048391,-0.423538,0.473614,-0.134214,-0.050921,0.000000,-0.436000,0.000000,0.000000,0.000000,0.000000
1.34200,0.060053,-0.049058,-0.429371,0.480136,-0.136063,-0.051622,0.000000,-0.436000,0.000000,0.000000,0.000000,0.000000
1.34400,0.060873,-0.049728,-0.435236,0.486695,-0.137922,-0.052328,0.000000,-0.436000,0.000000,0.000000,0.000000,0.000000
1.34600,0.061698,-0.050402,-0.441134,0.493290,-0.139790,-0.053037,0.000000,-0.436000,0.000000,0.000000,0.000000,0.000000
1.34800,0.062528,-0.051079,-0.447064,0.499922,-0.141670,-0.053750,0.000000,-0.436000,0.000000,0.000000,0.000000,0.000000
1.35000,0.063361,-0.051761,-0.453026,0.506588,-0.143559,-0.054466,0.000000,-0.436000,0.000000,0.000000,0.000000,0.000000
1.35200,0.064200,-0.052445,-0.459019,0.513290,-0.145458,-0.055187,0.000000,-0.436000,0.000000,0.000000,0.000000,0.000000
1.35400,0.065042,-0.053134,-0.465043,0.520026,-0.147367,-0.055911,0.000000,-0.436000,0.000000,0.000000,0.000000,0.000000
1.35600,0.065889,-0.053825,-0.471098,0.526797,-0.149286,-0.056639,0.000000,-0.436000,0.000000,0.000000,0.000000,0.000000
1.35800,0.066740,-0.054521,-0.477183,0.533602,-0.151214,-0.057371,0.000000,-0.436000,0.000000,0.000000,0.000000,0.000000
1.36000,0.067595,-0.055219,-0.483299,0.540440,-0.153152,-0.058106,0.000000,-0.436000,0.000000,0.000000,0.000000,0.000000
1.36200,0.068455,-0.055921,-0.489444,0.547312,-0.155099,-0.058845,0.000000,-0.436000,0.000000,0.000000,0.000000,0.000000
1.36400,0.069318,-0.056627,-0.495618,0.554216,-0.157056,-0.059587,0.000000,-0.436000,0.000000,0.000000,0.000000,0.000000
1.36600,0.070186,-0.057336,-0.501822,0.561153,-0.159022,-0.060333,0.000000,-0.436000,0.000000,0.000000,0.000000,0.000000
1.36800,0.071058,-0.058048,-0.508053,0.568122,-0.160996,-0.061082,0.000000,-0.436000,0.000000,0.000000,0.000000,0.000000
1.37000,0.071933,-0.058763,-0.514314,0.575122,-0.162980,-0.061835,0.000000,-0.436000,0.000000,0.000000,0.000000,0.000000
1.37200,0.072813,-0.059481,-0.520602,0.582154,-0.164973,-0.062591,0.000000,-0.436000,0.000000,0.000000,0.000000,0.000000
1.37400,0.073696,-0.060203,-0.526917,0.589216,-0.166974,-0.063350,0.000000,-0.436000,0.000000,0.000000,0.000000,0.000000
1.37600,0.074583,-0.060928,-0.533260,0.596308,-0.168984,-0.064113,0.000000,-0.436000,0.000000,0.000000,0.000000,0.000000
1.37800,0.075474,-0.061655,-0.539629,0.603431,-0.171002,-0.064879,0.000000,-0.436000,0.000000,0.000000,0.000000,0.000000
1.38000,0.076368,-0.062386,-0.546025,0.610583,-0.173029,-0.065648,0.000000,-0.436000,0.000000,0.000000,0.000000,0.000000
1.38200,0.077267,-0.063120,-0.552447,0.617764,-0.175064,-0.066420,0.000000,-0.436000,0.000000,0.000000,0.000000,0.000000
1.38400,0.078168,-0.063857,-0.558894,0.624973,-0.177107,-0.067195,0.000000,-0.436000,0.000000,0.000000,0.000000,0.000000
1.38600,0.079074,-0.064596,-0.565366,0.632211,-0.179158,-0.067973,0.000000,-0.436000,0.000000,0.000000,0.000000,0.000000
1.38800,0.079982,-0.065338,-0.571864,0.639477,-0.181217,-0.068754,0.000000,-0.436000,0.000000,0.000000,0.000000,0.000000
1.39000,0.080895,-0.066084,-0.578386,0.646769,-0.183284,-0.069538,0.000000,-0.436000,0.000000,0.000000,0.000000,0.000000
1.39200,0.081810,-0.066831,-0.584931,0.654089,-0.185358,-0.070325,0.000000,-0.436000,0.000000,0.000000,0.000000,0.000000
1.39400,0.082729,-0.067582,-0.591501,0.661435,-0.187440,-0.071115,0.000000,-0.436000,0.000000,0.000000,0.000000,0.000000
1.39600,0.083651,-0.068335,-0.598093,0.668807,-0.189529,-0.071908,0.000000,-0.436000,0.000000,0.000000,0.000000,0.000000
1.39800,0.084576,-0.069091,-0.604709,0.676205,-0.191625,-0.072703,0.000000,-0.436000,0.000000,0.000000,0.000000,0.000000
1.40000,0.085505,-0.069850,-0.611347,0.683628,-0.193729,-0.073501,0.000000,-0.436000,0.000000,0.000000,0.000000,0.000000
1.40200,0.086436,-0.070610,-0.618007,0.691075,-0.195839,-0.074302,0.000000,-0.436000,0.000000,0.000000,0.000000,0.000000
1.40400,0.087371,-0.071374,-0.624688,0.698547,-0.197957,-0.075105,0.000000,-0.436000,0.000000,0.000000,0.000000,0.000000
1.40600,0.088308,-0.072140,-0.631391,0.706042,-0.200081,-0.075911,0.000000,-0.436000,0.000000,0.000000,0.000000,0.000000
1.40800,0.089248,-0.072908,-0.638114,0.713560,-0.202211,-0.076719,0.000000,-0.436000,0.000000,0.000000,0.000000,0.000000
1.41000,0.090192,-0.073678,-0.644858,0.721101,-0.204348,-0.077530,0.000000,-0.436000,0.000000,0.000000,0.000000,0.000000
1.41200,0.091138,-0.074451,-0.651622,0.728665,-0.206492,-0.078343,0.000000,-0.436000,0.000000,0.000000,0.000000,0.000000
1.41400,0.092086,-0.075226,-0.658405,0.736250,-0.208641,-0.079159,0.000000,-0.436000,0.000000,0.000000,0.000000,0.000000
1.41600,0.093038,-0.076003,-0.665208,0.743857,-0.210797,-0.079977,0.000000,-0.436000,0.000000,0.000000,0.000000,0.000000
1.41800,0.093992,-0.076783,-0.672029,0.751485,-0.212958,-0.080797,0.000000,-0.436000,0.000000,0.000000,0.000000,0.000000
1.42000,0.094948,-0.077564,-0.678868,0.759133,-0.215126,-0.081619,0.000000,-0.436000,0.000000,0.000000,0.000000,0.000000
1.42200,0.095907,-0.078348,-0.685726,0.766800,-0.217299,-0.082443,0.000000,-0.436000,0.000000,0.000000,0.000000,0.000000
1.42400,0.096869,-0.079133,-0.692600,0.774488,-0.219477,-0.083270,0.000000,-0.436000,0.000000,0.000000,0.000000,0.000000
1.42600,0.097833,-0.079921,-0.699492,0.782194,-0.221661,-0.084099,0.000000,-0.436000,0.000000,0.000000,0.000000,0.000000
1.42800,0.098799,-0.080710,-0.706400,0.789919,-0.223850,-0.084929,0.000000,-0.436000,0.000000,0.000000,0.000000,0.000000
1.43000,0.099767,-0.081501,-0.713324,0.797662,-0.226044,-0.085762,0.000000,-0.436000,0.000000,0.000000,0.000000,0.000000
1.43200,0.100738,-0.082294,-0.720264,0.805422,-0.228244,-0.086596,0.000000,-0.436000,0.000000,0.000000,0.000000,0.000000
1.43400,0.101711,-0.083089,-0.727219,0.813200,-0.230448,-0.087432,0.000000,-0.436000,0.000000,0.000000,0.000000,0.000000
1.43600,0.102686,-0.083885,-0.734189,0.820994,-0.232656,-0.088270,0.000000,-0.436000,0.000000,0.000000,0.000000,0.000000
1.43800,0.103662,-0.084683,-0.741173,0.828804,-0.234869,-0.089110,0.000000,-0.436000,0.000000,0.000000,0.000000,0.000000
1.44000,0.104641,-0.085482,-0.748171,0.836629,-0.237087,-0.089951,0.000000,-0.436000,0.000000,0.000000,0.000000,0.000000
1.44200,0.105622,-0.086284,-0.755183,0.844470,-0.239309,-0.090794,0.000000,-0.436000,0.000000,0.000000,0.000000,0.000000
1.44400,0.106604,-0.087086,-0.762208,0.852325,-0.241535,-0.091639,0.000000,-0.436000,0.000000,0.000000,0.000000,0.000000
1.44600,0.107589,-0.087890,-0.769245,0.860194,-0.243765,-0.092485,0.000000,-0.436000,0.000000,0.000000,0.000000,0.000000
1.44800,0.108575,-0.088696,-0.776294,0.868077,-0.245999,-0.093332,0.000000,-0.436000,0.000000,0.000000,0.000000,0.000000
1.45000,0.109562,-0.089502,-0.783355,0.875973,-0.248237,-0.094181,0.000000,-0.436000,0.000000,0.000000,0.000000,0.000000
1.45200,0.110551,-0.090310,-0.790428,0.883882,-0.250478,-0.095032,0.000000,-0.436000,0.000000,0.000000,0.000000,0.000000
1.45400,0.111542,-0.091120,-0.797511,0.891802,-0.252722,-0.095883,0.000000,-0.436000,0.000000,0.000000,0.000000,0.000000
1.45600,0.112534,-0.091930,-0.804604,0.899734,-0.254970,-0.096736,0.000000,-0.436000,0.000000,0.000000,0.000000,0.000000
1.45800,0.113528,-0.092742,-0.811707,0.907677,-0.257221,-0.097590,0.000000,-0.436000,0.000000,0.000000,0.000000,0.000000
1.46000,0.114522,-0.093554,-0.818820,0.915631,-0.259475,-0.098445,0.000000,-0.436000,0.000000,0.000000,0.000000,0.000000
1.46200,0.115518,-0.094368,-0.825942,0.923595,-0.261732,-0.099301,0.000000,-0.436000,0.000000,0.000000,0.000000,0.000000
1.46400,0.116516,-0.095183,-0.833072,0.931568,-0.263991,-0.100159,0.000000,-0.436000,0.000000,0.000000,0.000000,0.000000
1.46600,0.117514,-0.095998,-0.840210,0.939550,-0.266253,-0.101017,0.000000,-0.436000,0.000000,0.000000,0.000000,0.000000
1.46800,0.118513,-0.096815,-0.847356,0.947541,-0.268518,-0.101876,0.000000,-0.436000,0.000000,0.000000,0.000000,0.000000
1.47000,0.119514,-0.097632,-0.854509,0.955539,-0.270784,-0.102736,0.000000,-0.436000,0.000000,0.000000,0.000000,0.000000
1.47200,0.120515,-0.098450,-0.861669,0.963546,-0.273053,-0.103597,0.000000,-0.436000,0.000000,0.000000,0.000000,0.000000
1.47400,0.121517,-0.099269,-0.868834,0.971559,-0.275324,-0.104458,0.000000,-0.436000,0.000000,0.000000,0.000000,0.000000
1.47600,0.122521,-0.100088,-0.876006,0.979578,-0.277597,-0.105321,0.000000,-0.436000,0.000000,0.000000,0.000000,0.000000
1.47800,0.123524,-0.100908,-0.883183,0.987604,-0.279871,-0.106183,0.000000,-0.436000,0.000000,0.000000,0.000000,0.000000
1.48000,0.124529,-0.101729,-0.890365,0.995635,-0.282147,-0.107047,0.000000,-0.436000,0.000000,0.000000,0.000000,0.000000
1.48200,0.125534,-0.102550,-0.897551,1.003671,-0.284424,-0.107911,0.000000,-0.436000,0.000000,0.000000,0.000000,0.000000
1.48400,0.126540,-0.103371,-0.904741,1.011711,-0.286702,-0.108775,0.000000,-0.436000,0.000000,0.000000,0.000000,0.000000
1.48600,0.127546,-0.104193,-0.911935,1.019755,-0.288982,-0.109640,0.000000,-0.436000,0.000000,0.000000,0.000000,0.000000
1.48800,0.128552,-0.105016,-0.919132,1.027803,-0.291263,-0.110505,0.000000,-0.436000,0.000000,0.000000,0.000000,0.000000
1.49000,0.129559,-0.105838,-0.926331,1.035853,-0.293544,-0.111371,0.000000,-0.436000,0.000000,0.000000,0.000000,0.000000
1.49200,0.130566,-0.106661,-0.933532,1.043906,-0.295826,-0.112237,0.000000,-0.436000,0.000000,0.000000,0.000000,0.000000
1.49400,0.131574,-0.107484,-0.940735,1.051960,-0.298108,-0.113103,0.000000,-0.436000,0.000000,0.000000,0.000000,0.000000
1.49600,0.132581,-0.108307,-0.947939,1.060016,-0.300391,-0.113969,0.000000,-0.436000,0.000000,0.000000,0.000000,0.000000
1.49800,0.133589,-0.109130,-0.955144,1.068073,-0.302674,-0.114835,0.000000,-0.436000,0.000000,0.000000,0.000000,0.000000
1.50000,0.134597,-0.109953,-0.962349,1.076130,-0.304958,-0.115701,0.000000,-0.436000,0.000000,0.000000,0.000000,0.000000
1.50200,0.135604,-0.110777,-0.969554,1.084186,-0.307241,-0.116568,0.000000,-0.436000,0.000000,0.000000,0.000000,0.000000
1.50400,0.136612,-0.111600,-0.976758,1.092242,-0.309524,-0.117434,0.000000,-0.436000,0.000000,0.000000,0.000000,0.000000
1.50600,0.137619,-0.112423,-0.983961,1.100297,-0.311806,-0.118300,0.000000,-0.436000,0.000000,0.000000,0.000000,0.000000
1.50800,0.138627,-0.113245,-0.991162,1.108349,-0.314088,-0.119166,0.000000,-0.436000,0.000000,0.000000,0.000000,0.000000
1.51000,0.139633,-0.114068,-0.998361,1.116400,-0.316370,-0.120031,0.000000,-0.436000,0.000000,0.000000,0.000000,0.000000
1.51200,0.140640,-0.114890,-1.005558,1.124447,-0.318650,-0.120896,0.000000,-0.436000,0.000000,0.000000,0.000000,0.000000
1.51400,0.141646,-0.115712,-1.012752,1.132491,-0.320930,-0.121761,0.000000,-0.436000,0.000000,0.000000,0.000000,0.000000
1.51600,0.142652,-0.116534,-1.019942,1.140532,-0.323208,-0.122626,0.000000,-0.436000,0.000000,0.000000,0.000000,0.000000
1.51800,0.143657,-0.117355,-1.027128,1.148568,-0.325485,-0.123490,0.000000,-0.436000,0.000000,0.000000,0.000000,0.000000
1.52000,0.144661,-0.118175,-1.034310,1.156599,-0.327761,-0.124353,0.000000,-0.436000,0.000000,0.000000,0.000000,0.000000
1.52200,0.145665,-0.118995,-1.041487,1.164624,-0.330036,-0.125216,0.000000,-0.436000,0.000000,0.000000,0.000000,0.000000
1.52400,0.146668,-0.119815,-1.048659,1.172644,-0.332308,-0.126078,0.000000,-0.436000,0.000000,0.000000,0.000000,0.000000
1.52600,0.147670,-0.120633,-1.055824,1.180657,-0.334579,-0.126940,0.000000,-0.436000,0.000000,0.000000,0.000000,0.000000
1.52800,0.148672,-0.121451,-1.062984,1.188663,-0.336848,-0.127801,0.000000,-0.436000,0.000000,0.000000,0.000000,0.000000
1.53000,0.149672,-0.122269,-1.070137,1.196662,-0.339114,-0.128661,0.000000,-0.436000,0.000000,0.000000,0.000000,0.000000
1.53200,0.150672,-0.123085,-1.077283,1.204653,-0.341379,-0.129520,0.000000,-0.436000,0.000000,0.000000,0.000000,0.000000
1.53400,0.151670,-0.123901,-1.084421,1.212635,-0.343641,-0.130378,0.000000,-0.436000,0.000000,0.000000,0.000000,0.000000
1.53600,0.152667,-0.124715,-1.091551,1.220608,-0.345900,-0.131235,0.000000,-0.436000,0.000000,0.000000,0.000000,0.000000
1.53800,0.153663,-0.125529,-1.098673,1.228572,-0.348157,-0.132091,0.000000,-0.436000,0.000000,0.000000,0.000000,0.000000
1.54000,0.154658,-0.126342,-1.105786,1.236525,-0.350411,-0.132947,0.000000,-0.436000,0.000000,0.000000,0.000000,0.000000
1.54200,0.155652,-0.127153,-1.112889,1.244468,-0.352662,-0.133801,0.000000,-0.436000,0.000000,0.000000,0.000000,0.000000
1.54400,0.156644,-0.127964,-1.119982,1.252400,-0.354910,-0.134653,0.000000,-0.436000,0.000000,0.000000,0.000000,0.000000
1.54600,0.157634,-0.128773,-1.127065,1.260321,-0.357154,-0.135505,0.000000,-0.436000,0.000000,0.000000,0.000000,0.000000
1.54800,0.158624,-0.129581,-1.134138,1.268229,-0.359396,-0.136355,0.000000,-0.436000,0.000000,0.000000,0.000000,0.000000
1.55000,0.159611,-0.130388,-1.141199,1.276125,-0.361633,-0.137204,0.000000,-0.436000,0.000000,0.000000,0.000000,0.000000
1.55200,0.160597,-0.131193,-1.148248,1.284008,-0.363867,-0.138052,0.000000,-0.436000,0.000000,0.000000,0.000000,0.000000
1.55400,0.161581,-0.131997,-1.155285,1.291877,-0.366097,-0.138898,0.000000,-0.436000,0.000000,0.000000,0.000000,0.000000
1.55600,0.162564,-0.132800,-1.162310,1.299733,-0.368323,-0.139742,0.000000,-0.436000,0.000000,0.000000,0.000000,0.000000
1.55800,0.163544,-0.133601,-1.169322,1.307573,-0.370545,-0.140585,0.000000,-0.436000,0.000000,0.000000,0.000000,0.000000
1.56000,0.164523,-0.134401,-1.176320,1.315399,-0.372763,-0.141427,0.000000,-0.436000,0.000000,0.000000,0.000000,0.000000
1.56200,0.165500,-0.135199,-1.183304,1.323209,-0.374976,-0.142266,0.000000,-0.436000,0.000000,0.000000,0.000000,0.000000
1.56400,0.166475,-0.135995,-1.190274,1.331003,-0.377185,-0.143104,0.000000,-0.436000,0.000000,0.000000,0.000000,0.000000
1.56600,0.167448,-0.136790,-1.197229,1.338780,-0.379389,-0.143941,0.000000,-0.436000,0.000000,0.000000,0.000000,0.000000
1.56800,0.168418,-0.137583,-1.204169,1.346541,-0.381588,-0.144775,0.000000,-0.436000,0.000000,0.000000,0.000000,0.000000
1.57000,0.169387,-0.138374,-1.211093,1.354283,-0.383782,-0.145607,0.000000,-0.436000,0.000000,0.000000,0.000000,0.000000
1.57200,0.170353,-0.139163,-1.218001,1.362008,-0.385971,-0.146438,0.000000,-0.436000,0.000000,0.000000,0.000000,0.000000
1.57400,0.171317,-0.139950,-1.224893,1.369715,-0.388155,-0.147267,0.000000,-0.436000,0.000000,0.000000,0.000000,0.000000
1.57600,0.172278,-0.140736,-1.231767,1.377402,-0.390333,-0.148093,0.000000,-0.436000,0.000000,0.000000,0.000000,0.000000
1.57800,0.173237,-0.141519,-1.238625,1.385070,-0.392506,-0.148917,0.000000,-0.436000,0.000000,0.000000,0.000000,0.000000
1.58000,0.174194,-0.142301,-1.245464,1.392718,-0.394674,-0.149740,0.000000,-0.436000,0.000000,0.000000,0.000000,0.000000
1.58200,0.175148,-0.143080,-1.252285,1.400346,-0.396835,-0.150560,0.000000,-0.436000,0.000000,0.000000,0.000000,0.000000
1.58400,0.176099,-0.143857,-1.259088,1.407952,-0.398991,-0.151378,0.000000,-0.436000,0.000000,0.000000,0.000000,0.000000
1.58600,0.177048,-0.144632,-1.265871,1.415538,-0.401140,-0.152193,0.000000,-0.436000,0.000000,0.000000,0.000000,0.000000
1.58800,0.177994,-0.145405,-1.272635,1.423101,-0.403284,-0.153006,0.000000,-0.436000,0.000000,0.000000,0.000000,0.000000
1.59000,0.178937,-0.146176,-1.279379,1.430642,-0.405421,-0.153817,0.000000,-0.436000,0.000000,0.000000,0.000000,0.000000
1.59200,0.179878,-0.146944,-1.286102,1.438161,-0.407551,-0.154626,0.000000,-0.436000,0.000000,0.000000,0.000000,0.000000
1.59400,0.180815,-0.147710,-1.292805,1.445656,-0.409675,-0.155431,0.000000,-0.436000,0.000000,0.000000,0.000000,0.000000
1.59600,0.181750,-0.148473,-1.299486,1.453128,-0.411793,-0.156235,0.000000,-0.436000,0.000000,0.000000,0.000000,0.000000
1.59800,0.182681,-0.149234,-1.306146,1.460575,-0.413903,-0.157035,0.000000,-0.436000,0.000000,0.000000,0.000000,0.000000
1.60000,0.183609,-0.149992,-1.312784,1.467998,-0.416007,-0.157834,0.000000,-0.436000,0.000000,0.000000,0.000000,0.000000
1.60200,0.184535,-0.150748,-1.319400,1.475395,-0.418103,-0.158629,0.000000,-0.436000,0.000000,0.000000,0.000000,0.000000
1.60400,0.185457,-0.151501,-1.325992,1.482767,-0.420192,-0.159422,0.000000,-0.436000,0.000000,0.000000,0.000000,0.000000
1.60600,0.186376,-0.152252,-1.332562,1.490113,-0.422274,-0.160211,0.000000,-0.436000,0.000000,0.000000,0.000000,0.000000
1.60800,0.187291,-0.153000,-1.339107,1.497433,-0.424348,-0.160998,0.000000,-0.436000,0.000000,0.000000,0.000000,0.000000
1.61000,0.188203,-0.153745,-1.345629,1.504726,-0.426415,-0.161782,0.000000,-0.436000,0.000000,0.000000,0.000000,0.000000
1.61200,0.189112,-0.154487,-1.352127,1.511992,-0.428474,-0.162564,0.000000,-0.436000,0.000000,0.000000,0.000000,0.000000
1.61400,0.190017,-0.155227,-1.358599,1.519229,-0.430525,-0.163342,0.000000,-0.436000,0.000000,0.000000,0.000000,0.000000
1.61600,0.190919,-0.155964,-1.365046,1.526439,-0.432568,-0.164117,0.000000,-0.436000,0.000000,0.000000,0.000000,0.000000
1.61800,0.191817,-0.156697,-1.371468,1.533620,-0.434603,-0.164889,0.000000,-0.436000,0.000000,0.000000,0.000000,0.000000
1.62000,0.192712,-0.157428,-1.377864,1.540772,-0.436630,-0.165658,0.000000,-0.436000,0.000000,0.000000,0.000000,0.000000
1.62200,0.193603,-0.158156,-1.384233,1.547894,-0.438648,-0.166424,0.000000,-0.436000,0.000000,0.000000,0.000000,0.000000
1.62400,0.194490,-0.158880,-1.390576,1.554987,-0.440658,-0.167186,0.000000,-0.436000,0.000000,0.000000,0.000000,0.000000
1.62600,0.195373,-0.159602,-1.396891,1.562049,-0.442659,-0.167946,0.000000,-0.436000,0.000000,0.000000,0.000000,0.000000
1.62800,0.196252,-0.160321,-1.403179,1.569081,-0.444652,-0.168702,0.000000,-0.436000,0.000000,0.000000,0.000000,0.000000
1.63000,0.197128,-0.161036,-1.409440,1.576081,-0.446636,-0.169454,0.000000,-0.436000,0.000000,0.000000,0.000000,0.000000
1.63200,0.198000,-0.161748,-1.415672,1.583050,-0.448610,-0.170204,0.000000,-0.436000,0.000000,0.000000,0.000000,0.000000
1.63400,0.198867,-0.162457,-1.421875,1.589986,-0.450576,-0.170949,0.000000,-0.436000,0.000000,0.000000,0.000000,0.000000
1.63600,0.199731,-0.163162,-1.428049,1.596891,-0.452533,-0.171692,0.000000,-0.436000,0.000000,0.000000,0.000000,0.000000
1.63800,0.200590,-0.163864,-1.434194,1.603762,-0.454480,-0.172430,0.000000,-0.436000,0.000000,0.000000,0.000000,0.000000
1.64000,0.201446,-0.164563,-1.440310,1.610601,-0.456418,-0.173166,0.000000,-0.436000,0.000000,0.000000,0.000000,0.000000
1.64200,0.202297,-0.165258,-1.446395,1.617405,-0.458346,-0.173897,0.000000,-0.436000,0.000000,0.000000,0.000000,0.000000
1.64400,0.203143,-0.165950,-1.452450,1.624176,-0.460265,-0.174625,0.000000,-0.436000,0.000000,0.000000,0.000000,0.000000
1.64600,0.203986,-0.166638,-1.458474,1.630913,-0.462174,-0.175350,0.000000,-0.436000,0.000000,0.000000,0.000000,0.000000
1.64800,0.204824,-0.167323,-1.464467,1.637614,-0.464073,-0.176070,0.000000,-0.436000,0.000000,0.000000,0.000000,0.000000
1.65000,0.205658,-0.168004,-1.470429,1.644281,-0.465962,-0.176787,0.000000,-0.436000,0.000000,0.000000,0.000000,0.000000
1.65200,0.206487,-0.168682,-1.476359,1.650912,-0.467842,-0.177500,0.000000,-0.436000,0.000000,0.000000,0.000000,0.000000
1.65400,0.207312,-0.169355,-1.482257,1.657507,-0.469711,-0.178209,0.000000,-0.436000,0.000000,0.000000,0.000000,0.000000
1.65600,0.208133,-0.170026,-1.488122,1.664066,-0.471569,-0.178914,0.000000,-0.436000,0.000000,0.000000,0.000000,0.000000
1.65800,0.208948,-0.170692,-1.493955,1.670589,-0.473418,-0.179615,0.000000,-0.436000,0.000000,0.000000,0.000000,0.000000
1.66000,0.209760,-0.171355,-1.499755,1.677074,-0.475255,-0.180313,0.000000,-0.436000,0.000000,0.000000,0.000000,0.000000
1.66200,0.210566,-0.172014,-1.505521,1.683522,-0.477083,-0.181006,0.000000,-0.436000,0.000000,0.000000,0.000000,0.000000
1.66400,0.211368,-0.172669,-1.511253,1.689932,-0.478899,-0.181695,0.000000,-0.436000,0.000000,0.000000,0.000000,0.000000
1.66600,0.212165,-0.173320,-1.516952,1.696305,-0.480705,-0.182380,0.000000,-0.436000,0.000000,0.000000,0.000000,0.000000
1.66800,0.212957,-0.173967,-1.522616,1.702638,-0.482500,-0.183061,0.000000,-0.436000,0.000000,0.000000,0.000000,0.000000
1.67000,0.213744,-0.174610,-1.528246,1.708934,-0.484284,-0.183738,0.000000,-0.436000,0.000000,0.000000,0.000000,0.000000
1.67200,0.214527,-0.175249,-1.533840,1.715190,-0.486057,-0.184411,0.000000,-0.436000,0.000000,0.000000,0.000000,0.000000
1.67400,0.215305,-0.175884,-1.539400,1.721406,-0.487819,-0.185079,0.000000,-0.436000,0.000000,0.000000,0.000000,0.000000
1.67600,0.216077,-0.176516,-1.544924,1.727583,-0.489569,-0.185743,0.000000,-0.436000,0.000000,0.000000,0.000000,0.000000
1.67800,0.216845,-0.177143,-1.550412,1.733720,-0.491308,-0.186403,0.000000,-0.436000,0.000000,0.000000,0.000000,0.000000
1.68000,0.217607,-0.177765,-1.555864,1.739817,-0.493036,-0.187059,0.000000,-0.436000,0.000000,0.000000,0.000000,0.000000
