sainanliu129-hub/model/applications/Excitation_Trajectory_E1/excitation_trajectory/TLBO_E1/excitation_trajectory_TLBO_E1.csv
time,leg_l1_joint,leg_l2_joint,leg_l3_joint,leg_l4_joint,leg_l5_joint,leg_l6_joint,leg_r1_joint,leg_r2_joint,leg_r3_joint,leg_r4_joint,leg_r5_joint,leg_r6_joint
0.00000,0.000000,0.000000,0.000000,0.000000,0.000000,0.000000,0.000000,-0.000000,0.000000,0.000000,0.000000,0.000000
0.00200,0.000000,0.000000,0.000000,0.000000,0.000000,0.000000,0.000000,-0.000000,0.000000,0.000000,0.000000,0.000000
0.00400,0.000000,0.000000,0.000000,0.000000,0.000000,0.000000,0.000000,-0.000000,0.000000,0.000000,0.000000,0.000000
0.00600,0.000000,0.000000,0.000000,0.000000,0.000000,0.000000,0.000000,-0.000001,0.000000,0.000000,0.000000,0.000000
0.00800,0.000000,0.000000,0.000000,0.000000,0.000000,0.000000,0.000000,-0.000002,0.000000,0.000000,0.000000,0.000000
0.01000,0.000000,0.000000,0.000000,0.000000,0.000000,0.000000,0.000000,-0.000004,0.000000,0.000000,0.000000,0.000000
0.01200,0.000000,0.000000,0.000000,0.000000,0.000000,0.000000,0.000000,-0.000007,0.000000,0.000000,0.000000,0.000000
0.01400,0.000000,0.000000,0.000000,0.000000,0.000000,0.000000,0.000000,-0.000012,0.000000,0.000000,0.000000,0.000000
0.01600,0.000000,0.000000,0.000000,0.000000,0.000000,0.000000,0.000000,-0.000018,0.000000,0.000000,0.000000,0.000000
0.01800,0.000000,0.000000,0.000000,0.000000,0.000000,0.000000,0.000000,-0.000025,0.000000,0.000000,0.000000,0.000000
0.02000,0.000000,0.000000,0.000000,0.000000,0.000000,0.000000,0.000000,-0.000034,0.000000,0.000000,0.000000,0.000000
0.02200,0.000000,0.000000,0.000000,0.000000,0.000000,0.000000,0.000000,-0.000045,0.000000,0.000000,0.000000,0.000000
0.02400,0.000000,0.000000,0.000000,0.000000,0.000000,0.000000,0.000000,-0.000058,0.000000,0.000000,0.000000,0.000000
0.02600,0.000000,0.000000,0.000000,0.000000,0.000000,0.000000,0.000000,-0.000074,0.000000,0.000000,0.000000,0.000000
0.02800,0.000000,0.000000,0.000000,0.000000,0.000000,0.000000,0.000000,-0.000092,0.000000,0.000000,0.000000,0.000000
0.03000,0.000000,0.000000,0.000000,0.000000,0.000000,0.000000,0.000000,-0.000113,0.000000,0.000000,0.000000,0.000000
0.03200,0.000000,0.000000,0.000000,0.000000,0.000000,0.000000,0.000000,-0.000137,0.000000,0.000000,0.000000,0.000000
0.03400,0.000000,0.000000,0.000000,0.000000,0.000000,0.000000,0.000000,-0.000164,0.000000,0.000000,0.000000,0.000000
0.03600,0.000000,0.000000,0.000000,0.000000,0.000000,0.000000,0.000000,-0.000194,0.000000,0.000000,0.000000,0.000000
0.03800,0.000000,0.000000,0.000000,0.000000,0.000000,0.000000,0.000000,-0.000227,0.000000,0.000000,0.000000,0.000000
0.04000,0.000000,0.000000,0.000000,0.000000,0.000000,0.000000,0.000000,-0.000264,0.000000,0.000000,0.000000,0.000000
0.04200,0.000000,0.000000,0.000000,0.000000,0.000000,0.000000,0.000000,-0.000305,0.000000,0.000000,0.000000,0.000000
0.04400,0.000000,0.000000,0.000000,0.000000,0.000000,0.000000,0.000000,-0.000349,0.000000,0.000000,0.000000,0.000000
0.04600,0.000000,0.000000,0.000000,0.000000,0.000000,0.000000,0.000000,-0.000398,0.000000,0.000000,0.000000,0.000000
0.04800,0.000000,0.000000,0.000000,0.000000,0.000000,0.000000,0.000000,-0.000451,0.000000,0.000000,0.000000,0.000000
0.05000,0.000000,0.000000,0.000000,0.000000,0.000000,0.000000,0.000000,-0.000508,0.000000,0.000000,0.000000,0.000000
0.05200,0.000000,0.000000,0.000000,0.000000,0.000000,0.000000,0.000000,-0.000570,0.000000,0.000000,0.000000,0.000000
0.05400,0.000000,0.000000,0.000000,0.000000,0.000000,0.000000,0.000000,-0.000636,0.000000,0.000000,0.000000,0.000000
0.05600,0.000000,0.000000,0.000000,0.000000,0.000000,0.000000,0.000000,-0.000707,0.000000,0.000000,0.000000,0.000000
0.05800,0.000000,0.000000,0.000000,0.000000,0.000000,0.000000,0.000000,-0.000783,0.000000,0.000000,0.000000,0.000000
0.06000,0.000000,0.000000,0.000000,0.000000,0.000000,0.000000,0.000000,-0.000864,0.000000,0.000000,0.000000,0.000000
0.06200,0.000000,0.000000,0.000000,0.000000,0.000000,0.000000,0.000000,-0.000950,0.000000,0.000000,0.000000,0.000000
0.06400,0.000000,0.000000,0.000000,0.000000,0.000000,0.000000,0.000000,-0.001042,0.000000,0.000000,0.000000,0.000000
0.06600,0.000000,0.000000,0.000000,0.000000,0.000000,0.000000,0.000000,-0.001139,0.000000,0.000000,0.000000,0.000000
0.06800,0.000000,0.000000,0.000000,0.000000,0.000000,0.000000,0.000000,-0.001242,0.000000,0.000000,0.000000,0.000000
0.07000,0.000000,0.000000,0.000000,0.000000,0.000000,0.000000,0.000000,-0.001351,0.000000,0.000000,0.000000,0.000000
0.07200,0.000000,0.000000,0.000000,0.000000,0.000000,0.000000,0.000000,-0.001465,0.000000,0.000000,0.000000,0.000000
0.07400,0.000000,0.000000,0.000000,0.000000,0.000000,0.000000,0.000000,-0.001586,0.000000,0.000000,0.000000,0.000000
0.07600,0.000000,0.000000,0.000000,0.000000,0.000000,0.000000,0.000000,-0.001712,0.000000,0.000000,0.000000,0.000000
0.07800,0.000000,0.000000,0.000000,0.000000,0.000000,0.000000,0.000000,-0.001845,0.000000,0.000000,0.000000,0.000000
0.08000,0.000000,0.000000,0.000000,0.000000,0.000000,0.000000,0.000000,-0.001984,0.000000,0.000000,0.000000,0.000000
0.08200,0.000000,0.000000,0.000000,0.000000,0.000000,0.000000,0.000000,-0.002130,0.000000,0.000000,0.000000,0.000000
0.08400,0.000000,0.000000,0.000000,0.000000,0.000000,0.000000,0.000000,-0.002283,0.000000,0.000000,0.000000,0.000000
0.08600,0.000000,0.000000,0.000000,0.000000,0.000000,0.000000,0.000000,-0.002442,0.000000,0.000000,0.000000,0.000000
0.08800,0.000000,0.000000,0.000000,0.000000,0.000000,0.000000,0.000000,-0.002608,0.000000,0.000000,0.000000,0.000000
0.09000,0.000000,0.000000,0.000000,0.000000,0.000000,0.000000,0.000000,-0.002781,0.000000,0.000000,0.000000,0.000000
0.09200,0.000000,0.000000,0.000000,0.000000,0.000000,0.000000,0.000000,-0.002961,0.000000,0.000000,0.000000,0.000000
0.09400,0.000000,0.000000,0.000000,0.000000,0.000000,0.000000,0.000000,-0.003148,0.000000,0.000000,0.000000,0.000000
0.09600,0.000000,0.000000,0.000000,0.000000,0.000000,0.000000,0.000000,-0.003342,0.000000,0.000000,0.000000,0.000000
0.09800,0.000000,0.000000,0.000000,0.000000,0.000000,0.000000,0.000000,-0.003544,0.000000,0.000000,0.000000,0.000000
0.10000,0.000000,0.000000,0.000000,0.000000,0.000000,0.000000,0.000000,-0.003753,0.000000,0.000000,0.000000,0.000000
0.10200,0.000000,0.000000,0.000000,0.000000,0.000000,0.000000,0.000000,-0.003970,0.000000,0.000000,0.000000,0.000000
0.10400,0.000000,0.000000,0.000000,0.000000,0.000000,0.000000,0.000000,-0.004195,0.000000,0.000000,0.000000,0.000000
0.10600,0.000000,0.000000,0.000000,0.000000,0.000000,0.000000,0.000000,-0.004427,0.000000,0.000000,0.000000,0.000000
0.10800,0.000000,0.000000,0.000000,0.000000,0.000000,0.000000,0.000000,-0.004667,0.000000,0.000000,0.000000,0.000000
0.11000,0.000000,0.000000,0.000000,0.000000,0.000000,0.000000,0.000000,-0.004915,0.000000,0.000000,0.000000,0.000000
0.11200,0.000000,0.000000,0.000000,0.000000,0.000000,0.000000,0.000000,-0.005172,0.000000,0.000000,0.000000,0.000000
0.11400,0.000000,0.000000,0.000000,0.000000,0.000000,0.000000,0.000000,-0.005436,0.000000,0.000000,0.000000,0.000000
0.11600,0.000000,0.000000,0.000000,0.000000,0.000000,0.000000,0.000000,-0.005708,0.000000,0.000000,0.000000,0.000000
0.11800,0.000000,0.000000,0.000000,0.000000,0.000000,0.000000,0.000000,-0.005989,0.000000,0.000000,0.000000,0.000000
0.12000,0.000000,0.000000,0.000000,0.000000,0.000000,0.000000,0.000000,-0.006278,0.000000,0.000000,0.000000,0.000000
0.12200,0.000000,0.000000,0.000000,0.000000,0.000000,0.000000,0.000000,-0.006576,0.000000,0.000000,0.000000,0.000000
0.12400,0.000000,0.000000,0.000000,0.000000,0.000000,0.000000,0.000000,-0.006882,0.000000,0.000000,0.000000,0.000000
0.12600,0.000000,0.000000,0.000000,0.000000,0.000000,0.000000,0.000000,-0.007196,0.000000,0.000000,0.000000,0.000000
0.12800,0.000000,0.000000,0.000000,0.000000,0.000000,0.000000,0.000000,-0.007520,0.000000,0.000000,0.000000,0.000000
0.13000,0.000000,0.000000,0.000000,0.000000,0.000000,0.000000,0.000000,-0.007852,0.000000,0.000000,0.000000,0.000000
0.13200,0.000000,0.000000,0.000000,0.000000,0.000000,0.000000,0.000000,-0.008193,0.000000,0.000000,0.000000,0.000000
0.13400,0.000000,0.000000,0.000000,0.000000,0.000000,0.000000,0.000000,-0.008542,0.000000,0.000000,0.000000,0.000000
0.13600,0.000000,0.000000,0.000000,0.000000,0.000000,0.000000,0.000000,-0.008901,0.000000,0.000000,0.000000,0.000000
0.13800,0.000000,0.000000,0.000000,0.000000,0.000000,0.000000,0.000000,-0.009269,0.000000,0.000000,0.000000,0.000000
0.14000,0.000000,0.000000,0.000000,0.000000,0.000000,0.000000,0.000000,-0.009645,0.000000,0.000000,0.000000,0.000000
0.14200,0.000000,0.000000,0.000000,0.000000,0.000000,0.000000,0.000000,-0.010031,0.000000,0.000000,0.000000,0.000000
0.14400,0.000000,0.000000,0.000000,0.000000,0.000000,0.000000,0.000000,-0.010426,0.000000,0.000000,0.000000,0.000000
0.14600,0.000000,0.000000,0.000000,0.000000,0.000000,0.000000,0.000000,-0.010830,0.000000,0.000000,0.000000,0.000000
0.14800,0.000000,0.000000,0.000000,0.000000,0.000000,0.000000,0.000000,-0.011244,0.000000,0.000000,0.000000,0.000000
0.15000,0.000000,0.000000,0.000000,0.000000,0.000000,0.000000,0.000000,-0.011667,0.000000,0.000000,0.000000,0.000000
0.15200,0.000000,0.000000,0.000000,0.000000,0.000000,0.000000,0.000000,-0.012099,0.000000,0.000000,0.000000,0.000000
0.15400,0.000000,0.000000,0.000000,0.000000,0.000000,0.000000,0.000000,-0.012541,0.000000,0.000000,0.000000,0.000000
0.15600,0.000000,0.000000,0.000000,0.000000,0.000000,0.000000,0.000000,-0.012992,0.000000,0.000000,0.000000,0.000000
0.15800,0.000000,0.000000,0.000000,0.000000,0.000000,0.000000,0.000000,-0.013452,0.000000,0.000000,0.000000,0.000000
0.16000,0.000000,0.000000,0.000000,0.000000,0.000000,0.000000,0.000000,-0.013923,0.000000,0.000000,0.000000,0.000000
0.16200,0.000000,0.000000,0.000000,0.000000,0.000000,0.000000,0.000000,-0.014403,0.000000,0.000000,0.000000,0.000000
0.16400,0.000000,0.000000,0.000000,0.000000,0.000000,0.000000,0.000000,-0.014892,0.000000,0.000000,0.000000,0.000000
0.16600,0.000000,0.000000,0.000000,0.000000,0.000000,0.000000,0.000000,-0.015391,0.000000,0.000000,0.000000,0.000000
0.16800,0.000000,0.000000,0.000000,0.000000,0.000000,0.000000,0.000000,-0.015900,0.000000,0.000000,0.000000,0.000000
0.17000,0.000000,0.000000,0.000000,0.000000,0.000000,0.000000,0.000000,-0.016419,0.000000,0.000000,0.000000,0.000000
0.17200,0.000000,0.000000,0.000000,0.000000,0.000000,0.000000,0.000000,-0.016947,0.000000,0.000000,0.000000,0.000000
0.17400,0.000000,0.000000,0.000000,0.000000,0.000000,0.000000,0.000000,-0.017485,0.000000,0.000000,0.000000,0.000000
0.17600,0.000000,0.000000,0.000000,0.000000,0.000000,0.000000,0.000000,-0.018033,0.000000,0.000000,0.000000,0.000000
0.17800,0.000000,0.000000,0.000000,0.000000,0.000000,0.000000,0.000000,-0.018591,0.000000,0.000000,0.000000,0.000000
0.18000,0.000000,0.000000,0.000000,0.000000,0.000000,0.000000,0.000000,-0.019159,0.000000,0.000000,0.000000,0.000000
0.18200,0.000000,0.000000,0.000000,0.000000,0.000000,0.000000,0.000000,-0.019737,0.000000,0.000000,0.000000,0.000000
0.18400,0.000000,0.000000,0.000000,0.000000,0.000000,0.000000,0.000000,-0.020325,0.000000,0.000000,0.000000,0.000000
0.18600,0.000000,0.000000,0.000000,0.000000,0.000000,0.000000,0.000000,-0.020923,0.000000,0.000000,0.000000,0.000000
0.18800,0.000000,0.000000,0.000000,0.000000,0.000000,0.000000,0.000000,-0.021530,0.000000,0.000000,0.000000,0.000000
0.19000,0.000000,0.000000,0.000000,0.000000,0.000000,0.000000,0.000000,-0.022148,0.000000,0.000000,0.000000,0.000000
0.19200,0.000000,0.000000,0.000000,0.000000,0.000000,0.000000,0.000000,-0.022776,0.000000,0.000000,0.000000,0.000000
0.19400,0.000000,0.000000,0.000000,0.000000,0.000000,0.000000,0.000000,-0.023414,0.000000,0.000000,0.000000,0.000000
0.19600,0.000000,0.000000,0.000000,0.000000,0.000000,0.000000,0.000000,-0.024062,0.000000,0.000000,0.000000,0.000000
0.19800,0.000000,0.000000,0.000000,0.000000,0.000000,0.000000,0.000000,-0.024720,0.000000,0.000000,0.000000,0.000000
0.20000,0.000000,0.000000,0.000000,0.000000,0.000000,0.000000,0.000000,-0.025388,0.000000,0.000000,0.000000,0.000000
0.20200,0.000000,0.000000,0.000000,0.000000,0.000000,0.000000,0.000000,-0.026066,0.000000,0.000000,0.000000,0.000000
0.20400,0.000000,0.000000,0.000000,0.000000,0.000000,0.000000,0.000000,-0.026754,0.000000,0.000000,0.000000,0.000000
0.20600,0.000000,0.000000,0.000000,0.000000,0.000000,0.000000,0.000000,-0.027452,0.000000,0.000000,0.000000,0.000000
0.20800,0.000000,0.000000,0.000000,0.000000,0.000000,0.000000,0.000000,-0.028161,0.000000,0.000000,0.000000,0.000000
0.21000,0.000000,0.000000,0.000000,0.000000,0.000000,0.000000,0.000000,-0.028879,0.000000,0.000000,0.000000,0.000000
0.21200,0.000000,0.000000,0.000000,0.000000,0.000000,0.000000,0.000000,-0.029608,0.000000,0.000000,0.000000,0.000000
0.21400,0.000000,0.000000,0.000000,0.000000,0.000000,0.000000,0.000000,-0.030346,0.000000,0.000000,0.000000,0.000000
0.21600,0.000000,0.000000,0.000000,0.000000,0.000000,0.000000,0.000000,-0.031095,0.000000,0.000000,0.000000,0.000000
0.21800,0.000000,0.000000,0.000000,0.000000,0.000000,0.000000,0.000000,-0.031854,0.000000,0.000000,0.000000,0.000000
0.22000,0.000000,0.000000,0.000000,0.000000,0.000000,0.000000,0.000000,-0.032623,0.000000,0.000000,0.000000,0.000000
0.22200,0.000000,0.000000,0.000000,0.000000,0.000000,0.000000,0.000000,-0.033402,0.000000,0.000000,0.000000,0.000000
0.22400,0.000000,0.000000,0.000000,0.000000,0.000000,0.000000,0.000000,-0.034192,0.000000,0.000000,0.000000,0.000000
0.22600,0.000000,0.000000,0.000000,0.000000,0.000000,0.000000,0.000000,-0.034991,0.000000,0.000000,0.000000,0.000000
0.22800,0.000000,0.000000,0.000000,0.000000,0.000000,0.000000,0.000000,-0.035800,0.000000,0.000000,0.000000,0.000000
0.23000,0.000000,0.000000,0.000000,0.000000,0.000000,0.000000,0.000000,-0.036620,0.000000,0.000000,0.000000,0.000000
0.23200,0.000000,0.000000,0.000000,0.000000,0.000000,0.000000,0.000000,-0.037449,0.000000,0.000000,0.000000,0.000000
0.23400,0.000000,0.000000,0.000000,0.000000,0.000000,0.000000,0.000000,-0.038289,0.000000,0.000000,0.000000,0.000000
0.23600,0.000000,0.000000,0.000000,0.000000,0.000000,0.000000,0.000000,-0.039138,0.000000,0.000000,0.000000,0.000000
0.23800,0.000000,0.000000,0.000000,0.000000,0.000000,0.000000,0.000000,-0.039998,0.000000,0.000000,0.000000,0.000000
0.24000,0.000000,0.000000,0.000000,0.000000,0.000000,0.000000,0.000000,-0.040867,0.000000,0.000000,0.000000,0.000000
0.24200,0.000000,0.000000,0.000000,0.000000,0.000000,0.000000,0.000000,-0.041747,0.000000,0.000000,0.000000,0.000000
0.24400,0.000000,0.000000,0.000000,0.000000,0.000000,0.000000,0.000000,-0.042636,0.000000,0.000000,0.000000,0.000000
0.24600,0.000000,0.000000,0.000000,0.000000,0.000000,0.000000,0.000000,-0.043535,0.000000,0.000000,0.000000,0.000000
0.24800,0.000000,0.000000,0.000000,0.000000,0.000000,0.000000,0.000000,-0.044444,0.000000,0.000000,0.000000,0.000000
0.25000,0.000000,0.000000,0.000000,0.000000,0.000000,0.000000,0.000000,-0.045364,0.000000,0.000000,0.000000,0.000000
0.25200,0.000000,0.000000,0.000000,0.000000,0.000000,0.000000,0.000000,-0.046292,0.000000,0.000000,0.000000,0.000000
0.25400,0.000000,0.000000,0.000000,0.000000,0.000000,0.000000,0.000000,-0.047231,0.000000,0.000000,0.000000,0.000000
0.25600,0.000000,0.000000,0.000000,0.000000,0.000000,0.000000,0.000000,-0.048180,0.000000,0.000000,0.000000,0.000000
0.25800,0.000000,0.000000,0.000000,0.000000,0.000000,0.000000,0.000000,-0.049138,0.000000,0.000000,0.000000,0.000000
0.26000,0.000000,0.000000,0.000000,0.000000,0.000000,0.000000,0.000000,-0.050106,0.000000,0.000000,0.000000,0.000000
0.26200,0.000000,0.000000,0.000000,0.000000,0.000000,0.000000,0.000000,-0.051084,0.000000,0.000000,0.000000,0.000000
0.26400,0.000000,0.000000,0.000000,0.000000,0.000000,0.000000,0.000000,-0.052071,0.000000,0.000000,0.000000,0.000000
0.26600,0.000000,0.000000,0.000000,0.000000,0.000000,0.000000,0.000000,-0.053068,0.000000,0.000000,0.000000,0.000000
0.26800,0.000000,0.000000,0.000000,0.000000,0.000000,0.000000,0.000000,-0.054074,0.000000,0.000000,0.000000,0.000000
0.27000,0.000000,0.000000,0.000000,0.000000,0.000000,0.000000,0.000000,-0.055091,0.000000,0.000000,0.000000,0.000000
0.27200,0.000000,0.000000,0.000000,0.000000,0.000000,0.000000,0.000000,-0.056116,0.000000,0.000000,0.000000,0.000000
0.27400,0.000000,0.000000,0.000000,0.000000,0.000000,0.000000,0.000000,-0.057151,0.000000,0.000000,0.000000,0.000000
0.27600,0.000000,0.000000,0.000000,0.000000,0.000000,0.000000,0.000000,-0.058196,0.000000,0.000000,0.000000,0.000000
0.27800,0.000000,0.000000,0.000000,0.000000,0.000000,0.000000,0.000000,-0.059250,0.000000,0.000000,0.000000,0.000000
0.28000,0.000000,0.000000,0.000000,0.000000,0.000000,0.000000,0.000000,-0.060313,0.000000,0.000000,0.000000,0.000000
0.28200,0.000000,0.000000,0.000000,0.000000,0.000000,0.000000,0.000000,-0.061386,0.000000,0.000000,0.000000,0.000000
0.28400,0.000000,0.000000,0.000000,0.000000,0.000000,0.000000,0.000000,-0.062468,0.000000,0.000000,0.000000,0.000000
0.28600,0.000000,0.000000,0.000000,0.000000,0.000000,0.000000,0.000000,-0.063559,0.000000,0.000000,0.000000,0.000000
0.28800,0.000000,0.000000,0.000000,0.000000,0.000000,0.000000,0.000000,-0.064659,0.000000,0.000000,0.000000,0.000000
0.29000,0.000000,0.000000,0.000000,0.000000,0.000000,0.000000,0.000000,-0.065768,0.000000,0.000000,0.000000,0.000000
0.29200,0.000000,0.000000,0.000000,0.000000,0.000000,0.000000,0.000000,-0.066887,0.000000,0.000000,0.000000,0.000000
0.29400,0.000000,0.000000,0.000000,0.000000,0.000000,0.000000,0.000000,-0.068014,0.000000,0.000000,0.000000,0.000000
0.29600,0.000000,0.000000,0.000000,0.000000,0.000000,0.000000,0.000000,-0.069151,0.000000,0.000000,0.000000,0.000000
0.29800,0.000000,0.000000,0.000000,0.000000,0.000000,0.000000,0.000000,-0.070296,0.000000,0.000000,0.000000,0.000000
0.30000,0.000000,0.000000,0.000000,0.000000,0.000000,0.000000,0.000000,-0.071450,0.000000,0.000000,0.000000,0.000000
0.30200,0.000000,0.000000,0.000000,0.000000,0.000000,0.000000,0.000000,-0.072613,0.000000,0.000000,0.000000,0.000000
0.30400,0.000000,0.000000,0.000000,0.000000,0.000000,0.000000,0.000000,-0.073785,0.000000,0.000000,0.000000,0.000000
0.30600,0.000000,0.000000,0.000000,0.000000,0.000000,0.000000,0.000000,-0.074965,0.000000,0.000000,0.000000,0.000000
0.30800,0.000000,0.000000,0.000000,0.000000,0.000000,0.000000,0.000000,-0.076154,0.000000,0.000000,0.000000,0.000000
0.31000,0.000000,0.000000,0.000000,0.000000,0.000000,0.000000,0.000000,-0.077352,0.000000,0.000000,0.000000,0.000000
0.31200,0.000000,0.000000,0.000000,0.000000,0.000000,0.000000,0.000000,-0.078558,0.000000,0.000000,0.000000,0.000000
0.31400,0.000000,0.000000,0.000000,0.000000,0.000000,0.000000,0.000000,-0.079773,0.000000,0.000000,0.000000,0.000000
0.31600,0.000000,0.000000,0.000000,0.000000,0.000000,0.000000,0.000000,-0.080996,0.000000,0.000000,0.000000,0.000000
0.31800,0.000000,0.000000,0.000000,0.000000,0.000000,0.000000,0.000000,-0.082227,0.000000,0.000000,0.000000,0.000000
0.32000,0.000000,0.000000,0.000000,0.000000,0.000000,0.000000,0.000000,-0.083467,0.000000,0.000000,0.000000,0.000000
0.32200,0.000000,0.000000,0.000000,0.000000,0.000000,0.000000,0.000000,-0.084715,0.000000,0.000000,0.000000,0.000000
0.32400,0.000000,0.000000,0.000000,0.000000,0.000000,0.000000,0.000000,-0.085971,0.000000,0.000000,0.000000,0.000000
0.32600,0.000000,0.000000,0.000000,0.000000,0.000000,0.000000,0.000000,-0.087235,0.000000,0.000000,0.000000,0.000000
0.32800,0.000000,0.000000,0.000000,0.000000,0.000000,0.000000,0.000000,-0.088507,0.000000,0.000000,0.000000,0.000000
0.33000,0.000000,0.000000,0.000000,0.000000,0.000000,0.000000,0.000000,-0.089787,0.000000,0.000000,0.000000,0.000000
0.33200,0.000000,0.000000,0.000000,0.000000,0.000000,0.000000,0.000000,-0.091075,0.000000,0.000000,0.000000,0.000000
0.33400,0.000000,0.000000,0.000000,0.000000,0.000000,0.000000,0.000000,-0.092371,0.000000,0.000000,0.000000,0.000000
0.33600,0.000000,0.000000,0.000000,0.000000,0.000000,0.000000,0.000000,-0.093674,0.000000,0.000000,0.000000,0.000000
0.33800,0.000000,0.000000,0.000000,0.000000,0.000000,0.000000,0.000000,-0.094985,0.000000,0.000000,0.000000,0.000000
0.34000,0.000000,0.000000,0.000000,0.000000,0.000000,0.000000,0.000000,-0.096304,0.000000,0.000000,0.000000,0.000000
0.34200,0.000000,0.000000,0.000000,0.000000,0.000000,0.000000,0.000000,-0.097630,0.000000,0.000000,0.000000,0.000000
0.34400,0.000000,0.000000,0.000000,0.000000,0.000000,0.000000,0.000000,-0.098964,0.000000,0.000000,0.000000,0.000000
0.34600,0.000000,0.000000,0.000000,0.000000,0.000000,0.000000,0.000000,-0.100305,0.000000,0.000000,0.000000,0.000000
0.34800,0.000000,0.000000,0.000000,0.000000,0.000000,0.000000,0.000000,-0.101654,0.000000,0.000000,0.000000,0.000000
0.35000,0.000000,0.000000,0.000000,0.000000,0.000000,0.000000,0.000000,-0.103009,0.000000,0.000000,0.000000,0.000000
0.35200,0.000000,0.000000,0.000000,0.000000,0.000000,0.000000,0.000000,-0.104372,0.000000,0.000000,0.000000,0.000000
0.35400,0.000000,0.000000,0.000000,0.000000,0.000000,0.000000,0.000000,-0.105742,0.000000,0.000000,0.000000,0.000000
0.35600,0.000000,0.000000,0.000000,0.000000,0.000000,0.000000,0.000000,-0.107118,0.000000,0.000000,0.000000,0.000000
0.35800,0.000000,0.000000,0.000000,0.000000,0.000000,0.000000,0.000000,-0.108502,0.000000,0.000000,0.000000,0.000000
0.36000,0.000000,0.000000,0.000000,0.000000,0.000000,0.000000,0.000000,-0.109893,0.000000,0.000000,0.000000,0.000000
0.36200,0.000000,0.000000,0.000000,0.000000,0.000000,0.000000,0.000000,-0.111290,0.000000,0.000000,0.000000,0.000000
0.36400,0.000000,0.000000,0.000000,0.000000,0.000000,0.000000,0.000000,-0.112694,0.000000,0.000000,0.000000,0.000000
0.36600,0.000000,0.000000,0.000000,0.000000,0.000000,0.000000,0.000000,-0.114104,0.000000,0.000000,0.000000,0.000000
0.36800,0.000000,0.000000,0.000000,0.000000,0.000000,0.000000,0.000000,-0.115521,0.000000,0.000000,0.000000,0.000000
0.37000,0.000000,0.000000,0.000000,0.000000,0.000000,0.000000,0.000000,-0.116945,0.000000,0.000000,0.000000,0.000000
0.37200,0.000000,0.000000,0.000000,0.000000,0.000000,0.000000,0.000000,-0.118375,0.000000,0.000000,0.000000,0.000000
0.37400,0.000000,0.000000,0.000000,0.000000,0.000000,0.000000,0.000000,-0.119811,0.000000,0.000000,0.000000,0.000000
0.37600,0.000000,0.000000,0.000000,0.000000,0.000000,0.000000,0.000000,-0.121253,0.000000,0.000000,0.000000,0.000000
0.37800,0.000000,0.000000,0.000000,0.000000,0.000000,0.000000,0.000000,-0.122701,0.000000,0.000000,0.000000,0.000000
0.38000,0.000000,0.000000,0.000000,0.000000,0.000000,0.000000,0.000000,-0.124155,0.000000,0.000000,0.000000,0.000000
0.38200,0.000000,0.000000,0.000000,0.000000,0.000000,0.000000,0.000000,-0.125615,0.000000,0.000000,0.000000,0.000000
0.38400,0.000000,0.000000,0.000000,0.000000,0.000000,0.000000,0.000000,-0.127081,0.000000,0.000000,0.000000,0.000000
0.38600,0.000000,0.000000,0.000000,0.000000,0.000000,0.000000,0.000000,-0.128553,0.000000,0.000000,0.000000,0.000000
0.38800,0.000000,0.000000,0.000000,0.000000,0.000000,0.000000,0.000000,-0.130031,0.000000,0.000000,0.000000,0.000000
0.39000,0.000000,0.000000,0.000000,0.000000,0.000000,0.000000,0.000000,-0.131513,0.000000,0.000000,0.000000,0.000000
0.39200,0.000000,0.000000,0.000000,0.000000,0.000000,0.000000,0.000000,-0.133002,0.000000,0.000000,0.000000,0.000000
0.39400,0.000000,0.000000,0.000000,0.000000,0.000000,0.000000,0.000000,-0.134496,0.000000,0.000000,0.000000,0.000000
0.39600,0.000000,0.000000,0.000000,0.000000,0.000000,0.000000,0.000000,-0.135995,0.000000,0.000000,0.000000,0.000000
0.39800,0.000000,0.000000,0.000000,0.000000,0.000000,0.000000,0.000000,-0.137499,0.000000,0.000000,0.000000,0.000000
0.40000,0.000000,0.000000,0.000000,0.000000,0.000000,0.000000,0.000000,-0.139008,0.000000,0.000000,0.000000,0.000000
0.40200,0.000000,0.000000,0.000000,0.000000,0.000000,0.000000,0.000000,-0.140523,0.000000,0.000000,0.000000,0.000000
0.40400,0.000000,0.000000,0.000000,0.000000,0.000000,0.000000,0.000000,-0.142042,0.000000,0.000000,0.000000,0.000000
0.40600,0.000000,0.000000,0.000000,0.000000,0.000000,0.000000,0.000000,-0.143566,0.000000,0.000000,0.000000,0.000000
0.40800,0.000000,0.000000,0.000000,0.000000,0.000000,0.000000,0.000000,-0.145095,0.000000,0.000000,0.000000,0.000000
0.41000,0.000000,0.000000,0.000000,0.000000,0.000000,0.000000,0.000000,-0.146628,0.000000,0.000000,0.000000,0.000000
0.41200,0.000000,0.000000,0.000000,0.000000,0.000000,0.000000,0.000000,-0.148166,0.000000,0.000000,0.000000,0.000000
0.41400,0.000000,0.000000,0.000000,0.000000,0.000000,0.000000,0.000000,-0.149708,0.000000,0.000000,0.000000,0.000000
0.41600,0.000000,0.000000,0.000000,0.000000,0.000000,0.000000,0.000000,-0.151255,0.000000,0.000000,0.000000,0.000000
0.41800,0.000000,0.000000,0.000000,0.000000,0.000000,0.000000,0.000000,-0.152806,0.000000,0.000000,0.000000,0.000000
0.42000,0.000000,0.000000,0.000000,0.000000,0.000000,0.000000,0.000000,-0.154361,0.000000,0.000000,0.000000,0.000000
0.42200,0.000000,0.000000,0.000000,0.000000,0.000000,0.000000,0.000000,-0.155920,0.000000,0.000000,0.000000,0.000000
0.42400,0.000000,0.000000,0.000000,0.000000,0.000000,0.000000,0.000000,-0.157484,0.000000,0.000000,0.000000,0.000000
0.42600,0.000000,0.000000,0.000000,0.000000,0.000000,0.000000,0.000000,-0.159051,0.000000,0.000000,0.000000,0.000000
0.42800,0.000000,0.000000,0.000000,0.000000,0.000000,0.000000,0.000000,-0.160621,0.000000,0.000000,0.000000,0.000000
0.43000,0.000000,0.000000,0.000000,0.000000,0.000000,0.000000,0.000000,-0.162196,0.000000,0.000000,0.000000,0.000000
0.43200,0.000000,0.000000,0.000000,0.000000,0.000000,0.000000,0.000000,-0.163774,0.000000,0.000000,0.000000,0.000000
0.43400,0.000000,0.000000,0.000000,0.000000,0.000000,0.000000,0.000000,-0.165355,0.000000,0.000000,0.000000,0.000000
0.43600,0.000000,0.000000,0.000000,0.000000,0.000000,0.000000,0.000000,-0.166940,0.000000,0.000000,0.000000,0.000000
0.43800,0.000000,0.000000,0.000000,0.000000,0.000000,0.000000,0.000000,-0.168528,0.000000,0.000000,0.000000,0.000000
0.44000,0.000000,0.000000,0.000000,0.000000,0.000000,0.000000,0.000000,-0.170119,0.000000,0.000000,0.000000,0.000000
0.44200,0.000000,0.000000,0.000000,0.000000,0.000000,0.000000,0.000000,-0.171714,0.000000,0.000000,0.000000,0.000000
0.44400,0.000000,0.000000,0.000000,0.000000,0.000000,0.000000,0.000000,-0.173311,0.000000,0.000000,0.000000,0.000000
0.44600,0.000000,0.000000,0.000000,0.000000,0.000000,0.000000,0.000000,-0.174911,0.000000,0.000000,0.000000,0.000000
0.44800,0.000000,0.000000,0.000000,0.000000,0.000000,0.000000,0.000000,-0.176514,0.000000,0.000000,0.000000,0.000000
0.45000,0.000000,0.000000,0.000000,0.000000,0.000000,0.000000,0.000000,-0.178119,0.000000,0.000000,0.000000,0.000000
0.45200,0.000000,0.000000,0.000000,0.000000,0.000000,0.000000,0.000000,-0.179728,0.000000,0.000000,0.000000,0.000000
0.45400,0.000000,0.000000,0.000000,0.000000,0.000000,0.000000,0.000000,-0.181338,0.000000,0.000000,0.000000,0.000000
0.45600,0.000000,0.000000,0.000000,0.000000,0.000000,0.000000,0.000000,-0.182951,0.000000,0.000000,0.000000,0.000000
0.45800,0.000000,0.000000,0.000000,0.000000,0.000000,0.000000,0.000000,-0.184566,0.000000,0.000000,0.000000,0.000000
0.46000,0.000000,0.000000,0.000000,0.000000,0.000000,0.000000,0.000000,-0.186183,0.000000,0.000000,0.000000,0.000000
0.46200,0.000000,0.000000,0.000000,0.000000,0.000000,0.000000,0.000000,-0.187803,0.000000,0.000000,0.000000,0.000000
0.46400,0.000000,0.000000,0.000000,0.000000,0.000000,0.000000,0.000000,-0.189424,0.000000,0.000000,0.000000,0.000000
0.46600,0.000000,0.000000,0.000000,0.000000,0.000000,0.000000,0.000000,-0.191047,0.000000,0.000000,0.000000,0.000000
0.46800,0.000000,0.000000,0.000000,0.000000,0.000000,0.000000,0.000000,-0.192672,0.000000,0.000000,0.000000,0.000000
0.47000,0.000000,0.000000,0.000000,0.000000,0.000000,0.000000,0.000000,-0.194298,0.000000,0.000000,0.000000,0.000000
0.47200,0.000000,0.000000,0.000000,0.000000,0.000000,0.000000,0.000000,-0.195926,0.000000,0.000000,0.000000,0.000000
0.47400,0.000000,0.000000,0.000000,0.000000,0.000000,0.000000,0.000000,-0.197556,0.000000,0.000000,0.000000,0.000000
0.47600,0.000000,0.000000,0.000000,0.000000,0.000000,0.000000,0.000000,-0.199186,0.000000,0.000000,0.000000,0.000000
0.47800,0.000000,0.000000,0.000000,0.000000,0.000000,0.000000,0.000000,-0.200818,0.000000,0.000000,0.000000,0.000000
0.48000,0.000000,0.000000,0.000000,0.000000,0.000000,0.000000,0.000000,-0.202451,0.000000,0.000000,0.000000,0.000000
0.48200,0.000000,0.000000,0.000000,0.000000,0.000000,0.000000,0.000000,-0.204085,0.000000,0.000000,0.000000,0.000000
0.48400,0.000000,0.000000,0.000000,0.000000,0.000000,0.000000,0.000000,-0.205720,0.000000,0.000000,0.000000,0.000000
0.48600,0.000000,0.000000,0.000000,0.000000,0.000000,0.000000,0.000000,-0.207356,0.000000,0.000000,0.000000,0.000000
0.48800,0.000000,0.000000,0.000000,0.000000,0.000000,0.000000,0.000000,-0.208992,0.000000,0.000000,0.000000,0.000000
0.49000,0.000000,0.000000,0.000000,0.000000,0.000000,0.000000,0.000000,-0.210629,0.000000,0.000000,0.000000,0.000000
0.49200,0.000000,0.000000,0.000000,0.000000,0.000000,0.000000,0.000000,-0.212267,0.000000,0.000000,0.000000,0.000000
0.49400,0.000000,0.000000,0.000000,0.000000,0.000000,0.000000,0.000000,-0.213905,0.000000,0.000000,0.000000,0.000000
0.49600,0.000000,0.000000,0.000000,0.000000,0.000000,0.000000,0.000000,-0.215543,0.000000,0.000000,0.000000,0.000000
0.49800,0.000000,0.000000,0.000000,0.000000,0.000000,0.000000,0.000000,-0.217181,0.000000,0.000000,0.000000,0.000000
0.50000,0.000000,0.000000,0.000000,0.000000,0.000000,0.000000,0.000000,-0.218819,0.000000,0.000000,0.000000,0.000000
0.50200,0.000000,0.000000,0.000000,0.000000,0.000000,0.000000,0.000000,-0.220457,0.000000,0.000000,0.000000,0.000000
0.50400,0.000000,0.000000,0.000000,0.000000,0.000000,0.000000,0.000000,-0.222095,0.000000,0.000000,0.000000,0.000000
0.50600,0.000000,0.000000,0.000000,0.000000,0.000000,0.000000,0.000000,-0.223733,0.000000,0.000000,0.000000,0.000000
0.50800,0.000000,0.000000,0.000000,0.000000,0.000000,0.000000,0.000000,-0.225371,0.000000,0.000000,0.000000,0.000000
0.51000,0.000000,0.000000,0.000000,0.000000,0.000000,0.000000,0.000000,-0.227008,0.000000,0.000000,0.000000,0.000000
0.51200,0.000000,0.000000,0.000000,0.000000,0.000000,0.000000,0.000000,-0.228644,0.000000,0.000000,0.000000,0.000000
0.51400,0.000000,0.000000,0.000000,0.000000,0.000000,0.000000,0.000000,-0.230280,0.000000,0.000000,0.000000,0.000000
0.51600,0.000000,0.000000,0.000000,0.000000,0.000000,0.000000,0.000000,-0.231915,0.000000,0.000000,0.000000,0.000000
0.51800,0.000000,0.000000,0.000000,0.000000,0.000000,0.000000,0.000000,-0.233549,0.000000,0.000000,0.000000,0.000000
0.52000,0.000000,0.000000,0.000000,0.000000,0.000000,0.000000,0.000000,-0.235182,0.000000,0.000000,0.000000,0.000000
0.52200,0.000000,0.000000,0.000000,0.000000,0.000000,0.000000,0.000000,-0.236814,0.000000,0.000000,0.000000,0.000000
0.52400,0.000000,0.000000,0.000000,0.000000,0.000000,0.000000,0.000000,-0.238444,0.000000,0.000000,0.000000,0.000000
0.52600,0.000000,0.000000,0.000000,0.000000,0.000000,0.000000,0.000000,-0.240074,0.000000,0.000000,0.000000,0.000000
0.52800,0.000000,0.000000,0.000000,0.000000,0.000000,0.000000,0.000000,-0.241702,0.000000,0.000000,0.000000,0.000000
0.53000,0.000000,0.000000,0.000000,0.000000,0.000000,0.000000,0.000000,-0.243328,0.000000,0.000000,0.000000,0.000000
0.53200,0.000000,0.000000,0.000000,0.000000,0.000000,0.000000,0.000000,-0.244953,0.000000,0.000000,0.000000,0.000000
0.53400,0.000000,0.000000,0.000000,0.000000,0.000000,0.000000,0.000000,-0.246576,0.000000,0.000000,0.000000,0.000000
0.53600,0.000000,0.000000,0.000000,0.000000,0.000000,0.000000,0.000000,-0.248197,0.000000,0.000000,0.000000,0.000000
0.53800,0.000000,0.000000,0.000000,0.000000,0.000000,0.000000,0.000000,-0.249817,0.000000,0.000000,0.000000,0.000000
0.54000,0.000000,0.000000,0.000000,0.000000,0.000000,0.000000,0.000000,-0.251434,0.000000,0.000000,0.000000,0.000000
0.54200,0.000000,0.000000,0.000000,0.000000,0.000000,0.000000,0.000000,-0.253049,0.000000,0.000000,0.000000,0.000000
0.54400,0.000000,0.000000,0.000000,0.000000,0.000000,0.000000,0.000000,-0.254662,0.000000,0.000000,0.000000,0.000000
0.54600,0.000000,0.000000,0.000000,0.000000,0.000000,0.000000,0.000000,-0.256272,0.000000,0.000000,0.000000,0.000000
0.54800,0.000000,0.000000,0.000000,0.000000,0.000000,0.000000,0.000000,-0.257881,0.000000,0.000000,0.000000,0.000000
0.55000,0.000000,0.000000,0.000000,0.000000,0.000000,0.000000,0.000000,-0.259486,0.000000,0.000000,0.000000,0.000000
0.55200,0.000000,0.000000,0.000000,0.000000,0.000000,0.000000,0.000000,-0.261089,0.000000,0.000000,0.000000,0.000000
0.55400,0.000000,0.000000,0.000000,0.000000,0.000000,0.000000,0.000000,-0.262689,0.000000,0.000000,0.000000,0.000000
0.55600,0.000000,0.000000,0.000000,0.000000,0.000000,0.000000,0.000000,-0.264286,0.000000,0.000000,0.000000,0.000000
0.55800,0.000000,0.000000,0.000000,0.000000,0.000000,0.000000,0.000000,-0.265881,0.000000,0.000000,0.000000,0.000000
0.56000,0.000000,0.000000,0.000000,0.000000,0.000000,0.000000,0.000000,-0.267472,0.000000,0.000000,0.000000,0.000000
0.56200,0.000000,0.000000,0.000000,0.000000,0.000000,0.000000,0.000000,-0.269060,0.000000,0.000000,0.000000,0.000000
0.56400,0.000000,0.000000,0.000000,0.000000,0.000000,0.000000,0.000000,-0.270645,0.000000,0.000000,0.000000,0.000000
0.56600,0.000000,0.000000,0.000000,0.000000,0.000000,0.000000,0.000000,-0.272226,0.000000,0.000000,0.000000,0.000000
0.56800,0.000000,0.000000,0.000000,0.000000,0.000000,0.000000,0.000000,-0.273804,0.000000,0.000000,0.000000,0.000000
0.57000,0.000000,0.000000,0.000000,0.000000,0.000000,0.000000,0.000000,-0.275379,0.000000,0.000000,0.000000,0.000000
0.57200,0.000000,0.000000,0.000000,0.000000,0.000000,0.000000,0.000000,-0.276949,0.000000,0.000000,0.000000,0.000000
0.57400,0.000000,0.000000,0.000000,0.000000,0.000000,0.000000,0.000000,-0.278516,0.000000,0.000000,0.000000,0.000000
0.57600,0.000000,0.000000,0.000000,0.000000,0.000000,0.000000,0.000000,-0.280080,0.000000,0.000000,0.000000,0.000000
0.57800,0.000000,0.000000,0.000000,0.000000,0.000000,0.000000,0.000000,-0.281639,0.000000,0.000000,0.000000,0.000000
0.58000,0.000000,0.000000,0.000000,0.000000,0.000000,0.000000,0.000000,-0.283194,0.000000,0.000000,0.000000,0.000000
0.58200,0.000000,0.000000,0.000000,0.000000,0.000000,0.000000,0.000000,-0.284745,0.000000,0.000000,0.000000,0.000000
0.58400,0.000000,0.000000,0.000000,0.000000,0.000000,0.000000,0.000000,-0.286292,0.000000,0.000000,0.000000,0.000000
0.58600,0.000000,0.000000,0.000000,0.000000,0.000000,0.000000,0.000000,-0.287834,0.000000,0.000000,0.000000,0.000000
0.58800,0.000000,0.000000,0.000000,0.000000,0.000000,0.000000,0.000000,-0.289372,0.000000,0.000000,0.000000,0.000000
0.59000,0.000000,0.000000,0.000000,0.000000,0.000000,0.000000,0.000000,-0.290905,0.000000,0.000000,0.000000,0.000000
0.59200,0.000000,0.000000,0.000000,0.000000,0.000000,0.000000,0.000000,-0.292434,0.000000,0.000000,0.000000,0.000000
0.59400,0.000000,0.000000,0.000000,0.000000,0.000000,0.000000,0.000000,-0.293958,0.000000,0.000000,0.000000,0.000000
0.59600,0.000000,0.000000,0.000000,0.000000,0.000000,0.000000,0.000000,-0.295477,0.000000,0.000000,0.000000,0.000000
0.59800,0.000000,0.000000,0.000000,0.000000,0.000000,0.000000,0.000000,-0.296992,0.000000,0.000000,0.000000,0.000000
0.60000,0.000000,0.000000,0.000000,0.000000,0.000000,0.000000,0.000000,-0.298501,0.000000,0.000000,0.000000,0.000000
0.60200,0.000000,0.000000,0.000000,0.000000,0.000000,0.000000,0.000000,-0.300005,0.000000,0.000000,0.000000,0.000000
0.60400,0.000000,0.000000,0.000000,0.000000,0.000000,0.000000,0.000000,-0.301504,0.000000,0.000000,0.000000,0.000000
0.60600,0.000000,0.000000,0.000000,0.000000,0.000000,0.000000,0.000000,-0.302998,0.000000,0.000000,0.000000,0.000000
0.60800,0.000000,0.000000,0.000000,0.000000,0.000000,0.000000,0.000000,-0.304487,0.000000,0.000000,0.000000,0.000000
0.61000,0.000000,0.000000,0.000000,0.000000,0.000000,0.000000,0.000000,-0.305969,0.000000,0.000000,0.000000,0.000000
0.61200,0.000000,0.000000,0.000000,0.000000,0.000000,0.000000,0.000000,-0.307447,0.000000,0.000000,0.000000,0.000000
0.61400,0.000000,0.000000,0.000000,0.000000,0.000000,0.000000,0.000000,-0.308919,0.000000,0.000000,0.000000,0.000000
0.61600,0.000000,0.000000,0.000000,0.000000,0.000000,0.000000,0.000000,-0.310385,0.000000,0.000000,0.000000,0.000000
0.61800,0.000000,0.000000,0.000000,0.000000,0.000000,0.000000,0.000000,-0.311845,0.000000,0.000000,0.000000,0.000000
0.62000,0.000000,0.000000,0.000000,0.000000,0.000000,0.000000,0.000000,-0.313299,0.000000,0.000000,0.000000,0.000000
0.62200,0.000000,0.000000,0.000000,0.000000,0.000000,0.000000,0.000000,-0.314747,0.000000,0.000000,0.000000,0.000000
0.62400,0.000000,0.000000,0.000000,0.000000,0.000000,0.000000,0.000000,-0.316189,0.000000,0.000000,0.000000,0.000000
0.62600,0.000000,0.000000,0.000000,0.000000,0.000000,0.000000,0.000000,-0.317625,0.000000,0.000000,0.000000,0.000000
0.62800,0.000000,0.000000,0.000000,0.000000,0.000000,0.000000,0.000000,-0.319055,0.000000,0.000000,0.000000,0.000000
0.63000,0.000000,0.000000,0.000000,0.000000,0.000000,0.000000,0.000000,-0.320479,0.000000,0.000000,0.000000,0.000000
0.63200,0.000000,0.000000,0.000000,0.000000,0.000000,0.000000,0.000000,-0.321896,0.000000,0.000000,0.000000,0.000000
0.63400,0.000000,0.000000,0.000000,0.000000,0.000000,0.000000,0.000000,-0.323306,0.000000,0.000000,0.000000,0.000000
0.63600,0.000000,0.000000,0.000000,0.000000,0.000000,0.000000,0.000000,-0.324710,0.000000,0.000000,0.000000,0.000000
0.63800,0.000000,0.000000,0.000000,0.000000,0.000000,0.000000,0.000000,-0.326107,0.000000,0.000000,0.000000,0.000000
0.64000,0.000000,0.000000,0.000000,0.000000,0.000000,0.000000,0.000000,-0.327498,0.000000,0.000000,0.000000,0.000000
0.64200,0.000000,0.000000,0.000000,0.000000,0.000000,0.000000,0.000000,-0.328882,0.000000,0.000000,0.000000,0.000000
0.64400,0.000000,0.000000,0.000000,0.000000,0.000000,0.000000,0.000000,-0.330258,0.000000,0.000000,0.000000,0.000000
0.64600,0.000000,0.000000,0.000000,0.000000,0.000000,0.000000,0.000000,-0.331628,0.000000,0.000000,0.000000,0.000000
0.64800,0.000000,0.000000,0.000000,0.000000,0.000000,0.000000,0.000000,-0.332991,0.000000,0.000000,0.000000,0.000000
0.65000,0.000000,0.000000,0.000000,0.000000,0.000000,0.000000,0.000000,-0.334346,0.000000,0.000000,0.000000,0.000000
0.65200,0.000000,0.000000,0.000000,0.000000,0.000000,0.000000,0.000000,-0.335695,0.000000,0.000000,0.000000,0.000000
0.65400,0.000000,0.000000,0.000000,0.000000,0.000000,0.000000,0.000000,-0.337036,0.000000,0.000000,0.000000,0.000000
0.65600,0.000000,0.000000,0.000000,0.000000,0.000000,0.000000,0.000000,-0.338370,0.000000,0.000000,0.000000,0.000000
0.65800,0.000000,0.000000,0.000000,0.000000,0.000000,0.000000,0.000000,-0.339696,0.000000,0.000000,0.000000,0.000000
0.66000,0.000000,0.000000,0.000000,0.000000,0.000000,0.000000,0.000000,-0.341015,0.000000,0.000000,0.000000,0.000000
0.66200,0.000000,0.000000,0.000000,0.000000,0.000000,0.000000,0.000000,-0.342326,0.000000,0.000000,0.000000,0.000000
0.66400,0.000000,0.000000,0.000000,0.000000,0.000000,0.000000,0.000000,-0.343629,0.000000,0.000000,0.000000,0.000000
0.66600,0.000000,0.000000,0.000000,0.000000,0.000000,0.000000,0.000000,-0.344925,0.000000,0.000000,0.000000,0.000000
0.66800,0.000000,0.000000,0.000000,0.000000,0.000000,0.000000,0.000000,-0.346213,0.000000,0.000000,0.000000,0.000000
0.67000,0.000000,0.000000,0.000000,0.000000,0.000000,0.000000,0.000000,-0.347493,0.000000,0.000000,0.000000,0.000000
0.67200,0.000000,0.000000,0.000000,0.000000,0.000000,0.000000,0.000000,-0.348765,0.000000,0.000000,0.000000,0.000000
0.67400,0.000000,0.000000,0.000000,0.000000,0.000000,0.000000,0.000000,-0.350029,0.000000,0.000000,0.000000,0.000000
0.67600,0.000000,0.000000,0.000000,0.000000,0.000000,0.000000,0.000000,-0.351285,0.000000,0.000000,0.000000,0.000000
0.67800,0.000000,0.000000,0.000000,0.000000,0.000000,0.000000,0.000000,-0.352533,0.000000,0.000000,0.000000,0.000000
0.68000,0.000000,0.000000,0.000000,0.000000,0.000000,0.000000,0.000000,-0.353773,0.000000,0.000000,0.000000,0.000000
0.68200,0.000000,0.000000,0.000000,0.000000,0.000000,0.000000,0.000000,-0.355004,0.000000,0.000000,0.000000,0.000000
0.68400,0.000000,0.000000,0.000000,0.000000,0.000000,0.000000,0.000000,-0.356227,0.000000,0.000000,0.000000,0.000000
0.68600,0.000000,0.000000,0.000000,0.000000,0.000000,0.000000,0.000000,-0.357442,0.000000,0.000000,0.000000,0.000000
0.68800,0.000000,0.000000,0.000000,0.000000,0.000000,0.000000,0.000000,-0.358648,0.000000,0.000000,0.000000,0.000000
0.69000,0.000000,0.000000,0.000000,0.000000,0.000000,0.000000,0.000000,-0.359846,0.000000,0.000000,0.000000,0.000000
0.69200,0.000000,0.000000,0.000000,0.000000,0.000000,0.000000,0.000000,-0.361035,0.000000,0.000000,0.000000,0.000000
0.69400,0.000000,0.000000,0.000000,0.000000,0.000000,0.000000,0.000000,-0.362215,0.000000,0.000000,0.000000,0.000000
0.69600,0.000000,0.000000,0.000000,0.000000,0.000000,0.000000,0.000000,-0.363387,0.000000,0.000000,0.000000,0.000000
0.69800,0.000000,0.000000,0.000000,0.000000,0.000000,0.000000,0.000000,-0.364550,0.000000,0.000000,0.000000,0.000000
0.70000,0.000000,0.000000,0.000000,0.000000,0.000000,0.000000,0.000000,-0.365704,0.000000,0.000000,0.000000,0.000000
0.70200,0.000000,0.000000,0.000000,0.000000,0.000000,0.000000,0.000000,-0.366849,0.000000,0.000000,0.000000,0.000000
0.70400,0.000000,0.000000,0.000000,0.000000,0.000000,0.000000,0.000000,-0.367986,0.000000,0.000000,0.000000,0.000000
0.70600,0.000000,0.000000,0.000000,0.000000,0.000000,0.000000,0.000000,-0.369113,0.000000,0.000000,0.000000,0.000000
0.70800,0.000000,0.000000,0.000000,0.000000,0.000000,0.000000,0.000000,-0.370232,0.000000,0.000000,0.000000,0.000000
0.71000,0.000000,0.000000,0.000000,0.000000,0.000000,0.000000,0.000000,-0.371341,0.000000,0.000000,0.000000,0.000000
0.71200,0.000000,0.000000,0.000000,0.000000,0.000000,0.000000,0.000000,-0.372441,0.000000,0.000000,0.000000,0.000000
0.71400,0.000000,0.000000,0.000000,0.000000,0.000000,0.000000,0.000000,-0.373532,0.000000,0.000000,0.000000,0.000000
0.71600,0.000000,0.000000,0.000000,0.000000,0.000000,0.000000,0.000000,-0.374614,0.000000,0.000000,0.000000,0.000000
0.71800,0.000000,0.000000,0.000000,0.000000,0.000000,0.000000,0.000000,-0.375687,0.000000,0.000000,0.000000,0.000000
0.72000,0.000000,0.000000,0.000000,0.000000,0.000000,0.000000,0.000000,-0.376750,0.000000,0.000000,0.000000,0.000000
0.72200,0.000000,0.000000,0.000000,0.000000,0.000000,0.000000,0.000000,-0.377804,0.000000,0.000000,0.000000,0.000000
0.72400,0.000000,0.000000,0.000000,0.000000,0.000000,0.000000,0.000000,-0.378849,0.000000,0.000000,0.000000,0.000000
0.72600,0.000000,0.000000,0.000000,0.000000,0.000000,0.000000,0.000000,-0.379884,0.000000,0.000000,0.000000,0.000000
0.72800,0.000000,0.000000,0.000000,0.000000,0.000000,0.000000,0.000000,-0.380909,0.000000,0.000000,0.000000,0.000000
0.73000,0.000000,0.000000,0.000000,0.000000,0.000000,0.000000,0.000000,-0.381926,0.000000,0.000000,0.000000,0.000000
0.73200,0.000000,0.000000,0.000000,0.000000,0.000000,0.000000,0.000000,-0.382932,0.000000,0.000000,0.000000,0.000000
0.73400,0.000000,0.000000,0.000000,0.000000,0.000000,0.000000,0.000000,-0.383929,0.000000,0.000000,0.000000,0.000000
0.73600,0.000000,0.000000,0.000000,0.000000,0.000000,0.000000,0.000000,-0.384916,0.000000,0.000000,0.000000,0.000000
0.73800,0.000000,0.000000,0.000000,0.000000,0.000000,0.000000,0.000000,-0.385894,0.000000,0.000000,0.000000,0.000000
0.74000,0.000000,0.000000,0.000000,0.000000,0.000000,0.000000,0.000000,-0.386862,0.000000,0.000000,0.000000,0.000000
0.74200,0.000000,0.000000,0.000000,0.000000,0.000000,0.000000,0.000000,-0.387820,0.000000,0.000000,0.000000,0.000000
0.74400,0.000000,0.000000,0.000000,0.000000,0.000000,0.000000,0.000000,-0.388769,0.000000,0.000000,0.000000,0.000000
0.74600,0.000000,0.000000,0.000000,0.000000,0.000000,0.000000,0.000000,-0.389708,0.000000,0.000000,0.000000,0.000000
0.74800,0.000000,0.000000,0.000000,0.000000,0.000000,0.000000,0.000000,-0.390636,0.000000,0.000000,0.000000,0.000000
0.75000,0.000000,0.000000,0.000000,0.000000,0.000000,0.000000,0.000000,-0.391556,0.000000,0.000000,0.000000,0.000000
0.75200,0.000000,0.000000,0.000000,0.000000,0.000000,0.000000,0.000000,-0.392465,0.000000,0.000000,0.000000,0.000000
0.75400,0.000000,0.000000,0.000000,0.000000,0.000000,0.000000,0.000000,-0.393364,0.000000,0.000000,0.000000,0.000000
0.75600,0.000000,0.000000,0.000000,0.000000,0.000000,0.000000,0.000000,-0.394253,0.000000,0.000000,0.000000,0.000000
0.75800,0.000000,0.000000,0.000000,0.000000,0.000000,0.000000,0.000000,-0.395133,0.000000,0.000000,0.000000,0.000000
0.76000,0.000000,0.000000,0.000000,0.000000,0.000000,0.000000,0.000000,-0.396002,0.000000,0.000000,0.000000,0.000000
0.76200,0.000000,0.000000,0.000000,0.000000,0.000000,0.000000,0.000000,-0.396862,0.000000,0.000000,0.000000,0.000000
0.76400,0.000000,0.000000,0.000000,0.000000,0.000000,0.000000,0.000000,-0.397711,0.000000,0.000000,0.000000,0.000000
0.76600,0.000000,0.000000,0.000000,0.000000,0.000000,0.000000,0.000000,-0.398551,0.000000,0.000000,0.000000,0.000000
0.76800,0.000000,0.000000,0.000000,0.000000,0.000000,0.000000,0.000000,-0.399380,0.000000,0.000000,0.000000,0.000000
0.77000,0.000000,0.000000,0.000000,0.000000,0.000000,0.000000,0.000000,-0.400200,0.000000,0.000000,0.000000,0.000000
0.77200,0.000000,0.000000,0.000000,0.000000,0.000000,0.000000,0.000000,-0.401009,0.000000,0.000000,0.000000,0.000000
0.77400,0.000000,0.000000,0.000000,0.000000,0.000000,0.000000,0.000000,-0.401808,0.000000,0.000000,0.000000,0.000000
0.77600,0.000000,0.000000,0.000000,0.000000,0.000000,0.000000,0.000000,-0.402598,0.000000,0.000000,0.000000,0.000000
0.77800,0.000000,0.000000,0.000000,0.000000,0.000000,0.000000,0.000000,-0.403377,0.000000,0.000000,0.000000,0.000000
0.78000,0.000000,0.000000,0.000000,0.000000,0.000000,0.000000,0.000000,-0.404146,0.000000,0.000000,0.000000,0.000000
0.78200,0.000000,0.000000,0.000000,0.000000,0.000000,0.000000,0.000000,-0.404905,0.000000,0.000000,0.000000,0.000000
0.78400,0.000000,0.000000,0.000000,0.000000,0.000000,0.000000,0.000000,-0.405654,0.000000,0.000000,0.000000,0.000000
0.78600,0.000000,0.000000,0.000000,0.000000,0.000000,0.000000,0.000000,-0.406392,0.000000,0.000000,0.000000,0.000000
0.78800,0.000000,0.000000,0.000000,0.000000,0.000000,0.000000,0.000000,-0.407121,0.000000,0.000000,0.000000,0.000000
0.79000,0.000000,0.000000,0.000000,0.000000,0.000000,0.000000,0.000000,-0.407839,0.000000,0.000000,0.000000,0.000000
0.79200,0.000000,0.000000,0.000000,0.000000,0.000000,0.000000,0.000000,-0.408548,0.000000,0.000000,0.000000,0.000000
0.79400,0.000000,0.000000,0.000000,0.000000,0.000000,0.000000,0.000000,-0.409246,0.000000,0.000000,0.000000,0.000000
0.79600,0.000000,0.000000,0.000000,0.000000,0.000000,0.000000,0.000000,-0.409934,0.000000,0.000000,0.000000,0.000000
0.79800,0.000000,0.000000,0.000000,0.000000,0.000000,0.000000,0.000000,-0.410612,0.000000,0.000000,0.000000,0.000000
0.80000,0.000000,0.000000,0.000000,0.000000,0.000000,0.000000,0.000000,-0.411280,0.000000,0.000000,0.000000,0.000000
0.80200,0.000000,0.000000,0.000000,0.000000,0.000000,0.000000,0.000000,-0.411938,0.000000,0.000000,0.000000,0.000000
0.80400,0.000000,0.000000,0.000000,0.000000,0.000000,0.000000,0.000000,-0.412586,0.000000,0.000000,0.000000,0.000000
0.80600,0.000000,0.000000,0.000000,0.000000,0.000000,0.000000,0.000000,-0.413224,0.000000,0.000000,0.000000,0.000000
0.80800,0.000000,0.000000,0.000000,0.000000,0.000000,0.000000,0.000000,-0.413852,0.000000,0.000000,0.000000,0.000000
0.81000,0.000000,0.000000,0.000000,0.000000,0.000000,0.000000,0.000000,-0.414470,0.000000,0.000000,0.000000,0.000000
0.81200,0.000000,0.000000,0.000000,0.000000,0.000000,0.000000,0.000000,-0.415077,0.000000,0.000000,0.000000,0.000000
0.81400,0.000000,0.000000,0.000000,0.000000,0.000000,0.000000,0.000000,-0.415675,0.000000,0.000000,0.000000,0.000000
0.81600,0.000000,0.000000,0.000000,0.000000,0.000000,0.000000,0.000000,-0.416263,0.000000,0.000000,0.000000,0.000000
0.81800,0.000000,0.000000,0.000000,0.000000,0.000000,0.000000,0.000000,-0.416841,0.000000,0.000000,0.000000,0.000000
0.82000,0.000000,0.000000,0.000000,0.000000,0.000000,0.000000,0.000000,-0.417409,0.000000,0.000000,0.000000,0.000000
0.82200,0.000000,0.000000,0.000000,0.000000,0.000000,0.000000,0.000000,-0.417967,0.000000,0.000000,0.000000,0.000000
0.82400,0.000000,0.000000,0.000000,0.000000,0.000000,0.000000,0.000000,-0.418515,0.000000,0.000000,0.000000,0.000000
0.82600,0.000000,0.000000,0.000000,0.000000,0.000000,0.000000,0.000000,-0.419053,0.000000,0.000000,0.000000,0.000000
0.82800,0.000000,0.000000,0.000000,0.000000,0.000000,0.000000,0.000000,-0.419581,0.000000,0.000000,0.000000,0.000000
0.83000,0.000000,0.000000,0.000000,0.000000,0.000000,0.000000,0.000000,-0.420100,0.000000,0.000000,0.000000,0.000000
0.83200,0.000000,0.000000,0.000000,0.000000,0.000000,0.000000,0.000000,-0.420609,0.000000,0.000000,0.000000,0.000000
0.83400,0.000000,0.000000,0.000000,0.000000,0.000000,0.000000,0.000000,-0.421108,0.000000,0.000000,0.000000,0.000000
0.83600,0.000000,0.000000,0.000000,0.000000,0.000000,0.000000,0.000000,-0.421597,0.000000,0.000000,0.000000,0.000000
0.83800,0.000000,0.000000,0.000000,0.000000,0.000000,0.000000,0.000000,-0.422077,0.000000,0.000000,0.000000,0.000000
0.84000,0.000000,0.000000,0.000000,0.000000,0.000000,0.000000,0.000000,-0.422548,0.000000,0.000000,0.000000,0.000000
0.84200,0.000000,0.000000,0.000000,0.000000,0.000000,0.000000,0.000000,-0.423008,0.000000,0.000000,0.000000,0.000000
0.84400,0.000000,0.000000,0.000000,0.000000,0.000000,0.000000,0.000000,-0.423459,0.000000,0.000000,0.000000,0.000000
0.84600,0.000000,0.000000,0.000000,0.000000,0.000000,0.000000,0.000000,-0.423901,0.000000,0.000000,0.000000,0.000000
0.84800,0.000000,0.000000,0.000000,0.000000,0.000000,0.000000,0.000000,-0.424333,0.000000,0.000000,0.000000,0.000000
0.85000,0.000000,0.000000,0.000000,0.000000,0.000000,0.000000,0.000000,-0.424756,0.000000,0.000000,0.000000,0.000000
0.85200,0.000000,0.000000,0.000000,0.000000,0.000000,0.000000,0.000000,-0.425170,0.000000,0.000000,0.000000,0.000000
0.85400,0.000000,0.000000,0.000000,0.000000,0.000000,0.000000,0.000000,-0.425574,0.000000,0.000000,0.000000,0.000000
0.85600,0.000000,0.000000,0.000000,0.000000,0.000000,0.000000,0.000000,-0.425969,0.000000,0.000000,0.000000,0.000000
0.85800,0.000000,0.000000,0.000000,0.000000,0.000000,0.000000,0.000000,-0.426355,0.000000,0.000000,0.000000,0.000000
0.86000,0.000000,0.000000,0.000000,0.000000,0.000000,0.000000,0.000000,-0.426731,0.000000,0.000000,0.000000,0.000000
0.86200,0.000000,0.000000,0.000000,0.000000,0.000000,0.000000,0.000000,-0.427099,0.000000,0.000000,0.000000,0.000000
0.86400,0.000000,0.000000,0.000000,0.000000,0.000000,0.000000,0.000000,-0.427458,0.000000,0.000000,0.000000,0.000000
0.86600,0.000000,0.000000,0.000000,0.000000,0.000000,0.000000,0.000000,-0.427807,0.000000,0.000000,0.000000,0.000000
0.86800,0.000000,0.000000,0.000000,0.000000,0.000000,0.000000,0.000000,-0.428148,0.000000,0.000000,0.000000,0.000000
0.87000,0.000000,0.000000,0.000000,0.000000,0.000000,0.000000,0.000000,-0.428480,0.000000,0.000000,0.000000,0.000000
0.87200,0.000000,0.000000,0.000000,0.000000,0.000000,0.000000,0.000000,-0.428804,0.000000,0.000000,0.000000,0.000000
0.87400,0.000000,0.000000,0.000000,0.000000,0.000000,0.000000,0.000000,-0.429118,0.000000,0.000000,0.000000,0.000000
0.87600,0.000000,0.000000,0.000000,0.000000,0.000000,0.000000,0.000000,-0.429424,0.000000,0.000000,0.000000,0.000000
0.87800,0.000000,0.000000,0.000000,0.000000,0.000000,0.000000,0.000000,-0.429722,0.000000,0.000000,0.000000,0.000000
0.88000,0.000000,0.000000,0.000000,0.000000,0.000000,0.000000,0.000000,-0.430011,0.000000,0.000000,0.000000,0.000000
0.88200,0.000000,0.000000,0.000000,0.000000,0.000000,0.000000,0.000000,-0.430292,0.000000,0.000000,0.000000,0.000000
0.88400,0.000000,0.000000,0.000000,0.000000,0.000000,0.000000,0.000000,-0.430564,0.000000,0.000000,0.000000,0.000000
0.88600,0.000000,0.000000,0.000000,0.000000,0.000000,0.000000,0.000000,-0.430828,0.000000,0.000000,0.000000,0.000000
0.88800,0.000000,0.000000,0.000000,0.000000,0.000000,0.000000,0.000000,-0.431085,0.000000,0.000000,0.000000,0.000000
0.89000,0.000000,0.000000,0.000000,0.000000,0.000000,0.000000,0.000000,-0.431333,0.000000,0.000000,0.000000,0.000000
0.89200,0.000000,0.000000,0.000000,0.000000,0.000000,0.000000,0.000000,-0.431573,0.000000,0.000000,0.000000,0.000000
0.89400,0.000000,0.000000,0.000000,0.000000,0.000000,0.000000,0.000000,-0.431805,0.000000,0.000000,0.000000,0.000000
0.89600,0.000000,0.000000,0.000000,0.000000,0.000000,0.000000,0.000000,-0.432030,0.000000,0.000000,0.000000,0.000000
0.89800,0.000000,0.000000,0.000000,0.000000,0.000000,0.000000,0.000000,-0.432247,0.000000,0.000000,0.000000,0.000000
0.90000,0.000000,0.000000,0.000000,0.000000,0.000000,0.000000,0.000000,-0.432456,0.000000,0.000000,0.000000,0.000000
0.90200,0.000000,0.000000,0.000000,0.000000,0.000000,0.000000,0.000000,-0.432658,0.000000,0.000000,0.000000,0.000000
0.90400,0.000000,0.000000,0.000000,0.000000,0.000000,0.000000,0.000000,-0.432852,0.000000,0.000000,0.000000,0.000000
0.90600,0.000000,0.000000,0.000000,0.000000,0.000000,0.000000,0.000000,-0.433039,0.000000,0.000000,0.000000,0.000000
0.90800,0.000000,0.000000,0.000000,0.000000,0.000000,0.000000,0.000000,-0.433219,0.000000,0.000000,0.000000,0.000000
0.91000,0.000000,0.000000,0.000000,0.000000,0.000000,0.000000,0.000000,-0.433392,0.000000,0.000000,0.000000,0.000000
0.91200,0.000000,0.000000,0.000000,0.000000,0.000000,0.000000,0.000000,-0.433558,0.000000,0.000000,0.000000,0.000000
0.91400,0.000000,0.000000,0.000000,0.000000,0.000000,0.000000,0.000000,-0.433717,0.000000,0.000000,0.000000,0.000000
0.91600,0.000000,0.000000,0.000000,0.000000,0.000000,0.000000,0.000000,-0.433870,0.000000,0.000000,0.000000,0.000000
0.91800,0.000000,0.000000,0.000000,0.000000,0.000000,0.000000,0.000000,-0.434016,0.000000,0.000000,0.000000,0.000000
0.92000,0.000000,0.000000,0.000000,0.000000,0.000000,0.000000,0.000000,-0.434155,0.000000,0.000000,0.000000,0.000000
0.92200,0.000000,0.000000,0.000000,0.000000,0.000000,0.000000,0.000000,-0.434288,0.000000,0.000000,0.000000,0.000000
0.92400,0.000000,0.000000,0.000000,0.000000,0.000000,0.000000,0.000000,-0.434414,0.000000,0.000000,0.000000,0.000000
0.92600,0.000000,0.000000,0.000000,0.000000,0.000000,0.000000,0.000000,-0.434535,0.000000,0.000000,0.000000,0.000000
0.92800,0.000000,0.000000,0.000000,0.000000,0.000000,0.000000,0.000000,-0.434649,0.000000,0.000000,0.000000,0.000000
0.93000,0.000000,0.000000,0.000000,0.000000,0.000000,0.000000,0.000000,-0.434758,0.000000,0.000000,0.000000,0.000000
0.93200,0.000000,0.000000,0.000000,0.000000,0.000000,0.000000,0.000000,-0.434861,0.000000,0.000000,0.000000,0.000000
0.93400,0.000000,0.000000,0.000000,0.000000,0.000000,0.000000,0.000000,-0.434958,0.000000,0.000000,0.000000,0.000000
0.93600,0.000000,0.000000,0.000000,0.000000,0.000000,0.000000,0.000000,-0.435050,0.000000,0.000000,0.000000,0.000000
0.93800,0.000000,0.000000,0.000000,0.000000,0.000000,0.000000,0.000000,-0.435136,0.000000,0.000000,0.000000,0.000000
0.94000,0.000000,0.000000,0.000000,0.000000,0.000000,0.000000,0.000000,-0.435217,0.000000,0.000000,0.000000,0.000000
0.94200,0.000000,0.000000,0.000000,0.000000,0.000000,0.000000,0.000000,-0.435293,0.000000,0.000000,0.000000,0.000000
0.94400,0.000000,0.000000,0.000000,0.000000,0.000000,0.000000,0.000000,-0.435364,0.000000,0.000000,0.000000,0.000000
0.94600,0.000000,0.000000,0.000000,0.000000,0.000000,0.000000,0.000000,-0.435430,0.000000,0.000000,0.000000,0.000000
0.94800,0.000000,0.000000,0.000000,0.000000,0.000000,0.000000,0.000000,-0.435492,0.000000,0.000000,0.000000,0.000000
0.95000,0.000000,0.000000,0.000000,0.000000,0.000000,0.000000,0.000000,-0.435549,0.000000,0.000000,0.000000,0.000000
0.95200,0.000000,0.000000,0.000000,0.000000,0.000000,0.000000,0.000000,-0.435602,0.000000,0.000000,0.000000,0.000000
0.95400,0.000000,0.000000,0.000000,0.000000,0.000000,0.000000,0.000000,-0.435651,0.000000,0.000000,0.000000,0.000000
0.95600,0.000000,0.000000,0.000000,0.000000,0.000000,0.000000,0.000000,-0.435695,0.000000,0.000000,0.000000,0.000000
0.95800,0.000000,0.000000,0.000000,0.000000,0.000000,0.000000,0.000000,-0.435736,0.000000,0.000000,0.000000,0.000000
0.96000,0.000000,0.000000,0.000000,0.000000,0.000000,0.000000,0.000000,-0.435773,0.000000,0.000000,0.000000,0.000000
0.96200,0.000000,0.000000,0.000000,0.000000,0.000000,0.000000,0.000000,-0.435806,0.000000,0.000000,0.000000,0.000000
0.96400,0.000000,0.000000,0.000000,0.000000,0.000000,0.000000,0.000000,-0.435836,0.000000,0.000000,0.000000,0.000000
0.96600,0.000000,0.000000,0.000000,0.000000,0.000000,0.000000,0.000000,-0.435863,0.000000,0.000000,0.000000,0.000000
0.96800,0.000000,0.000000,0.000000,0.000000,0.000000,0.000000,0.000000,-0.435887,0.000000,0.000000,0.000000,0.000000
0.97000,0.000000,0.000000,0.000000,0.000000,0.000000,0.000000,0.000000,-0.435908,0.000000,0.000000,0.000000,0.000000
0.97200,0.000000,0.000000,0.000000,0.000000,0.000000,0.000000,0.000000,-0.435926,0.000000,0.000000,0.000000,0.000000
0.97400,0.000000,0.000000,0.000000,0.000000,0.000000,0.000000,0.000000,-0.435942,0.000000,0.000000,0.000000,0.000000
0.97600,0.000000,0.000000,0.000000,0.000000,0.000000,0.000000,0.000000,-0.435955,0.000000,0.000000,0.000000,0.000000
0.97800,0.000000,0.000000,0.000000,0.000000,0.000000,0.000000,0.000000,-0.435966,0.000000,0.000000,0.000000,0.000000
0.98000,0.000000,0.000000,0.000000,0.000000,0.000000,0.000000,0.000000,-0.435975,0.000000,0.000000,0.000000,0.000000
0.98200,0.000000,0.000000,0.000000,0.000000,0.000000,0.000000,0.000000,-0.435982,0.000000,0.000000,0.000000,0.000000
0.98400,0.000000,0.000000,0.000000,0.000000,0.000000,0.000000,0.000000,-0.435988,0.000000,0.000000,0.000000,0.000000
0.98600,0.000000,0.000000,0.000000,0.000000,0.000000,0.000000,0.000000,-0.435993,0.000000,0.000000,0.000000,0.000000
0.98800,0.000000,0.000000,0.000000,0.000000,0.000000,0.000000,0.000000,-0.435996,0.000000,0.000000,0.000000,0.000000
0.99000,0.000000,0.000000,0.000000,0.000000,0.000000,0.000000,0.000000,-0.435998,0.000000,0.000000,0.000000,0.000000
0.99200,0.000000,0.000000,0.000000,0.000000,0.000000,0.000000,0.000000,-0.435999,0.000000,0.000000,0.000000,0.000000
0.99400,0.000000,0.000000,0.000000,0.000000,0.000000,0.000000,0.000000,-0.436000,0.000000,0.000000,0.000000,0.000000
0.99600,0.000000,0.000000,0.000000,0.000000,0.000000,0.000000,0.000000,-0.436000,0.000000,0.000000,0.000000,0.000000
0.99800,0.000000,0.000000,0.000000,0.000000,0.000000,0.000000,0.000000,-0.436000,0.000000,0.000000,0.000000,0.000000
1.00000,0.000000,0.000000,0.000000,0.000000,0.000000,0.000000,0.000000,-0.436000,0.000000,0.000000,0.000000,0.000000
1.00200,-0.000000,0.000000,0.000000,0.000000,-0.000000,-0.000000,0.000000,-0.436000,0.000000,0.000000,0.000000,0.000000
1.00400,-0.000000,0.000000,0.000000,0.000000,-0.000000,-0.000000,0.000000,-0.436000,0.000000,0.000000,0.000000,0.000000
1.00600,-0.000001,0.000001,0.000000,0.000001,-0.000002,-0.000000,0.000000,-0.436000,0.000000,0.000000,0.000000,0.000000
1.00800,-0.000003,0.000002,0.000001,0.000002,-0.000004,-0.000000,0.000000,-0.436000,0.000000,0.000000,0.000000,0.000000
1.01000,-0.000005,0.000004,0.000001,0.000004,-0.000008,-0.000000,0.000000,-0.436000,0.000000,0.000000,0.000000,0.000000
1.01200,-0.000009,0.000006,0.000002,0.000007,-0.000013,-0.000001,0.000000,-0.436000,0.000000,0.000000,0.000000,0.000000
1.01400,-0.000015,0.000010,0.000004,0.000012,-0.000021,-0.000001,0.000000,-0.436000,0.000000,0.000000,0.000000,0.000000
1.01600,-0.000022,0.000015,0.000005,0.000017,-0.000031,-0.000002,0.000000,-0.436000,0.000000,0.000000,0.000000,0.000000
1.01800,-0.000031,0.000021,0.000008,0.000025,-0.000044,-0.000002,0.000000,-0.436000,0.000000,0.000000,0.000000,0.000000
1.02000,-0.000042,0.000029,0.000010,0.000034,-0.000060,-0.000003,0.000000,-0.436000,0.000000,0.000000,0.000000,0.000000
1.02200,-0.000056,0.000039,0.000014,0.000045,-0.000079,-0.000004,0.000000,-0.436000,0.000000,0.000000,0.000000,0.000000
1.02400,-0.000072,0.000050,0.000018,0.000058,-0.000103,-0.000005,0.000000,-0.436000,0.000000,0.000000,0.000000,0.000000
1.02600,-0.000091,0.000063,0.000023,0.000073,-0.000130,-0.000007,0.000000,-0.436000,0.000000,0.000000,0.000000,0.000000
1.02800,-0.000114,0.000079,0.000028,0.000091,-0.000162,-0.000009,0.000000,-0.436000,0.000000,0.000000,0.000000,0.000000
1.03000,-0.000139,0.000096,0.000035,0.000112,-0.000199,-0.000011,0.000000,-0.436000,0.000000,0.000000,0.000000,0.000000
1.03200,-0.000169,0.000117,0.000042,0.000135,-0.000240,-0.000013,0.000000,-0.436000,0.000000,0.000000,0.000000,0.000000
1.03400,-0.000202,0.000140,0.000050,0.000161,-0.000287,-0.000015,0.000000,-0.436000,0.000000,0.000000,0.000000,0.000000
1.03600,-0.000239,0.000165,0.000059,0.000191,-0.000340,-0.000018,0.000000,-0.436000,0.000000,0.000000,0.000000,0.000000
1.03800,-0.000280,0.000194,0.000070,0.000224,-0.000399,-0.000021,0.000000,-0.436000,0.000000,0.000000,0.000000,0.000000
1.04000,-0.000325,0.000225,0.000081,0.000260,-0.000464,-0.000025,0.000000,-0.436000,0.000000,0.000000,0.000000,0.000000
1.04200,-0.000375,0.000260,0.000093,0.000300,-0.000535,-0.000028,0.000000,-0.436000,0.000000,0.000000,0.000000,0.000000
1.04400,-0.000430,0.000298,0.000107,0.000344,-0.000613,-0.000033,0.000000,-0.436000,0.000000,0.000000,0.000000,0.000000
1.04600,-0.000490,0.000339,0.000122,0.000392,-0.000698,-0.000037,0.000000,-0.436000,0.000000,0.000000,0.000000,0.000000
1.04800,-0.000555,0.000384,0.000138,0.000444,-0.000791,-0.000042,0.000000,-0.436000,0.000000,0.000000,0.000000,0.000000
1.05000,-0.000625,0.000433,0.000156,0.000501,-0.000891,-0.000047,0.000000,-0.436000,0.000000,0.000000,0.000000,0.000000
1.05200,-0.000701,0.000485,0.000174,0.000561,-0.001000,-0.000053,0.000000,-0.436000,0.000000,0.000000,0.000000,0.000000
1.05400,-0.000783,0.000542,0.000195,0.000627,-0.001116,-0.000059,0.000000,-0.436000,0.000000,0.000000,0.000000,0.000000
1.05600,-0.000870,0.000603,0.000217,0.000697,-0.001241,-0.000066,0.000000,-0.436000,0.000000,0.000000,0.000000,0.000000
1.05800,-0.000964,0.000667,0.000240,0.000772,-0.001374,-0.000073,0.000000,-0.436000,0.000000,0.000000,0.000000,0.000000
1.06000,-0.001064,0.000736,0.000265,0.000852,-0.001516,-0.000081,0.000000,-0.436000,0.000000,0.000000,0.000000,0.000000
1.06200,-0.001170,0.000810,0.000291,0.000937,-0.001668,-0.000089,0.000000,-0.436000,0.000000,0.000000,0.000000,0.000000
1.06400,-0.001283,0.000888,0.000319,0.001027,-0.001829,-0.000097,0.000000,-0.436000,0.000000,0.000000,0.000000,0.000000
1.06600,-0.001403,0.000971,0.000349,0.001123,-0.002000,-0.000106,0.000000,-0.436000,0.000000,0.000000,0.000000,0.000000
1.06800,-0.001529,0.001059,0.000380,0.001224,-0.002180,-0.000116,0.000000,-0.436000,0.000000,0.000000,0.000000,0.000000
1.07000,-0.001663,0.001151,0.000414,0.001331,-0.002371,-0.000126,0.000000,-0.436000,0.000000,0.000000,0.000000,0.000000
1.07200,-0.001804,0.001249,0.000449,0.001444,-0.002571,-0.000137,0.000000,-0.436000,0.000000,0.000000,0.000000,0.000000
1.07400,-0.001952,0.001351,0.000486,0.001563,-0.002783,-0.000148,0.000000,-0.436000,0.000000,0.000000,0.000000,0.000000
1.07600,-0.002108,0.001459,0.000524,0.001688,-0.003005,-0.000160,0.000000,-0.436000,0.000000,0.000000,0.000000,0.000000
1.07800,-0.002272,0.001573,0.000565,0.001819,-0.003238,-0.000172,0.000000,-0.436000,0.000000,0.000000,0.000000,0.000000
1.08000,-0.002443,0.001691,0.000608,0.001956,-0.003483,-0.000185,0.000000,-0.436000,0.000000,0.000000,0.000000,0.000000
1.08200,-0.002623,0.001816,0.000652,0.002100,-0.003739,-0.000199,0.000000,-0.436000,0.000000,0.000000,0.000000,0.000000
1.08400,-0.002810,0.001946,0.000699,0.002250,-0.004006,-0.000213,0.000000,-0.436000,0.000000,0.000000,0.000000,0.000000
1.08600,-0.003006,0.002081,0.000748,0.002407,-0.004285,-0.000228,0.000000,-0.436000,0.000000,0.000000,0.000000,0.000000
1.08800,-0.003211,0.002223,0.000799,0.002570,-0.004577,-0.000243,0.000000,-0.436000,0.000000,0.000000,0.000000,0.000000
1.09000,-0.003424,0.002370,0.000852,0.002741,-0.004880,-0.000260,0.000000,-0.436000,0.000000,0.000000,0.000000,0.000000
1.09200,-0.003645,0.002523,0.000907,0.002918,-0.005196,-0.000276,0.000000,-0.436000,0.000000,0.000000,0.000000,0.000000
1.09400,-0.003876,0.002683,0.000964,0.003103,-0.005525,-0.000294,0.000000,-0.436000,0.000000,0.000000,0.000000,0.000000
1.09600,-0.004115,0.002849,0.001024,0.003294,-0.005866,-0.000312,0.000000,-0.436000,0.000000,0.000000,0.000000,0.000000
1.09800,-0.004363,0.003021,0.001085,0.003493,-0.006220,-0.000331,0.000000,-0.436000,0.000000,0.000000,0.000000,0.000000
1.10000,-0.004621,0.003199,0.001150,0.003700,-0.006588,-0.000350,0.000000,-0.436000,0.000000,0.000000,0.000000,0.000000
1.10200,-0.004888,0.003384,0.001216,0.003913,-0.006968,-0.000371,0.000000,-0.436000,0.000000,0.000000,0.000000,0.000000
1.10400,-0.005165,0.003575,0.001285,0.004135,-0.007362,-0.000392,0.000000,-0.436000,0.000000,0.000000,0.000000,0.000000
1.10600,-0.005451,0.003773,0.001356,0.004364,-0.007770,-0.000413,0.000000,-0.436000,0.000000,0.000000,0.000000,0.000000
1.10800,-0.005746,0.003978,0.001429,0.004600,-0.008192,-0.000436,0.000000,-0.436000,0.000000,0.000000,0.000000,0.000000
1.11000,-0.006052,0.004190,0.001505,0.004845,-0.008627,-0.000459,0.000000,-0.436000,0.000000,0.000000,0.000000,0.000000
1.11200,-0.006367,0.004408,0.001584,0.005097,-0.009077,-0.000483,0.000000,-0.436000,0.000000,0.000000,0.000000,0.000000
1.11400,-0.006693,0.004633,0.001665,0.005358,-0.009540,-0.000507,0.000000,-0.436000,0.000000,0.000000,0.000000,0.000000
1.11600,-0.007028,0.004865,0.001748,0.005626,-0.010019,-0.000533,0.000000,-0.436000,0.000000,0.000000,0.000000,0.000000
1.11800,-0.007374,0.005105,0.001834,0.005903,-0.010511,-0.000559,0.000000,-0.436000,0.000000,0.000000,0.000000,0.000000
1.12000,-0.007730,0.005351,0.001923,0.006188,-0.011019,-0.000586,0.000000,-0.436000,0.000000,0.000000,0.000000,0.000000
1.12200,-0.008096,0.005605,0.002014,0.006481,-0.011541,-0.000614,0.000000,-0.436000,0.000000,0.000000,0.000000,0.000000
1.12400,-0.008473,0.005866,0.002108,0.006783,-0.012078,-0.000642,0.000000,-0.436000,0.000000,0.000000,0.000000,0.000000
1.12600,-0.008860,0.006134,0.002204,0.007093,-0.012631,-0.000672,0.000000,-0.436000,0.000000,0.000000,0.000000,0.000000
1.12800,-0.009258,0.006409,0.002303,0.007412,-0.013198,-0.000702,0.000000,-0.436000,0.000000,0.000000,0.000000,0.000000
1.13000,-0.009667,0.006692,0.002405,0.007739,-0.013781,-0.000733,0.000000,-0.436000,0.000000,0.000000,0.000000,0.000000
1.13200,-0.010087,0.006983,0.002509,0.008075,-0.014379,-0.000765,0.000000,-0.436000,0.000000,0.000000,0.000000,0.000000
1.13400,-0.010517,0.007281,0.002616,0.008420,-0.014993,-0.000797,0.000000,-0.436000,0.000000,0.000000,0.000000,0.000000
1.13600,-0.010959,0.007587,0.002726,0.008773,-0.015622,-0.000831,0.000000,-0.436000,0.000000,0.000000,0.000000,0.000000
1.13800,-0.011412,0.007900,0.002839,0.009136,-0.016268,-0.000865,0.000000,-0.436000,0.000000,0.000000,0.000000,0.000000
1.14000,-0.011875,0.008221,0.002954,0.009507,-0.016929,-0.000900,0.000000,-0.436000,0.000000,0.000000,0.000000,0.000000
1.14200,-0.012350,0.008550,0.003072,0.009887,-0.017606,-0.000936,0.000000,-0.436000,0.000000,0.000000,0.000000,0.000000
1.14400,-0.012837,0.008887,0.003193,0.010277,-0.018299,-0.000973,0.000000,-0.436000,0.000000,0.000000,0.000000,0.000000
1.14600,-0.013334,0.009231,0.003317,0.010675,-0.019009,-0.001011,0.000000,-0.436000,0.000000,0.000000,0.000000,0.000000
1.14800,-0.013843,0.009584,0.003444,0.011083,-0.019734,-0.001050,0.000000,-0.436000,0.000000,0.000000,0.000000,0.000000
1.15000,-0.014364,0.009944,0.003573,0.011499,-0.020476,-0.001089,0.000000,-0.436000,0.000000,0.000000,0.000000,0.000000
1.15200,-0.014896,0.010312,0.003706,0.011925,-0.021235,-0.001130,0.000000,-0.436000,0.000000,0.000000,0.000000,0.000000
1.15400,-0.015440,0.010689,0.003841,0.012361,-0.022010,-0.001171,0.000000,-0.436000,0.000000,0.000000,0.000000,0.000000
1.15600,-0.015995,0.011073,0.003979,0.012805,-0.022802,-0.001213,0.000000,-0.436000,0.000000,0.000000,0.000000,0.000000
1.15800,-0.016563,0.011466,0.004120,0.013259,-0.023610,-0.001256,0.000000,-0.436000,0.000000,0.000000,0.000000,0.000000
1.16000,-0.017142,0.011867,0.004264,0.013723,-0.024436,-0.001300,0.000000,-0.436000,0.000000,0.000000,0.000000,0.000000
1.16200,-0.017732,0.012276,0.004411,0.014196,-0.025278,-0.001345,0.000000,-0.436000,0.000000,0.000000,0.000000,0.000000
1.16400,-0.018335,0.012693,0.004561,0.014678,-0.026137,-0.001390,0.000000,-0.436000,0.000000,0.000000,0.000000,0.000000
1.16600,-0.018949,0.013118,0.004714,0.015170,-0.027013,-0.001437,0.000000,-0.436000,0.000000,0.000000,0.000000,0.000000
1.16800,-0.019576,0.013552,0.004870,0.015672,-0.027906,-0.001484,0.000000,-0.436000,0.000000,0.000000,0.000000,0.000000
1.17000,-0.020215,0.013994,0.005028,0.016183,-0.028817,-0.001533,0.000000,-0.436000,0.000000,0.000000,0.000000,0.000000
1.17200,-0.020865,0.014445,0.005190,0.016704,-0.029744,-0.001582,0.000000,-0.436000,0.000000,0.000000,0.000000,0.000000
1.17400,-0.021528,0.014903,0.005355,0.017234,-0.030689,-0.001632,0.000000,-0.436000,0.000000,0.000000,0.000000,0.000000
1.17600,-0.022203,0.015370,0.005523,0.017775,-0.031651,-0.001684,0.000000,-0.436000,0.000000,0.000000,0.000000,0.000000
1.17800,-0.022890,0.015846,0.005694,0.018325,-0.032630,-0.001736,0.000000,-0.436000,0.000000,0.000000,0.000000,0.000000
1.18000,-0.023589,0.016330,0.005868,0.018884,-0.033627,-0.001789,0.000000,-0.436000,0.000000,0.000000,0.000000,0.000000
1.18200,-0.024300,0.016823,0.006045,0.019454,-0.034641,-0.001843,0.000000,-0.436000,0.000000,0.000000,0.000000,0.000000
1.18400,-0.025024,0.017324,0.006225,0.020033,-0.035672,-0.001897,0.000000,-0.436000,0.000000,0.000000,0.000000,0.000000
1.18600,-0.025760,0.017833,0.006408,0.020622,-0.036721,-0.001953,0.000000,-0.436000,0.000000,0.000000,0.000000,0.000000
1.18800,-0.026508,0.018351,0.006594,0.021221,-0.037788,-0.002010,0.000000,-0.436000,0.000000,0.000000,0.000000,0.000000
1.19000,-0.027269,0.018878,0.006783,0.021830,-0.038872,-0.002068,0.000000,-0.436000,0.000000,0.000000,0.000000,0.000000
1.19200,-0.028042,0.019413,0.006975,0.022449,-0.039974,-0.002126,0.000000,-0.436000,0.000000,0.000000,0.000000,0.000000
1.19400,-0.028827,0.019956,0.007171,0.023078,-0.041094,-0.002186,0.000000,-0.436000,0.000000,0.000000,0.000000,0.000000
1.19600,-0.029624,0.020508,0.007369,0.023716,-0.042231,-0.002246,0.000000,-0.436000,0.000000,0.000000,0.000000,0.000000
1.19800,-0.030434,0.021069,0.007571,0.024365,-0.043385,-0.002308,0.000000,-0.436000,0.000000,0.000000,0.000000,0.000000
1.20000,-0.031257,0.021639,0.007775,0.025023,-0.044558,-0.002370,0.000000,-0.436000,0.000000,0.000000,0.000000,0.000000
1.20200,-0.032092,0.022217,0.007983,0.025691,-0.045748,-0.002433,0.000000,-0.436000,0.000000,0.000000,0.000000,0.000000
1.20400,-0.032939,0.022803,0.008194,0.026370,-0.046956,-0.002498,0.000000,-0.436000,0.000000,0.000000,0.000000,0.000000
1.20600,-0.033799,0.023398,0.008408,0.027058,-0.048181,-0.002563,0.000000,-0.436000,0.000000,0.000000,0.000000,0.000000
1.20800,-0.034671,0.024002,0.008625,0.027756,-0.049425,-0.002629,0.000000,-0.436000,0.000000,0.000000,0.000000,0.000000
1.21000,-0.035556,0.024614,0.008845,0.028464,-0.050686,-0.002696,0.000000,-0.436000,0.000000,0.000000,0.000000,0.000000
1.21200,-0.036453,0.025235,0.009068,0.029182,-0.051965,-0.002764,0.000000,-0.436000,0.000000,0.000000,0.000000,0.000000
1.21400,-0.037362,0.025865,0.009294,0.029911,-0.053261,-0.002833,0.000000,-0.436000,0.000000,0.000000,0.000000,0.000000
1.21600,-0.038284,0.026503,0.009523,0.030649,-0.054575,-0.002903,0.000000,-0.436000,0.000000,0.000000,0.000000,0.000000
1.21800,-0.039219,0.027150,0.009756,0.031397,-0.055907,-0.002974,0.000000,-0.436000,0.000000,0.000000,0.000000,0.000000
1.22000,-0.040165,0.027806,0.009991,0.032155,-0.057257,-0.003046,0.000000,-0.436000,0.000000,0.000000,0.000000,0.000000
1.22200,-0.041125,0.028470,0.010230,0.032923,-0.058625,-0.003118,0.000000,-0.436000,0.000000,0.000000,0.000000,0.000000
1.22400,-0.042096,0.029142,0.010472,0.033701,-0.060010,-0.003192,0.000000,-0.436000,0.000000,0.000000,0.000000,0.000000
1.22600,-0.043080,0.029824,0.010716,0.034488,-0.061413,-0.003267,0.000000,-0.436000,0.000000,0.000000,0.000000,0.000000
1.22800,-0.044077,0.030514,0.010964,0.035286,-0.062833,-0.003342,0.000000,-0.436000,0.000000,0.000000,0.000000,0.000000
1.23000,-0.045086,0.031212,0.011215,0.036094,-0.064271,-0.003419,0.000000,-0.436000,0.000000,0.000000,0.000000,0.000000
1.23200,-0.046107,0.031919,0.011469,0.036911,-0.065727,-0.003496,0.000000,-0.436000,0.000000,0.000000,0.000000,0.000000
1.23400,-0.047141,0.032635,0.011726,0.037739,-0.067200,-0.003574,0.000000,-0.436000,0.000000,0.000000,0.000000,0.000000
1.23600,-0.048187,0.033359,0.011987,0.038576,-0.068691,-0.003654,0.000000,-0.436000,0.000000,0.000000,0.000000,0.000000
1.23800,-0.049245,0.034091,0.012250,0.039423,-0.070200,-0.003734,0.000000,-0.436000,0.000000,0.000000,0.000000,0.000000
1.24000,-0.050315,0.034832,0.012516,0.040280,-0.071726,-0.003815,0.000000,-0.436000,0.000000,0.000000,0.000000,0.000000
1.24200,-0.051398,0.035582,0.012786,0.041147,-0.073270,-0.003897,0.000000,-0.436000,0.000000,0.000000,0.000000,0.000000
1.24400,-0.052493,0.036340,0.013058,0.042024,-0.074831,-0.003980,0.000000,-0.436000,0.000000,0.000000,0.000000,0.000000
1.24600,-0.053600,0.037106,0.013333,0.042910,-0.076409,-0.004064,0.000000,-0.436000,0.000000,0.000000,0.000000,0.000000
1.24800,-0.054720,0.037881,0.013612,0.043806,-0.078005,-0.004149,0.000000,-0.436000,0.000000,0.000000,0.000000,0.000000
1.25000,-0.055851,0.038665,0.013893,0.044712,-0.079618,-0.004235,0.000000,-0.436000,0.000000,0.000000,0.000000,0.000000
1.25200,-0.056995,0.039456,0.014178,0.045628,-0.081248,-0.004322,0.000000,-0.436000,0.000000,0.000000,0.000000,0.000000
1.25400,-0.058151,0.040257,0.014465,0.046553,-0.082896,-0.004409,0.000000,-0.436000,0.000000,0.000000,0.000000,0.000000
1.25600,-0.059318,0.041065,0.014756,0.047488,-0.084560,-0.004498,0.000000,-0.436000,0.000000,0.000000,0.000000,0.000000
1.25800,-0.060498,0.041882,0.015049,0.048432,-0.086242,-0.004587,0.000000,-0.436000,0.000000,0.000000,0.000000,0.000000
1.26000,-0.061690,0.042707,0.015346,0.049386,-0.087941,-0.004678,0.000000,-0.436000,0.000000,0.000000,0.000000,0.000000
1.26200,-0.062894,0.043540,0.015645,0.050350,-0.089657,-0.004769,0.000000,-0.436000,0.000000,0.000000,0.000000,0.000000
1.26400,-0.064109,0.044382,0.015948,0.051323,-0.091390,-0.004861,0.000000,-0.436000,0.000000,0.000000,0.000000,0.000000
1.26600,-0.065337,0.045231,0.016253,0.052306,-0.093140,-0.004954,0.000000,-0.436000,0.000000,0.000000,0.000000,0.000000
1.26800,-0.066576,0.046089,0.016561,0.053298,-0.094906,-0.005048,0.000000,-0.436000,0.000000,0.000000,0.000000,0.000000
1.27000,-0.067827,0.046955,0.016872,0.054300,-0.096690,-0.005143,0.000000,-0.436000,0.000000,0.000000,0.000000,0.000000
1.27200,-0.069090,0.047830,0.017186,0.055310,-0.098490,-0.005239,0.000000,-0.436000,0.000000,0.000000,0.000000,0.000000
1.27400,-0.070364,0.048712,0.017503,0.056331,-0.100307,-0.005335,0.000000,-0.436000,0.000000,0.000000,0.000000,0.000000
1.27600,-0.071650,0.049602,0.017823,0.057360,-0.102140,-0.005433,0.000000,-0.436000,0.000000,0.000000,0.000000,0.000000
1.27800,-0.072948,0.050500,0.018146,0.058399,-0.103990,-0.005531,0.000000,-0.436000,0.000000,0.000000,0.000000,0.000000
1.28000,-0.074257,0.051407,0.018472,0.059447,-0.105856,-0.005631,0.000000,-0.436000,0.000000,0.000000,0.000000,0.000000
1.28200,-0.075578,0.052321,0.018800,0.060504,-0.107738,-0.005731,0.000000,-0.436000,0.000000,0.000000,0.000000,0.000000
1.28400,-0.076910,0.053243,0.019132,0.061571,-0.109637,-0.005832,0.000000,-0.436000,0.000000,0.000000,0.000000,0.000000
1.28600,-0.078253,0.054173,0.019466,0.062646,-0.111552,-0.005934,0.000000,-0.436000,0.000000,0.000000,0.000000,0.000000
1.28800,-0.079608,0.055111,0.019803,0.063730,-0.113483,-0.006036,0.000000,-0.436000,0.000000,0.000000,0.000000,0.000000
1.29000,-0.080973,0.056056,0.020143,0.064824,-0.115430,-0.006140,0.000000,-0.436000,0.000000,0.000000,0.000000,0.000000
1.29200,-0.082350,0.057010,0.020485,0.065926,-0.117393,-0.006244,0.000000,-0.436000,0.000000,0.000000,0.000000,0.000000
1.29400,-0.083738,0.057970,0.020830,0.067037,-0.119372,-0.006349,0.000000,-0.436000,0.000000,0.000000,0.000000,0.000000
1.29600,-0.085138,0.058939,0.021178,0.068158,-0.121366,-0.006456,0.000000,-0.436000,0.000000,0.000000,0.000000,0.000000
1.29800,-0.086548,0.059915,0.021529,0.069286,-0.123377,-0.006562,0.000000,-0.436000,0.000000,0.000000,0.000000,0.000000
1.30000,-0.087969,0.060899,0.021883,0.070424,-0.125402,-0.006670,0.000000,-0.436000,0.000000,0.000000,0.000000,0.000000
1.30200,-0.089401,0.061890,0.022239,0.071570,-0.127444,-0.006779,0.000000,-0.436000,0.000000,0.000000,0.000000,0.000000
1.30400,-0.090843,0.062889,0.022598,0.072725,-0.129500,-0.006888,0.000000,-0.436000,0.000000,0.000000,0.000000,0.000000
1.30600,-0.092297,0.063895,0.022959,0.073889,-0.131572,-0.006998,0.000000,-0.436000,0.000000,0.000000,0.000000,0.000000
1.30800,-0.093761,0.064909,0.023323,0.075061,-0.133659,-0.007109,0.000000,-0.436000,0.000000,0.000000,0.000000,0.000000
1.31000,-0.095235,0.065929,0.023690,0.076241,-0.135761,-0.007221,0.000000,-0.436000,0.000000,0.000000,0.000000,0.000000
1.31200,-0.096720,0.066958,0.024060,0.077430,-0.137878,-0.007334,0.000000,-0.436000,0.000000,0.000000,0.000000,0.000000
1.31400,-0.098216,0.067993,0.024432,0.078627,-0.140010,-0.007447,0.000000,-0.436000,0.000000,0.000000,0.000000,0.000000
1.31600,-0.099722,0.069035,0.024806,0.079833,-0.142156,-0.007561,0.000000,-0.436000,0.000000,0.000000,0.000000,0.000000
1.31800,-0.101238,0.070085,0.025183,0.081047,-0.144318,-0.007676,0.000000,-0.436000,0.000000,0.000000,0.000000,0.000000
1.32000,-0.102764,0.071141,0.025563,0.082268,-0.146493,-0.007792,0.000000,-0.436000,0.000000,0.000000,0.000000,0.000000
1.32200,-0.104300,0.072205,0.025945,0.083498,-0.148683,-0.007909,0.000000,-0.436000,0.000000,0.000000,0.000000,0.000000
1.32400,-0.105847,0.073276,0.026330,0.084736,-0.150888,-0.008026,0.000000,-0.436000,0.000000,0.000000,0.000000,0.000000
1.32600,-0.107403,0.074353,0.026717,0.085982,-0.153107,-0.008144,0.000000,-0.436000,0.000000,0.000000,0.000000,0.000000
1.32800,-0.108969,0.075437,0.027107,0.087236,-0.155339,-0.008263,0.000000,-0.436000,0.000000,0.000000,0.000000,0.000000
1.33000,-0.110545,0.076528,0.027499,0.088498,-0.157586,-0.008382,0.000000,-0.436000,0.000000,0.000000,0.000000,0.000000
1.33200,-0.112131,0.077626,0.027893,0.089767,-0.159846,-0.008502,0.000000,-0.436000,0.000000,0.000000,0.000000,0.000000
1.33400,-0.113726,0.078730,0.028290,0.091044,-0.162120,-0.008623,0.000000,-0.436000,0.000000,0.000000,0.000000,0.000000
1.33600,-0.115331,0.079841,0.028689,0.092329,-0.164408,-0.008745,0.000000,-0.436000,0.000000,0.000000,0.000000,0.000000
1.33800,-0.116945,0.080959,0.029091,0.093622,-0.166709,-0.008867,0.000000,-0.436000,0.000000,0.000000,0.000000,0.000000
1.34000,-0.118569,0.082083,0.029495,0.094921,-0.169024,-0.008990,0.000000,-0.436000,0.000000,0.000000,0.000000,0.000000
1.34200,-0.120202,0.083213,0.029901,0.096229,-0.171352,-0.009114,0.000000,-0.436000,0.000000,0.000000,0.000000,0.000000
1.34400,-0.121844,0.084350,0.030309,0.097543,-0.173692,-0.009239,0.000000,-0.436000,0.000000,0.000000,0.000000,0.000000
1.34600,-0.123495,0.085493,0.030720,0.098865,-0.176046,-0.009364,0.000000,-0.436000,0.000000,0.000000,0.000000,0.000000
1.34800,-0.125155,0.086642,0.031133,0.100194,-0.178413,-0.009490,0.000000,-0.436000,0.000000,0.000000,0.000000,0.000000
1.35000,-0.126824,0.087798,0.031548,0.101530,-0.180792,-0.009616,0.000000,-0.436000,0.000000,0.000000,0.000000,0.000000
1.35200,-0.128502,0.088959,0.031965,0.102873,-0.183183,-0.009744,0.000000,-0.436000,0.000000,0.000000,0.000000,0.000000
1.35400,-0.130188,0.090127,0.032385,0.104223,-0.185588,-0.009871,0.000000,-0.436000,0.000000,0.000000,0.000000,0.000000
1.35600,-0.131883,0.091300,0.032807,0.105580,-0.188004,-0.010000,0.000000,-0.436000,0.000000,0.000000,0.000000,0.000000
1.35800,-0.133587,0.092480,0.033230,0.106944,-0.190432,-0.010129,0.000000,-0.436000,0.000000,0.000000,0.000000,0.000000
1.36000,-0.135299,0.093665,0.033656,0.108315,-0.192873,-0.010259,0.000000,-0.436000,0.000000,0.000000,0.000000,0.000000
1.36200,-0.137019,0.094856,0.034084,0.109692,-0.195325,-0.010389,0.000000,-0.436000,0.000000,0.000000,0.000000,0.000000
1.36400,-0.138748,0.096052,0.034514,0.111076,-0.197789,-0.010521,0.000000,-0.436000,0.000000,0.000000,0.000000,0.000000
1.36600,-0.140484,0.097255,0.034946,0.112466,-0.200265,-0.010652,0.000000,-0.436000,0.000000,0.000000,0.000000,0.000000
1.36800,-0.142229,0.098462,0.035380,0.113862,-0.202752,-0.010784,0.000000,-0.436000,0.000000,0.000000,0.000000,0.000000
1.37000,-0.143982,0.099676,0.035816,0.115265,-0.205250,-0.010917,0.000000,-0.436000,0.000000,0.000000,0.000000,0.000000
1.37200,-0.145742,0.100894,0.036254,0.116675,-0.207760,-0.011051,0.000000,-0.436000,0.000000,0.000000,0.000000,0.000000
1.37400,-0.147510,0.102118,0.036694,0.118090,-0.210280,-0.011185,0.000000,-0.436000,0.000000,0.000000,0.000000,0.000000
1.37600,-0.149285,0.103347,0.037135,0.119512,-0.212811,-0.011320,0.000000,-0.436000,0.000000,0.000000,0.000000,0.000000
1.37800,-0.151069,0.104582,0.037579,0.120939,-0.215353,-0.011455,0.000000,-0.436000,0.000000,0.000000,0.000000,0.000000
1.38000,-0.152859,0.105821,0.038024,0.122372,-0.217905,-0.011590,0.000000,-0.436000,0.000000,0.000000,0.000000,0.000000
1.38200,-0.154657,0.107066,0.038472,0.123812,-0.220468,-0.011727,0.000000,-0.436000,0.000000,0.000000,0.000000,0.000000
1.38400,-0.156462,0.108315,0.038921,0.125257,-0.223041,-0.011864,0.000000,-0.436000,0.000000,0.000000,0.000000,0.000000
1.38600,-0.158274,0.109570,0.039371,0.126707,-0.225624,-0.012001,0.000000,-0.436000,0.000000,0.000000,0.000000,0.000000
1.38800,-0.160093,0.110829,0.039824,0.128163,-0.228217,-0.012139,0.000000,-0.436000,0.000000,0.000000,0.000000,0.000000
1.39000,-0.161918,0.112093,0.040278,0.129625,-0.230820,-0.012277,0.000000,-0.436000,0.000000,0.000000,0.000000,0.000000
1.39200,-0.163751,0.113361,0.040734,0.131092,-0.233432,-0.012416,0.000000,-0.436000,0.000000,0.000000,0.000000,0.000000
1.39400,-0.165590,0.114635,0.041191,0.132564,-0.236054,-0.012556,0.000000,-0.436000,0.000000,0.000000,0.000000,0.000000
1.39600,-0.167436,0.115912,0.041650,0.134042,-0.238685,-0.012696,0.000000,-0.436000,0.000000,0.000000,0.000000,0.000000
1.39800,-0.169288,0.117194,0.042111,0.135524,-0.241325,-0.012836,0.000000,-0.436000,0.000000,0.000000,0.000000,0.000000
1.40000,-0.171146,0.118481,0.042573,0.137012,-0.243974,-0.012977,0.000000,-0.436000,0.000000,0.000000,0.000000,0.000000
1.40200,-0.173010,0.119772,0.043037,0.138505,-0.246632,-0.013118,0.000000,-0.436000,0.000000,0.000000,0.000000,0.000000
1.40400,-0.174881,0.121066,0.043502,0.140002,-0.249298,-0.013260,0.000000,-0.436000,0.000000,0.000000,0.000000,0.000000
1.40600,-0.176757,0.122365,0.043969,0.141504,-0.251973,-0.013403,0.000000,-0.436000,0.000000,0.000000,0.000000,0.000000
1.40800,-0.178639,0.123668,0.044437,0.143011,-0.254656,-0.013545,0.000000,-0.436000,0.000000,0.000000,0.000000,0.000000
1.41000,-0.180527,0.124975,0.044907,0.144523,-0.257347,-0.013688,0.000000,-0.436000,0.000000,0.000000,0.000000,0.000000
1.41200,-0.182421,0.126286,0.045378,0.146038,-0.260047,-0.013832,0.000000,-0.436000,0.000000,0.000000,0.000000,0.000000
1.41400,-0.184320,0.127601,0.045850,0.147559,-0.262754,-0.013976,0.000000,-0.436000,0.000000,0.000000,0.000000,0.000000
1.41600,-0.186224,0.128919,0.046324,0.149083,-0.265468,-0.014120,0.000000,-0.436000,0.000000,0.000000,0.000000,0.000000
1.41800,-0.188134,0.130241,0.046799,0.150612,-0.268191,-0.014265,0.000000,-0.436000,0.000000,0.000000,0.000000,0.000000
1.42000,-0.190048,0.131567,0.047275,0.152145,-0.270920,-0.014410,0.000000,-0.436000,0.000000,0.000000,0.000000,0.000000
1.42200,-0.191968,0.132896,0.047753,0.153681,-0.273657,-0.014556,0.000000,-0.436000,0.000000,0.000000,0.000000,0.000000
1.42400,-0.193893,0.134228,0.048232,0.155222,-0.276400,-0.014702,0.000000,-0.436000,0.000000,0.000000,0.000000,0.000000
1.42600,-0.195822,0.135564,0.048712,0.156767,-0.279150,-0.014848,0.000000,-0.436000,0.000000,0.000000,0.000000,0.000000
1.42800,-0.197756,0.136902,0.049193,0.158315,-0.281907,-0.014995,0.000000,-0.436000,0.000000,0.000000,0.000000,0.000000
1.43000,-0.199694,0.138244,0.049675,0.159867,-0.284670,-0.015142,0.000000,-0.436000,0.000000,0.000000,0.000000,0.000000
1.43200,-0.201637,0.139589,0.050158,0.161422,-0.287440,-0.015289,0.000000,-0.436000,0.000000,0.000000,0.000000,0.000000
1.43400,-0.203584,0.140937,0.050643,0.162981,-0.290216,-0.015437,0.000000,-0.436000,0.000000,0.000000,0.000000,0.000000
1.43600,-0.205535,0.142288,0.051128,0.164543,-0.292997,-0.015585,0.000000,-0.436000,0.000000,0.000000,0.000000,0.000000
1.43800,-0.207491,0.143642,0.051614,0.166108,-0.295784,-0.015733,0.000000,-0.436000,0.000000,0.000000,0.000000,0.000000
1.44000,-0.209450,0.144998,0.052102,0.167677,-0.298577,-0.015881,0.000000,-0.436000,0.000000,0.000000,0.000000,0.000000
1.44200,-0.211413,0.146357,0.052590,0.169248,-0.301375,-0.016030,0.000000,-0.436000,0.000000,0.000000,0.000000,0.000000
1.44400,-0.213379,0.147718,0.053079,0.170822,-0.304179,-0.016179,0.000000,-0.436000,0.000000,0.000000,0.000000,0.000000
1.44600,-0.215349,0.149082,0.053569,0.172399,-0.306987,-0.016329,0.000000,-0.436000,0.000000,0.000000,0.000000,0.000000
1.44800,-0.217323,0.150448,0.054060,0.173979,-0.309800,-0.016478,0.000000,-0.436000,0.000000,0.000000,0.000000,0.000000
1.45000,-0.219299,0.151817,0.054552,0.175562,-0.312618,-0.016628,0.000000,-0.436000,0.000000,0.000000,0.000000,0.000000
1.45200,-0.221279,0.153187,0.055044,0.177147,-0.315441,-0.016778,0.000000,-0.436000,0.000000,0.000000,0.000000,0.000000
1.45400,-0.223262,0.154560,0.055538,0.178734,-0.318267,-0.016929,0.000000,-0.436000,0.000000,0.000000,0.000000,0.000000
1.45600,-0.225248,0.155935,0.056031,0.180324,-0.321098,-0.017079,0.000000,-0.436000,0.000000,0.000000,0.000000,0.000000
1.45800,-0.227237,0.157311,0.056526,0.181916,-0.323933,-0.017230,0.000000,-0.436000,0.000000,0.000000,0.000000,0.000000
1.46000,-0.229228,0.158690,0.057021,0.183510,-0.326771,-0.017381,0.000000,-0.436000,0.000000,0.000000,0.000000,0.000000
1.46200,-0.231221,0.160070,0.057517,0.185106,-0.329613,-0.017532,0.000000,-0.436000,0.000000,0.000000,0.000000,0.000000
1.46400,-0.233217,0.161452,0.058014,0.186704,-0.332459,-0.017684,0.000000,-0.436000,0.000000,0.000000,0.000000,0.000000
1.46600,-0.235216,0.162835,0.058511,0.188304,-0.335308,-0.017835,0.000000,-0.436000,0.000000,0.000000,0.000000,0.000000
1.46800,-0.237216,0.164220,0.059009,0.189905,-0.338159,-0.017987,0.000000,-0.436000,0.000000,0.000000,0.000000,0.000000
1.47000,-0.239219,0.165606,0.059507,0.191508,-0.341014,-0.018139,0.000000,-0.436000,0.000000,0.000000,0.000000,0.000000
1.47200,-0.241223,0.166994,0.060005,0.193113,-0.343871,-0.018291,0.000000,-0.436000,0.000000,0.000000,0.000000,0.000000
1.47400,-0.243229,0.168383,0.060504,0.194719,-0.346731,-0.018443,0.000000,-0.436000,0.000000,0.000000,0.000000,0.000000
1.47600,-0.245237,0.169773,0.061004,0.196326,-0.349593,-0.018595,0.000000,-0.436000,0.000000,0.000000,0.000000,0.000000
1.47800,-0.247246,0.171164,0.061504,0.197935,-0.352457,-0.018747,0.000000,-0.436000,0.000000,0.000000,0.000000,0.000000
1.48000,-0.249257,0.172555,0.062004,0.199544,-0.355323,-0.018900,0.000000,-0.436000,0.000000,0.000000,0.000000,0.000000
1.48200,-0.251268,0.173948,0.062504,0.201155,-0.358191,-0.019052,0.000000,-0.436000,0.000000,0.000000,0.000000,0.000000
1.48400,-0.253281,0.175342,0.063005,0.202766,-0.361061,-0.019205,0.000000,-0.436000,0.000000,0.000000,0.000000,0.000000
1.48600,-0.255295,0.176736,0.063506,0.204378,-0.363931,-0.019358,0.000000,-0.436000,0.000000,0.000000,0.000000,0.000000
1.48800,-0.257310,0.178130,0.064007,0.205991,-0.366803,-0.019510,0.000000,-0.436000,0.000000,0.000000,0.000000,0.000000
1.49000,-0.259325,0.179526,0.064508,0.207605,-0.369676,-0.019663,0.000000,-0.436000,0.000000,0.000000,0.000000,0.000000
1.49200,-0.261341,0.180921,0.065010,0.209219,-0.372550,-0.019816,0.000000,-0.436000,0.000000,0.000000,0.000000,0.000000
1.49400,-0.263358,0.182317,0.065511,0.210833,-0.375425,-0.019969,0.000000,-0.436000,0.000000,0.000000,0.000000,0.000000
1.49600,-0.265375,0.183713,0.066013,0.212448,-0.378300,-0.020122,0.000000,-0.436000,0.000000,0.000000,0.000000,0.000000
1.49800,-0.267391,0.185110,0.066515,0.214062,-0.381175,-0.020275,0.000000,-0.436000,0.000000,0.000000,0.000000,0.000000
1.50000,-0.269409,0.186506,0.067017,0.215677,-0.384050,-0.020428,0.000000,-0.436000,0.000000,0.000000,0.000000,0.000000
1.50200,-0.271425,0.187902,0.067518,0.217292,-0.386926,-0.020581,0.000000,-0.436000,0.000000,0.000000,0.000000,0.000000
1.50400,-0.273442,0.189299,0.068020,0.218906,-0.389801,-0.020734,0.000000,-0.436000,0.000000,0.000000,0.000000,0.000000
1.50600,-0.275459,0.190695,0.068522,0.220521,-0.392675,-0.020887,0.000000,-0.436000,0.000000,0.000000,0.000000,0.000000
1.50800,-0.277475,0.192090,0.069023,0.222134,-0.395549,-0.021039,0.000000,-0.436000,0.000000,0.000000,0.000000,0.000000
1.51000,-0.279490,0.193485,0.069524,0.223748,-0.398422,-0.021192,0.000000,-0.436000,0.000000,0.000000,0.000000,0.000000
1.51200,-0.281505,0.194880,0.070026,0.225361,-0.401294,-0.021345,0.000000,-0.436000,0.000000,0.000000,0.000000,0.000000
1.51400,-0.283519,0.196274,0.070527,0.226973,-0.404165,-0.021498,0.000000,-0.436000,0.000000,0.000000,0.000000,0.000000
1.51600,-0.285532,0.197668,0.071027,0.228584,-0.407034,-0.021650,0.000000,-0.436000,0.000000,0.000000,0.000000,0.000000
1.51800,-0.287543,0.199060,0.071528,0.230195,-0.409902,-0.021803,0.000000,-0.436000,0.000000,0.000000,0.000000,0.000000
1.52000,-0.289554,0.200452,0.072028,0.231805,-0.412768,-0.021955,0.000000,-0.436000,0.000000,0.000000,0.000000,0.000000
1.52200,-0.291563,0.201843,0.072528,0.233413,-0.415632,-0.022108,0.000000,-0.436000,0.000000,0.000000,0.000000,0.000000
1.52400,-0.293571,0.203233,0.073027,0.235020,-0.418494,-0.022260,0.000000,-0.436000,0.000000,0.000000,0.000000,0.000000
1.52600,-0.295577,0.204622,0.073526,0.236626,-0.421354,-0.022412,0.000000,-0.436000,0.000000,0.000000,0.000000,0.000000
1.52800,-0.297581,0.206009,0.074025,0.238231,-0.424211,-0.022564,0.000000,-0.436000,0.000000,0.000000,0.000000,0.000000
1.53000,-0.299584,0.207396,0.074523,0.239834,-0.427066,-0.022716,0.000000,-0.436000,0.000000,0.000000,0.000000,0.000000
1.53200,-0.301584,0.208781,0.075020,0.241435,-0.429918,-0.022868,0.000000,-0.436000,0.000000,0.000000,0.000000,0.000000
1.53400,-0.303582,0.210164,0.075518,0.243035,-0.432766,-0.023019,0.000000,-0.436000,0.000000,0.000000,0.000000,0.000000
1.53600,-0.305579,0.211546,0.076014,0.244633,-0.435612,-0.023170,0.000000,-0.436000,0.000000,0.000000,0.000000,0.000000
1.53800,-0.307572,0.212926,0.076510,0.246229,-0.438454,-0.023322,0.000000,-0.436000,0.000000,0.000000,0.000000,0.000000
1.54000,-0.309563,0.214305,0.077005,0.247823,-0.441293,-0.023473,0.000000,-0.436000,0.000000,0.000000,0.000000,0.000000
1.54200,-0.311552,0.215681,0.077500,0.249415,-0.444127,-0.023623,0.000000,-0.436000,0.000000,0.000000,0.000000,0.000000
1.54400,-0.313538,0.217056,0.077994,0.251005,-0.446958,-0.023774,0.000000,-0.436000,0.000000,0.000000,0.000000,0.000000
1.54600,-0.315521,0.218429,0.078487,0.252592,-0.449785,-0.023924,0.000000,-0.436000,0.000000,0.000000,0.000000,0.000000
1.54800,-0.317501,0.219799,0.078980,0.254177,-0.452607,-0.024074,0.000000,-0.436000,0.000000,0.000000,0.000000,0.000000
1.55000,-0.319477,0.221168,0.079471,0.255760,-0.455425,-0.024224,0.000000,-0.436000,0.000000,0.000000,0.000000,0.000000
1.55200,-0.321451,0.222534,0.079962,0.257340,-0.458238,-0.024374,0.000000,-0.436000,0.000000,0.000000,0.000000,0.000000
1.55400,-0.323421,0.223898,0.080452,0.258917,-0.461047,-0.024523,0.000000,-0.436000,0.000000,0.000000,0.000000,0.000000
1.55600,-0.325387,0.225259,0.080942,0.260491,-0.463850,-0.024672,0.000000,-0.436000,0.000000,0.000000,0.000000,0.000000
1.55800,-0.327350,0.226618,0.081430,0.262063,-0.466648,-0.024821,0.000000,-0.436000,0.000000,0.000000,0.000000,0.000000
1.56000,-0.329309,0.227974,0.081917,0.263631,-0.469441,-0.024970,0.000000,-0.436000,0.000000,0.000000,0.000000,0.000000
1.56200,-0.331265,0.229328,0.082404,0.265196,-0.472228,-0.025118,0.000000,-0.436000,0.000000,0.000000,0.000000,0.000000
1.56400,-0.333216,0.230679,0.082889,0.266758,-0.475010,-0.025266,0.000000,-0.436000,0.000000,0.000000,0.000000,0.000000
1.56600,-0.335163,0.232027,0.083373,0.268317,-0.477785,-0.025414,0.000000,-0.436000,0.000000,0.000000,0.000000,0.000000
1.56800,-0.337106,0.233372,0.083857,0.269873,-0.480555,-0.025561,0.000000,-0.436000,0.000000,0.000000,0.000000,0.000000
1.57000,-0.339044,0.234713,0.084339,0.271424,-0.483318,-0.025708,0.000000,-0.436000,0.000000,0.000000,0.000000,0.000000
1.57200,-0.340978,0.236052,0.084820,0.272973,-0.486075,-0.025855,0.000000,-0.436000,0.000000,0.000000,0.000000,0.000000
1.57400,-0.342907,0.237388,0.085300,0.274517,-0.488825,-0.026001,0.000000,-0.436000,0.000000,0.000000,0.000000,0.000000
1.57600,-0.344832,0.238720,0.085779,0.276058,-0.491569,-0.026147,0.000000,-0.436000,0.000000,0.000000,0.000000,0.000000
1.57800,-0.346752,0.240049,0.086256,0.277595,-0.494305,-0.026292,0.000000,-0.436000,0.000000,0.000000,0.000000,0.000000
1.58000,-0.348666,0.241375,0.086732,0.279127,-0.497035,-0.026437,0.000000,-0.436000,0.000000,0.000000,0.000000,0.000000
1.58200,-0.350576,0.242697,0.087207,0.280656,-0.499757,-0.026582,0.000000,-0.436000,0.000000,0.000000,0.000000,0.000000
1.58400,-0.352480,0.244015,0.087681,0.282181,-0.502472,-0.026727,0.000000,-0.436000,0.000000,0.000000,0.000000,0.000000
1.58600,-0.354379,0.245330,0.088153,0.283701,-0.505179,-0.026871,0.000000,-0.436000,0.000000,0.000000,0.000000,0.000000
1.58800,-0.356273,0.246640,0.088624,0.285217,-0.507878,-0.027014,0.000000,-0.436000,0.000000,0.000000,0.000000,0.000000
1.59000,-0.358161,0.247947,0.089094,0.286728,-0.510569,-0.027157,0.000000,-0.436000,0.000000,0.000000,0.000000,0.000000
1.59200,-0.360043,0.249250,0.089562,0.288235,-0.513252,-0.027300,0.000000,-0.436000,0.000000,0.000000,0.000000,0.000000
1.59400,-0.361919,0.250549,0.090029,0.289737,-0.515927,-0.027442,0.000000,-0.436000,0.000000,0.000000,0.000000,0.000000
1.59600,-0.363790,0.251844,0.090494,0.291235,-0.518594,-0.027584,0.000000,-0.436000,0.000000,0.000000,0.000000,0.000000
1.59800,-0.365654,0.253135,0.090958,0.292727,-0.521252,-0.027726,0.000000,-0.436000,0.000000,0.000000,0.000000,0.000000
1.60000,-0.367512,0.254421,0.091420,0.294215,-0.523901,-0.027867,0.000000,-0.436000,0.000000,0.000000,0.000000,0.000000
1.60200,-0.369364,0.255704,0.091881,0.295697,-0.526541,-0.028007,0.000000,-0.436000,0.000000,0.000000,0.000000,0.000000
1.60400,-0.371210,0.256981,0.092340,0.297175,-0.529172,-0.028147,0.000000,-0.436000,0.000000,0.000000,0.000000,0.000000
1.60600,-0.373049,0.258254,0.092798,0.298647,-0.531793,-0.028286,0.000000,-0.436000,0.000000,0.000000,0.000000,0.000000
1.60800,-0.374882,0.259523,0.093254,0.300114,-0.534406,-0.028425,0.000000,-0.436000,0.000000,0.000000,0.000000,0.000000
1.61000,-0.376707,0.260787,0.093708,0.301576,-0.537008,-0.028564,0.000000,-0.436000,0.000000,0.000000,0.000000,0.000000
1.61200,-0.378526,0.262046,0.094160,0.303032,-0.539601,-0.028702,0.000000,-0.436000,0.000000,0.000000,0.000000,0.000000
1.61400,-0.380338,0.263301,0.094611,0.304483,-0.542184,-0.028839,0.000000,-0.436000,0.000000,0.000000,0.000000,0.000000
1.61600,-0.382143,0.264550,0.095060,0.305928,-0.544757,-0.028976,0.000000,-0.436000,0.000000,0.000000,0.000000,0.000000
1.61800,-0.383941,0.265795,0.095507,0.307367,-0.547320,-0.029112,0.000000,-0.436000,0.000000,0.000000,0.000000,0.000000
1.62000,-0.385731,0.267034,0.095952,0.308800,-0.549872,-0.029248,0.000000,-0.436000,0.000000,0.000000,0.000000,0.000000
1.62200,-0.387515,0.268269,0.096396,0.310228,-0.552414,-0.029383,0.000000,-0.436000,0.000000,0.000000,0.000000,0.000000
1.62400,-0.389290,0.269498,0.096838,0.311649,-0.554945,-0.029518,0.000000,-0.436000,0.000000,0.000000,0.000000,0.000000
1.62600,-0.391058,0.270722,0.097278,0.313065,-0.557466,-0.029652,0.000000,-0.436000,0.000000,0.000000,0.000000,0.000000
1.62800,-0.392818,0.271940,0.097715,0.314474,-0.559975,-0.029785,0.000000,-0.436000,0.000000,0.000000,0.000000,0.000000
1.63000,-0.394571,0.273154,0.098151,0.315877,-0.562473,-0.029918,0.000000,-0.436000,0.000000,0.000000,0.000000,0.000000
1.63200,-0.396316,0.274361,0.098585,0.317273,-0.564960,-0.030050,0.000000,-0.436000,0.000000,0.000000,0.000000,0.000000
1.63400,-0.398052,0.275564,0.099017,0.318664,-0.567436,-0.030182,0.000000,-0.436000,0.000000,0.000000,0.000000,0.000000
1.63600,-0.399781,0.276760,0.099447,0.320047,-0.569900,-0.030313,0.000000,-0.436000,0.000000,0.000000,0.000000,0.000000
1.63800,-0.401501,0.277951,0.099875,0.321425,-0.572352,-0.030444,0.000000,-0.436000,0.000000,0.000000,0.000000,0.000000
1.64000,-0.403213,0.279136,0.100301,0.322795,-0.574793,-0.030573,0.000000,-0.436000,0.000000,0.000000,0.000000,0.000000
1.64200,-0.404917,0.280316,0.100725,0.324159,-0.577221,-0.030703,0.000000,-0.436000,0.000000,0.000000,0.000000,0.000000
1.64400,-0.406612,0.281489,0.101147,0.325516,-0.579638,-0.030831,0.000000,-0.436000,0.000000,0.000000,0.000000,0.000000
1.64600,-0.408298,0.282657,0.101566,0.326866,-0.582042,-0.030959,0.000000,-0.436000,0.000000,0.000000,0.000000,0.000000
1.64800,-0.409976,0.283818,0.101983,0.328209,-0.584434,-0.031086,0.000000,-0.436000,0.000000,0.000000,0.000000,0.000000
1.65000,-0.411645,0.284974,0.102399,0.329545,-0.586813,-0.031213,0.000000,-0.436000,0.000000,0.000000,0.000000,0.000000
1.65200,-0.413305,0.286123,0.102812,0.330874,-0.589179,-0.031339,0.000000,-0.436000,0.000000,0.000000,0.000000,0.000000
1.65400,-0.414956,0.287266,0.103222,0.332196,-0.591533,-0.031464,0.000000,-0.436000,0.000000,0.000000,0.000000,0.000000
1.65600,-0.416598,0.288403,0.103631,0.333511,-0.593874,-0.031588,0.000000,-0.436000,0.000000,0.000000,0.000000,0.000000
1.65800,-0.418231,0.289533,0.104037,0.334818,-0.596202,-0.031712,0.000000,-0.436000,0.000000,0.000000,0.000000,0.000000
1.66000,-0.419855,0.290657,0.104441,0.336118,-0.598516,-0.031835,0.000000,-0.436000,0.000000,0.000000,0.000000,0.000000
1.66200,-0.421469,0.291774,0.104842,0.337410,-0.600817,-0.031958,0.000000,-0.436000,0.000000,0.000000,0.000000,0.000000
1.66400,-0.423074,0.292885,0.105242,0.338695,-0.603105,-0.032079,0.000000,-0.436000,0.000000,0.000000,0.000000,0.000000
1.66600,-0.424669,0.293990,0.105638,0.339972,-0.605379,-0.032200,0.000000,-0.436000,0.000000,0.000000,0.000000,0.000000
1.66800,-0.426255,0.295088,0.106033,0.341241,-0.607640,-0.032321,0.000000,-0.436000,0.000000,0.000000,0.000000,0.000000
1.67000,-0.427831,0.296179,0.106425,0.342503,-0.609886,-0.032440,0.000000,-0.436000,0.000000,0.000000,0.000000,0.000000
1.67200,-0.429397,0.297263,0.106814,0.343757,-0.612119,-0.032559,0.000000,-0.436000,0.000000,0.000000,0.000000,0.000000
1.67400,-0.430953,0.298340,0.107202,0.345003,-0.614337,-0.032677,0.000000,-0.436000,0.000000,0.000000,0.000000,0.000000
1.67600,-0.432500,0.299411,0.107586,0.346241,-0.616542,-0.032794,0.000000,-0.436000,0.000000,0.000000,0.000000,0.000000
1.67800,-0.434036,0.300474,0.107968,0.347471,-0.618732,-0.032911,0.000000,-0.436000,0.000000,0.000000,0.000000,0.000000
1.68000,-0.435562,0.301531,0.108348,0.348693,-0.620908,-0.033026,0.000000,-0.436000,0.000000,0.000000,0.000000,0.000000
1.68200,-0.437078,0.302581,0.108725,0.349906,-0.623069,-0.033141,0.000000,-0.436000,0.000000,0.000000,0.000000,0.000000
1.68400,-0.438584,0.303623,0.109100,0.351112,-0.625216,-0.033255,0.000000,-0.436000,0.000000,0.000000,0.000000,0.000000
1.68600,-0.440080,0.304658,0.109472,0.352309,-0.627347,-0.033369,0.000000,-0.436000,0.000000,0.000000,0.000000,0.000000
