sainanliu129-hub/model/applications/Excitation_Trajectory_E1/excitation_trajectory/TLBO_E1/excitation_trajectory_TLBO_E1_1_2.csv
time,leg_l1_joint,leg_l2_joint,leg_l3_joint,leg_l4_joint,leg_l5_joint,leg_l6_joint,leg_r1_joint,leg_r2_joint,leg_r3_joint,leg_r4_joint,leg_r5_joint,leg_r6_joint
0.00000,0.000000,0.000000,0.000000,0.000000,0.000000,0.000000,0.000000,-0.000000,0.000000,0.000000,0.000000,0.000000
0.00200,0.000000,0.000000,0.000000,0.000000,0.000000,0.000000,0.000000,-0.000000,0.000000,0.000000,0.000000,0.000000
0.00400,0.000000,0.000000,0.000000,0.000000,0.000000,0.000000,0.000000,-0.000000,0.000000,0.000000,0.000000,0.000000
0.00600,0.000000,0.000000,0.000000,0.000000,0.000000,0.000000,0.000000,-0.000001,0.000000,0.000000,0.000000,0.000000
0.00800,0.000000,0.000000,0.000000,0.000000,0.000000,0.000000,0.000000,-0.000002,0.000000,0.000000,0.000000,0.000000
0.01000,0.000000,0.000000,0.000000,0.000000,0.000000,0.000000,0.000000,-0.000004,0.000000,0.000000,0.000000,0.000000
0.01200,0.000000,0.000000,0.000000,0.000000,0.000000,0.000000,0.000000,-0.000007,0.000000,0.000000,0.000000,0.000000
0.01400,0.000000,0.000000,0.000000,0.000000,0.000000,0.000000,0.000000,-0.000012,0.000000,0.000000,0.000000,0.000000
0.01600,0.000000,0.000000,0.000000,0.000000,0.000000,0.000000,0.000000,-0.000018,0.000000,0.000000,0.000000,0.000000
0.01800,0.000000,0.000000,0.000000,0.000000,0.000000,0.000000,0.000000,-0.000025,0.000000,0.000000,0.000000,0.000000
0.02000,0.000000,0.000000,0.000000,0.000000,0.000000,0.000000,0.000000,-0.000034,0.000000,0.000000,0.000000,0.000000
0.02200,0.000000,0.000000,0.000000,0.000000,0.000000,0.000000,0.000000,-0.000045,0.000000,0.000000,0.000000,0.000000
0.02400,0.000000,0.000000,0.000000,0.000000,0.000000,0.000000,0.000000,-0.000058,0.000000,0.000000,0.000000,0.000000
0.02600,0.000000,0.000000,0.000000,0.000000,0.000000,0.000000,0.000000,-0.000074,0.000000,0.000000,0.000000,0.000000
0.02800,0.000000,0.000000,0.000000,0.000000,0.000000,0.000000,0.000000,-0.000092,0.000000,0.000000,0.000000,0.000000
0.03000,0.000000,0.000000,0.000000,0.000000,0.000000,0.000000,0.000000,-0.000113,0.000000,0.000000,0.000000,0.000000
0.03200,0.000000,0.000000,0.000000,0.000000,0.000000,0.000000,0.000000,-0.000137,0.000000,0.000000,0.000000,0.000000
0.03400,0.000000,0.000000,0.000000,0.000000,0.000000,0.000000,0.000000,-0.000164,0.000000,0.000000,0.000000,0.000000
0.03600,0.000000,0.000000,0.000000,0.000000,0.000000,0.000000,0.000000,-0.000194,0.000000,0.000000,0.000000,0.000000
0.03800,0.000000,0.000000,0.000000,0.000000,0.000000,0.000000,0.000000,-0.000227,0.000000,0.000000,0.000000,0.000000
0.04000,0.000000,0.000000,0.000000,0.000000,0.000000,0.000000,0.000000,-0.000264,0.000000,0.000000,0.000000,0.000000
0.04200,0.000000,0.000000,0.000000,0.000000,0.000000,0.000000,0.000000,-0.000305,0.000000,0.000000,0.000000,0.000000
0.04400,0.000000,0.000000,0.000000,0.000000,0.000000,0.000000,0.000000,-0.000349,0.000000,0.000000,0.000000,0.000000
0.04600,0.000000,0.000000,0.000000,0.000000,0.000000,0.000000,0.000000,-0.000398,0.000000,0.000000,0.000000,0.000000
0.04800,0.000000,0.000000,0.000000,0.000000,0.000000,0.000000,0.000000,-0.000451,0.000000,0.000000,0.000000,0.000000
0.05000,0.000000,0.000000,0.000000,0.000000,0.000000,0.000000,0.000000,-0.000508,0.000000,0.000000,0.000000,0.000000
0.05200,0.000000,0.000000,0.000000,0.000000,0.000000,0.000000,0.000000,-0.000570,0.000000,0.000000,0.000000,0.000000
0.05400,0.000000,0.000000,0.000000,0.000000,0.000000,0.000000,0.000000,-0.000636,0.000000,0.000000,0.000000,0.000000
0.05600,0.000000,0.000000,0.000000,0.000000,0.000000,0.000000,0.000000,-0.000707,0.000000,0.000000,0.000000,0.000000
0.05800,0.000000,0.000000,0.000000,0.000000,0.000000,0.000000,0.000000,-0.000783,0.000000,0.000000,0.000000,0.000000
0.06000,0.000000,0.000000,0.000000,0.000000,0.000000,0.000000,0.000000,-0.000864,0.000000,0.000000,0.000000,0.000000
0.06200,0.000000,0.000000,0.000000,0.000000,0.000000,0.000000,0.000000,-0.000950,0.000000,0.000000,0.000000,0.000000
0.06400,0.000000,0.000000,0.000000,0.000000,0.000000,0.000000,0.000000,-0.001042,0.000000,0.000000,0.000000,0.000000
0.06600,0.000000,0.000000,0.000000,0.000000,0.000000,0.000000,0.000000,-0.001139,0.000000,0.000000,0.000000,0.000000
0.06800,0.000000,0.000000,0.000000,0.000000,0.000000,0.000000,0.000000,-0.001242,0.000000,0.000000,0.000000,0.000000
0.07000,0.000000,0.000000,0.000000,0.000000,0.000000,0.000000,0.000000,-0.001351,0.000000,0.000000,0.000000,0.000000
0.07200,0.000000,0.000000,0.000000,0.000000,0.000000,0.000000,0.000000,-0.001465,0.000000,0.000000,0.000000,0.000000
0.07400,0.000000,0.000000,0.000000,0.000000,0.000000,0.000000,0.000000,-0.001586,0.000000,0.000000,0.000000,0.000000
0.07600,0.000000,0.000000,0.000000,0.000000,0.000000,0.000000,0.000000,-0.001712,0.000000,0.000000,0.000000,0.000000
0.07800,0.000000,0.000000,0.000000,0.000000,0.000000,0.000000,0.000000,-0.001845,0.000000,0.000000,0.000000,0.000000
0.08000,0.000000,0.000000,0.000000,0.000000,0.000000,0.000000,0.000000,-0.001984,0.000000,0.000000,0.000000,0.000000
0.08200,0.000000,0.000000,0.000000,0.000000,0.000000,0.000000,0.000000,-0.002130,0.000000,0.000000,0.000000,0.000000
0.08400,0.000000,0.000000,0.000000,0.000000,0.000000,0.000000,0.000000,-0.002283,0.000000,0.000000,0.000000,0.000000
0.08600,0.000000,0.000000,0.000000,0.000000,0.000000,0.000000,0.000000,-0.002442,0.000000,0.000000,0.000000,0.000000
0.08800,0.000000,0.000000,0.000000,0.000000,0.000000,0.000000,0.000000,-0.002608,0.000000,0.000000,0.000000,0.000000
0.09000,0.000000,0.000000,0.000000,0.000000,0.000000,0.000000,0.000000,-0.002781,0.000000,0.000000,0.000000,0.000000
0.09200,0.000000,0.000000,0.000000,0.000000,0.000000,0.000000,0.000000,-0.002961,0.000000,0.000000,0.000000,0.000000
0.09400,0.000000,0.000000,0.000000,0.000000,0.000000,0.000000,0.000000,-0.003148,0.000000,0.000000,0.000000,0.000000
0.09600,0.000000,0.000000,0.000000,0.000000,0.000000,0.000000,0.000000,-0.003342,0.000000,0.000000,0.000000,0.000000
0.09800,0.000000,0.000000,0.000000,0.000000,0.000000,0.000000,0.000000,-0.003544,0.000000,0.000000,0.000000,0.000000
0.10000,0.000000,0.000000,0.000000,0.000000,0.000000,0.000000,0.000000,-0.003753,0.000000,0.000000,0.000000,0.000000
0.10200,0.000000,0.000000,0.000000,0.000000,0.000000,0.000000,0.000000,-0.003970,0.000000,0.000000,0.000000,0.000000
0.10400,0.000000,0.000000,0.000000,0.000000,0.000000,0.000000,0.000000,-0.004195,0.000000,0.000000,0.000000,0.000000
0.10600,0.000000,0.000000,0.000000,0.000000,0.000000,0.000000,0.000000,-0.004427,0.000000,0.000000,0.000000,0.000000
0.10800,0.000000,0.000000,0.000000,0.000000,0.000000,0.000000,0.000000,-0.004667,0.000000,0.000000,0.000000,0.000000
0.11000,0.000000,0.000000,0.000000,0.000000,0.000000,0.000000,0.000000,-0.004915,0.000000,0.000000,0.000000,0.000000
0.11200,0.000000,0.000000,0.000000,0.000000,0.000000,0.000000,0.000000,-0.005172,0.000000,0.000000,0.000000,0.000000
0.11400,0.000000,0.000000,0.000000,0.000000,0.000000,0.000000,0.000000,-0.005436,0.000000,0.000000,0.000000,0.000000
0.11600,0.000000,0.000000,0.000000,0.000000,0.000000,0.000000,0.000000,-0.005708,0.000000,0.000000,0.000000,0.000000
0.11800,0.000000,0.000000,0.000000,0.000000,0.000000,0.000000,0.000000,-0.005989,0.000000,0.000000,0.000000,0.000000
0.12000,0.000000,0.000000,0.000000,0.000000,0.000000,0.000000,0.000000,-0.006278,0.000000,0.000000,0.000000,0.000000
0.12200,0.000000,0.000000,0.000000,0.000000,0.000000,0.000000,0.000000,-0.006576,0.000000,0.000000,0.000000,0.000000
0.12400,0.000000,0.000000,0.000000,0.000000,0.000000,0.000000,0.000000,-0.006882,0.000000,0.000000,0.000000,0.000000
0.12600,0.000000,0.000000,0.000000,0.000000,0.000000,0.000000,0.000000,-0.007196,0.000000,0.000000,0.000000,0.000000
0.12800,0.000000,0.000000,0.000000,0.000000,0.000000,0.000000,0.000000,-0.007520,0.000000,0.000000,0.000000,0.000000
0.13000,0.000000,0.000000,0.000000,0.000000,0.000000,0.000000,0.000000,-0.007852,0.000000,0.000000,0.000000,0.000000
0.13200,0.000000,0.000000,0.000000,0.000000,0.000000,0.000000,0.000000,-0.008193,0.000000,0.000000,0.000000,0.000000
0.13400,0.000000,0.000000,0.000000,0.000000,0.000000,0.000000,0.000000,-0.008542,0.000000,0.000000,0.000000,0.000000
0.13600,0.000000,0.000000,0.000000,0.000000,0.000000,0.000000,0.000000,-0.008901,0.000000,0.000000,0.000000,0.000000
0.13800,0.000000,0.000000,0.000000,0.000000,0.000000,0.000000,0.000000,-0.009269,0.000000,0.000000,0.000000,0.000000
0.14000,0.000000,0.000000,0.000000,0.000000,0.000000,0.000000,0.000000,-0.009645,0.000000,0.000000,0.000000,0.000000
0.14200,0.000000,0.000000,0.000000,0.000000,0.000000,0.000000,0.000000,-0.010031,0.000000,0.000000,0.000000,0.000000
0.14400,0.000000,0.000000,0.000000,0.000000,0.000000,0.000000,0.000000,-0.010426,0.000000,0.000000,0.000000,0.000000
0.14600,0.000000,0.000000,0.000000,0.000000,0.000000,0.000000,0.000000,-0.010830,0.000000,0.000000,0.000000,0.000000
0.14800,0.000000,0.000000,0.000000,0.000000,0.000000,0.000000,0.000000,-0.011244,0.000000,0.000000,0.000000,0.000000
0.15000,0.000000,0.000000,0.000000,0.000000,0.000000,0.000000,0.000000,-0.011667,0.000000,0.000000,0.000000,0.000000
0.15200,0.000000,0.000000,0.000000,0.000000,0.000000,0.000000,0.000000,-0.012099,0.000000,0.000000,0.000000,0.000000
0.15400,0.000000,0.000000,0.000000,0.000000,0.000000,0.000000,0.000000,-0.012541,0.000000,0.000000,0.000000,0.000000
0.15600,0.000000,0.000000,0.000000,0.000000,0.000000,0.000000,0.000000,-0.012992,0.000000,0.000000,0.000000,0.000000
0.15800,0.000000,0.000000,0.000000,0.000000,0.000000,0.000000,0.000000,-0.013452,0.000000,0.000000,0.000000,0.000000
0.16000,0.000000,0.000000,0.000000,0.000000,0.000000,0.000000,0.000000,-0.013923,0.000000,0.000000,0.000000,0.000000
0.16200,0.000000,0.000000,0.000000,0.000000,0.000000,0.000000,0.000000,-0.014403,0.000000,0.000000,0.000000,0.000000
0.16400,0.000000,0.000000,0.000000,0.000000,0.000000,0.000000,0.000000,-0.014892,0.000000,0.000000,0.000000,0.000000
0.16600,0.000000,0.000000,0.000000,0.000000,0.000000,0.000000,0.000000,-0.015391,0.000000,0.000000,0.000000,0.000000
0.16800,0.000000,0.000000,0.000000,0.000000,0.000000,0.000000,0.000000,-0.015900,0.000000,0.000000,0.000000,0.000000
0.17000,0.000000,0.000000,0.000000,0.000000,0.000000,0.000000,0.000000,-0.016419,0.000000,0.000000,0.000000,0.000000
0.17200,0.000000,0.000000,0.000000,0.000000,0.000000,0.000000,0.000000,-0.016947,0.000000,0.000000,0.000000,0.000000
0.17400,0.000000,0.000000,0.000000,0.000000,0.000000,0.000000,0.000000,-0.017485,0.000000,0.000000,0.000000,0.000000
0.17600,0.000000,0.000000,0.000000,0.000000,0.000000,0.000000,0.000000,-0.018033,0.000000,0.000000,0.000000,0.000000
0.17800,0.000000,0.000000,0.000000,0.000000,0.000000,0.000000,0.000000,-0.018591,0.000000,0.000000,0.000000,0.000000
0.18000,0.000000,0.000000,0.000000,0.000000,0.000000,0.000000,0.000000,-0.019159,0.000000,0.000000,0.000000,0.000000
0.18200,0.000000,0.000000,0.000000,0.000000,0.000000,0.000000,0.000000,-0.019737,0.000000,0.000000,0.000000,0.000000
0.18400,0.000000,0.000000,0.000000,0.000000,0.000000,0.000000,0.000000,-0.020325,0.000000,0.000000,0.000000,0.000000
0.18600,0.000000,0.000000,0.000000,0.000000,0.000000,0.000000,0.000000,-0.020923,0.000000,0.000000,0.000000,0.000000
0.18800,0.000000,0.000000,0.000000,0.000000,0.000000,0.000000,0.000000,-0.021530,0.000000,0.000000,0.000000,0.000000
0.19000,0.000000,0.000000,0.000000,0.000000,0.000000,0.000000,0.000000,-0.022148,0.000000,0.000000,0.000000,0.000000
0.19200,0.000000,0.000000,0.000000,0.000000,0.000000,0.000000,0.000000,-0.022776,0.000000,0.000000,0.000000,0.000000
0.19400,0.000000,0.000000,0.000000,0.000000,0.000000,0.000000,0.000000,-0.023414,0.000000,0.000000,0.000000,0.000000
0.19600,0.000000,0.000000,0.000000,0.000000,0.000000,0.000000,0.000000,-0.024062,0.000000,0.000000,0.000000,0.000000
0.19800,0.000000,0.000000,0.000000,0.000000,0.000000,0.000000,0.000000,-0.024720,0.000000,0.000000,0.000000,0.000000
0.20000,0.000000,0.000000,0.000000,0.000000,0.000000,0.000000,0.000000,-0.025388,0.000000,0.000000,0.000000,0.000000
0.20200,0.000000,0.000000,0.000000,0.000000,0.000000,0.000000,0.000000,-0.026066,0.000000,0.000000,0.000000,0.000000
0.20400,0.000000,0.000000,0.000000,0.000000,0.000000,0.000000,0.000000,-0.026754,0.000000,0.000000,0.000000,0.000000
0.20600,0.000000,0.000000,0.000000,0.000000,0.000000,0.000000,0.000000,-0.027452,0.000000,0.000000,0.000000,0.000000
0.20800,0.000000,0.000000,0.000000,0.000000,0.000000,0.000000,0.000000,-0.028161,0.000000,0.000000,0.000000,0.000000
0.21000,0.000000,0.000000,0.000000,0.000000,0.000000,0.000000,0.000000,-0.028879,0.000000,0.000000,0.000000,0.000000
0.21200,0.000000,0.000000,0.000000,0.000000,0.000000,0.000000,0.000000,-0.029608,0.000000,0.000000,0.000000,0.000000
0.21400,0.000000,0.000000,0.000000,0.000000,0.000000,0.000000,0.000000,-0.030346,0.000000,0.000000,0.000000,0.000000
0.21600,0.000000,0.000000,0.000000,0.000000,0.000000,0.000000,0.000000,-0.031095,0.000000,0.000000,0.000000,0.000000
0.21800,0.000000,0.000000,0.000000,0.000000,0.000000,0.000000,0.000000,-0.031854,0.000000,0.000000,0.000000,0.000000
0.22000,0.000000,0.000000,0.000000,0.000000,0.000000,0.000000,0.000000,-0.032623,0.000000,0.000000,0.000000,0.000000
0.22200,0.000000,0.000000,0.000000,0.000000,0.000000,0.000000,0.000000,-0.033402,0.000000,0.000000,0.000000,0.000000
0.22400,0.000000,0.000000,0.000000,0.000000,0.000000,0.000000,0.000000,-0.034192,0.000000,0.000000,0.000000,0.000000
0.22600,0.000000,0.000000,0.000000,0.000000,0.000000,0.000000,0.000000,-0.034991,0.000000,0.000000,0.000000,0.000000
0.22800,0.000000,0.000000,0.000000,0.000000,0.000000,0.000000,0.000000,-0.035800,0.000000,0.000000,0.000000,0.000000
0.23000,0.000000,0.000000,0.000000,0.000000,0.000000,0.000000,0.000000,-0.036620,0.000000,0.000000,0.000000,0.000000
0.23200,0.000000,0.000000,0.000000,0.000000,0.000000,0.000000,0.000000,-0.037449,0.000000,0.000000,0.000000,0.000000
0.23400,0.000000,0.000000,0.000000,0.000000,0.000000,0.000000,0.000000,-0.038289,0.000000,0.000000,0.000000,0.000000
0.23600,0.000000,0.000000,0.000000,0.000000,0.000000,0.000000,0.000000,-0.039138,0.000000,0.000000,0.000000,0.000000
0.23800,0.000000,0.000000,0.000000,0.000000,0.000000,0.000000,0.000000,-0.039998,0.000000,0.000000,0.000000,0.000000
0.24000,0.000000,0.000000,0.000000,0.000000,0.000000,0.000000,0.000000,-0.040867,0.000000,0.000000,0.000000,0.000000
0.24200,0.000000,0.000000,0.000000,0.000000,0.000000,0.000000,0.000000,-0.041747,0.000000,0.000000,0.000000,0.000000
0.24400,0.000000,0.000000,0.000000,0.000000,0.000000,0.000000,0.000000,-0.042636,0.000000,0.000000,0.000000,0.000000
0.24600,0.000000,0.000000,0.000000,0.000000,0.000000,0.000000,0.000000,-0.043535,0.000000,0.000000,0.000000,0.000000
0.24800,0.000000,0.000000,0.000000,0.000000,0.000000,0.000000,0.000000,-0.044444,0.000000,0.000000,0.000000,0.000000
0.25000,0.000000,0.000000,0.000000,0.000000,0.000000,0.000000,0.000000,-0.045364,0.000000,0.000000,0.000000,0.000000
0.25200,0.000000,0.000000,0.000000,0.000000,0.000000,0.000000,0.000000,-0.046292,0.000000,0.000000,0.000000,0.000000
0.25400,0.000000,0.000000,0.000000,0.000000,0.000000,0.000000,0.000000,-0.047231,0.000000,0.000000,0.000000,0.000000
0.25600,0.000000,0.000000,0.000000,0.000000,0.000000,0.000000,0.000000,-0.048180,0.000000,0.000000,0.000000,0.000000
0.25800,0.000000,0.000000,0.000000,0.000000,0.000000,0.000000,0.000000,-0.049138,0.000000,0.000000,0.000000,0.000000
0.26000,0.000000,0.000000,0.000000,0.000000,0.000000,0.000000,0.000000,-0.050106,0.000000,0.000000,0.000000,0.000000
0.26200,0.000000,0.000000,0.000000,0.000000,0.000000,0.000000,0.000000,-0.051084,0.000000,0.000000,0.000000,0.000000
0.26400,0.000000,0.000000,0.000000,0.000000,0.000000,0.000000,0.000000,-0.052071,0.000000,0.000000,0.000000,0.000000
0.26600,0.000000,0.000000,0.000000,0.000000,0.000000,0.000000,0.000000,-0.053068,0.000000,0.000000,0.000000,0.000000
0.26800,0.000000,0.000000,0.000000,0.000000,0.000000,0.000000,0.000000,-0.054074,0.000000,0.000000,0.000000,0.000000
0.27000,0.000000,0.000000,0.000000,0.000000,0.000000,0.000000,0.000000,-0.055091,0.000000,0.000000,0.000000,0.000000
0.27200,0.000000,0.000000,0.000000,0.000000,0.000000,0.000000,0.000000,-0.056116,0.000000,0.000000,0.000000,0.000000
0.27400,0.000000,0.000000,0.000000,0.000000,0.000000,0.000000,0.000000,-0.057151,0.000000,0.000000,0.000000,0.000000
0.27600,0.000000,0.000000,0.000000,0.000000,0.000000,0.000000,0.000000,-0.058196,0.000000,0.000000,0.000000,0.000000
0.27800,0.000000,0.000000,0.000000,0.000000,0.000000,0.000000,0.000000,-0.059250,0.000000,0.000000,0.000000,0.000000
0.28000,0.000000,0.000000,0.000000,0.000000,0.000000,0.000000,0.000000,-0.060313,0.000000,0.000000,0.000000,0.000000
0.28200,0.000000,0.000000,0.000000,0.000000,0.000000,0.000000,0.000000,-0.061386,0.000000,0.000000,0.000000,0.000000
0.28400,0.000000,0.000000,0.000000,0.000000,0.000000,0.000000,0.000000,-0.062468,0.000000,0.000000,0.000000,0.000000
0.28600,0.000000,0.000000,0.000000,0.000000,0.000000,0.000000,0.000000,-0.063559,0.000000,0.000000,0.000000,0.000000
0.28800,0.000000,0.000000,0.000000,0.000000,0.000000,0.000000,0.000000,-0.064659,0.000000,0.000000,0.000000,0.000000
0.29000,0.000000,0.000000,0.000000,0.000000,0.000000,0.000000,0.000000,-0.065768,0.000000,0.000000,0.000000,0.000000
0.29200,0.000000,0.000000,0.000000,0.000000,0.000000,0.000000,0.000000,-0.066887,0.000000,0.000000,0.000000,0.000000
0.29400,0.000000,0.000000,0.000000,0.000000,0.000000,0.000000,0.000000,-0.068014,0.000000,0.000000,0.000000,0.000000
0.29600,0.000000,0.000000,0.000000,0.000000,0.000000,0.000000,0.000000,-0.069151,0.000000,0.000000,0.000000,0.000000
0.29800,0.000000,0.000000,0.000000,0.000000,0.000000,0.000000,0.000000,-0.070296,0.000000,0.000000,0.000000,0.000000
0.30000,0.000000,0.000000,0.000000,0.000000,0.000000,0.000000,0.000000,-0.071450,0.000000,0.000000,0.000000,0.000000
0.30200,0.000000,0.000000,0.000000,0.000000,0.000000,0.000000,0.000000,-0.072613,0.000000,0.000000,0.000000,0.000000
0.30400,0.000000,0.000000,0.000000,0.000000,0.000000,0.000000,0.000000,-0.073785,0.000000,0.000000,0.000000,0.000000
0.30600,0.000000,0.000000,0.000000,0.000000,0.000000,0.000000,0.000000,-0.074965,0.000000,0.000000,0.000000,0.000000
0.30800,0.000000,0.000000,0.000000,0.000000,0.000000,0.000000,0.000000,-0.076154,0.000000,0.000000,0.000000,0.000000
0.31000,0.000000,0.000000,0.000000,0.000000,0.000000,0.000000,0.000000,-0.077352,0.000000,0.000000,0.000000,0.000000
0.31200,0.000000,0.000000,0.000000,0.000000,0.000000,0.000000,0.000000,-0.078558,0.000000,0.000000,0.000000,0.000000
0.31400,0.000000,0.000000,0.000000,0.000000,0.000000,0.000000,0.000000,-0.079773,0.000000,0.000000,0.000000,0.000000
0.31600,0.000000,0.000000,0.000000,0.000000,0.000000,0.000000,0.000000,-0.080996,0.000000,0.000000,0.000000,0.000000
0.31800,0.000000,0.000000,0.000000,0.000000,0.000000,0.000000,0.000000,-0.082227,0.000000,0.000000,0.000000,0.000000
0.32000,0.000000,0.000000,0.000000,0.000000,0.000000,0.000000,0.000000,-0.083467,0.000000,0.000000,0.000000,0.000000
0.32200,0.000000,0.000000,0.000000,0.000000,0.000000,0.000000,0.000000,-0.084715,0.000000,0.000000,0.000000,0.000000
0.32400,0.000000,0.000000,0.000000,0.000000,0.000000,0.000000,0.000000,-0.085971,0.000000,0.000000,0.000000,0.000000
0.32600,0.000000,0.000000,0.000000,0.000000,0.000000,0.000000,0.000000,-0.087235,0.000000,0.000000,0.000000,0.000000
0.32800,0.000000,0.000000,0.000000,0.000000,0.000000,0.000000,0.000000,-0.088507,0.000000,0.000000,0.000000,0.000000
0.33000,0.000000,0.000000,0.000000,0.000000,0.000000,0.000000,0.000000,-0.089787,0.000000,0.000000,0.000000,0.000000
0.33200,0.000000,0.000000,0.000000,0.000000,0.000000,0.000000,0.000000,-0.091075,0.000000,0.000000,0.000000,0.000000
0.33400,0.000000,0.000000,0.000000,0.000000,0.000000,0.000000,0.000000,-0.092371,0.000000,0.000000,0.000000,0.000000
0.33600,0.000000,0.000000,0.000000,0.000000,0.000000,0.000000,0.000000,-0.093674,0.000000,0.000000,0.000000,0.000000
0.33800,0.000000,0.000000,0.000000,0.000000,0.000000,0.000000,0.000000,-0.094985,0.000000,0.000000,0.000000,0.000000
0.34000,0.000000,0.000000,0.000000,0.000000,0.000000,0.000000,0.000000,-0.096304,0.000000,0.000000,0.000000,0.000000
0.34200,0.000000,0.000000,0.000000,0.000000,0.000000,0.000000,0.000000,-0.097630,0.000000,0.000000,0.000000,0.000000
0.34400,0.000000,0.000000,0.000000,0.000000,0.000000,0.000000,0.000000,-0.098964,0.000000,0.000000,0.000000,0.000000
0.34600,0.000000,0.000000,0.000000,0.000000,0.000000,0.000000,0.000000,-0.100305,0.000000,0.000000,0.000000,0.000000
0.34800,0.000000,0.000000,0.000000,0.000000,0.000000,0.000000,0.000000,-0.101654,0.000000,0.000000,0.000000,0.000000
0.35000,0.000000,0.000000,0.000000,0.000000,0.000000,0.000000,0.000000,-0.103009,0.000000,0.000000,0.000000,0.000000
0.35200,0.000000,0.000000,0.000000,0.000000,0.000000,0.000000,0.000000,-0.104372,0.000000,0.000000,0.000000,0.000000
0.35400,0.000000,0.000000,0.000000,0.000000,0.000000,0.000000,0.000000,-0.105742,0.000000,0.000000,0.000000,0.000000
0.35600,0.000000,0.000000,0.000000,0.000000,0.000000,0.000000,0.000000,-0.107118,0.000000,0.000000,0.000000,0.000000
0.35800,0.000000,0.000000,0.000000,0.000000,0.000000,0.000000,0.000000,-0.108502,0.000000,0.000000,0.000000,0.000000
0.36000,0.000000,0.000000,0.000000,0.000000,0.000000,0.000000,0.000000,-0.109893,0.000000,0.000000,0.000000,0.000000
0.36200,0.000000,0.000000,0.000000,0.000000,0.000000,0.000000,0.000000,-0.111290,0.000000,0.000000,0.000000,0.000000
0.36400,0.000000,0.000000,0.000000,0.000000,0.000000,0.000000,0.000000,-0.112694,0.000000,0.000000,0.000000,0.000000
0.36600,0.000000,0.000000,0.000000,0.000000,0.000000,0.000000,0.000000,-0.114104,0.000000,0.000000,0.000000,0.000000
0.36800,0.000000,0.000000,0.000000,0.000000,0.000000,0.000000,0.000000,-0.115521,0.000000,0.000000,0.000000,0.000000
0.37000,0.000000,0.000000,0.000000,0.000000,0.000000,0.000000,0.000000,-0.116945,0.000000,0.000000,0.000000,0.000000
0.37200,0.000000,0.000000,0.000000,0.000000,0.000000,0.000000,0.000000,-0.118375,0.000000,0.000000,0.000000,0.000000
0.37400,0.000000,0.000000,0.000000,0.000000,0.000000,0.000000,0.000000,-0.119811,0.000000,0.000000,0.000000,0.000000
0.37600,0.000000,0.000000,0.000000,0.000000,0.000000,0.000000,0.000000,-0.121253,0.000000,0.000000,0.000000,0.000000
0.37800,0.000000,0.000000,0.000000,0.000000,0.000000,0.000000,0.000000,-0.122701,0.000000,0.000000,0.000000,0.000000
0.38000,0.000000,0.000000,0.000000,0.000000,0.000000,0.000000,0.000000,-0.124155,0.000000,0.000000,0.000000,0.000000
0.38200,0.000000,0.000000,0.000000,0.000000,0.000000,0.000000,0.000000,-0.125615,0.000000,0.000000,0.000000,0.000000
0.38400,0.000000,0.000000,0.000000,0.000000,0.000000,0.000000,0.000000,-0.127081,0.000000,0.000000,0.000000,0.000000
0.38600,0.000000,0.000000,0.000000,0.000000,0.000000,0.000000,0.000000,-0.128553,0.000000,0.000000,0.000000,0.000000
0.38800,0.000000,0.000000,0.000000,0.000000,0.000000,0.000000,0.000000,-0.130031,0.000000,0.000000,0.000000,0.000000
0.39000,0.000000,0.000000,0.000000,0.000000,0.000000,0.000000,0.000000,-0.131513,0.000000,0.000000,0.000000,0.000000
0.39200,0.000000,0.000000,0.000000,0.000000,0.000000,0.000000,0.000000,-0.133002,0.000000,0.000000,0.000000,0.000000
0.39400,0.000000,0.000000,0.000000,0.000000,0.000000,0.000000,0.000000,-0.134496,0.000000,0.000000,0.000000,0.000000
0.39600,0.000000,0.000000,0.000000,0.000000,0.000000,0.000000,0.000000,-0.135995,0.000000,0.000000,0.000000,0.000000
0.39800,0.000000,0.000000,0.000000,0.000000,0.000000,0.000000,0.000000,-0.137499,0.000000,0.000000,0.000000,0.000000
0.40000,0.000000,0.000000,0.000000,0.000000,0.000000,0.000000,0.000000,-0.139008,0.000000,0.000000,0.000000,0.000000
0.40200,0.000000,0.000000,0.000000,0.000000,0.000000,0.000000,0.000000,-0.140523,0.000000,0.000000,0.000000,0.000000
0.40400,0.000000,0.000000,0.000000,0.000000,0.000000,0.000000,0.000000,-0.142042,0.000000,0.000000,0.000000,0.000000
0.40600,0.000000,0.000000,0.000000,0.000000,0.000000,0.000000,0.000000,-0.143566,0.000000,0.000000,0.000000,0.000000
0.40800,0.000000,0.000000,0.000000,0.000000,0.000000,0.000000,0.000000,-0.145095,0.000000,0.000000,0.000000,0.000000
0.41000,0.000000,0.000000,0.000000,0.000000,0.000000,0.000000,0.000000,-0.146628,0.000000,0.000000,0.000000,0.000000
0.41200,0.000000,0.000000,0.000000,0.000000,0.000000,0.000000,0.000000,-0.148166,0.000000,0.000000,0.000000,0.000000
0.41400,0.000000,0.000000,0.000000,0.000000,0.000000,0.000000,0.000000,-0.149708,0.000000,0.000000,0.000000,0.000000
0.41600,0.000000,0.000000,0.000000,0.000000,0.000000,0.000000,0.000000,-0.151255,0.000000,0.000000,0.000000,0.000000
0.41800,0.000000,0.000000,0.000000,0.000000,0.000000,0.000000,0.000000,-0.152806,0.000000,0.000000,0.000000,0.000000
0.42000,0.000000,0.000000,0.000000,0.000000,0.000000,0.000000,0.000000,-0.154361,0.000000,0.000000,0.000000,0.000000
0.42200,0.000000,0.000000,0.000000,0.000000,0.000000,0.000000,0.000000,-0.155920,0.000000,0.000000,0.000000,0.000000
0.42400,0.000000,0.000000,0.000000,0.000000,0.000000,0.000000,0.000000,-0.157484,0.000000,0.000000,0.000000,0.000000
0.42600,0.000000,0.000000,0.000000,0.000000,0.000000,0.000000,0.000000,-0.159051,0.000000,0.000000,0.000000,0.000000
0.42800,0.000000,0.000000,0.000000,0.000000,0.000000,0.000000,0.000000,-0.160621,0.000000,0.000000,0.000000,0.000000
0.43000,0.000000,0.000000,0.000000,0.000000,0.000000,0.000000,0.000000,-0.162196,0.000000,0.000000,0.000000,0.000000
0.43200,0.000000,0.000000,0.000000,0.000000,0.000000,0.000000,0.000000,-0.163774,0.000000,0.000000,0.000000,0.000000
0.43400,0.000000,0.000000,0.000000,0.000000,0.000000,0.000000,0.000000,-0.165355,0.000000,0.000000,0.000000,0.000000
0.43600,0.000000,0.000000,0.000000,0.000000,0.000000,0.000000,0.000000,-0.166940,0.000000,0.000000,0.000000,0.000000
0.43800,0.000000,0.000000,0.000000,0.000000,0.000000,0.000000,0.000000,-0.168528,0.000000,0.000000,0.000000,0.000000
0.44000,0.000000,0.000000,0.000000,0.000000,0.000000,0.000000,0.000000,-0.170119,0.000000,0.000000,0.000000,0.000000
0.44200,0.000000,0.000000,0.000000,0.000000,0.000000,0.000000,0.000000,-0.171714,0.000000,0.000000,0.000000,0.000000
0.44400,0.000000,0.000000,0.000000,0.000000,0.000000,0.000000,0.000000,-0.173311,0.000000,0.000000,0.000000,0.000000
0.44600,0.000000,0.000000,0.000000,0.000000,0.000000,0.000000,0.000000,-0.174911,0.000000,0.000000,0.000000,0.000000
0.44800,0.000000,0.000000,0.000000,0.000000,0.000000,0.000000,0.000000,-0.176514,0.000000,0.000000,0.000000,0.000000
0.45000,0.000000,0.000000,0.000000,0.000000,0.000000,0.000000,0.000000,-0.178119,0.000000,0.000000,0.000000,0.000000
0.45200,0.000000,0.000000,0.000000,0.000000,0.000000,0.000000,0.000000,-0.179728,0.000000,0.000000,0.000000,0.000000
0.45400,0.000000,0.000000,0.000000,0.000000,0.000000,0.000000,0.000000,-0.181338,0.000000,0.000000,0.000000,0.000000
0.45600,0.000000,0.000000,0.000000,0.000000,0.000000,0.000000,0.000000,-0.182951,0.000000,0.000000,0.000000,0.000000
0.45800,0.000000,0.000000,0.000000,0.000000,0.000000,0.000000,0.000000,-0.184566,0.000000,0.000000,0.000000,0.000000
0.46000,0.000000,0.000000,0.000000,0.000000,0.000000,0.000000,0.000000,-0.186183,0.000000,0.000000,0.000000,0.000000
0.46200,0.000000,0.000000,0.000000,0.000000,0.000000,0.000000,0.000000,-0.187803,0.000000,0.000000,0.000000,0.000000
0.46400,0.000000,0.000000,0.000000,0.000000,0.000000,0.000000,0.000000,-0.189424,0.000000,0.000000,0.000000,0.000000
0.46600,0.000000,0.000000,0.000000,0.000000,0.000000,0.000000,0.000000,-0.191047,0.000000,0.000000,0.000000,0.000000
0.46800,0.000000,0.000000,0.000000,0.000000,0.000000,0.000000,0.000000,-0.192672,0.000000,0.000000,0.000000,0.000000
0.47000,0.000000,0.000000,0.000000,0.000000,0.000000,0.000000,0.000000,-0.194298,0.000000,0.000000,0.000000,0.000000
0.47200,0.000000,0.000000,0.000000,0.000000,0.000000,0.000000,0.000000,-0.195926,0.000000,0.000000,0.000000,0.000000
0.47400,0.000000,0.000000,0.000000,0.000000,0.000000,0.000000,0.000000,-0.197556,0.000000,0.000000,0.000000,0.000000
0.47600,0.000000,0.000000,0.000000,0.000000,0.000000,0.000000,0.000000,-0.199186,0.000000,0.000000,0.000000,0.000000
0.47800,0.000000,0.000000,0.000000,0.000000,0.000000,0.000000,0.000000,-0.200818,0.000000,0.000000,0.000000,0.000000
0.48000,0.000000,0.000000,0.000000,0.000000,0.000000,0.000000,0.000000,-0.202451,0.000000,0.000000,0.000000,0.000000
0.48200,0.000000,0.000000,0.000000,0.000000,0.000000,0.000000,0.000000,-0.204085,0.000000,0.000000,0.000000,0.000000
0.48400,0.000000,0.000000,0.000000,0.000000,0.000000,0.000000,0.000000,-0.205720,0.000000,0.000000,0.000000,0.000000
0.48600,0.000000,0.000000,0.000000,0.000000,0.000000,0.000000,0.000000,-0.207356,0.000000,0.000000,0.000000,0.000000
0.48800,0.000000,0.000000,0.000000,0.000000,0.000000,0.000000,0.000000,-0.208992,0.000000,0.000000,0.000000,0.000000
0.49000,0.000000,0.000000,0.000000,0.000000,0.000000,0.000000,0.000000,-0.210629,0.000000,0.000000,0.000000,0.000000
0.49200,0.000000,0.000000,0.000000,0.000000,0.000000,0.000000,0.000000,-0.212267,0.000000,0.000000,0.000000,0.000000
0.49400,0.000000,0.000000,0.000000,0.000000,0.000000,0.000000,0.000000,-0.213905,0.000000,0.000000,0.000000,0.000000
0.49600,0.000000,0.000000,0.000000,0.000000,0.000000,0.000000,0.000000,-0.215543,0.000000,0.000000,0.000000,0.000000
0.49800,0.000000,0.000000,0.000000,0.000000,0.000000,0.000000,0.000000,-0.217181,0.000000,0.000000,0.000000,0.000000
0.50000,0.000000,0.000000,0.000000,0.000000,0.000000,0.000000,0.000000,-0.218819,0.000000,0.000000,0.000000,0.000000
0.50200,0.000000,0.000000,0.000000,0.000000,0.000000,0.000000,0.000000,-0.220457,0.000000,0.000000,0.000000,0.000000
0.50400,0.000000,0.000000,0.000000,0.000000,0.000000,0.000000,0.000000,-0.222095,0.000000,0.000000,0.000000,0.000000
0.50600,0.000000,0.000000,0.000000,0.000000,0.000000,0.000000,0.000000,-0.223733,0.000000,0.000000,0.000000,0.000000
0.50800,0.000000,0.000000,0.000000,0.000000,0.000000,0.000000,0.000000,-0.225371,0.000000,0.000000,0.000000,0.000000
0.51000,0.000000,0.000000,0.000000,0.000000,0.000000,0.000000,0.000000,-0.227008,0.000000,0.000000,0.000000,0.000000
0.51200,0.000000,0.000000,0.000000,0.000000,0.000000,0.000000,0.000000,-0.228644,0.000000,0.000000,0.000000,0.000000
0.51400,0.000000,0.000000,0.000000,0.000000,0.000000,0.000000,0.000000,-0.230280,0.000000,0.000000,0.000000,0.000000
0.51600,0.000000,0.000000,0.000000,0.000000,0.000000,0.000000,0.000000,-0.231915,0.000000,0.000000,0.000000,0.000000
0.51800,0.000000,0.000000,0.000000,0.000000,0.000000,0.000000,0.000000,-0.233549,0.000000,0.000000,0.000000,0.000000
0.52000,0.000000,0.000000,0.000000,0.000000,0.000000,0.000000,0.000000,-0.235182,0.000000,0.000000,0.000000,0.000000
0.52200,0.000000,0.000000,0.000000,0.000000,0.000000,0.000000,0.000000,-0.236814,0.000000,0.000000,0.000000,0.000000
0.52400,0.000000,0.000000,0.000000,0.000000,0.000000,0.000000,0.000000,-0.238444,0.000000,0.000000,0.000000,0.000000
0.52600,0.000000,0.000000,0.000000,0.000000,0.000000,0.000000,0.000000,-0.240074,0.000000,0.000000,0.000000,0.000000
0.52800,0.000000,0.000000,0.000000,0.000000,0.000000,0.000000,0.000000,-0.241702,0.000000,0.000000,0.000000,0.000000
0.53000,0.000000,0.000000,0.000000,0.000000,0.000000,0.000000,0.000000,-0.243328,0.000000,0.000000,0.000000,0.000000
0.53200,0.000000,0.000000,0.000000,0.000000,0.000000,0.000000,0.000000,-0.244953,0.000000,0.000000,0.000000,0.000000
0.53400,0.000000,0.000000,0.000000,0.000000,0.000000,0.000000,0.000000,-0.246576,0.000000,0.000000,0.000000,0.000000
0.53600,0.000000,0.000000,0.000000,0.000000,0.000000,0.000000,0.000000,-0.248197,0.000000,0.000000,0.000000,0.000000
0.53800,0.000000,0.000000,0.000000,0.000000,0.000000,0.000000,0.000000,-0.249817,0.000000,0.000000,0.000000,0.000000
0.54000,0.000000,0.000000,0.000000,0.000000,0.000000,0.000000,0.000000,-0.251434,0.000000,0.000000,0.000000,0.000000
0.54200,0.000000,0.000000,0.000000,0.000000,0.000000,0.000000,0.000000,-0.253049,0.000000,0.000000,0.000000,0.000000
0.54400,0.000000,0.000000,0.000000,0.000000,0.000000,0.000000,0.000000,-0.254662,0.000000,0.000000,0.000000,0.000000
0.54600,0.000000,0.000000,0.000000,0.000000,0.000000,0.000000,0.000000,-0.256272,0.000000,0.000000,0.000000,0.000000
0.54800,0.000000,0.000000,0.000000,0.000000,0.000000,0.000000,0.000000,-0.257881,0.000000,0.000000,0.000000,0.000000
0.55000,0.000000,0.000000,0.000000,0.000000,0.000000,0.000000,0.000000,-0.259486,0.000000,0.000000,0.000000,0.000000
0.55200,0.000000,0.000000,0.000000,0.000000,0.000000,0.000000,0.000000,-0.261089,0.000000,0.000000,0.000000,0.000000
0.55400,0.000000,0.000000,0.000000,0.000000,0.000000,0.000000,0.000000,-0.262689,0.000000,0.000000,0.000000,0.000000
0.55600,0.000000,0.000000,0.000000,0.000000,0.000000,0.000000,0.000000,-0.264286,0.000000,0.000000,0.000000,0.000000
0.55800,0.000000,0.000000,0.000000,0.000000,0.000000,0.000000,0.000000,-0.265881,0.000000,0.000000,0.000000,0.000000
0.56000,0.000000,0.000000,0.000000,0.000000,0.000000,0.000000,0.000000,-0.267472,0.000000,0.000000,0.000000,0.000000
0.56200,0.000000,0.000000,0.000000,0.000000,0.000000,0.000000,0.000000,-0.269060,0.000000,0.000000,0.000000,0.000000
0.56400,0.000000,0.000000,0.000000,0.000000,0.000000,0.000000,0.000000,-0.270645,0.000000,0.000000,0.000000,0.000000
0.56600,0.000000,0.000000,0.000000,0.000000,0.000000,0.000000,0.000000,-0.272226,0.000000,0.000000,0.000000,0.000000
0.56800,0.000000,0.000000,0.000000,0.000000,0.000000,0.000000,0.000000,-0.273804,0.000000,0.000000,0.000000,0.000000
0.57000,0.000000,0.000000,0.000000,0.000000,0.000000,0.000000,0.000000,-0.275379,0.000000,0.000000,0.000000,0.000000
0.57200,0.000000,0.000000,0.000000,0.000000,0.000000,0.000000,0.000000,-0.276949,0.000000,0.000000,0.000000,0.000000
0.57400,0.000000,0.000000,0.000000,0.000000,0.000000,0.000000,0.000000,-0.278516,0.000000,0.000000,0.000000,0.000000
0.57600,0.000000,0.000000,0.000000,0.000000,0.000000,0.000000,0.000000,-0.280080,0.000000,0.000000,0.000000,0.000000
0.57800,0.000000,0.000000,0.000000,0.000000,0.000000,0.000000,0.000000,-0.281639,0.000000,0.000000,0.000000,0.000000
0.58000,0.000000,0.000000,0.000000,0.000000,0.000000,0.000000,0.000000,-0.283194,0.000000,0.000000,0.000000,0.000000
0.58200,0.000000,0.000000,0.000000,0.000000,0.000000,0.000000,0.000000,-0.284745,0.000000,0.000000,0.000000,0.000000
0.58400,0.000000,0.000000,0.000000,0.000000,0.000000,0.000000,0.000000,-0.286292,0.000000,0.000000,0.000000,0.000000
0.58600,0.000000,0.000000,0.000000,0.000000,0.000000,0.000000,0.000000,-0.287834,0.000000,0.000000,0.000000,0.000000
0.58800,0.000000,0.000000,0.000000,0.000000,0.000000,0.000000,0.000000,-0.289372,0.000000,0.000000,0.000000,0.000000
0.59000,0.000000,0.000000,0.000000,0.000000,0.000000,0.000000,0.000000,-0.290905,0.000000,0.000000,0.000000,0.000000
0.59200,0.000000,0.000000,0.000000,0.000000,0.000000,0.000000,0.000000,-0.292434,0.000000,0.000000,0.000000,0.000000
0.59400,0.000000,0.000000,0.000000,0.000000,0.000000,0.000000,0.000000,-0.293958,0.000000,0.000000,0.000000,0.000000
0.59600,0.000000,0.000000,0.000000,0.000000,0.000000,0.000000,0.000000,-0.295477,0.000000,0.000000,0.000000,0.000000
0.59800,0.000000,0.000000,0.000000,0.000000,0.000000,0.000000,0.000000,-0.296992,0.000000,0.000000,0.000000,0.000000
0.60000,0.000000,0.000000,0.000000,0.000000,0.000000,0.000000,0.000000,-0.298501,0.000000,0.000000,0.000000,0.000000
0.60200,0.000000,0.000000,0.000000,0.000000,0.000000,0.000000,0.000000,-0.300005,0.000000,0.000000,0.000000,0.000000
0.60400,0.000000,0.000000,0.000000,0.000000,0.000000,0.000000,0.000000,-0.301504,0.000000,0.000000,0.000000,0.000000
0.60600,0.000000,0.000000,0.000000,0.000000,0.000000,0.000000,0.000000,-0.302998,0.000000,0.000000,0.000000,0.000000
0.60800,0.000000,0.000000,0.000000,0.000000,0.000000,0.000000,0.000000,-0.304487,0.000000,0.000000,0.000000,0.000000
0.61000,0.000000,0.000000,0.000000,0.000000,0.000000,0.000000,0.000000,-0.305969,0.000000,0.000000,0.000000,0.000000
0.61200,0.000000,0.000000,0.000000,0.000000,0.000000,0.000000,0.000000,-0.307447,0.000000,0.000000,0.000000,0.000000
0.61400,0.000000,0.000000,0.000000,0.000000,0.000000,0.000000,0.000000,-0.308919,0.000000,0.000000,0.000000,0.000000
0.61600,0.000000,0.000000,0.000000,0.000000,0.000000,0.000000,0.000000,-0.310385,0.000000,0.000000,0.000000,0.000000
0.61800,0.000000,0.000000,0.000000,0.000000,0.000000,0.000000,0.000000,-0.311845,0.000000,0.000000,0.000000,0.000000
0.62000,0.000000,0.000000,0.000000,0.000000,0.000000,0.000000,0.000000,-0.313299,0.000000,0.000000,0.000000,0.000000
0.62200,0.000000,0.000000,0.000000,0.000000,0.000000,0.000000,0.000000,-0.314747,0.000000,0.000000,0.000000,0.000000
0.62400,0.000000,0.000000,0.000000,0.000000,0.000000,0.000000,0.000000,-0.316189,0.000000,0.000000,0.000000,0.000000
0.62600,0.000000,0.000000,0.000000,0.000000,0.000000,0.000000,0.000000,-0.317625,0.000000,0.000000,0.000000,0.000000
0.62800,0.000000,0.000000,0.000000,0.000000,0.000000,0.000000,0.000000,-0.319055,0.000000,0.000000,0.000000,0.000000
0.63000,0.000000,0.000000,0.000000,0.000000,0.000000,0.000000,0.000000,-0.320479,0.000000,0.000000,0.000000,0.000000
0.63200,0.000000,0.000000,0.000000,0.000000,0.000000,0.000000,0.000000,-0.321896,0.000000,0.000000,0.000000,0.000000
0.63400,0.000000,0.000000,0.000000,0.000000,0.000000,0.000000,0.000000,-0.323306,0.000000,0.000000,0.000000,0.000000
0.63600,0.000000,0.000000,0.000000,0.000000,0.000000,0.000000,0.000000,-0.324710,0.000000,0.000000,0.000000,0.000000
0.63800,0.000000,0.000000,0.000000,0.000000,0.000000,0.000000,0.000000,-0.326107,0.000000,0.000000,0.000000,0.000000
0.64000,0.000000,0.000000,0.000000,0.000000,0.000000,0.000000,0.000000,-0.327498,0.000000,0.000000,0.000000,0.000000
0.64200,0.000000,0.000000,0.000000,0.000000,0.000000,0.000000,0.000000,-0.328882,0.000000,0.000000,0.000000,0.000000
0.64400,0.000000,0.000000,0.000000,0.000000,0.000000,0.000000,0.000000,-0.330258,0.000000,0.000000,0.000000,0.000000
0.64600,0.000000,0.000000,0.000000,0.000000,0.000000,0.000000,0.000000,-0.331628,0.000000,0.000000,0.000000,0.000000
0.64800,0.000000,0.000000,0.000000,0.000000,0.000000,0.000000,0.000000,-0.332991,0.000000,0.000000,0.000000,0.000000
0.65000,0.000000,0.000000,0.000000,0.000000,0.000000,0.000000,0.000000,-0.334346,0.000000,0.000000,0.000000,0.000000
0.65200,0.000000,0.000000,0.000000,0.000000,0.000000,0.000000,0.000000,-0.335695,0.000000,0.000000,0.000000,0.000000
0.65400,0.000000,0.000000,0.000000,0.000000,0.000000,0.000000,0.000000,-0.337036,0.000000,0.000000,0.000000,0.000000
0.65600,0.000000,0.000000,0.000000,0.000000,0.000000,0.000000,0.000000,-0.338370,0.000000,0.000000,0.000000,0.000000
0.65800,0.000000,0.000000,0.000000,0.000000,0.000000,0.000000,0.000000,-0.339696,0.000000,0.000000,0.000000,0.000000
0.66000,0.000000,0.000000,0.000000,0.000000,0.000000,0.000000,0.000000,-0.341015,0.000000,0.000000,0.000000,0.000000
0.66200,0.000000,0.000000,0.000000,0.000000,0.000000,0.000000,0.000000,-0.342326,0.000000,0.000000,0.000000,0.000000
0.66400,0.000000,0.000000,0.000000,0.000000,0.000000,0.000000,0.000000,-0.343629,0.000000,0.000000,0.000000,0.000000
0.66600,0.000000,0.000000,0.000000,0.000000,0.000000,0.000000,0.000000,-0.344925,0.000000,0.000000,0.000000,0.000000
0.66800,0.000000,0.000000,0.000000,0.000000,0.000000,0.000000,0.000000,-0.346213,0.000000,0.000000,0.000000,0.000000
0.67000,0.000000,0.000000,0.000000,0.000000,0.000000,0.000000,0.000000,-0.347493,0.000000,0.000000,0.000000,0.000000
0.67200,0.000000,0.000000,0.000000,0.000000,0.000000,0.000000,0.000000,-0.348765,0.000000,0.000000,0.000000,0.000000
0.67400,0.000000,0.000000,0.000000,0.000000,0.000000,0.000000,0.000000,-0.350029,0.000000,0.000000,0.000000,0.000000
0.67600,0.000000,0.000000,0.000000,0.000000,0.000000,0.000000,0.000000,-0.351285,0.000000,0.000000,0.000000,0.000000
0.67800,0.000000,0.000000,0.000000,0.000000,0.000000,0.000000,0.000000,-0.352533,0.000000,0.000000,0.000000,0.000000
0.68000,0.000000,0.000000,0.000000,0.000000,0.000000,0.000000,0.000000,-0.353773,0.000000,0.000000,0.000000,0.000000
0.68200,0.000000,0.000000,0.000000,0.000000,0.000000,0.000000,0.000000,-0.355004,0.000000,0.000000,0.000000,0.000000
0.68400,0.000000,0.000000,0.000000,0.000000,0.000000,0.000000,0.000000,-0.356227,0.000000,0.000000,0.000000,0.000000
0.68600,0.000000,0.000000,0.000000,0.000000,0.000000,0.000000,0.000000,-0.357442,0.000000,0.000000,0.000000,0.000000
0.68800,0.000000,0.000000,0.000000,0.000000,0.000000,0.000000,0.000000,-0.358648,0.000000,0.000000,0.000000,0.000000
0.69000,0.000000,0.000000,0.000000,0.000000,0.000000,0.000000,0.000000,-0.359846,0.000000,0.000000,0.000000,0.000000
0.69200,0.000000,0.000000,0.000000,0.000000,0.000000,0.000000,0.000000,-0.361035,0.000000,0.000000,0.000000,0.000000
0.69400,0.000000,0.000000,0.000000,0.000000,0.000000,0.000000,0.000000,-0.362215,0.000000,0.000000,0.000000,0.000000
0.69600,0.000000,0.000000,0.000000,0.000000,0.000000,0.000000,0.000000,-0.363387,0.000000,0.000000,0.000000,0.000000
0.69800,0.000000,0.000000,0.000000,0.000000,0.000000,0.000000,0.000000,-0.364550,0.000000,0.000000,0.000000,0.000000
0.70000,0.000000,0.000000,0.000000,0.000000,0.000000,0.000000,0.000000,-0.365704,0.000000,0.000000,0.000000,0.000000
0.70200,0.000000,0.000000,0.000000,0.000000,0.000000,0.000000,0.000000,-0.366849,0.000000,0.000000,0.000000,0.000000
0.70400,0.000000,0.000000,0.000000,0.000000,0.000000,0.000000,0.000000,-0.367986,0.000000,0.000000,0.000000,0.000000
0.70600,0.000000,0.000000,0.000000,0.000000,0.000000,0.000000,0.000000,-0.369113,0.000000,0.000000,0.000000,0.000000
0.70800,0.000000,0.000000,0.000000,0.000000,0.000000,0.000000,0.000000,-0.370232,0.000000,0.000000,0.000000,0.000000
0.71000,0.000000,0.000000,0.000000,0.000000,0.000000,0.000000,0.000000,-0.371341,0.000000,0.000000,0.000000,0.000000
0.71200,0.000000,0.000000,0.000000,0.000000,0.000000,0.000000,0.000000,-0.372441,0.000000,0.000000,0.000000,0.000000
0.71400,0.000000,0.000000,0.000000,0.000000,0.000000,0.000000,0.000000,-0.373532,0.000000,0.000000,0.000000,0.000000
0.71600,0.000000,0.000000,0.000000,0.000000,0.000000,0.000000,0.000000,-0.374614,0.000000,0.000000,0.000000,0.000000
0.71800,0.000000,0.000000,0.000000,0.000000,0.000000,0.000000,0.000000,-0.375687,0.000000,0.000000,0.000000,0.000000
0.72000,0.000000,0.000000,0.000000,0.000000,0.000000,0.000000,0.000000,-0.376750,0.000000,0.000000,0.000000,0.000000
0.72200,0.000000,0.000000,0.000000,0.000000,0.000000,0.000000,0.000000,-0.377804,0.000000,0.000000,0.000000,0.000000
0.72400,0.000000,0.000000,0.000000,0.000000,0.000000,0.000000,0.000000,-0.378849,0.000000,0.000000,0.000000,0.000000
0.72600,0.000000,0.000000,0.000000,0.000000,0.000000,0.000000,0.000000,-0.379884,0.000000,0.000000,0.000000,0.000000
0.72800,0.000000,0.000000,0.000000,0.000000,0.000000,0.000000,0.000000,-0.380909,0.000000,0.000000,0.000000,0.000000
0.73000,0.000000,0.000000,0.000000,0.000000,0.000000,0.000000,0.000000,-0.381926,0.000000,0.000000,0.000000,0.000000
0.73200,0.000000,0.000000,0.000000,0.000000,0.000000,0.000000,0.000000,-0.382932,0.000000,0.000000,0.000000,0.000000
0.73400,0.000000,0.000000,0.000000,0.000000,0.000000,0.000000,0.000000,-0.383929,0.000000,0.000000,0.000000,0.000000
0.73600,0.000000,0.000000,0.000000,0.000000,0.000000,0.000000,0.000000,-0.384916,0.000000,0.000000,0.000000,0.000000
0.73800,0.000000,0.000000,0.000000,0.000000,0.000000,0.000000,0.000000,-0.385894,0.000000,0.000000,0.000000,0.000000
0.74000,0.000000,0.000000,0.000000,0.000000,0.000000,0.000000,0.000000,-0.386862,0.000000,0.000000,0.000000,0.000000
0.74200,0.000000,0.000000,0.000000,0.000000,0.000000,0.000000,0.000000,-0.387820,0.000000,0.000000,0.000000,0.000000
0.74400,0.000000,0.000000,0.000000,0.000000,0.000000,0.000000,0.000000,-0.388769,0.000000,0.000000,0.000000,0.000000
0.74600,0.000000,0.000000,0.000000,0.000000,0.000000,0.000000,0.000000,-0.389708,0.000000,0.000000,0.000000,0.000000
0.74800,0.000000,0.000000,0.000000,0.000000,0.000000,0.000000,0.000000,-0.390636,0.000000,0.000000,0.000000,0.000000
0.75000,0.000000,0.000000,0.000000,0.000000,0.000000,0.000000,0.000000,-0.391556,0.000000,0.000000,0.000000,0.000000
0.75200,0.000000,0.000000,0.000000,0.000000,0.000000,0.000000,0.000000,-0.392465,0.000000,0.000000,0.000000,0.000000
0.75400,0.000000,0.000000,0.000000,0.000000,0.000000,0.000000,0.000000,-0.393364,0.000000,0.000000,0.000000,0.000000
0.75600,0.000000,0.000000,0.000000,0.000000,0.000000,0.000000,0.000000,-0.394253,0.000000,0.000000,0.000000,0.000000
0.75800,0.000000,0.000000,0.000000,0.000000,0.000000,0.000000,0.000000,-0.395133,0.000000,0.000000,0.000000,0.000000
0.76000,0.000000,0.000000,0.000000,0.000000,0.000000,0.000000,0.000000,-0.396002,0.000000,0.000000,0.000000,0.000000
0.76200,0.000000,0.000000,0.000000,0.000000,0.000000,0.000000,0.000000,-0.396862,0.000000,0.000000,0.000000,0.000000
0.76400,0.000000,0.000000,0.000000,0.000000,0.000000,0.000000,0.000000,-0.397711,0.000000,0.000000,0.000000,0.000000
0.76600,0.000000,0.000000,0.000000,0.000000,0.000000,0.000000,0.000000,-0.398551,0.000000,0.000000,0.000000,0.000000
0.76800,0.000000,0.000000,0.000000,0.000000,0.000000,0.000000,0.000000,-0.399380,0.000000,0.000000,0.000000,0.000000
0.77000,0.000000,0.000000,0.000000,0.000000,0.000000,0.000000,0.000000,-0.400200,0.000000,0.000000,0.000000,0.000000
0.77200,0.000000,0.000000,0.000000,0.000000,0.000000,0.000000,0.000000,-0.401009,0.000000,0.000000,0.000000,0.000000
0.77400,0.000000,0.000000,0.000000,0.000000,0.000000,0.000000,0.000000,-0.401808,0.000000,0.000000,0.000000,0.000000
0.77600,0.000000,0.000000,0.000000,0.000000,0.000000,0.000000,0.000000,-0.402598,0.000000,0.000000,0.000000,0.000000
0.77800,0.000000,0.000000,0.000000,0.000000,0.000000,0.000000,0.000000,-0.403377,0.000000,0.000000,0.000000,0.000000
0.78000,0.000000,0.000000,0.000000,0.000000,0.000000,0.000000,0.000000,-0.404146,0.000000,0.000000,0.000000,0.000000
0.78200,0.000000,0.000000,0.000000,0.000000,0.000000,0.000000,0.000000,-0.404905,0.000000,0.000000,0.000000,0.000000
0.78400,0.000000,0.000000,0.000000,0.000000,0.000000,0.000000,0.000000,-0.405654,0.000000,0.000000,0.000000,0.000000
0.78600,0.000000,0.000000,0.000000,0.000000,0.000000,0.000000,0.000000,-0.406392,0.000000,0.000000,0.000000,0.000000
0.78800,0.000000,0.000000,0.000000,0.000000,0.000000,0.000000,0.000000,-0.407121,0.000000,0.000000,0.000000,0.000000
0.79000,0.000000,0.000000,0.000000,0.000000,0.000000,0.000000,0.000000,-0.407839,0.000000,0.000000,0.000000,0.000000
0.79200,0.000000,0.000000,0.000000,0.000000,0.000000,0.000000,0.000000,-0.408548,0.000000,0.000000,0.000000,0.000000
0.79400,0.000000,0.000000,0.000000,0.000000,0.000000,0.000000,0.000000,-0.409246,0.000000,0.000000,0.000000,0.000000
0.79600,0.000000,0.000000,0.000000,0.000000,0.000000,0.000000,0.000000,-0.409934,0.000000,0.000000,0.000000,0.000000
0.79800,0.000000,0.000000,0.000000,0.000000,0.000000,0.000000,0.000000,-0.410612,0.000000,0.000000,0.000000,0.000000
0.80000,0.000000,0.000000,0.000000,0.000000,0.000000,0.000000,0.000000,-0.411280,0.000000,0.000000,0.000000,0.000000
0.80200,0.000000,0.000000,0.000000,0.000000,0.000000,0.000000,0.000000,-0.411938,0.000000,0.000000,0.000000,0.000000
0.80400,0.000000,0.000000,0.000000,0.000000,0.000000,0.000000,0.000000,-0.412586,0.000000,0.000000,0.000000,0.000000
0.80600,0.000000,0.000000,0.000000,0.000000,0.000000,0.000000,0.000000,-0.413224,0.000000,0.000000,0.000000,0.000000
0.80800,0.000000,0.000000,0.000000,0.000000,0.000000,0.000000,0.000000,-0.413852,0.000000,0.000000,0.000000,0.000000
0.81000,0.000000,0.000000,0.000000,0.000000,0.000000,0.000000,0.000000,-0.414470,0.000000,0.000000,0.000000,0.000000
0.81200,0.000000,0.000000,0.000000,0.000000,0.000000,0.000000,0.000000,-0.415077,0.000000,0.000000,0.000000,0.000000
0.81400,0.000000,0.000000,0.000000,0.000000,0.000000,0.000000,0.000000,-0.415675,0.000000,0.000000,0.000000,0.000000
0.81600,0.000000,0.000000,0.000000,0.000000,0.000000,0.000000,0.000000,-0.416263,0.000000,0.000000,0.000000,0.000000
0.81800,0.000000,0.000000,0.000000,0.000000,0.000000,0.000000,0.000000,-0.416841,0.000000,0.000000,0.000000,0.000000
0.82000,0.000000,0.000000,0.000000,0.000000,0.000000,0.000000,0.000000,-0.417409,0.000000,0.000000,0.000000,0.000000
0.82200,0.000000,0.000000,0.000000,0.000000,0.000000,0.000000,0.000000,-0.417967,0.000000,0.000000,0.000000,0.000000
0.82400,0.000000,0.000000,0.000000,0.000000,0.000000,0.000000,0.000000,-0.418515,0.000000,0.000000,0.000000,0.000000
0.82600,0.000000,0.000000,0.000000,0.000000,0.000000,0.000000,0.000000,-0.419053,0.000000,0.000000,0.000000,0.000000
0.82800,0.000000,0.000000,0.000000,0.000000,0.000000,0.000000,0.000000,-0.419581,0.000000,0.000000,0.000000,0.000000
0.83000,0.000000,0.000000,0.000000,0.000000,0.000000,0.000000,0.000000,-0.420100,0.000000,0.000000,0.000000,0.000000
0.83200,0.000000,0.000000,0.000000,0.000000,0.000000,0.000000,0.000000,-0.420609,0.000000,0.000000,0.000000,0.000000
0.83400,0.000000,0.000000,0.000000,0.000000,0.000000,0.000000,0.000000,-0.421108,0.000000,0.000000,0.000000,0.000000
0.83600,0.000000,0.000000,0.000000,0.000000,0.000000,0.000000,0.000000,-0.421597,0.000000,0.000000,0.000000,0.000000
0.83800,0.000000,0.000000,0.000000,0.000000,0.000000,0.000000,0.000000,-0.422077,0.000000,0.000000,0.000000,0.000000
0.84000,0.000000,0.000000,0.000000,0.000000,0.000000,0.000000,0.000000,-0.422548,0.000000,0.000000,0.000000,0.000000
0.84200,0.000000,0.000000,0.000000,0.000000,0.000000,0.000000,0.000000,-0.423008,0.000000,0.000000,0.000000,0.000000
0.84400,0.000000,0.000000,0.000000,0.000000,0.000000,0.000000,0.000000,-0.423459,0.000000,0.000000,0.000000,0.000000
0.84600,0.000000,0.000000,0.000000,0.000000,0.000000,0.000000,0.000000,-0.423901,0.000000,0.000000,0.000000,0.000000
0.84800,0.000000,0.000000,0.000000,0.000000,0.000000,0.000000,0.000000,-0.424333,0.000000,0.000000,0.000000,0.000000
0.85000,0.000000,0.000000,0.000000,0.000000,0.000000,0.000000,0.000000,-0.424756,0.000000,0.000000,0.000000,0.000000
0.85200,0.000000,0.000000,0.000000,0.000000,0.000000,0.000000,0.000000,-0.425170,0.000000,0.000000,0.000000,0.000000
0.85400,0.000000,0.000000,0.000000,0.000000,0.000000,0.000000,0.000000,-0.425574,0.000000,0.000000,0.000000,0.000000
0.85600,0.000000,0.000000,0.000000,0.000000,0.000000,0.000000,0.000000,-0.425969,0.000000,0.000000,0.000000,0.000000
0.85800,0.000000,0.000000,0.000000,0.000000,0.000000,0.000000,0.000000,-0.426355,0.000000,0.000000,0.000000,0.000000
0.86000,0.000000,0.000000,0.000000,0.000000,0.000000,0.000000,0.000000,-0.426731,0.000000,0.000000,0.000000,0.000000
0.86200,0.000000,0.000000,0.000000,0.000000,0.000000,0.000000,0.000000,-0.427099,0.000000,0.000000,0.000000,0.000000
0.86400,0.000000,0.000000,0.000000,0.000000,0.000000,0.000000,0.000000,-0.427458,0.000000,0.000000,0.000000,0.000000
0.86600,0.000000,0.000000,0.000000,0.000000,0.000000,0.000000,0.000000,-0.427807,0.000000,0.000000,0.000000,0.000000
0.86800,0.000000,0.000000,0.000000,0.000000,0.000000,0.000000,0.000000,-0.428148,0.000000,0.000000,0.000000,0.000000
0.87000,0.000000,0.000000,0.000000,0.000000,0.000000,0.000000,0.000000,-0.428480,0.000000,0.000000,0.000000,0.000000
0.87200,0.000000,0.000000,0.000000,0.000000,0.000000,0.000000,0.000000,-0.428804,0.000000,0.000000,0.000000,0.000000
0.87400,0.000000,0.000000,0.000000,0.000000,0.000000,0.000000,0.000000,-0.429118,0.000000,0.000000,0.000000,0.000000
0.87600,0.000000,0.000000,0.000000,0.000000,0.000000,0.000000,0.000000,-0.429424,0.000000,0.000000,0.000000,0.000000
0.87800,0.000000,0.000000,0.000000,0.000000,0.000000,0.000000,0.000000,-0.429722,0.000000,0.000000,0.000000,0.000000
0.88000,0.000000,0.000000,0.000000,0.000000,0.000000,0.000000,0.000000,-0.430011,0.000000,0.000000,0.000000,0.000000
0.88200,0.000000,0.000000,0.000000,0.000000,0.000000,0.000000,0.000000,-0.430292,0.000000,0.000000,0.000000,0.000000
0.88400,0.000000,0.000000,0.000000,0.000000,0.000000,0.000000,0.000000,-0.430564,0.000000,0.000000,0.000000,0.000000
0.88600,0.000000,0.000000,0.000000,0.000000,0.000000,0.000000,0.000000,-0.430828,0.000000,0.000000,0.000000,0.000000
0.88800,0.000000,0.000000,0.000000,0.000000,0.000000,0.000000,0.000000,-0.431085,0.000000,0.000000,0.000000,0.000000
0.89000,0.000000,0.000000,0.000000,0.000000,0.000000,0.000000,0.000000,-0.431333,0.000000,0.000000,0.000000,0.000000
0.89200,0.000000,0.000000,0.000000,0.000000,0.000000,0.000000,0.000000,-0.431573,0.000000,0.000000,0.000000,0.000000
0.89400,0.000000,0.000000,0.000000,0.000000,0.000000,0.000000,0.000000,-0.431805,0.000000,0.000000,0.000000,0.000000
0.89600,0.000000,0.000000,0.000000,0.000000,0.000000,0.000000,0.000000,-0.432030,0.000000,0.000000,0.000000,0.000000
0.89800,0.000000,0.000000,0.000000,0.000000,0.000000,0.000000,0.000000,-0.432247,0.000000,0.000000,0.000000,0.000000
0.90000,0.000000,0.000000,0.000000,0.000000,0.000000,0.000000,0.000000,-0.432456,0.000000,0.000000,0.000000,0.000000
0.90200,0.000000,0.000000,0.000000,0.000000,0.000000,0.000000,0.000000,-0.432658,0.000000,0.000000,0.000000,0.000000
0.90400,0.000000,0.000000,0.000000,0.000000,0.000000,0.000000,0.000000,-0.432852,0.000000,0.000000,0.000000,0.000000
0.90600,0.000000,0.000000,0.000000,0.000000,0.000000,0.000000,0.000000,-0.433039,0.000000,0.000000,0.000000,0.000000
0.90800,0.000000,0.000000,0.000000,0.000000,0.000000,0.000000,0.000000,-0.433219,0.000000,0.000000,0.000000,0.000000
0.91000,0.000000,0.000000,0.000000,0.000000,0.000000,0.000000,0.000000,-0.433392,0.000000,0.000000,0.000000,0.000000
0.91200,0.000000,0.000000,0.000000,0.000000,0.000000,0.000000,0.000000,-0.433558,0.000000,0.000000,0.000000,0.000000
0.91400,0.000000,0.000000,0.000000,0.000000,0.000000,0.000000,0.000000,-0.433717,0.000000,0.000000,0.000000,0.000000
0.91600,0.000000,0.000000,0.000000,0.000000,0.000000,0.000000,0.000000,-0.433870,0.000000,0.000000,0.000000,0.000000
0.91800,0.000000,0.000000,0.000000,0.000000,0.000000,0.000000,0.000000,-0.434016,0.000000,0.000000,0.000000,0.000000
0.92000,0.000000,0.000000,0.000000,0.000000,0.000000,0.000000,0.000000,-0.434155,0.000000,0.000000,0.000000,0.000000
0.92200,0.000000,0.000000,0.000000,0.000000,0.000000,0.000000,0.000000,-0.434288,0.000000,0.000000,0.000000,0.000000
0.92400,0.000000,0.000000,0.000000,0.000000,0.000000,0.000000,0.000000,-0.434414,0.000000,0.000000,0.000000,0.000000
0.92600,0.000000,0.000000,0.000000,0.000000,0.000000,0.000000,0.000000,-0.434535,0.000000,0.000000,0.000000,0.000000
0.92800,0.000000,0.000000,0.000000,0.000000,0.000000,0.000000,0.000000,-0.434649,0.000000,0.000000,0.000000,0.000000
0.93000,0.000000,0.000000,0.000000,0.000000,0.000000,0.000000,0.000000,-0.434758,0.000000,0.000000,0.000000,0.000000
0.93200,0.000000,0.000000,0.000000,0.000000,0.000000,0.000000,0.000000,-0.434861,0.000000,0.000000,0.000000,0.000000
0.93400,0.000000,0.000000,0.000000,0.000000,0.000000,0.000000,0.000000,-0.434958,0.000000,0.000000,0.000000,0.000000
0.93600,0.000000,0.000000,0.000000,0.000000,0.000000,0.000000,0.000000,-0.435050,0.000000,0.000000,0.000000,0.000000
0.93800,0.000000,0.000000,0.000000,0.000000,0.000000,0.000000,0.000000,-0.435136,0.000000,0.000000,0.000000,0.000000
0.94000,0.000000,0.000000,0.000000,0.000000,0.000000,0.000000,0.000000,-0.435217,0.000000,0.000000,0.000000,0.000000
0.94200,0.000000,0.000000,0.000000,0.000000,0.000000,0.000000,0.000000,-0.435293,0.000000,0.000000,0.000000,0.000000
0.94400,0.000000,0.000000,0.000000,0.000000,0.000000,0.000000,0.000000,-0.435364,0.000000,0.000000,0.000000,0.000000
0.94600,0.000000,0.000000,0.000000,0.000000,0.000000,0.000000,0.000000,-0.435430,0.000000,0.000000,0.000000,0.000000
0.94800,0.000000,0.000000,0.000000,0.000000,0.000000,0.000000,0.000000,-0.435492,0.000000,0.000000,0.000000,0.000000
0.95000,0.000000,0.000000,0.000000,0.000000,0.000000,0.000000,0.000000,-0.435549,0.000000,0.000000,0.000000,0.000000
0.95200,0.000000,0.000000,0.000000,0.000000,0.000000,0.000000,0.000000,-0.435602,0.000000,0.000000,0.000000,0.000000
0.95400,0.000000,0.000000,0.000000,0.000000,0.000000,0.000000,0.000000,-0.435651,0.000000,0.000000,0.000000,0.000000
0.95600,0.000000,0.000000,0.000000,0.000000,0.000000,0.000000,0.000000,-0.435695,0.000000,0.000000,0.000000,0.000000
0.95800,0.000000,0.000000,0.000000,0.000000,0.000000,0.000000,0.000000,-0.435736,0.000000,0.000000,0.000000,0.000000
0.96000,0.000000,0.000000,0.000000,0.000000,0.000000,0.000000,0.000000,-0.435773,0.000000,0.000000,0.000000,0.000000
0.96200,0.000000,0.000000,0.000000,0.000000,0.000000,0.000000,0.000000,-0.435806,0.000000,0.000000,0.000000,0.000000
0.96400,0.000000,0.000000,0.000000,0.000000,0.000000,0.000000,0.000000,-0.435836,0.000000,0.000000,0.000000,0.000000
0.96600,0.000000,0.000000,0.000000,0.000000,0.000000,0.000000,0.000000,-0.435863,0.000000,0.000000,0.000000,0.000000
0.96800,0.000000,0.000000,0.000000,0.000000,0.000000,0.000000,0.000000,-0.435887,0.000000,0.000000,0.000000,0.000000
0.97000,0.000000,0.000000,0.000000,0.000000,0.000000,0.000000,0.000000,-0.435908,0.000000,0.000000,0.000000,0.000000
0.97200,0.000000,0.000000,0.000000,0.000000,0.000000,0.000000,0.000000,-0.435926,0.000000,0.000000,0.000000,0.000000
0.97400,0.000000,0.000000,0.000000,0.000000,0.000000,0.000000,0.000000,-0.435942,0.000000,0.000000,0.000000,0.000000
0.97600,0.000000,0.000000,0.000000,0.000000,0.000000,0.000000,0.000000,-0.435955,0.000000,0.000000,0.000000,0.000000
0.97800,0.000000,0.000000,0.000000,0.000000,0.000000,0.000000,0.000000,-0.435966,0.000000,0.000000,0.000000,0.000000
0.98000,0.000000,0.000000,0.000000,0.000000,0.000000,0.000000,0.000000,-0.435975,0.000000,0.000000,0.000000,0.000000
0.98200,0.000000,0.000000,0.000000,0.000000,0.000000,0.000000,0.000000,-0.435982,0.000000,0.000000,0.000000,0.000000
0.98400,0.000000,0.000000,0.000000,0.000000,0.000000,0.000000,0.000000,-0.435988,0.000000,0.000000,0.000000,0.000000
0.98600,0.000000,0.000000,0.000000,0.000000,0.000000,0.000000,0.000000,-0.435993,0.000000,0.000000,0.000000,0.000000
0.98800,0.000000,0.000000,0.000000,0.000000,0.000000,0.000000,0.000000,-0.435996,0.000000,0.000000,0.000000,0.000000
0.99000,0.000000,0.000000,0.000000,0.000000,0.000000,0.000000,0.000000,-0.435998,0.000000,0.000000,0.000000,0.000000
0.99200,0.000000,0.000000,0.000000,0.000000,0.000000,0.000000,0.000000,-0.435999,0.000000,0.000000,0.000000,0.000000
0.99400,0.000000,0.000000,0.000000,0.000000,0.000000,0.000000,0.000000,-0.436000,0.000000,0.000000,0.000000,0.000000
0.99600,0.000000,0.000000,0.000000,0.000000,0.000000,0.000000,0.000000,-0.436000,0.000000,0.000000,0.000000,0.000000
0.99800,0.000000,0.000000,0.000000,0.000000,0.000000,0.000000,0.000000,-0.436000,0.000000,0.000000,0.000000,0.000000
1.00000,0.000000,0.000000,0.000000,0.000000,0.000000,0.000000,0.000000,-0.436000,0.000000,0.000000,0.000000,0.000000
1.00200,0.000000,-0.000000,-0.000000,0.000000,0.000000,-0.000000,0.000000,-0.436000,0.000000,0.000000,0.000000,0.000000
1.00400,0.000000,-0.000000,-0.000001,0.000000,0.000000,-0.000000,0.000000,-0.436000,0.000000,0.000000,0.000000,0.000000
1.00600,0.000001,-0.000000,-0.000003,0.000002,0.000001,-0.000000,0.000000,-0.436000,0.000000,0.000000,0.000000,0.000000
1.00800,0.000002,-0.000001,-0.000008,0.000004,0.000002,-0.000001,0.000000,-0.436000,0.000000,0.000000,0.000000,0.000000
1.01000,0.000004,-0.000002,-0.000016,0.000007,0.000004,-0.000001,0.000000,-0.436000,0.000000,0.000000,0.000000,0.000000
1.01200,0.000007,-0.000004,-0.000027,0.000012,0.000006,-0.000002,0.000000,-0.436000,0.000000,0.000000,0.000000,0.000000
1.01400,0.000011,-0.000006,-0.000043,0.000019,0.000010,-0.000003,0.000000,-0.436000,0.000000,0.000000,0.000000,0.000000
1.01600,0.000017,-0.000009,-0.000064,0.000028,0.000014,-0.000004,0.000000,-0.436000,0.000000,0.000000,0.000000,0.000000
1.01800,0.000024,-0.000012,-0.000091,0.000040,0.000020,-0.000006,0.000000,-0.436000,0.000000,0.000000,0.000000,0.000000
1.02000,0.000033,-0.000017,-0.000125,0.000055,0.000028,-0.000009,0.000000,-0.436000,0.000000,0.000000,0.000000,0.000000
1.02200,0.000044,-0.000023,-0.000165,0.000073,0.000037,-0.000011,0.000000,-0.436000,0.000000,0.000000,0.000000,0.000000
1.02400,0.000057,-0.000029,-0.000214,0.000094,0.000048,-0.000015,0.000000,-0.436000,0.000000,0.000000,0.000000,0.000000
1.02600,0.000072,-0.000037,-0.000271,0.000119,0.000061,-0.000019,0.000000,-0.436000,0.000000,0.000000,0.000000,0.000000
1.02800,0.000090,-0.000046,-0.000338,0.000149,0.000076,-0.000023,0.000000,-0.436000,0.000000,0.000000,0.000000,0.000000
1.03000,0.000110,-0.000057,-0.000414,0.000182,0.000093,-0.000029,0.000000,-0.436000,0.000000,0.000000,0.000000,0.000000
1.03200,0.000133,-0.000069,-0.000501,0.000221,0.000112,-0.000035,0.000000,-0.436000,0.000000,0.000000,0.000000,0.000000
1.03400,0.000159,-0.000082,-0.000600,0.000264,0.000134,-0.000041,0.000000,-0.436000,0.000000,0.000000,0.000000,0.000000
1.03600,0.000188,-0.000097,-0.000710,0.000312,0.000159,-0.000049,0.000000,-0.436000,0.000000,0.000000,0.000000,0.000000
1.03800,0.000221,-0.000114,-0.000832,0.000366,0.000186,-0.000057,0.000000,-0.436000,0.000000,0.000000,0.000000,0.000000
1.04000,0.000257,-0.000132,-0.000967,0.000426,0.000216,-0.000067,0.000000,-0.436000,0.000000,0.000000,0.000000,0.000000
1.04200,0.000296,-0.000153,-0.001116,0.000491,0.000249,-0.000077,0.000000,-0.436000,0.000000,0.000000,0.000000,0.000000
1.04400,0.000340,-0.000175,-0.001280,0.000563,0.000286,-0.000088,0.000000,-0.436000,0.000000,0.000000,0.000000,0.000000
1.04600,0.000387,-0.000199,-0.001458,0.000641,0.000326,-0.000101,0.000000,-0.436000,0.000000,0.000000,0.000000,0.000000
1.04800,0.000438,-0.000226,-0.001651,0.000726,0.000369,-0.000114,0.000000,-0.436000,0.000000,0.000000,0.000000,0.000000
1.05000,0.000494,-0.000255,-0.001860,0.000819,0.000416,-0.000128,0.000000,-0.436000,0.000000,0.000000,0.000000,0.000000
1.05200,0.000554,-0.000285,-0.002086,0.000918,0.000466,-0.000144,0.000000,-0.436000,0.000000,0.000000,0.000000,0.000000
1.05400,0.000618,-0.000319,-0.002329,0.001025,0.000520,-0.000161,0.000000,-0.436000,0.000000,0.000000,0.000000,0.000000
1.05600,0.000687,-0.000354,-0.002589,0.001139,0.000579,-0.000179,0.000000,-0.436000,0.000000,0.000000,0.000000,0.000000
1.05800,0.000761,-0.000392,-0.002868,0.001262,0.000641,-0.000198,0.000000,-0.436000,0.000000,0.000000,0.000000,0.000000
1.06000,0.000840,-0.000433,-0.003165,0.001393,0.000707,-0.000218,0.000000,-0.436000,0.000000,0.000000,0.000000,0.000000
1.06200,0.000924,-0.000476,-0.003481,0.001532,0.000778,-0.000240,0.000000,-0.436000,0.000000,0.000000,0.000000,0.000000
1.06400,0.001013,-0.000522,-0.003817,0.001679,0.000853,-0.000263,0.000000,-0.436000,0.000000,0.000000,0.000000,0.000000
1.06600,0.001107,-0.000571,-0.004173,0.001836,0.000932,-0.000288,0.000000,-0.436000,0.000000,0.000000,0.000000,0.000000
1.06800,0.001207,-0.000623,-0.004549,0.002002,0.001017,-0.000314,0.000000,-0.436000,0.000000,0.000000,0.000000,0.000000
1.07000,0.001313,-0.000677,-0.004947,0.002177,0.001105,-0.000341,0.000000,-0.436000,0.000000,0.000000,0.000000,0.000000
1.07200,0.001424,-0.000734,-0.005366,0.002361,0.001199,-0.000370,0.000000,-0.436000,0.000000,0.000000,0.000000,0.000000
1.07400,0.001541,-0.000795,-0.005808,0.002555,0.001298,-0.000401,0.000000,-0.436000,0.000000,0.000000,0.000000,0.000000
1.07600,0.001664,-0.000858,-0.006271,0.002759,0.001401,-0.000433,0.000000,-0.436000,0.000000,0.000000,0.000000,0.000000
1.07800,0.001793,-0.000925,-0.006758,0.002974,0.001510,-0.000466,0.000000,-0.436000,0.000000,0.000000,0.000000,0.000000
1.08000,0.001929,-0.000995,-0.007268,0.003198,0.001624,-0.000502,0.000000,-0.436000,0.000000,0.000000,0.000000,0.000000
1.08200,0.002070,-0.001068,-0.007802,0.003433,0.001743,-0.000539,0.000000,-0.436000,0.000000,0.000000,0.000000,0.000000
1.08400,0.002218,-0.001144,-0.008360,0.003679,0.001868,-0.000577,0.000000,-0.436000,0.000000,0.000000,0.000000,0.000000
1.08600,0.002373,-0.001224,-0.008943,0.003935,0.001998,-0.000617,0.000000,-0.436000,0.000000,0.000000,0.000000,0.000000
1.08800,0.002534,-0.001307,-0.009551,0.004203,0.002134,-0.000659,0.000000,-0.436000,0.000000,0.000000,0.000000,0.000000
1.09000,0.002702,-0.001394,-0.010185,0.004481,0.002276,-0.000703,0.000000,-0.436000,0.000000,0.000000,0.000000,0.000000
1.09200,0.002877,-0.001484,-0.010844,0.004771,0.002423,-0.000749,0.000000,-0.436000,0.000000,0.000000,0.000000,0.000000
1.09400,0.003059,-0.001578,-0.011530,0.005073,0.002576,-0.000796,0.000000,-0.436000,0.000000,0.000000,0.000000,0.000000
1.09600,0.003248,-0.001675,-0.012242,0.005386,0.002735,-0.000845,0.000000,-0.436000,0.000000,0.000000,0.000000,0.000000
1.09800,0.003444,-0.001776,-0.012981,0.005712,0.002901,-0.000896,0.000000,-0.436000,0.000000,0.000000,0.000000,0.000000
1.10000,0.003648,-0.001881,-0.013748,0.006049,0.003072,-0.000949,0.000000,-0.436000,0.000000,0.000000,0.000000,0.000000
1.10200,0.003859,-0.001990,-0.014542,0.006399,0.003249,-0.001004,0.000000,-0.436000,0.000000,0.000000,0.000000,0.000000
1.10400,0.004077,-0.002102,-0.015365,0.006760,0.003433,-0.001061,0.000000,-0.436000,0.000000,0.000000,0.000000,0.000000
1.10600,0.004303,-0.002219,-0.016215,0.007135,0.003623,-0.001119,0.000000,-0.436000,0.000000,0.000000,0.000000,0.000000
1.10800,0.004536,-0.002339,-0.017095,0.007522,0.003820,-0.001180,0.000000,-0.436000,0.000000,0.000000,0.000000,0.000000
1.11000,0.004777,-0.002464,-0.018004,0.007922,0.004023,-0.001243,0.000000,-0.436000,0.000000,0.000000,0.000000,0.000000
1.11200,0.005026,-0.002592,-0.018942,0.008335,0.004233,-0.001307,0.000000,-0.436000,0.000000,0.000000,0.000000,0.000000
1.11400,0.005283,-0.002724,-0.019910,0.008760,0.004449,-0.001374,0.000000,-0.436000,0.000000,0.000000,0.000000,0.000000
1.11600,0.005548,-0.002861,-0.020908,0.009200,0.004672,-0.001443,0.000000,-0.436000,0.000000,0.000000,0.000000,0.000000
1.11800,0.005820,-0.003002,-0.021936,0.009652,0.004902,-0.001514,0.000000,-0.436000,0.000000,0.000000,0.000000,0.000000
1.12000,0.006101,-0.003147,-0.022995,0.010118,0.005138,-0.001587,0.000000,-0.436000,0.000000,0.000000,0.000000,0.000000
1.12200,0.006391,-0.003296,-0.024085,0.010598,0.005382,-0.001662,0.000000,-0.436000,0.000000,0.000000,0.000000,0.000000
1.12400,0.006688,-0.003449,-0.025206,0.011091,0.005632,-0.001740,0.000000,-0.436000,0.000000,0.000000,0.000000,0.000000
1.12600,0.006994,-0.003607,-0.026358,0.011598,0.005890,-0.001819,0.000000,-0.436000,0.000000,0.000000,0.000000,0.000000
1.12800,0.007308,-0.003769,-0.027543,0.012119,0.006154,-0.001901,0.000000,-0.436000,0.000000,0.000000,0.000000,0.000000
1.13000,0.007631,-0.003935,-0.028759,0.012654,0.006426,-0.001985,0.000000,-0.436000,0.000000,0.000000,0.000000,0.000000
1.13200,0.007962,-0.004106,-0.030007,0.013203,0.006705,-0.002071,0.000000,-0.436000,0.000000,0.000000,0.000000,0.000000
1.13400,0.008302,-0.004281,-0.031288,0.013767,0.006991,-0.002160,0.000000,-0.436000,0.000000,0.000000,0.000000,0.000000
1.13600,0.008651,-0.004461,-0.032602,0.014345,0.007285,-0.002250,0.000000,-0.436000,0.000000,0.000000,0.000000,0.000000
1.13800,0.009008,-0.004645,-0.033948,0.014938,0.007586,-0.002343,0.000000,-0.436000,0.000000,0.000000,0.000000,0.000000
1.14000,0.009374,-0.004834,-0.035328,0.015545,0.007894,-0.002439,0.000000,-0.436000,0.000000,0.000000,0.000000,0.000000
1.14200,0.009749,-0.005027,-0.036741,0.016166,0.008210,-0.002536,0.000000,-0.436000,0.000000,0.000000,0.000000,0.000000
1.14400,0.010133,-0.005225,-0.038188,0.016803,0.008533,-0.002636,0.000000,-0.436000,0.000000,0.000000,0.000000,0.000000
1.14600,0.010526,-0.005428,-0.039669,0.017454,0.008864,-0.002738,0.000000,-0.436000,0.000000,0.000000,0.000000,0.000000
1.14800,0.010927,-0.005635,-0.041183,0.018121,0.009202,-0.002843,0.000000,-0.436000,0.000000,0.000000,0.000000,0.000000
1.15000,0.011338,-0.005847,-0.042732,0.018802,0.009548,-0.002950,0.000000,-0.436000,0.000000,0.000000,0.000000,0.000000
1.15200,0.011758,-0.006064,-0.044315,0.019499,0.009902,-0.003059,0.000000,-0.436000,0.000000,0.000000,0.000000,0.000000
1.15400,0.012188,-0.006285,-0.045933,0.020211,0.010264,-0.003171,0.000000,-0.436000,0.000000,0.000000,0.000000,0.000000
1.15600,0.012626,-0.006511,-0.047585,0.020938,0.010633,-0.003285,0.000000,-0.436000,0.000000,0.000000,0.000000,0.000000
1.15800,0.013074,-0.006742,-0.049272,0.021680,0.011010,-0.003401,0.000000,-0.436000,0.000000,0.000000,0.000000,0.000000
1.16000,0.013531,-0.006978,-0.050995,0.022438,0.011395,-0.003520,0.000000,-0.436000,0.000000,0.000000,0.000000,0.000000
1.16200,0.013997,-0.007218,-0.052752,0.023211,0.011787,-0.003641,0.000000,-0.436000,0.000000,0.000000,0.000000,0.000000
1.16400,0.014473,-0.007464,-0.054545,0.024000,0.012188,-0.003765,0.000000,-0.436000,0.000000,0.000000,0.000000,0.000000
1.16600,0.014958,-0.007714,-0.056373,0.024805,0.012596,-0.003891,0.000000,-0.436000,0.000000,0.000000,0.000000,0.000000
1.16800,0.015453,-0.007969,-0.058237,0.025625,0.013013,-0.004020,0.000000,-0.436000,0.000000,0.000000,0.000000,0.000000
1.17000,0.015957,-0.008229,-0.060137,0.026461,0.013437,-0.004151,0.000000,-0.436000,0.000000,0.000000,0.000000,0.000000
1.17200,0.016470,-0.008494,-0.062072,0.027312,0.013870,-0.004285,0.000000,-0.436000,0.000000,0.000000,0.000000,0.000000
1.17400,0.016993,-0.008763,-0.064044,0.028180,0.014310,-0.004421,0.000000,-0.436000,0.000000,0.000000,0.000000,0.000000
1.17600,0.017526,-0.009038,-0.066051,0.029063,0.014759,-0.004559,0.000000,-0.436000,0.000000,0.000000,0.000000,0.000000
1.17800,0.018068,-0.009318,-0.068095,0.029962,0.015216,-0.004700,0.000000,-0.436000,0.000000,0.000000,0.000000,0.000000
1.18000,0.018620,-0.009602,-0.070175,0.030877,0.015680,-0.004844,0.000000,-0.436000,0.000000,0.000000,0.000000,0.000000
1.18200,0.019182,-0.009892,-0.072291,0.031809,0.016153,-0.004990,0.000000,-0.436000,0.000000,0.000000,0.000000,0.000000
1.18400,0.019753,-0.010187,-0.074444,0.032756,0.016634,-0.005139,0.000000,-0.436000,0.000000,0.000000,0.000000,0.000000
1.18600,0.020334,-0.010486,-0.076633,0.033719,0.017123,-0.005290,0.000000,-0.436000,0.000000,0.000000,0.000000,0.000000
1.18800,0.020924,-0.010791,-0.078859,0.034699,0.017621,-0.005443,0.000000,-0.436000,0.000000,0.000000,0.000000,0.000000
1.19000,0.021525,-0.011100,-0.081122,0.035694,0.018126,-0.005600,0.000000,-0.436000,0.000000,0.000000,0.000000,0.000000
1.19200,0.022135,-0.011415,-0.083421,0.036706,0.018640,-0.005758,0.000000,-0.436000,0.000000,0.000000,0.000000,0.000000
1.19400,0.022755,-0.011735,-0.085757,0.037734,0.019162,-0.005919,0.000000,-0.436000,0.000000,0.000000,0.000000,0.000000
1.19600,0.023384,-0.012059,-0.088130,0.038778,0.019692,-0.006083,0.000000,-0.436000,0.000000,0.000000,0.000000,0.000000
1.19800,0.024024,-0.012389,-0.090540,0.039838,0.020231,-0.006250,0.000000,-0.436000,0.000000,0.000000,0.000000,0.000000
1.20000,0.024673,-0.012724,-0.092987,0.040915,0.020778,-0.006419,0.000000,-0.436000,0.000000,0.000000,0.000000,0.000000
1.20200,0.025332,-0.013064,-0.095470,0.042008,0.021333,-0.006590,0.000000,-0.436000,0.000000,0.000000,0.000000,0.000000
1.20400,0.026001,-0.013409,-0.097991,0.043117,0.021896,-0.006764,0.000000,-0.436000,0.000000,0.000000,0.000000,0.000000
1.20600,0.026679,-0.013759,-0.100549,0.044242,0.022467,-0.006940,0.000000,-0.436000,0.000000,0.000000,0.000000,0.000000
1.20800,0.027368,-0.014114,-0.103143,0.045384,0.023047,-0.007120,0.000000,-0.436000,0.000000,0.000000,0.000000,0.000000
1.21000,0.028066,-0.014474,-0.105775,0.046542,0.023635,-0.007301,0.000000,-0.436000,0.000000,0.000000,0.000000,0.000000
1.21200,0.028774,-0.014839,-0.108444,0.047716,0.024231,-0.007485,0.000000,-0.436000,0.000000,0.000000,0.000000,0.000000
1.21400,0.029492,-0.015209,-0.111150,0.048906,0.024836,-0.007672,0.000000,-0.436000,0.000000,0.000000,0.000000,0.000000
1.21600,0.030220,-0.015584,-0.113892,0.050113,0.025449,-0.007862,0.000000,-0.436000,0.000000,0.000000,0.000000,0.000000
1.21800,0.030958,-0.015965,-0.116672,0.051336,0.026070,-0.008053,0.000000,-0.436000,0.000000,0.000000,0.000000,0.000000
1.22000,0.031705,-0.016350,-0.119489,0.052576,0.026699,-0.008248,0.000000,-0.436000,0.000000,0.000000,0.000000,0.000000
1.22200,0.032462,-0.016741,-0.122343,0.053831,0.027337,-0.008445,0.000000,-0.436000,0.000000,0.000000,0.000000,0.000000
1.22400,0.033229,-0.017136,-0.125233,0.055103,0.027983,-0.008644,0.000000,-0.436000,0.000000,0.000000,0.000000,0.000000
1.22600,0.034006,-0.017537,-0.128161,0.056392,0.028637,-0.008846,0.000000,-0.436000,0.000000,0.000000,0.000000,0.000000
1.22800,0.034792,-0.017942,-0.131125,0.057696,0.029300,-0.009051,0.000000,-0.436000,0.000000,0.000000,0.000000,0.000000
1.23000,0.035589,-0.018353,-0.134127,0.059017,0.029970,-0.009258,0.000000,-0.436000,0.000000,0.000000,0.000000,0.000000
1.23200,0.036395,-0.018769,-0.137165,0.060353,0.030649,-0.009468,0.000000,-0.436000,0.000000,0.000000,0.000000,0.000000
1.23400,0.037211,-0.019190,-0.140239,0.061706,0.031336,-0.009680,0.000000,-0.436000,0.000000,0.000000,0.000000,0.000000
1.23600,0.038036,-0.019615,-0.143351,0.063075,0.032031,-0.009895,0.000000,-0.436000,0.000000,0.000000,0.000000,0.000000
1.23800,0.038872,-0.020046,-0.146499,0.064461,0.032735,-0.010112,0.000000,-0.436000,0.000000,0.000000,0.000000,0.000000
1.24000,0.039717,-0.020482,-0.149684,0.065862,0.033446,-0.010332,0.000000,-0.436000,0.000000,0.000000,0.000000,0.000000
1.24200,0.040571,-0.020923,-0.152905,0.067279,0.034166,-0.010554,0.000000,-0.436000,0.000000,0.000000,0.000000,0.000000
1.24400,0.041436,-0.021368,-0.156163,0.068712,0.034894,-0.010779,0.000000,-0.436000,0.000000,0.000000,0.000000,0.000000
1.24600,0.042310,-0.021819,-0.159456,0.070162,0.035630,-0.011007,0.000000,-0.436000,0.000000,0.000000,0.000000,0.000000
1.24800,0.043193,-0.022275,-0.162786,0.071627,0.036374,-0.011237,0.000000,-0.436000,0.000000,0.000000,0.000000,0.000000
1.25000,0.044087,-0.022735,-0.166153,0.073108,0.037126,-0.011469,0.000000,-0.436000,0.000000,0.000000,0.000000,0.000000
1.25200,0.044989,-0.023201,-0.169555,0.074605,0.037887,-0.011704,0.000000,-0.436000,0.000000,0.000000,0.000000,0.000000
1.25400,0.045902,-0.023671,-0.172993,0.076118,0.038655,-0.011941,0.000000,-0.436000,0.000000,0.000000,0.000000,0.000000
1.25600,0.046823,-0.024147,-0.176467,0.077647,0.039431,-0.012181,0.000000,-0.436000,0.000000,0.000000,0.000000,0.000000
1.25800,0.047755,-0.024627,-0.179977,0.079191,0.040215,-0.012423,0.000000,-0.436000,0.000000,0.000000,0.000000,0.000000
1.26000,0.048696,-0.025112,-0.183523,0.080751,0.041008,-0.012668,0.000000,-0.436000,0.000000,0.000000,0.000000,0.000000
1.26200,0.049646,-0.025602,-0.187104,0.082327,0.041808,-0.012915,0.000000,-0.436000,0.000000,0.000000,0.000000,0.000000
1.26400,0.050605,-0.026097,-0.190720,0.083918,0.042616,-0.013165,0.000000,-0.436000,0.000000,0.000000,0.000000,0.000000
1.26600,0.051574,-0.026597,-0.194372,0.085525,0.043432,-0.013417,0.000000,-0.436000,0.000000,0.000000,0.000000,0.000000
1.26800,0.052552,-0.027101,-0.198058,0.087147,0.044256,-0.013671,0.000000,-0.436000,0.000000,0.000000,0.000000,0.000000
1.27000,0.053540,-0.027611,-0.201780,0.088785,0.045087,-0.013928,0.000000,-0.436000,0.000000,0.000000,0.000000,0.000000
1.27200,0.054537,-0.028125,-0.205537,0.090437,0.045927,-0.014187,0.000000,-0.436000,0.000000,0.000000,0.000000,0.000000
1.27400,0.055543,-0.028643,-0.209328,0.092106,0.046774,-0.014449,0.000000,-0.436000,0.000000,0.000000,0.000000,0.000000
1.27600,0.056558,-0.029167,-0.213154,0.093789,0.047629,-0.014713,0.000000,-0.436000,0.000000,0.000000,0.000000,0.000000
1.27800,0.057582,-0.029695,-0.217014,0.095488,0.048491,-0.014980,0.000000,-0.436000,0.000000,0.000000,0.000000,0.000000
1.28000,0.058615,-0.030228,-0.220909,0.097201,0.049361,-0.015248,0.000000,-0.436000,0.000000,0.000000,0.000000,0.000000
1.28200,0.059658,-0.030766,-0.224837,0.098930,0.050239,-0.015520,0.000000,-0.436000,0.000000,0.000000,0.000000,0.000000
1.28400,0.060709,-0.031308,-0.228800,0.100673,0.051125,-0.015793,0.000000,-0.436000,0.000000,0.000000,0.000000,0.000000
1.28600,0.061770,-0.031855,-0.232796,0.102432,0.052018,-0.016069,0.000000,-0.436000,0.000000,0.000000,0.000000,0.000000
1.28800,0.062839,-0.032406,-0.236826,0.104205,0.052918,-0.016347,0.000000,-0.436000,0.000000,0.000000,0.000000,0.000000
1.29000,0.063917,-0.032962,-0.240889,0.105993,0.053826,-0.016628,0.000000,-0.436000,0.000000,0.000000,0.000000,0.000000
1.29200,0.065004,-0.033523,-0.244986,0.107795,0.054741,-0.016910,0.000000,-0.436000,0.000000,0.000000,0.000000,0.000000
1.29400,0.066100,-0.034088,-0.249115,0.109612,0.055664,-0.017195,0.000000,-0.436000,0.000000,0.000000,0.000000,0.000000
1.29600,0.067204,-0.034657,-0.253277,0.111444,0.056594,-0.017483,0.000000,-0.436000,0.000000,0.000000,0.000000,0.000000
1.29800,0.068317,-0.035231,-0.257472,0.113289,0.057531,-0.017772,0.000000,-0.436000,0.000000,0.000000,0.000000,0.000000
1.30000,0.069439,-0.035810,-0.261700,0.115150,0.058476,-0.018064,0.000000,-0.436000,0.000000,0.000000,0.000000,0.000000
1.30200,0.070569,-0.036393,-0.265960,0.117024,0.059428,-0.018358,0.000000,-0.436000,0.000000,0.000000,0.000000,0.000000
1.30400,0.071708,-0.036980,-0.270251,0.118912,0.060387,-0.018654,0.000000,-0.436000,0.000000,0.000000,0.000000,0.000000
1.30600,0.072855,-0.037571,-0.274575,0.120815,0.061353,-0.018953,0.000000,-0.436000,0.000000,0.000000,0.000000,0.000000
1.30800,0.074011,-0.038167,-0.278930,0.122731,0.062326,-0.019253,0.000000,-0.436000,0.000000,0.000000,0.000000,0.000000
1.31000,0.075175,-0.038768,-0.283317,0.124661,0.063306,-0.019556,0.000000,-0.436000,0.000000,0.000000,0.000000,0.000000
1.31200,0.076347,-0.039372,-0.287735,0.126605,0.064293,-0.019861,0.000000,-0.436000,0.000000,0.000000,0.000000,0.000000
1.31400,0.077527,-0.039981,-0.292184,0.128563,0.065288,-0.020168,0.000000,-0.436000,0.000000,0.000000,0.000000,0.000000
1.31600,0.078716,-0.040594,-0.296664,0.130534,0.066289,-0.020478,0.000000,-0.436000,0.000000,0.000000,0.000000,0.000000
1.31800,0.079913,-0.041211,-0.301174,0.132518,0.067296,-0.020789,0.000000,-0.436000,0.000000,0.000000,0.000000,0.000000
1.32000,0.081118,-0.041832,-0.305714,0.134516,0.068311,-0.021102,0.000000,-0.436000,0.000000,0.000000,0.000000,0.000000
1.32200,0.082330,-0.042458,-0.310285,0.136527,0.069332,-0.021418,0.000000,-0.436000,0.000000,0.000000,0.000000,0.000000
1.32400,0.083551,-0.043087,-0.314885,0.138552,0.070360,-0.021735,0.000000,-0.436000,0.000000,0.000000,0.000000,0.000000
1.32600,0.084780,-0.043721,-0.319515,0.140589,0.071395,-0.022055,0.000000,-0.436000,0.000000,0.000000,0.000000,0.000000
1.32800,0.086016,-0.044358,-0.324175,0.142639,0.072436,-0.022377,0.000000,-0.436000,0.000000,0.000000,0.000000,0.000000
1.33000,0.087260,-0.045000,-0.328863,0.144702,0.073483,-0.022700,0.000000,-0.436000,0.000000,0.000000,0.000000,0.000000
1.33200,0.088512,-0.045645,-0.333581,0.146778,0.074537,-0.023026,0.000000,-0.436000,0.000000,0.000000,0.000000,0.000000
1.33400,0.089771,-0.046295,-0.338326,0.148866,0.075598,-0.023353,0.000000,-0.436000,0.000000,0.000000,0.000000,0.000000
1.33600,0.091038,-0.046948,-0.343101,0.150966,0.076665,-0.023683,0.000000,-0.436000,0.000000,0.000000,0.000000,0.000000
1.33800,0.092312,-0.047605,-0.347903,0.153079,0.077738,-0.024014,0.000000,-0.436000,0.000000,0.000000,0.000000,0.000000
1.34000,0.093593,-0.048266,-0.352733,0.155205,0.078817,-0.024348,0.000000,-0.436000,0.000000,0.000000,0.000000,0.000000
1.34200,0.094882,-0.048931,-0.357591,0.157342,0.079902,-0.024683,0.000000,-0.436000,0.000000,0.000000,0.000000,0.000000
1.34400,0.096178,-0.049599,-0.362476,0.159491,0.080994,-0.025020,0.000000,-0.436000,0.000000,0.000000,0.000000,0.000000
1.34600,0.097482,-0.050271,-0.367387,0.161653,0.082092,-0.025359,0.000000,-0.436000,0.000000,0.000000,0.000000,0.000000
1.34800,0.098792,-0.050947,-0.372326,0.163826,0.083195,-0.025700,0.000000,-0.436000,0.000000,0.000000,0.000000,0.000000
1.35000,0.100110,-0.051627,-0.377291,0.166010,0.084304,-0.026043,0.000000,-0.436000,0.000000,0.000000,0.000000,0.000000
1.35200,0.101434,-0.052310,-0.382282,0.168207,0.085420,-0.026387,0.000000,-0.436000,0.000000,0.000000,0.000000,0.000000
1.35400,0.102765,-0.052996,-0.387300,0.170414,0.086541,-0.026734,0.000000,-0.436000,0.000000,0.000000,0.000000,0.000000
1.35600,0.104103,-0.053686,-0.392342,0.172633,0.087668,-0.027082,0.000000,-0.436000,0.000000,0.000000,0.000000,0.000000
1.35800,0.105448,-0.054380,-0.397410,0.174863,0.088800,-0.027432,0.000000,-0.436000,0.000000,0.000000,0.000000,0.000000
1.36000,0.106799,-0.055076,-0.402503,0.177104,0.089938,-0.027783,0.000000,-0.436000,0.000000,0.000000,0.000000,0.000000
1.36200,0.108157,-0.055777,-0.407621,0.179356,0.091082,-0.028136,0.000000,-0.436000,0.000000,0.000000,0.000000,0.000000
1.36400,0.109522,-0.056480,-0.412763,0.181618,0.092231,-0.028491,0.000000,-0.436000,0.000000,0.000000,0.000000,0.000000
1.36600,0.110892,-0.057187,-0.417929,0.183892,0.093385,-0.028848,0.000000,-0.436000,0.000000,0.000000,0.000000,0.000000
1.36800,0.112270,-0.057897,-0.423120,0.186175,0.094545,-0.029206,0.000000,-0.436000,0.000000,0.000000,0.000000,0.000000
1.37000,0.113653,-0.058611,-0.428333,0.188469,0.095710,-0.029566,0.000000,-0.436000,0.000000,0.000000,0.000000,0.000000
1.37200,0.115043,-0.059327,-0.433570,0.190773,0.096880,-0.029928,0.000000,-0.436000,0.000000,0.000000,0.000000,0.000000
1.37400,0.116438,-0.060047,-0.438830,0.193088,0.098055,-0.030291,0.000000,-0.436000,0.000000,0.000000,0.000000,0.000000
1.37600,0.117840,-0.060770,-0.444112,0.195412,0.099235,-0.030655,0.000000,-0.436000,0.000000,0.000000,0.000000,0.000000
1.37800,0.119247,-0.061496,-0.449417,0.197746,0.100421,-0.031021,0.000000,-0.436000,0.000000,0.000000,0.000000,0.000000
1.38000,0.120661,-0.062225,-0.454743,0.200090,0.101611,-0.031389,0.000000,-0.436000,0.000000,0.000000,0.000000,0.000000
1.38200,0.122080,-0.062956,-0.460091,0.202443,0.102806,-0.031758,0.000000,-0.436000,0.000000,0.000000,0.000000,0.000000
1.38400,0.123504,-0.063691,-0.465461,0.204806,0.104006,-0.032129,0.000000,-0.436000,0.000000,0.000000,0.000000,0.000000
1.38600,0.124935,-0.064429,-0.470851,0.207177,0.105210,-0.032501,0.000000,-0.436000,0.000000,0.000000,0.000000,0.000000
1.38800,0.126370,-0.065169,-0.476262,0.209558,0.106419,-0.032875,0.000000,-0.436000,0.000000,0.000000,0.000000,0.000000
1.39000,0.127812,-0.065912,-0.481694,0.211948,0.107633,-0.033249,0.000000,-0.436000,0.000000,0.000000,0.000000,0.000000
1.39200,0.129258,-0.066658,-0.487145,0.214347,0.108851,-0.033626,0.000000,-0.436000,0.000000,0.000000,0.000000,0.000000
1.39400,0.130710,-0.067407,-0.492617,0.216754,0.110074,-0.034003,0.000000,-0.436000,0.000000,0.000000,0.000000,0.000000
1.39600,0.132167,-0.068158,-0.498107,0.219170,0.111300,-0.034382,0.000000,-0.436000,0.000000,0.000000,0.000000,0.000000
1.39800,0.133629,-0.068912,-0.503617,0.221594,0.112531,-0.034763,0.000000,-0.436000,0.000000,0.000000,0.000000,0.000000
1.40000,0.135095,-0.069669,-0.509145,0.224027,0.113767,-0.035144,0.000000,-0.436000,0.000000,0.000000,0.000000,0.000000
1.40200,0.136567,-0.070428,-0.514691,0.226467,0.115006,-0.035527,0.000000,-0.436000,0.000000,0.000000,0.000000,0.000000
1.40400,0.138044,-0.071189,-0.520256,0.228916,0.116249,-0.035911,0.000000,-0.436000,0.000000,0.000000,0.000000,0.000000
1.40600,0.139525,-0.071953,-0.525838,0.231372,0.117497,-0.036297,0.000000,-0.436000,0.000000,0.000000,0.000000,0.000000
1.40800,0.141010,-0.072719,-0.531438,0.233836,0.118748,-0.036683,0.000000,-0.436000,0.000000,0.000000,0.000000,0.000000
1.41000,0.142501,-0.073488,-0.537054,0.236307,0.120003,-0.037071,0.000000,-0.436000,0.000000,0.000000,0.000000,0.000000
1.41200,0.143995,-0.074258,-0.542687,0.238786,0.121262,-0.037460,0.000000,-0.436000,0.000000,0.000000,0.000000,0.000000
1.41400,0.145494,-0.075031,-0.548336,0.241271,0.122524,-0.037850,0.000000,-0.436000,0.000000,0.000000,0.000000,0.000000
1.41600,0.146998,-0.075807,-0.554002,0.243764,0.123790,-0.038241,0.000000,-0.436000,0.000000,0.000000,0.000000,0.000000
1.41800,0.148505,-0.076584,-0.559682,0.246264,0.125059,-0.038633,0.000000,-0.436000,0.000000,0.000000,0.000000,0.000000
1.42000,0.150016,-0.077363,-0.565378,0.248770,0.126332,-0.039026,0.000000,-0.436000,0.000000,0.000000,0.000000,0.000000
1.42200,0.151532,-0.078145,-0.571089,0.251283,0.127608,-0.039420,0.000000,-0.436000,0.000000,0.000000,0.000000,0.000000
1.42400,0.153051,-0.078928,-0.576815,0.253802,0.128887,-0.039815,0.000000,-0.436000,0.000000,0.000000,0.000000,0.000000
1.42600,0.154574,-0.079714,-0.582554,0.256327,0.130170,-0.040211,0.000000,-0.436000,0.000000,0.000000,0.000000,0.000000
1.42800,0.156100,-0.080501,-0.588307,0.258859,0.131455,-0.040609,0.000000,-0.436000,0.000000,0.000000,0.000000,0.000000
1.43000,0.157630,-0.081290,-0.594074,0.261396,0.132744,-0.041007,0.000000,-0.436000,0.000000,0.000000,0.000000,0.000000
1.43200,0.159164,-0.082081,-0.599854,0.263939,0.134035,-0.041406,0.000000,-0.436000,0.000000,0.000000,0.000000,0.000000
1.43400,0.160701,-0.082873,-0.605646,0.266488,0.135330,-0.041805,0.000000,-0.436000,0.000000,0.000000,0.000000,0.000000
1.43600,0.162241,-0.083668,-0.611451,0.269042,0.136627,-0.042206,0.000000,-0.436000,0.000000,0.000000,0.000000,0.000000
1.43800,0.163784,-0.084464,-0.617267,0.271601,0.137926,-0.042608,0.000000,-0.436000,0.000000,0.000000,0.000000,0.000000
1.44000,0.165331,-0.085261,-0.623096,0.274166,0.139229,-0.043010,0.000000,-0.436000,0.000000,0.000000,0.000000,0.000000
1.44200,0.166880,-0.086060,-0.628935,0.276735,0.140534,-0.043413,0.000000,-0.436000,0.000000,0.000000,0.000000,0.000000
1.44400,0.168433,-0.086861,-0.634785,0.279310,0.141841,-0.043817,0.000000,-0.436000,0.000000,0.000000,0.000000,0.000000
1.44600,0.169988,-0.087663,-0.640646,0.281888,0.143150,-0.044221,0.000000,-0.436000,0.000000,0.000000,0.000000,0.000000
1.44800,0.171545,-0.088466,-0.646517,0.284472,0.144462,-0.044627,0.000000,-0.436000,0.000000,0.000000,0.000000,0.000000
1.45000,0.173106,-0.089271,-0.652398,0.287059,0.145776,-0.045032,0.000000,-0.436000,0.000000,0.000000,0.000000,0.000000
1.45200,0.174669,-0.090077,-0.658288,0.289651,0.147092,-0.045439,0.000000,-0.436000,0.000000,0.000000,0.000000,0.000000
1.45400,0.176234,-0.090884,-0.664187,0.292246,0.148410,-0.045846,0.000000,-0.436000,0.000000,0.000000,0.000000,0.000000
1.45600,0.177801,-0.091692,-0.670094,0.294846,0.149730,-0.046254,0.000000,-0.436000,0.000000,0.000000,0.000000,0.000000
1.45800,0.179371,-0.092502,-0.676010,0.297449,0.151052,-0.046662,0.000000,-0.436000,0.000000,0.000000,0.000000,0.000000
1.46000,0.180943,-0.093312,-0.681934,0.300055,0.152376,-0.047071,0.000000,-0.436000,0.000000,0.000000,0.000000,0.000000
1.46200,0.182517,-0.094124,-0.687865,0.302665,0.153701,-0.047481,0.000000,-0.436000,0.000000,0.000000,0.000000,0.000000
1.46400,0.184092,-0.094936,-0.693803,0.305278,0.155028,-0.047890,0.000000,-0.436000,0.000000,0.000000,0.000000,0.000000
1.46600,0.185670,-0.095750,-0.699748,0.307893,0.156356,-0.048301,0.000000,-0.436000,0.000000,0.000000,0.000000,0.000000
1.46800,0.187249,-0.096564,-0.705699,0.310512,0.157686,-0.048712,0.000000,-0.436000,0.000000,0.000000,0.000000,0.000000
1.47000,0.188829,-0.097379,-0.711656,0.313133,0.159017,-0.049123,0.000000,-0.436000,0.000000,0.000000,0.000000,0.000000
1.47200,0.190411,-0.098195,-0.717619,0.315757,0.160350,-0.049534,0.000000,-0.436000,0.000000,0.000000,0.000000,0.000000
1.47400,0.191995,-0.099012,-0.723587,0.318383,0.161683,-0.049946,0.000000,-0.436000,0.000000,0.000000,0.000000,0.000000
1.47600,0.193580,-0.099829,-0.729560,0.321011,0.163018,-0.050359,0.000000,-0.436000,0.000000,0.000000,0.000000,0.000000
1.47800,0.195166,-0.100647,-0.735537,0.323641,0.164353,-0.050771,0.000000,-0.436000,0.000000,0.000000,0.000000,0.000000
1.48000,0.196753,-0.101465,-0.741518,0.326273,0.165690,-0.051184,0.000000,-0.436000,0.000000,0.000000,0.000000,0.000000
1.48200,0.198341,-0.102284,-0.747503,0.328906,0.167027,-0.051597,0.000000,-0.436000,0.000000,0.000000,0.000000,0.000000
1.48400,0.199930,-0.103104,-0.753491,0.331541,0.168365,-0.052011,0.000000,-0.436000,0.000000,0.000000,0.000000,0.000000
1.48600,0.201519,-0.103924,-0.759482,0.334177,0.169704,-0.052424,0.000000,-0.436000,0.000000,0.000000,0.000000,0.000000
1.48800,0.203110,-0.104744,-0.765476,0.336814,0.171043,-0.052838,0.000000,-0.436000,0.000000,0.000000,0.000000,0.000000
1.49000,0.204701,-0.105564,-0.771471,0.339452,0.172383,-0.053252,0.000000,-0.436000,0.000000,0.000000,0.000000,0.000000
1.49200,0.206292,-0.106385,-0.777469,0.342091,0.173723,-0.053666,0.000000,-0.436000,0.000000,0.000000,0.000000,0.000000
1.49400,0.207884,-0.107206,-0.783468,0.344731,0.175063,-0.054080,0.000000,-0.436000,0.000000,0.000000,0.000000,0.000000
1.49600,0.209476,-0.108027,-0.789467,0.347371,0.176404,-0.054494,0.000000,-0.436000,0.000000,0.000000,0.000000,0.000000
1.49800,0.211068,-0.108848,-0.795468,0.350011,0.177745,-0.054908,0.000000,-0.436000,0.000000,0.000000,0.000000,0.000000
1.50000,0.212660,-0.109669,-0.801468,0.352651,0.179085,-0.055322,0.000000,-0.436000,0.000000,0.000000,0.000000,0.000000
1.50200,0.214252,-0.110490,-0.807468,0.355291,0.180426,-0.055736,0.000000,-0.436000,0.000000,0.000000,0.000000,0.000000
1.50400,0.215844,-0.111311,-0.813468,0.357931,0.181767,-0.056151,0.000000,-0.436000,0.000000,0.000000,0.000000,0.000000
1.50600,0.217436,-0.112132,-0.819467,0.360571,0.183107,-0.056565,0.000000,-0.436000,0.000000,0.000000,0.000000,0.000000
1.50800,0.219027,-0.112952,-0.825464,0.363209,0.184447,-0.056979,0.000000,-0.436000,0.000000,0.000000,0.000000,0.000000
1.51000,0.220618,-0.113773,-0.831460,0.365848,0.185787,-0.057392,0.000000,-0.436000,0.000000,0.000000,0.000000,0.000000
1.51200,0.222208,-0.114593,-0.837454,0.368485,0.187126,-0.057806,0.000000,-0.436000,0.000000,0.000000,0.000000,0.000000
1.51400,0.223798,-0.115413,-0.843445,0.371121,0.188465,-0.058220,0.000000,-0.436000,0.000000,0.000000,0.000000,0.000000
1.51600,0.225387,-0.116232,-0.849433,0.373756,0.189803,-0.058633,0.000000,-0.436000,0.000000,0.000000,0.000000,0.000000
1.51800,0.226975,-0.117051,-0.855418,0.376389,0.191140,-0.059046,0.000000,-0.436000,0.000000,0.000000,0.000000,0.000000
1.52000,0.228562,-0.117869,-0.861399,0.379021,0.192477,-0.059459,0.000000,-0.436000,0.000000,0.000000,0.000000,0.000000
1.52200,0.230148,-0.118687,-0.867376,0.381651,0.193812,-0.059872,0.000000,-0.436000,0.000000,0.000000,0.000000,0.000000
1.52400,0.231732,-0.119504,-0.873349,0.384279,0.195147,-0.060284,0.000000,-0.436000,0.000000,0.000000,0.000000,0.000000
1.52600,0.233316,-0.120321,-0.879317,0.386905,0.196480,-0.060696,0.000000,-0.436000,0.000000,0.000000,0.000000,0.000000
1.52800,0.234898,-0.121137,-0.885280,0.389528,0.197813,-0.061107,0.000000,-0.436000,0.000000,0.000000,0.000000,0.000000
1.53000,0.236479,-0.121952,-0.891237,0.392150,0.199144,-0.061519,0.000000,-0.436000,0.000000,0.000000,0.000000,0.000000
1.53200,0.238058,-0.122766,-0.897188,0.394768,0.200474,-0.061929,0.000000,-0.436000,0.000000,0.000000,0.000000,0.000000
1.53400,0.239635,-0.123580,-0.903133,0.397384,0.201802,-0.062340,0.000000,-0.436000,0.000000,0.000000,0.000000,0.000000
1.53600,0.241211,-0.124392,-0.909071,0.399997,0.203129,-0.062750,0.000000,-0.436000,0.000000,0.000000,0.000000,0.000000
1.53800,0.242785,-0.125204,-0.915002,0.402607,0.204454,-0.063159,0.000000,-0.436000,0.000000,0.000000,0.000000,0.000000
1.54000,0.244356,-0.126015,-0.920926,0.405213,0.205778,-0.063568,0.000000,-0.436000,0.000000,0.000000,0.000000,0.000000
1.54200,0.245926,-0.126824,-0.926842,0.407816,0.207100,-0.063976,0.000000,-0.436000,0.000000,0.000000,0.000000,0.000000
1.54400,0.247494,-0.127632,-0.932749,0.410415,0.208420,-0.064384,0.000000,-0.436000,0.000000,0.000000,0.000000,0.000000
1.54600,0.249059,-0.128440,-0.938648,0.413011,0.209738,-0.064791,0.000000,-0.436000,0.000000,0.000000,0.000000,0.000000
1.54800,0.250622,-0.129246,-0.944538,0.415603,0.211054,-0.065198,0.000000,-0.436000,0.000000,0.000000,0.000000,0.000000
1.55000,0.252182,-0.130050,-0.950419,0.418190,0.212368,-0.065604,0.000000,-0.436000,0.000000,0.000000,0.000000,0.000000
1.55200,0.253740,-0.130854,-0.956290,0.420773,0.213680,-0.066009,0.000000,-0.436000,0.000000,0.000000,0.000000,0.000000
1.55400,0.255295,-0.131656,-0.962150,0.423352,0.214989,-0.066413,0.000000,-0.436000,0.000000,0.000000,0.000000,0.000000
1.55600,0.256847,-0.132456,-0.968001,0.425926,0.216297,-0.066817,0.000000,-0.436000,0.000000,0.000000,0.000000,0.000000
1.55800,0.258397,-0.133255,-0.973840,0.428496,0.217601,-0.067220,0.000000,-0.436000,0.000000,0.000000,0.000000,0.000000
1.56000,0.259943,-0.134053,-0.979668,0.431060,0.218904,-0.067623,0.000000,-0.436000,0.000000,0.000000,0.000000,0.000000
1.56200,0.261486,-0.134849,-0.985485,0.433619,0.220203,-0.068024,0.000000,-0.436000,0.000000,0.000000,0.000000,0.000000
1.56400,0.263027,-0.135643,-0.991290,0.436174,0.221500,-0.068425,0.000000,-0.436000,0.000000,0.000000,0.000000,0.000000
1.56600,0.264564,-0.136435,-0.997082,0.438722,0.222795,-0.068825,0.000000,-0.436000,0.000000,0.000000,0.000000,0.000000
1.56800,0.266097,-0.137226,-1.002862,0.441265,0.224086,-0.069224,0.000000,-0.436000,0.000000,0.000000,0.000000,0.000000
1.57000,0.267627,-0.138015,-1.008628,0.443803,0.225375,-0.069622,0.000000,-0.436000,0.000000,0.000000,0.000000,0.000000
1.57200,0.269154,-0.138803,-1.014382,0.446334,0.226660,-0.070019,0.000000,-0.436000,0.000000,0.000000,0.000000,0.000000
1.57400,0.270677,-0.139588,-1.020121,0.448860,0.227943,-0.070415,0.000000,-0.436000,0.000000,0.000000,0.000000,0.000000
1.57600,0.272196,-0.140371,-1.025847,0.451379,0.229222,-0.070810,0.000000,-0.436000,0.000000,0.000000,0.000000,0.000000
1.57800,0.273711,-0.141153,-1.031557,0.453892,0.230498,-0.071204,0.000000,-0.436000,0.000000,0.000000,0.000000,0.000000
1.58000,0.275223,-0.141932,-1.037253,0.456398,0.231771,-0.071598,0.000000,-0.436000,0.000000,0.000000,0.000000,0.000000
1.58200,0.276730,-0.142710,-1.042934,0.458897,0.233040,-0.071990,0.000000,-0.436000,0.000000,0.000000,0.000000,0.000000
1.58400,0.278233,-0.143485,-1.048599,0.461390,0.234306,-0.072381,0.000000,-0.436000,0.000000,0.000000,0.000000,0.000000
1.58600,0.279732,-0.144258,-1.054249,0.463876,0.235568,-0.072771,0.000000,-0.436000,0.000000,0.000000,0.000000,0.000000
1.58800,0.281227,-0.145029,-1.059882,0.466355,0.236827,-0.073159,0.000000,-0.436000,0.000000,0.000000,0.000000,0.000000
1.59000,0.282717,-0.145797,-1.065498,0.468826,0.238082,-0.073547,0.000000,-0.436000,0.000000,0.000000,0.000000,0.000000
1.59200,0.284203,-0.146563,-1.071098,0.471290,0.239333,-0.073934,0.000000,-0.436000,0.000000,0.000000,0.000000,0.000000
1.59400,0.285684,-0.147327,-1.076680,0.473746,0.240581,-0.074319,0.000000,-0.436000,0.000000,0.000000,0.000000,0.000000
1.59600,0.287160,-0.148089,-1.082244,0.476194,0.241824,-0.074703,0.000000,-0.436000,0.000000,0.000000,0.000000,0.000000
1.59800,0.288632,-0.148848,-1.087791,0.478635,0.243063,-0.075086,0.000000,-0.436000,0.000000,0.000000,0.000000,0.000000
1.60000,0.290099,-0.149604,-1.093319,0.481067,0.244299,-0.075468,0.000000,-0.436000,0.000000,0.000000,0.000000,0.000000
1.60200,0.291561,-0.150358,-1.098829,0.483491,0.245530,-0.075848,0.000000,-0.436000,0.000000,0.000000,0.000000,0.000000
1.60400,0.293018,-0.151109,-1.104319,0.485907,0.246757,-0.076227,0.000000,-0.436000,0.000000,0.000000,0.000000,0.000000
1.60600,0.294469,-0.151858,-1.109790,0.488315,0.247979,-0.076604,0.000000,-0.436000,0.000000,0.000000,0.000000,0.000000
1.60800,0.295916,-0.152604,-1.115242,0.490713,0.249197,-0.076981,0.000000,-0.436000,0.000000,0.000000,0.000000,0.000000
1.61000,0.297357,-0.153347,-1.120673,0.493103,0.250411,-0.077356,0.000000,-0.436000,0.000000,0.000000,0.000000,0.000000
1.61200,0.298793,-0.154087,-1.126085,0.495484,0.251620,-0.077729,0.000000,-0.436000,0.000000,0.000000,0.000000,0.000000
1.61400,0.300223,-0.154825,-1.131475,0.497856,0.252824,-0.078101,0.000000,-0.436000,0.000000,0.000000,0.000000,0.000000
1.61600,0.301648,-0.155560,-1.136845,0.500219,0.254024,-0.078472,0.000000,-0.436000,0.000000,0.000000,0.000000,0.000000
1.61800,0.303067,-0.156292,-1.142193,0.502572,0.255219,-0.078841,0.000000,-0.436000,0.000000,0.000000,0.000000,0.000000
1.62000,0.304480,-0.157020,-1.147519,0.504916,0.256409,-0.079209,0.000000,-0.436000,0.000000,0.000000,0.000000,0.000000
1.62200,0.305888,-0.157746,-1.152824,0.507250,0.257595,-0.079575,0.000000,-0.436000,0.000000,0.000000,0.000000,0.000000
1.62400,0.307289,-0.158469,-1.158106,0.509574,0.258775,-0.079940,0.000000,-0.436000,0.000000,0.000000,0.000000,0.000000
1.62600,0.308685,-0.159189,-1.163366,0.511888,0.259950,-0.080303,0.000000,-0.436000,0.000000,0.000000,0.000000,0.000000
1.62800,0.310074,-0.159905,-1.168603,0.514192,0.261120,-0.080664,0.000000,-0.436000,0.000000,0.000000,0.000000,0.000000
1.63000,0.311458,-0.160619,-1.173816,0.516486,0.262285,-0.081024,0.000000,-0.436000,0.000000,0.000000,0.000000,0.000000
1.63200,0.312835,-0.161329,-1.179006,0.518770,0.263445,-0.081382,0.000000,-0.436000,0.000000,0.000000,0.000000,0.000000
1.63400,0.314206,-0.162036,-1.184173,0.521043,0.264600,-0.081739,0.000000,-0.436000,0.000000,0.000000,0.000000,0.000000
1.63600,0.315570,-0.162740,-1.189315,0.523306,0.265749,-0.082094,0.000000,-0.436000,0.000000,0.000000,0.000000,0.000000
1.63800,0.316928,-0.163440,-1.194433,0.525558,0.266892,-0.082447,0.000000,-0.436000,0.000000,0.000000,0.000000,0.000000
1.64000,0.318280,-0.164137,-1.199526,0.527799,0.268030,-0.082799,0.000000,-0.436000,0.000000,0.000000,0.000000,0.000000
1.64200,0.319624,-0.164830,-1.204594,0.530029,0.269163,-0.083148,0.000000,-0.436000,0.000000,0.000000,0.000000,0.000000
1.64400,0.320962,-0.165520,-1.209636,0.532247,0.270289,-0.083496,0.000000,-0.436000,0.000000,0.000000,0.000000,0.000000
1.64600,0.322294,-0.166207,-1.214653,0.534455,0.271410,-0.083843,0.000000,-0.436000,0.000000,0.000000,0.000000,0.000000
1.64800,0.323618,-0.166890,-1.219645,0.536651,0.272526,-0.084187,0.000000,-0.436000,0.000000,0.000000,0.000000,0.000000
1.65000,0.324935,-0.167569,-1.224610,0.538836,0.273635,-0.084530,0.000000,-0.436000,0.000000,0.000000,0.000000,0.000000
1.65200,0.326246,-0.168245,-1.229548,0.541009,0.274739,-0.084871,0.000000,-0.436000,0.000000,0.000000,0.000000,0.000000
1.65400,0.327549,-0.168917,-1.234460,0.543170,0.275836,-0.085210,0.000000,-0.436000,0.000000,0.000000,0.000000,0.000000
1.65600,0.328845,-0.169585,-1.239345,0.545320,0.276928,-0.085547,0.000000,-0.436000,0.000000,0.000000,0.000000,0.000000
1.65800,0.330134,-0.170250,-1.244203,0.547457,0.278013,-0.085882,0.000000,-0.436000,0.000000,0.000000,0.000000,0.000000
1.66000,0.331416,-0.170911,-1.249033,0.549582,0.279092,-0.086216,0.000000,-0.436000,0.000000,0.000000,0.000000,0.000000
1.66200,0.332690,-0.171568,-1.253835,0.551695,0.280165,-0.086547,0.000000,-0.436000,0.000000,0.000000,0.000000,0.000000
1.66400,0.333957,-0.172221,-1.258609,0.553796,0.281232,-0.086877,0.000000,-0.436000,0.000000,0.000000,0.000000,0.000000
1.66600,0.335216,-0.172871,-1.263355,0.555884,0.282293,-0.087204,0.000000,-0.436000,0.000000,0.000000,0.000000,0.000000
1.66800,0.336468,-0.173516,-1.268073,0.557960,0.283347,-0.087530,0.000000,-0.436000,0.000000,0.000000,0.000000,0.000000
1.67000,0.337712,-0.174158,-1.272761,0.560023,0.284394,-0.087854,0.000000,-0.436000,0.000000,0.000000,0.000000,0.000000
1.67200,0.338948,-0.174795,-1.277420,0.562073,0.285435,-0.088175,0.000000,-0.436000,0.000000,0.000000,0.000000,0.000000
1.67400,0.340176,-0.175429,-1.282050,0.564110,0.286470,-0.088495,0.000000,-0.436000,0.000000,0.000000,0.000000,0.000000
1.67600,0.341397,-0.176059,-1.286651,0.566134,0.287498,-0.088812,0.000000,-0.436000,0.000000,0.000000,0.000000,0.000000
1.67800,0.342610,-0.176684,-1.291221,0.568145,0.288519,-0.089128,0.000000,-0.436000,0.000000,0.000000,0.000000,0.000000
1.68000,0.343815,-0.177305,-1.295762,0.570143,0.289534,-0.089441,0.000000,-0.436000,0.000000,0.000000,0.000000,0.000000
1.68200,0.345011,-0.177922,-1.300272,0.572128,0.290542,-0.089753,0.000000,-0.436000,0.000000,0.000000,0.000000,0.000000
1.68400,0.346200,-0.178535,-1.304752,0.574099,0.291543,-0.090062,0.000000,-0.436000,0.000000,0.000000,0.000000,0.000000
1.68600,0.347380,-0.179144,-1.309201,0.576056,0.292537,-0.090369,0.000000,-0.436000,0.000000,0.000000,0.000000,0.000000
