sainanliu129-hub/model/applications/Body_GravityPara_Iden/data/跑步/PD-M1-v0_multi_joint_20260226-182548.csv
time,cmd_leg_l1_joint,pos_leg_l1_joint,vel_leg_l1_joint,torque_leg_l1_joint,cmd_leg_l2_joint,pos_leg_l2_joint,vel_leg_l2_joint,torque_leg_l2_joint,cmd_leg_l3_joint,pos_leg_l3_joint,vel_leg_l3_joint,torque_leg_l3_joint,cmd_leg_l4_joint,pos_leg_l4_joint,vel_leg_l4_joint,torque_leg_l4_joint,cmd_leg_l5_joint,pos_leg_l5_joint,vel_leg_l5_joint,torque_leg_l5_joint,cmd_leg_l6_joint,pos_leg_l6_joint,vel_leg_l6_joint,torque_leg_l6_joint,cmd_leg_r1_joint,pos_leg_r1_joint,vel_leg_r1_joint,torque_leg_r1_joint,cmd_leg_r2_joint,pos_leg_r2_joint,vel_leg_r2_joint,torque_leg_r2_joint,cmd_leg_r3_joint,pos_leg_r3_joint,vel_leg_r3_joint,torque_leg_r3_joint,cmd_leg_r4_joint,pos_leg_r4_joint,vel_leg_r4_joint,torque_leg_r4_joint,cmd_leg_r5_joint,pos_leg_r5_joint,vel_leg_r5_joint,torque_leg_r5_joint,cmd_leg_r6_joint,pos_leg_r6_joint,vel_leg_r6_joint,torque_leg_r6_joint
0.000000000,-0.025628000,-0.028800964,0.013187408,0.110138702,0.091539003,0.075722694,0.057142258,1.569232178,-0.640655994,-0.546082497,-0.584615707,-14.720883179,0.903732002,0.744831085,1.015384674,3.882781982,-0.035204999,-0.030218757,0.011229666,-0.372987213,-0.166688994,-0.156573643,0.055987376,-0.532336763,-0.038580000,-0.021934509,-0.065933228,-1.211463165,0.191386998,0.158122063,0.118680954,5.903283691,-0.567577004,-0.474365234,-0.531867981,-13.824179077,0.582266986,0.473602295,0.523077011,2.124542236,-0.175503999,-0.146939670,-0.263770785,-2.082255541,0.004512000,0.003693743,-0.141853110,0.461726616
0.002000000,-0.025711000,-0.028800964,0.013187408,0.770939636,0.091527000,0.076104164,0.048351288,0.672528076,-0.640757978,-0.547226906,-0.610988617,-13.674737549,0.903658986,0.746738434,0.830768585,3.736267090,-0.035243999,-0.030218757,0.013761736,-0.368496149,-0.166760996,-0.156573643,-0.017828175,-0.626643960,-0.038532998,-0.021934509,0.004396439,-1.211463165,0.191458002,0.158885002,0.189010620,6.501104736,-0.567564011,-0.474365234,-0.531867981,-13.824179077,0.582266986,0.475128174,0.496704102,2.564117432,-0.175519004,-0.147512843,-0.268128851,-2.280846033,0.004487000,0.002460856,-0.151447801,0.369195782
0.004000000,-0.025792999,-0.028800964,0.039560318,0.770939636,0.091514997,0.076104164,0.109889984,0.971438599,-0.640859008,-0.548371315,-0.619779587,-14.870324707,0.903586984,0.747882843,0.619779587,3.296691895,-0.035282001,-0.030218757,-0.009069347,-0.364005084,-0.166828007,-0.156573643,0.008809869,-0.720951157,-0.038490999,-0.021934509,0.021978378,-1.431740570,0.191526994,0.158885002,0.180219650,6.799987793,-0.567551970,-0.475891113,-0.479120255,-14.571441650,0.582265019,0.476272583,0.470329285,2.564117432,-0.175533995,-0.147894175,-0.272517302,-2.578478934,0.004461000,0.002461105,-0.141983180,0.231404312
0.006000000,-0.025873000,-0.028800964,0.030769348,1.652017975,0.091503002,0.076485634,0.127471924,1.868142700,-0.640959024,-0.549515724,-0.540658951,-13.375827026,0.903517008,0.749408722,0.681318283,4.761901855,-0.035321001,-0.030394918,-0.015917132,-0.257749984,-0.166890994,-0.156983290,-0.046975573,-0.858943548,-0.038453002,-0.021934509,-0.013187408,-1.652017975,0.191595003,0.159266472,0.118680954,6.202194214,-0.567541003,-0.477035522,-0.567033768,-14.571441650,0.582261980,0.477035522,0.443956375,2.417572021,-0.175550997,-0.148656840,-0.272507178,-2.479267751,0.004435000,0.002461605,-0.123051877,0.277259024
0.008000000,-0.025950000,-0.028800964,0.004396439,0.770939636,0.091491997,0.076485634,0.057142258,0.821969604,-0.641056001,-0.551041603,-0.637363434,-13.375827026,0.903447986,0.750934601,0.980218887,4.175811768,-0.035360001,-0.030394918,-0.012494115,-0.461098762,-0.166950002,-0.156983290,-0.019081968,-0.771483549,-0.038419001,-0.021934509,-0.039560318,-1.431740570,0.191661999,0.159647942,0.153846741,6.351635742,-0.567532003,-0.478179932,-0.523077011,-13.824179077,0.582257986,0.478179932,0.426374435,2.710632324,-0.175567999,-0.149229150,-0.298849775,-2.479357737,0.004409000,0.002050614,-0.104125081,0.185055822
0.010000000,-0.026025999,-0.028419495,0.030769348,0.110138702,0.091480002,0.076867104,0.109889984,1.120880127,-0.641152024,-0.552186012,-0.584615707,-13.226385498,0.903380990,0.752841949,0.909889221,3.736267090,-0.035399999,-0.030394918,-0.017187328,-0.363926533,-0.167005002,-0.156983290,-0.010063319,-0.720916118,-0.038389001,-0.021934509,0.004396439,-1.872295380,0.191726997,0.160029411,0.180219650,5.454931641,-0.567524016,-0.479324341,-0.443956375,-14.571441650,0.582252979,0.478942871,0.505495071,2.857147217,-0.175586000,-0.149801419,-0.303208460,-2.479379971,0.004383000,0.001639484,-0.037787030,0.184781490
0.012000000,-0.026099000,-0.028800964,0.004396439,0.330416107,0.091468997,0.076867104,0.083517075,1.120880127,-0.641246021,-0.553330421,-0.663736343,-12.927474976,0.903316975,0.754367828,0.690109253,3.589752197,-0.035439000,-0.030394918,-0.017187328,-0.359424373,-0.167054996,-0.156983290,-0.010063319,-0.815213549,-0.038362000,-0.021934509,-0.021978378,-1.652017975,0.191790000,0.160410881,0.232967377,5.454931641,-0.567517996,-0.480087280,-0.549449921,-13.973620605,0.582247019,0.480087280,0.531867981,2.417572021,-0.175605997,-0.150373149,-0.298804179,-2.479300958,0.004357000,0.002051223,-0.009301942,0.276876368
0.014000000,-0.026169000,-0.028419495,-0.004396439,0.550662231,0.091458000,0.076867104,0.083517075,1.120880127,-0.641339004,-0.554474831,-0.663736343,-12.329681396,0.903254986,0.755893707,0.760438919,3.003662109,-0.035479002,-0.030394918,-0.003741261,-0.456618288,-0.167100996,-0.156983290,-0.018666075,-0.865792265,-0.038339000,-0.021934509,-0.021978378,-1.431740570,0.191852003,0.160792351,0.180219650,5.305490112,-0.567511976,-0.481231689,-0.523077011,-13.525268555,0.582239985,0.481231689,0.514286041,2.124542236,-0.175625995,-0.150945418,-0.285579347,-2.280980448,0.004331000,0.001639953,0.095015245,0.276508255
0.016000000,-0.026237000,-0.028800964,-0.021978378,0.550662231,0.091447003,0.077248573,0.013187408,1.569232178,-0.641429007,-0.555619240,-0.593406677,-12.778033447,0.903195977,0.757419586,1.015384674,3.150177002,-0.035519999,-0.030394918,-0.013128704,-0.359424373,-0.167143002,-0.156983290,-0.000626820,-0.815213549,-0.038318999,-0.021934509,0.013187408,-1.211463165,0.191911995,0.161173820,0.162637711,5.753842163,-0.567507982,-0.482376099,-0.523077011,-13.226385498,0.582233012,0.482376099,0.505495071,2.124542236,-0.175646007,-0.151517148,-0.263595326,-1.983443748,0.004304000,0.002051835,0.104542374,0.230613742
0.018000000,-0.026300000,-0.028800964,0.004396439,0.550662231,0.091435999,0.077248573,0.065933228,0.523086548,-0.641516984,-0.557145119,-0.646154404,-12.927474976,0.903141022,0.759326935,0.786813736,3.296691895,-0.035560001,-0.030571035,-0.021243676,-0.456524288,-0.167181000,-0.157392998,-0.019504231,-0.865752064,-0.038300999,-0.021934509,0.021978378,-1.431740570,0.191971004,0.161555290,0.145055771,5.454931641,-0.567503989,-0.483520508,-0.496704102,-14.272531128,0.582225025,0.483139038,0.452747345,2.564117432,-0.175668001,-0.152088838,-0.263550317,-2.082626556,0.004277000,0.002463859,0.161538562,0.184911153
0.020000000,-0.026360000,-0.028800964,-0.013187408,0.330416107,0.091425002,0.077630043,0.057142258,0.672528076,-0.641604006,-0.558289528,-0.663736343,-11.283508301,0.903088987,0.760471344,0.619779587,3.150177002,-0.035601001,-0.030571035,-0.020607260,-0.257653647,-0.167214006,-0.157392998,-0.037961131,-0.858884233,-0.038286999,-0.021934509,0.021978378,-1.872295380,0.192027003,0.161555290,0.189010620,5.604400635,-0.567501009,-0.484283447,-0.567033768,-14.123089600,0.582216024,0.484283447,0.461538315,2.124542236,-0.175689995,-0.152470648,-0.237163875,-2.181905224,0.004250000,0.002465140,0.199504260,0.047213376
0.022000000,-0.026416000,-0.028800964,0.004396439,0.110138702,0.091415003,0.077630043,0.083517075,1.419790649,-0.641687989,-0.559433937,-0.610988617,-11.134066772,0.903041005,0.761615753,0.681318283,4.029296875,-0.035642002,-0.030571035,-0.028085067,-0.262166901,-0.167242005,-0.157392998,-0.075295801,-0.764596578,-0.038275000,-0.021934509,0.004396439,-0.770939636,0.192081004,0.161936760,0.127471924,5.305490112,-0.567498982,-0.485427856,-0.505495071,-12.927474976,0.582206011,0.485046387,0.531867981,2.271057129,-0.175713003,-0.152851239,-0.223933920,-1.983518305,0.004223000,0.003289022,0.209068580,0.047472225
0.024000000,-0.026467999,-0.028800964,-0.030769348,0.991217041,0.091404997,0.077630043,0.039560318,0.523086548,-0.641770005,-0.560578346,-0.487911224,-11.881329346,0.902997017,0.763523102,0.936264038,3.736267090,-0.035684001,-0.030747110,-0.039609611,-0.160393857,-0.167265996,-0.157802767,-0.122085188,-0.808248075,-0.038265999,-0.021934509,-0.004396439,-1.872295380,0.192132995,0.162318230,0.083517075,6.202194214,-0.567498028,-0.486572266,-0.496704102,-12.628564453,0.582195997,0.486190796,0.514286041,1.831512451,-0.175735995,-0.153422807,-0.210688976,-1.785260573,0.004196000,0.003701429,0.256590297,-0.044312485
0.026000000,-0.026515000,-0.028800964,0.013187408,0.770939636,0.091394998,0.077630043,0.021978378,1.270321655,-0.641849995,-0.561722755,-0.584615707,-10.835156250,0.902957022,0.765430450,0.883516312,3.589752197,-0.035725001,-0.030747110,-0.039609611,-0.164918203,-0.167285994,-0.157802767,-0.122085188,-0.713970206,-0.038259000,-0.021934509,-0.013187408,-1.652017975,0.192183003,0.162699699,0.118680954,5.604400635,-0.567497015,-0.487335205,-0.505495071,-14.421972656,0.582184970,0.487335205,0.523077011,2.271057129,-0.175760001,-0.153803155,-0.214981351,-1.587042875,0.004169000,0.004525698,0.304159251,-0.135955175
0.028000000,-0.026557000,-0.028800964,-0.013187408,0.770939636,0.091384999,0.078011513,0.048351288,0.821969604,-0.641927004,-0.562867165,-0.602197647,-11.283508301,0.902922988,0.766574860,0.672527313,3.150177002,-0.035767000,-0.030923142,-0.057100428,-0.261996481,-0.167300001,-0.158212599,-0.122942048,-0.764497305,-0.038254000,-0.021934509,-0.004396439,-1.211463165,0.192230001,0.162699699,0.162637711,4.707696533,-0.567497015,-0.488479614,-0.514286041,-13.375827026,0.582174003,0.488098145,0.496704102,2.124542236,-0.175785005,-0.154374601,-0.197350639,-1.884681702,0.004141000,0.004938440,0.323207402,-0.181315733
0.030000000,-0.026594000,-0.028419495,0.030769348,0.110138702,0.091375999,0.078011513,0.057142258,1.120880127,-0.642003000,-0.564011574,-0.523077011,-11.731860352,0.902893007,0.768100739,0.716484070,2.857147217,-0.035810001,-0.031099132,-0.061783773,-0.261911304,-0.167310998,-0.158622492,-0.113940891,-0.764447570,-0.038249999,-0.021934509,-0.013187408,-1.652017975,0.192276001,0.163081169,0.189010620,5.753842163,-0.567496002,-0.489242554,-0.479120255,-13.525268555,0.582162976,0.489242554,0.426374435,2.124542236,-0.175809994,-0.154564673,-0.201724671,-1.587393933,0.004113000,0.005350744,0.313760548,-0.319146849
0.032000000,-0.026626000,-0.028419495,0.039560318,0.550662231,0.091366999,0.078011513,0.074726105,1.120880127,-0.642075002,-0.565155983,-0.452747345,-12.628564453,0.902868986,0.769626617,0.918682098,3.736267090,-0.035852000,-0.031099132,-0.065838379,-0.368159091,-0.167316005,-0.158622492,-0.123383027,-0.626517135,-0.038249001,-0.021934509,0.030769348,-1.431740570,0.192318007,0.163462639,0.118680954,5.604400635,-0.567496002,-0.490386963,-0.443956375,-12.628564453,0.582150996,0.490005493,0.452747345,1.831512451,-0.175835997,-0.154944694,-0.214887306,-1.686566621,0.004085000,0.006175499,0.285373816,-0.272769291
0.034000000,-0.026652001,-0.028800964,-0.021978378,0.330416107,0.091357999,0.078392982,0.074726105,0.821969604,-0.642145991,-0.566300392,-0.558240891,-11.432977295,0.902850986,0.771533966,0.830768585,3.003662109,-0.035895001,-0.031275078,-0.059840081,-0.270941370,-0.167317003,-0.159032446,-0.169355202,-0.575900863,-0.038249001,-0.021934509,-0.013187408,-1.431740570,0.192358002,0.163844109,0.127471924,5.454931641,-0.567497015,-0.491149902,-0.479120255,-13.375827026,0.582139015,0.490768433,0.452747345,2.271057129,-0.175861999,-0.155515977,-0.223736802,-1.587311198,0.004057000,0.006588673,0.228463768,-0.226831044
0.036000000,-0.026675999,-0.028800964,-0.021978378,0.550662231,0.091349997,0.078392982,0.013187408,0.523086548,-0.642217994,-0.567444801,-0.496704102,-11.731860352,0.902833998,0.772678375,0.602197647,2.564117432,-0.035943002,-0.031450981,-0.077324745,0.025128332,-0.167311996,-0.159442463,-0.170225547,-0.518322977,-0.038254999,-0.021934509,-0.048351288,-1.211463165,0.192398995,0.163844109,0.145055771,5.903283691,-0.567502022,-0.492294312,-0.443956375,-13.375827026,0.582121015,0.491912842,0.487911224,2.124542236,-0.175889999,-0.155897312,-0.232675984,-1.587311139,0.004028000,0.006589398,0.133487864,-0.226803983
0.038000000,-0.026699999,-0.028800964,0.021978378,0.330416107,0.091342002,0.078392982,0.013187408,0.373617554,-0.642293990,-0.568207741,-0.549449921,-11.582418823,0.902817011,0.773822784,0.584615707,4.175811768,-0.035994999,-0.031626842,-0.081358093,-0.178253582,-0.167301998,-0.159852541,-0.179697895,-0.431011494,-0.038270000,-0.021934509,-0.013187408,-1.652017975,0.192440003,0.164225578,0.136262894,4.558255005,-0.567512989,-0.493057251,-0.382417679,-13.525268555,0.582096994,0.493057251,0.523077011,2.124542236,-0.175919995,-0.156468554,-0.224001597,-1.686421159,0.003998000,0.007002764,0.057492355,-0.180582953
0.040000000,-0.026724000,-0.028800964,0.030769348,0.550662231,0.091334000,0.078774452,0.048351288,1.270321655,-0.642370999,-0.569352150,-0.496704102,-10.835156250,0.902800977,0.775348663,0.760438919,3.296691895,-0.036051001,-0.031802659,-0.089439985,-0.279934252,-0.167285994,-0.160262681,-0.198620875,-0.387372180,-0.038291000,-0.021934509,-0.004396439,-1.652017975,0.192481995,0.164607048,0.109889984,5.604400635,-0.567529976,-0.493820190,-0.408790588,-12.479122925,0.582067013,0.493820190,0.461538315,1.978027344,-0.175953001,-0.156850368,-0.246116356,-1.587147575,0.003968000,0.007002506,-0.027997403,-0.134878318
0.042000000,-0.026745999,-0.028800964,-0.021978378,-0.110138702,0.091326997,0.078774452,-0.013187408,1.419790649,-0.642449021,-0.570496559,-0.479120255,-10.685714722,0.902786016,0.776874542,0.874725342,3.003662109,-0.036109000,-0.031978433,-0.119719743,0.016107294,-0.167265996,-0.160672883,-0.209384674,-0.329742352,-0.038318001,-0.021934509,0.013187408,-1.431740570,0.192523003,0.164607048,0.118680954,4.558255005,-0.567551017,-0.494964600,-0.496704102,-11.881329346,0.582032979,0.494964600,0.443956375,1.978027344,-0.175986007,-0.157423129,-0.237446436,-1.289326578,0.003936000,0.006591267,-0.104102468,0.002044262
0.044000000,-0.026768001,-0.028800964,-0.021978378,-0.110138702,0.091320999,0.078774452,0.092308044,0.074734497,-0.642526984,-0.571259499,-0.505495071,-11.283508301,0.902772009,0.778400421,0.663736343,2.564117432,-0.036169000,-0.032154164,-0.098147400,-0.182724161,-0.167241007,-0.161083146,-0.199109896,-0.336736776,-0.038350001,-0.021934509,-0.030769348,-0.991217041,0.192563996,0.164988518,0.118680954,5.006607056,-0.567574978,-0.495727539,-0.443956375,-12.030770874,0.581996024,0.495727539,0.408790588,2.417572021,-0.176020995,-0.157995851,-0.268407179,-1.289156336,0.003905000,0.006179890,-0.246709228,0.093586957
0.046000000,-0.026788000,-0.028800964,0.004396439,0.770939636,0.091314003,0.079155922,0.101099014,1.718673706,-0.642602980,-0.572403908,-0.479120255,-11.432977295,0.902758002,0.779544830,0.575824738,3.736267090,-0.036230002,-0.032329853,-0.094078344,-0.085563522,-0.167211995,-0.161493472,-0.189689215,-0.286102664,-0.038387001,-0.021934509,0.039560318,-1.652017975,0.192604005,0.165369987,0.083517075,5.454931641,-0.567601979,-0.496490479,-0.356044769,-12.329681396,0.581956029,0.496490479,0.426374435,1.831512451,-0.176056996,-0.158568532,-0.228902452,-1.189910758,0.003873000,0.005768374,-0.294400339,0.139134029
0.048000000,-0.026807001,-0.028800964,0.021978378,0.110138702,0.091307998,0.079155922,-0.039560318,1.569232178,-0.642678022,-0.573166847,-0.549449921,-10.685714722,0.902745008,0.781070709,0.690109253,3.003662109,-0.036290001,-0.032505498,-0.097447774,0.006953262,-0.167179003,-0.161903859,-0.217648910,-0.141279725,-0.038428001,-0.021934509,-0.021978378,-1.211463165,0.192642003,0.165751457,0.171428680,5.006607056,-0.567631006,-0.497253418,-0.391208649,-11.731860352,0.581915021,0.497253418,0.461538315,2.417572021,-0.176093996,-0.158951101,-0.184994276,-1.189808179,0.003841000,0.004943847,-0.370637664,0.230528039
0.050000000,-0.026825000,-0.028800964,-0.021978378,0.330416107,0.091301002,0.079155922,0.004396439,0.523086548,-0.642749012,-0.574311256,-0.496704102,-10.237362671,0.902733028,0.782597542,0.865934372,3.003662109,-0.036348000,-0.032681099,-0.085287829,-0.090145715,-0.167142004,-0.162314309,-0.189317459,-0.191892961,-0.038472999,-0.021934509,0.030769348,-1.872295380,0.192679003,0.166132927,0.162637711,4.109902954,-0.567662001,-0.498016357,-0.417581558,-11.582418823,0.581873000,0.498397827,0.452747345,1.978027344,-0.176131994,-0.159333507,-0.211303756,-1.388218181,0.003809000,0.004119140,-0.389713176,0.230464444
0.052000000,-0.026842000,-0.028800964,-0.013187408,0.330416107,0.091294996,0.079155922,0.030769348,0.373617554,-0.642816007,-0.575074196,-0.382417679,-10.984625244,0.902723014,0.784123421,0.698900223,2.710632324,-0.036403999,-0.032856658,-0.088650683,-0.289004583,-0.167103007,-0.162724820,-0.217284470,-0.198988561,-0.038520001,-0.021934509,0.030769348,-1.211463165,0.192713007,0.166132927,0.145055771,5.305490112,-0.567692995,-0.499160767,-0.373626709,-10.984625244,0.581831992,0.499160767,0.461538315,2.271057129,-0.176170006,-0.159715748,-0.184847620,-1.289051880,0.003778000,0.003294251,-0.370808703,0.275898057
0.054000000,-0.026856000,-0.028800964,0.004396439,0.550662231,0.091288000,0.079155922,0.039560318,0.373617554,-0.642876983,-0.575837135,-0.461538315,-11.283508301,0.902713001,0.785267830,0.531867981,2.857147217,-0.036456998,-0.033032173,-0.081203593,-0.288986058,-0.167061001,-0.163135394,-0.179917622,-0.198997585,-0.038568001,-0.021934509,0.030769348,-1.211463165,0.192744002,0.166514397,0.118680954,4.408786011,-0.567723989,-0.499923706,-0.408790588,-10.685714722,0.581791997,0.499923706,0.391208649,2.124542236,-0.176208004,-0.160097826,-0.171585557,-1.685894987,0.003747000,0.002469180,-0.361388763,0.184233852
0.056000000,-0.026869001,-0.028800964,0.004396439,0.330416107,0.091280997,0.079537392,0.030769348,1.419790649,-0.642933011,-0.576981544,-0.531867981,-9.490100098,0.902705014,0.786030769,0.487911224,4.175811768,-0.036504000,-0.033207645,-0.081848166,-0.288967543,-0.167016000,-0.163546029,-0.161461780,-0.199006602,-0.038617998,-0.021934509,0.004396439,-0.991217041,0.192772001,0.166895866,0.162637711,4.707696533,-0.567753971,-0.500686646,-0.408790588,-11.134066772,0.581754982,0.500686646,0.382417679,1.831512451,-0.176246002,-0.160288804,-0.162742858,-1.884293408,0.003717000,0.002056577,-0.323379480,0.184165193
0.058000000,-0.026881000,-0.028800964,0.004396439,-0.110138702,0.091273002,0.079537392,0.057142258,2.615377808,-0.642980993,-0.578125954,-0.487911224,-9.191217041,0.902697027,0.787175179,0.610988617,3.003662109,-0.036545999,-0.033383074,-0.087203674,-0.395451031,-0.166970000,-0.163956727,-0.133977787,-0.061392793,-0.038669001,-0.021934509,0.004396439,-1.652017975,0.192796007,0.166895866,0.109889984,3.960433960,-0.567780972,-0.501449585,-0.417581558,-9.789010620,0.581721008,0.501449585,0.338460922,2.271057129,-0.176283002,-0.160670635,-0.158287507,-1.884304423,0.003687000,0.001231232,-0.332971324,0.275370922
0.060000000,-0.026890000,-0.028800964,-0.004396439,0.110138702,0.091265000,0.079537392,0.021978378,0.373617554,-0.643022001,-0.578888893,-0.408790588,-10.536273193,0.902692020,0.788701057,0.804395676,2.710632324,-0.036582001,-0.033383074,-0.048832254,-0.390760528,-0.166922003,-0.163956727,-0.104286212,-0.155522710,-0.038718998,-0.021934509,-0.013187408,-1.431740570,0.192816004,0.167277336,0.153846741,4.408786011,-0.567807019,-0.502212524,-0.435165405,-11.134066772,0.581691027,0.502212524,0.356044769,1.831512451,-0.176320001,-0.160861489,-0.140658659,-1.884315715,0.003659000,0.000818492,-0.237857074,0.366763706
0.062000000,-0.026897000,-0.028800964,0.021978378,0.770939636,0.091256998,0.079537392,0.048351288,0.971438599,-0.643052995,-0.579651833,-0.479120255,-10.087921143,0.902687013,0.790226936,0.690109253,3.443237305,-0.036609001,-0.033558459,-0.037366413,-0.492544295,-0.166871995,-0.164367486,-0.057427458,-0.112077718,-0.038768001,-0.021934509,-0.004396439,-0.991217041,0.192831993,0.167658806,0.136262894,5.006607056,-0.567829013,-0.502975464,-0.329669952,-10.685714722,0.581667006,0.502975464,0.329669952,2.124542236,-0.176356003,-0.161052302,-0.123055297,-1.884360908,0.003631000,0.000405705,-0.199825822,0.366556385
0.064000000,-0.026900999,-0.028800964,0.013187408,-0.330416107,0.091247998,0.079918861,-0.004396439,1.419790649,-0.643073976,-0.580796242,-0.514286041,-8.593395996,0.902683973,0.791371346,0.523077011,2.710632324,-0.036628000,-0.033558459,-0.028617880,-0.395450344,-0.166821003,-0.164367486,-0.056990443,-0.061426342,-0.038816001,-0.021934509,-0.004396439,-1.431740570,0.192842007,0.168040276,0.153846741,5.006607056,-0.567847013,-0.503738403,-0.382417679,-10.536273193,0.581649005,0.503738403,0.399999619,2.564117432,-0.176391006,-0.161243074,-0.114246531,-1.785229283,0.003605000,-0.000007127,-0.142751122,0.412141555
0.066000000,-0.026903000,-0.028800964,-0.013187408,0.770939636,0.091237999,0.079918861,0.021978378,1.270321655,-0.643083990,-0.581559181,-0.443956375,-8.742864990,0.902683020,0.792134285,0.461538315,3.882781982,-0.036637001,-0.033558459,-0.020536992,-0.492544295,-0.166769996,-0.164367486,-0.038066480,-0.112077718,-0.038860999,-0.021934509,-0.013187408,-0.770939636,0.192846999,0.168040276,0.136262894,4.109902954,-0.567860007,-0.504501343,-0.426374435,-10.835156250,0.581638992,0.504501343,0.391208649,2.417572021,-0.176424995,-0.161624410,-0.092276654,-1.884406193,0.003581000,-0.000007154,-0.038070282,0.457881718
0.068000000,-0.026900999,-0.028800964,-0.021978378,0.330416107,0.091227002,0.079918861,0.013187408,1.569232178,-0.643082976,-0.582322121,-0.399999619,-7.846160889,0.902686000,0.793278694,0.575824738,2.857147217,-0.036635999,-0.033733801,-0.023901740,-0.298360033,-0.166714996,-0.164778308,-0.066026807,-0.010803870,-0.038906001,-0.021934509,-0.004396439,-1.652017975,0.192846000,0.168421745,0.118680954,4.857138062,-0.567869008,-0.505264282,-0.347251892,-10.087921143,0.581633985,0.505264282,0.399999619,2.271057129,-0.176457003,-0.161815140,-0.079095660,-1.785291600,0.003558000,-0.000420079,0.009508195,0.503463857
0.070000000,-0.026887000,-0.028800964,-0.004396439,0.110138702,0.091211997,0.079918861,0.074726105,1.270321655,-0.643073976,-0.583085060,-0.443956375,-9.191217041,0.902701974,0.794804573,0.716484070,3.003662109,-0.036626000,-0.033733801,-0.025241747,-0.395449668,-0.166646004,-0.164778308,-0.029047384,-0.061459903,-0.038957000,-0.021934509,-0.013187408,-1.431740570,0.192839995,0.168803215,0.145055771,4.558255005,-0.567876995,-0.506027222,-0.391208649,-11.283508301,0.581631005,0.506027222,0.347251892,2.124542236,-0.176491007,-0.162005746,-0.065911824,-1.686052415,0.003535000,-0.000007180,0.057113768,0.549393719
0.072000000,-0.026861999,-0.028800964,-0.048351288,0.550662231,0.091195002,0.079918861,-0.004396439,1.718673706,-0.643059015,-0.584229469,-0.461538315,-9.041748047,0.902728975,0.795948982,0.654945374,3.882781982,-0.036610000,-0.033733801,-0.020532828,-0.293647409,-0.166563004,-0.164778308,-0.038072711,-0.104913893,-0.039012998,-0.021934509,0.030769348,-1.872295380,0.192829996,0.168803215,0.136262894,3.960433960,-0.567884982,-0.506790161,-0.391208649,-9.789010620,0.581627011,0.506790161,0.347251892,2.124542236,-0.176523998,-0.162005746,-0.057123855,-1.785229273,0.003513000,-0.000007180,0.076151038,0.503611581
0.074000000,-0.026828000,-0.028800964,-0.004396439,-0.110138702,0.091174997,0.079918861,0.065933228,0.523086548,-0.643038988,-0.584992409,-0.479120255,-8.294512939,0.902767003,0.797093391,0.461538315,2.710632324,-0.036587998,-0.033733801,0.004375122,-0.395449668,-0.166467994,-0.164778308,0.000219087,-0.061459903,-0.039074000,-0.021934509,-0.021978378,-1.652017975,0.192816004,0.169184685,0.127471924,3.960433960,-0.567893028,-0.507553101,-0.329669952,-9.639569092,0.581623971,0.507171631,0.276922226,2.271057129,-0.176559001,-0.162196311,-0.052716626,-1.586824382,0.003492000,0.000405767,0.123760145,0.412181049
0.076000000,-0.026784999,-0.028800964,0.004396439,0.110138702,0.091154002,0.079918861,0.039560318,2.017584229,-0.643013000,-0.585755348,-0.391208649,-8.294512939,0.902813971,0.797856331,0.426374435,3.150177002,-0.036561001,-0.033733801,0.007744034,-0.390737043,-0.166363001,-0.164778308,0.028173184,-0.155569927,-0.039138000,-0.021934509,-0.013187408,-2.312818909,0.192799002,0.169566154,0.101099014,3.960433960,-0.567900002,-0.508316040,-0.294506073,-9.938452148,0.581620991,0.507934570,0.276922226,2.857147217,-0.176593006,-0.162196311,-0.057105914,-1.388470561,0.003471000,0.000405767,0.171356666,0.412161450
0.078000000,-0.026736001,-0.028800964,0.021978378,0.770939636,0.091131002,0.080300331,0.048351288,0.672528076,-0.642983973,-0.586518288,-0.382417679,-8.593395996,0.902867973,0.798619270,0.408790588,3.882781982,-0.036531001,-0.033733801,0.007744034,-0.492539302,-0.166250005,-0.164778308,0.028173184,-0.112115937,-0.039204001,-0.021934509,0.039560318,-1.431740570,0.192779005,0.169566154,0.136262894,3.960433960,-0.567906976,-0.509078979,-0.382417679,-9.191217041,0.581618011,0.508316040,0.276922226,2.710632324,-0.176626995,-0.162386835,-0.065874003,-1.487607817,0.003450000,0.000818763,0.190417701,0.366518230
0.080000000,-0.026680000,-0.028800964,-0.004396439,0.770939636,0.091107003,0.080300331,-0.048351288,0.821969604,-0.642951012,-0.587662697,-0.435165405,-7.846160889,0.902926981,0.799763680,0.487911224,3.150177002,-0.036497999,-0.033733801,0.017832387,-0.395449668,-0.166131005,-0.164778308,-0.008368160,-0.061459903,-0.039271001,-0.021934509,0.004396439,-0.991217041,0.192757994,0.169947624,0.118680954,3.960433960,-0.567914009,-0.509841919,-0.259340286,-9.639569092,0.581615984,0.509078979,0.259340286,2.710632324,-0.176661000,-0.162577317,-0.057077438,-1.388380475,0.003430000,0.001231807,0.152350572,0.320830916
0.082000000,-0.026620001,-0.028800964,0.021978378,0.770939636,0.091084003,0.080300331,-0.065933228,0.971438599,-0.642916024,-0.588425636,-0.382417679,-7.397808838,0.902988970,0.800908089,0.593406677,3.882781982,-0.036462002,-0.033733801,0.007744034,-0.191822431,-0.166005999,-0.164778308,0.028173184,-0.148377580,-0.039337002,-0.021934509,-0.039560318,-1.872295380,0.192736000,0.170329094,0.092308044,3.960433960,-0.567920029,-0.510223389,-0.320878983,-9.938452148,0.581613004,0.509460449,0.268131256,2.710632324,-0.176695004,-0.162767759,-0.061452447,-1.685916420,0.003411000,0.001644901,0.161889812,0.275307546
0.084000000,-0.026557000,-0.028800964,0.004396439,0.770939636,0.091059998,0.080300331,0.048351288,1.270321655,-0.642879009,-0.589188576,-0.399999619,-8.145043945,0.903055012,0.802052498,0.584615707,3.296691895,-0.036426999,-0.033733801,0.003035115,-0.293647409,-0.165878996,-0.164778308,0.037198510,-0.104913893,-0.039400999,-0.021934509,-0.021978378,-1.431740570,0.192713007,0.170329094,0.101099014,3.512081909,-0.567925990,-0.510986328,-0.391208649,-8.892306519,0.581610978,0.510223389,0.276922226,2.417572021,-0.176726997,-0.162767759,-0.052656893,-1.586739955,0.003392000,0.001644901,0.180927279,0.229486749
0.086000000,-0.026490999,-0.028800964,0.004396439,0.550662231,0.091036998,0.080300331,0.039560318,1.270321655,-0.642841995,-0.589951515,-0.373626709,-7.547250366,0.903119981,0.802815437,0.470329285,3.296691895,-0.036391001,-0.033733801,0.000334819,-0.395449668,-0.165749997,-0.164778308,-0.009246372,-0.061459903,-0.039462999,-0.022315979,-0.013187408,-1.211463165,0.192690998,0.170710564,0.153846741,3.661550903,-0.567932010,-0.511749268,-0.356044769,-9.789010620,0.581609011,0.510604858,0.276922226,2.417572021,-0.176759005,-0.162958160,-0.065845444,-1.487619597,0.003373000,0.002058043,0.133343341,0.092276754
0.088000000,-0.026424000,-0.028800964,-0.004396439,0.550662231,0.091016002,0.080300331,0.013187408,0.821969604,-0.642804980,-0.591095924,-0.338460922,-7.547250366,0.903185010,0.803959846,0.408790588,2.857147217,-0.036357000,-0.033733801,-0.013123468,-0.196557774,-0.165621996,-0.164778308,-0.000657167,-0.054257859,-0.039519999,-0.022315979,0.004396439,-0.991217041,0.192669004,0.171092033,0.065933228,3.213198853,-0.567936003,-0.512512207,-0.356044769,-9.639569092,0.581607997,0.511367798,0.285715103,2.271057129,-0.176789999,-0.162958160,-0.043888750,-1.487619597,0.003355000,0.002058043,0.104767434,0.092276754
0.090000000,-0.026357001,-0.028800964,-0.004396439,0.550662231,0.090995997,0.080300331,0.013187408,0.821969604,-0.642768979,-0.591095924,-0.338460922,-7.547250366,0.903246999,0.803959846,0.408790588,2.857147217,-0.036325999,-0.033733801,-0.013123468,-0.196557774,-0.165496007,-0.164778308,-0.000657167,-0.054257859,-0.039572001,-0.022315979,0.004396439,-1.872295380,0.192649007,0.171092033,0.083517075,3.512081909,-0.567939997,-0.513275146,-0.285715103,-9.340658569,0.581605971,0.511749268,0.276922226,2.271057129,-0.176817998,-0.163148520,-0.039489986,-1.487608447,0.003338000,0.002471234,0.095253850,0.092419643
0.092000000,-0.026292000,-0.028800964,-0.021978378,0.110138702,0.090979002,0.080300331,-0.004396439,1.718673706,-0.642733991,-0.592621803,-0.417581558,-7.696691895,0.903304994,0.805485725,0.435165405,3.003662109,-0.036297999,-0.033733801,0.003704608,-0.196557774,-0.165372998,-0.164778308,0.018709778,-0.054257859,-0.039616998,-0.022315979,0.021978378,-1.652017975,0.192631006,0.171473503,0.101099014,3.213198853,-0.567943990,-0.513656616,-0.347251892,-8.892306519,0.581605017,0.512130737,0.232967377,2.564117432,-0.176845998,-0.163148520,-0.039489986,-1.388533214,0.003321000,0.002471234,0.095253850,-0.044936493
0.094000000,-0.026229000,-0.028800964,0.004396439,0.110138702,0.090965003,0.080300331,0.030769348,1.569232178,-0.642702997,-0.592621803,-0.417581558,-7.696691895,0.903357983,0.806630135,0.523077011,3.736267090,-0.036274001,-0.033733801,0.008414548,-0.196557774,-0.165255994,-0.164778308,0.009682493,-0.054257859,-0.039654002,-0.022315979,-0.030769348,-1.872295380,0.192616001,0.171854973,0.171428680,2.764846802,-0.567946970,-0.514419556,-0.338460922,-8.593395996,0.581604004,0.512893677,0.241758347,2.564117432,-0.176871002,-0.163338839,-0.039467195,-1.289401674,0.003304000,0.002884473,0.114309685,-0.090627196
0.096000000,-0.026169000,-0.028800964,-0.021978378,0.330416107,0.090953998,0.080300331,0.013187408,1.120880127,-0.642674029,-0.593767166,-0.347251892,-8.593395996,0.903401971,0.807774544,0.487911224,1.978027344,-0.036256000,-0.033733801,-0.008414548,-0.196557774,-0.165147007,-0.164778308,-0.009682493,-0.054257859,-0.039682001,-0.022315979,-0.039560318,-0.991217041,0.192604005,0.171854973,0.109889984,4.109902954,-0.567948997,-0.514801025,-0.215385437,-10.087921143,0.581604004,0.513275146,0.206592560,2.417572021,-0.176893994,-0.163338839,-0.030692494,-1.289401674,0.003288000,0.002884473,0.095256860,-0.090627196
0.098000000,-0.026115000,-0.028800964,-0.013187408,-0.110138702,0.090947002,0.080300331,-0.004396439,1.718673706,-0.642650008,-0.594148636,-0.285715103,-8.294512939,0.903437972,0.808918953,0.443956375,3.296691895,-0.036244001,-0.033733801,-0.005043738,-0.196557774,-0.165047005,-0.164778308,0.018271698,-0.054257859,-0.039700001,-0.022315979,-0.021978378,-1.431740570,0.192597002,0.172236443,0.136262894,3.810992432,-0.567950010,-0.515563965,-0.259340286,-8.742864990,0.581602991,0.513656616,0.197801590,2.417572021,-0.176915005,-0.163529116,-0.039487074,-1.388635400,0.003272000,0.003297762,0.076226637,-0.136174085
0.100000000,-0.026067000,-0.028800964,-0.021978378,0.330416107,0.090944998,0.080300331,-0.013187408,0.971438599,-0.642630994,-0.594911575,-0.320878983,-7.846160889,0.903463006,0.809681892,0.338460922,3.443237305,-0.036240000,-0.033733801,0.008414548,-0.298360033,-0.164957002,-0.164778308,0.009682493,-0.010803870,-0.039705999,-0.022315979,-0.021978378,-1.431740570,0.192594007,0.172617912,0.136262894,3.512081909,-0.567950010,-0.516326904,-0.285715103,-9.490100098,0.581602991,0.514038086,0.162637711,2.564117432,-0.176933005,-0.163529116,-0.013151605,-1.289413207,0.003257000,0.003297762,0.038107837,-0.090492980
0.102000000,-0.026020000,-0.028800964,0.004396439,0.330416107,0.090945996,0.080300331,-0.004396439,1.419790649,-0.642615974,-0.595674515,-0.259340286,-8.892306519,0.903482020,0.810063362,0.312088013,3.150177002,-0.036242999,-0.033733801,-0.004375122,-0.298360033,-0.164871007,-0.164778308,-0.000219087,-0.010803870,-0.039703999,-0.022315979,0.030769348,-2.312818909,0.192597002,0.172617912,0.136262894,2.914288330,-0.567948997,-0.516708374,-0.241758347,-8.443954468,0.581605017,0.514419556,0.171428680,2.564117432,-0.176949993,-0.163529116,-0.013167735,-1.487767150,0.003242000,0.003297762,0.019059400,-0.090334941
0.104000000,-0.025970999,-0.028800964,0.004396439,0.550662231,0.090948001,0.080681801,-0.013187408,1.419790649,-0.642602026,-0.596055984,-0.268131256,-9.191217041,0.903499007,0.810826302,0.285715103,3.589752197,-0.036251001,-0.033733801,-0.001004312,-0.201270399,-0.164782003,-0.164778308,0.027735104,0.039852164,-0.039698999,-0.022315979,0.021978378,-1.652017975,0.192606002,0.172999382,0.127471924,3.063729858,-0.567946017,-0.517089844,-0.215385437,-10.237362671,0.581611991,0.514801025,0.180219650,2.271057129,-0.176966995,-0.163529116,-0.000022765,-1.487676705,0.003227000,0.003297762,-0.028571624,0.001185310
0.106000000,-0.025919000,-0.028800964,-0.021978378,0.550662231,0.090951003,0.080681801,-0.004396439,2.167025757,-0.642588973,-0.596437454,-0.276922226,-7.846160889,0.903514028,0.811207771,0.329669952,3.589752197,-0.036263000,-0.033733801,0.004375122,-0.293647409,-0.164691001,-0.164778308,0.000219087,-0.104913893,-0.039691001,-0.022315979,0.030769348,-1.211463165,0.192619994,0.173380852,0.083517075,3.512081909,-0.567939997,-0.517852783,-0.329669952,-8.892306519,0.581623018,0.515182495,0.189010620,2.564117432,-0.176983997,-0.163529116,-0.000007589,-1.388544956,0.003212000,0.003297762,-0.009525252,-0.044653835
0.108000000,-0.025866000,-0.028800964,-0.004396439,0.550662231,0.090954997,0.080681801,-0.030769348,1.569232178,-0.642575979,-0.597200394,-0.241758347,-9.191217041,0.903527975,0.811970711,0.356044769,3.150177002,-0.036279000,-0.033733801,-0.004375122,-0.298360033,-0.164599001,-0.164778308,-0.000219087,-0.010803870,-0.039680999,-0.022315979,0.004396439,-1.652017975,0.192638993,0.173380852,0.118680954,3.661550903,-0.567933977,-0.518234253,-0.259340286,-9.490100098,0.581637025,0.515563965,0.153846741,2.417572021,-0.177000001,-0.163529116,-0.004394939,-1.289413207,0.003197000,0.003297762,0.000004343,-0.090492980
0.110000000,-0.025812000,-0.028800964,0.004396439,0.110138702,0.090960003,0.080300331,-0.030769348,1.120880127,-0.642565012,-0.597581863,-0.268131256,-8.892306519,0.903541028,0.812733650,0.399999619,3.443237305,-0.036297999,-0.033733801,-0.005043738,-0.099468140,-0.164507002,-0.164778308,0.018271698,-0.003601826,-0.039666999,-0.022315979,-0.039560318,-1.431740570,0.192662999,0.173762321,0.127471924,3.810992432,-0.567924976,-0.518615723,-0.136262894,-10.536273193,0.581655025,0.515945435,0.197801590,2.417572021,-0.177016005,-0.163529116,0.008796512,-1.190191013,0.003183000,0.003297762,0.009514500,-0.044811874
0.112000000,-0.025759000,-0.028800964,0.004396439,0.770939636,0.090966001,0.080300331,-0.030769348,1.419790649,-0.642553985,-0.597963333,-0.206592560,-9.191217041,0.903553009,0.813878059,0.461538315,2.857147217,-0.036318999,-0.033733801,-0.009084041,-0.395449668,-0.164416000,-0.164778308,0.008806239,-0.061459903,-0.039652001,-0.022315979,-0.021978378,-1.211463165,0.192690000,0.173762321,0.145055771,2.914288330,-0.567915976,-0.518997192,-0.241758347,-9.490100098,0.581674993,0.516326904,0.189010620,2.417572021,-0.177031994,-0.163529116,0.000022765,-1.289413207,0.003169000,0.003297762,0.028571624,-0.090492980
0.114000000,-0.025706001,-0.028800964,-0.013187408,0.770939636,0.090971999,0.080300331,-0.004396439,2.914288330,-0.642543972,-0.598344803,-0.259340286,-9.041748047,0.903563976,0.814640999,0.435165405,3.150177002,-0.036341999,-0.033733801,0.008414548,-0.400162292,-0.164326996,-0.164778308,0.009682493,0.032650120,-0.039634001,-0.022315979,0.013187408,-1.872295380,0.192719996,0.174143791,0.074726105,3.362640381,-0.567906022,-0.519760132,-0.197801590,-8.742864990,0.581696987,0.516708374,0.197801590,2.417572021,-0.177046999,-0.163529116,0.004424338,-1.289322762,0.003156000,0.003297762,0.038090468,0.001027271
0.116000000,-0.025655000,-0.028800964,-0.004396439,0.550662231,0.090977997,0.080300331,-0.021978378,0.821969604,-0.642534018,-0.599107742,-0.206592560,-7.846160889,0.903573990,0.815403938,0.347251892,3.296691895,-0.036366001,-0.033733801,0.007744034,-0.201270399,-0.164241999,-0.164778308,0.028173184,0.039852164,-0.039615002,-0.022315979,-0.013187408,-1.211463165,0.192753002,0.174143791,0.092308044,3.512081909,-0.567896008,-0.520141602,-0.197801590,-9.490100098,0.581721008,0.517089844,0.215385437,2.417572021,-0.177061006,-0.163529116,-0.008796512,-1.190191013,0.003142000,0.003297762,-0.009514500,-0.044811874
0.118000000,-0.025606001,-0.028800964,-0.013187408,0.550662231,0.090984002,0.080300331,0.021978378,1.120880127,-0.642524004,-0.599489212,-0.180219650,-8.593395996,0.903584003,0.815785408,0.294506073,3.150177002,-0.036389999,-0.033733801,-0.000334819,-0.497251927,-0.164160997,-0.164778308,0.009246372,-0.018005914,-0.039593998,-0.022315979,0.030769348,-1.211463165,0.192789003,0.174525261,0.074726105,3.213198853,-0.567885995,-0.520141602,-0.136262894,-11.283508301,0.581745982,0.517471313,0.206592560,2.271057129,-0.177074000,-0.163529116,-0.004378809,-1.388454512,0.003130000,0.003297762,0.019052780,0.046866415
0.120000000,-0.025560001,-0.028800964,0.004396439,0.550662231,0.090989999,0.080300331,-0.039560318,2.316494751,-0.642513990,-0.599870682,-0.136262894,-9.490100098,0.903594017,0.816548347,0.276922226,3.589752197,-0.036414001,-0.033733801,-0.000334819,-0.303072658,-0.164086998,-0.164778308,0.009246372,0.083306154,-0.039570998,-0.022315979,-0.004396439,-1.431740570,0.192826003,0.174525261,0.127471924,3.512081909,-0.567875028,-0.520904541,-0.241758347,-8.145043945,0.581772029,0.517852783,0.206592560,2.417572021,-0.177085996,-0.163529116,-0.004394939,-1.388454512,0.003117000,0.003297762,0.000004343,0.046866415
0.122000000,-0.025519000,-0.028800964,-0.004396439,0.550662231,0.090995997,0.080300331,0.030769348,1.419790649,-0.642503977,-0.600252151,-0.189010620,-8.742864990,0.903603971,0.816929817,0.241758347,3.589752197,-0.036437001,-0.033733801,0.007744034,-0.201270399,-0.164019004,-0.164778308,0.028173184,0.039852164,-0.039547998,-0.022315979,-0.004396439,-1.431740570,0.192864999,0.174906731,0.092308044,2.764846802,-0.567866027,-0.521286011,-0.250549316,-9.191217041,0.581798017,0.518234253,0.180219650,2.271057129,-0.177096993,-0.163529116,0.013182910,-1.289322762,0.003105000,0.003297762,-0.000013028,0.001027271
0.124000000,-0.025482001,-0.028800964,-0.004396439,0.770939636,0.091000997,0.080300331,0.039560318,2.465936279,-0.642494023,-0.600633621,-0.171428680,-8.593395996,0.903613985,0.817311287,0.268131256,3.589752197,-0.036456998,-0.033733801,0.000334819,-0.205961356,-0.163958997,-0.164778308,-0.009246372,0.133973493,-0.039523002,-0.022315979,0.004396439,-1.872295380,0.192903996,0.174906731,0.065933228,3.661550903,-0.567857027,-0.521667480,-0.118680954,-9.490100098,0.581824005,0.518615723,0.136262894,2.417572021,-0.177105993,-0.163529116,0.008796512,-1.487676705,0.003094000,0.003297762,0.009514500,0.001185310
0.126000000,-0.025450001,-0.028800964,0.004396439,0.991217041,0.091006003,0.080300331,-0.092308044,2.017584229,-0.642484009,-0.601015091,-0.153846741,-9.340658569,0.903623998,0.818074226,0.276922226,3.296691895,-0.036476001,-0.033733801,-0.018501879,-0.303072658,-0.163908005,-0.164778308,0.026856892,0.083306154,-0.039498001,-0.022697449,-0.048351288,-1.652017975,0.192943007,0.174906731,0.048351288,3.810992432,-0.567848980,-0.522048950,-0.162637711,-9.938452148,0.581848979,0.518997192,0.153846741,2.564117432,-0.177113995,-0.163529116,0.000022765,-1.289322762,0.003082000,0.003297762,0.028571624,0.001027271
0.128000000,-0.025425000,-0.028800964,0.013187408,0.110138702,0.091009997,0.080300331,-0.004396439,2.316494751,-0.642472982,-0.601015091,-0.171428680,-8.742864990,0.903635025,0.818455696,0.285715103,3.296691895,-0.036490001,-0.033733801,-0.001673804,-0.201270399,-0.163867995,-0.164778308,0.046223836,0.039852164,-0.039471999,-0.022697449,-0.021978378,-1.652017975,0.192983001,0.175288200,0.074726105,3.213198853,-0.567843020,-0.522430420,-0.232967377,-9.041748047,0.581873000,0.518997192,0.145055771,2.710632324,-0.177120000,-0.163529116,0.013167735,-1.190100569,0.003072000,0.003297762,-0.019059400,0.046708377
0.130000000,-0.025407000,-0.028800964,0.004396439,0.550662231,0.091012999,0.080300331,-0.004396439,2.017584229,-0.642462015,-0.601778030,-0.189010620,-8.742864990,0.903645992,0.819218636,0.329669952,3.443237305,-0.036501002,-0.033733801,-0.000334819,-0.404874917,-0.163838997,-0.164778308,0.009246372,0.126760144,-0.039446000,-0.022697449,-0.021978378,-1.431740570,0.193020999,0.175288200,0.101099014,3.512081909,-0.567838013,-0.522811890,-0.145055771,-9.938452148,0.581894994,0.519378662,0.118680954,2.271057129,-0.177123994,-0.163529116,0.004394939,-1.289322762,0.003062000,0.003297762,-0.000004343,0.001027271
0.132000000,-0.025397001,-0.028800964,0.013187408,0.550662231,0.091013998,0.080300331,-0.004396439,2.017584229,-0.642449021,-0.601778030,-0.136262894,-9.789010620,0.903657973,0.819981575,0.347251892,3.443237305,-0.036508001,-0.033733801,0.003035115,-0.307763615,-0.163822994,-0.164778308,0.037198510,0.177427482,-0.039421000,-0.022697449,0.004396439,-1.872295380,0.193057999,0.175669670,0.074726105,4.109902954,-0.567834973,-0.523193359,-0.136262894,-10.536273193,0.581915975,0.519760132,0.109889984,2.564117432,-0.177127004,-0.163529116,0.008781337,-1.388544956,0.003053000,0.003297762,-0.009531872,-0.044653835
0.134000000,-0.025395000,-0.028800964,-0.013187408,0.991217041,0.091013998,0.079918861,-0.074726105,1.569232178,-0.642436028,-0.602159500,-0.162637711,-9.490100098,0.903671026,0.820363045,0.329669952,3.296691895,-0.036509000,-0.033733801,-0.001004312,-0.303072658,-0.163819999,-0.164778308,0.027735104,0.083306154,-0.039395001,-0.022697449,-0.013187408,-1.211463165,0.193094000,0.175669670,0.101099014,3.661550903,-0.567834973,-0.523574829,-0.206592560,-9.490100098,0.581933975,0.519760132,0.101099014,2.564117432,-0.177127004,-0.163529116,-0.008781337,-1.289322762,0.003044000,0.003297762,0.009531872,0.001027271
0.136000000,-0.025396001,-0.029182434,0.004396439,0.770939636,0.091012001,0.079918861,-0.057142258,2.764846802,-0.642421007,-0.602540970,-0.162637711,-9.340658569,0.903684974,0.821125984,0.294506073,3.003662109,-0.036506001,-0.033733801,-0.000334819,-0.201270399,-0.163824007,-0.164778308,0.009246372,0.039852164,-0.039365999,-0.022697449,-0.057142258,-1.872295380,0.193133995,0.175669670,0.092308044,2.914288330,-0.567839980,-0.523956299,-0.136262894,-10.237362671,0.581950009,0.520141602,0.092308044,2.857147217,-0.177125007,-0.163529116,-0.000007589,-1.289322762,0.003035000,0.003297762,-0.009525252,0.001027271
0.138000000,-0.025397001,-0.029182434,-0.004396439,0.330416107,0.091007002,0.079918861,0.030769348,2.615377808,-0.642405987,-0.602922440,-0.162637711,-8.742864990,0.903698981,0.821507454,0.241758347,2.857147217,-0.036499001,-0.033733801,0.000334819,-0.303072658,-0.163830996,-0.164778308,-0.009246372,0.083306154,-0.039333001,-0.022697449,-0.021978378,-0.991217041,0.193180993,0.176051140,0.039560318,3.661550903,-0.567849994,-0.523956299,-0.118680954,-10.237362671,0.581965029,0.520141602,0.092308044,2.564117432,-0.177120000,-0.163529116,0.004394939,-1.289322762,0.003026000,0.003297762,-0.000004343,0.001027271
0.140000000,-0.025398999,-0.029182434,0.004396439,0.770939636,0.090999998,0.079918861,0.021978378,1.569232178,-0.642388999,-0.602922440,-0.109889984,-10.087921143,0.903712988,0.821888924,0.197801590,3.296691895,-0.036488999,-0.033733801,-0.001004312,-0.201270399,-0.163841993,-0.164778308,0.027735104,0.039852164,-0.039298002,-0.022697449,-0.004396439,-1.211463165,0.193232000,0.176051140,0.092308044,4.109902954,-0.567864001,-0.524337769,-0.136262894,-10.984625244,0.581979990,0.520523071,0.083517075,2.710632324,-0.177113995,-0.163529116,0.013182910,-1.190191013,0.003017000,0.003297762,-0.000013028,-0.044811874
0.142000000,-0.025402000,-0.029182434,-0.013187408,0.330416107,0.090990998,0.079918861,-0.101099014,2.914288330,-0.642370999,-0.603303909,-0.127471924,-9.639569092,0.903726995,0.822270393,0.197801590,3.589752197,-0.036477000,-0.033733801,-0.004375122,-0.205961356,-0.163856000,-0.164778308,-0.000219087,0.133973493,-0.039259002,-0.022697449,0.004396439,-0.991217041,0.193286002,0.176051140,0.057142258,3.063729858,-0.567882001,-0.524719238,-0.136262894,-10.087921143,0.581992984,0.520523071,0.083517075,2.857147217,-0.177104995,-0.163529116,-0.004394939,-1.388454512,0.003008000,0.003297762,0.000004343,0.046866415
0.144000000,-0.025405001,-0.029182434,-0.030769348,0.770939636,0.090980001,0.079918861,-0.004396439,2.167025757,-0.642352998,-0.603685379,-0.171428680,-9.490100098,0.903742015,0.822651863,0.180219650,3.589752197,-0.036462002,-0.033733801,-0.022541306,-0.404874917,-0.163874000,-0.164778308,0.017393486,0.126760144,-0.039218001,-0.022697449,-0.021978378,-2.092541504,0.193342999,0.176432610,0.101099014,2.764846802,-0.567902029,-0.524719238,-0.171428680,-10.984625244,0.582005978,0.520904541,0.074726105,2.710632324,-0.177093998,-0.163529116,0.000007589,-1.388454512,0.002999000,0.003297762,0.009525252,0.046866415
0.146000000,-0.025408000,-0.029182434,-0.021978378,0.330416107,0.090967998,0.079918861,-0.101099014,2.167025757,-0.642333984,-0.604066849,-0.136262894,-10.087921143,0.903756976,0.823033333,0.162637711,3.882781982,-0.036444001,-0.033733801,0.013123468,-0.307763615,-0.163893998,-0.164778308,0.000657167,0.177427482,-0.039175000,-0.022697449,-0.004396439,-1.431740570,0.193400994,0.176432610,0.083517075,3.362640381,-0.567924976,-0.525100708,-0.109889984,-9.789010620,0.582018971,0.520904541,0.083517075,3.003662109,-0.177082002,-0.163529116,-0.008781337,-1.190100569,0.002990000,0.003297762,0.009531872,0.046708377
0.148000000,-0.025412001,-0.029182434,-0.021978378,0.110138702,0.090954997,0.079918861,0.048351288,2.316494751,-0.642315984,-0.604066849,-0.083517075,-9.938452148,0.903771996,0.823414803,0.153846741,4.029296875,-0.036424998,-0.033733801,0.003704608,-0.205961356,-0.163916007,-0.164778308,0.018709778,0.133973493,-0.039129999,-0.022697449,-0.004396439,-1.431740570,0.193459004,0.176814079,0.048351288,4.109902954,-0.567948997,-0.525482178,-0.153846741,-10.386804199,0.582032025,0.521286011,0.092308044,2.710632324,-0.177067995,-0.163529116,-0.004378809,-1.487676705,0.002982000,0.003297762,0.019052780,0.001185310
0.150000000,-0.025417000,-0.029182434,0.013187408,0.330416107,0.090939999,0.079918861,-0.013187408,2.465936279,-0.642297029,-0.604448318,-0.101099014,-9.789010620,0.903787017,0.823796272,0.171428680,4.029296875,-0.036405001,-0.033733801,-0.004375122,-0.205961356,-0.163940996,-0.164778308,-0.000219087,0.133973493,-0.039083000,-0.022697449,0.004396439,-1.211463165,0.193516001,0.176814079,0.065933228,3.063729858,-0.567973971,-0.525482178,-0.153846741,-10.386804199,0.582045019,0.521286011,0.083517075,3.003662109,-0.177053005,-0.163529116,-0.013182910,-1.487676705,0.002974000,0.003297762,0.000013028,0.001185310
0.152000000,-0.025420999,-0.029182434,-0.048351288,0.991217041,0.090925001,0.079918861,0.021978378,3.063729858,-0.642278016,-0.604448318,-0.039560318,-10.835156250,0.903801978,0.824177742,0.171428680,3.882781982,-0.036382999,-0.033733801,-0.003704608,-0.205961356,-0.163966998,-0.164778308,-0.018709778,0.133973493,-0.039035000,-0.023078918,-0.021978378,-1.211463165,0.193572000,0.177195549,0.065933228,3.661550903,-0.567999005,-0.525482178,-0.065933228,-10.835156250,0.582058012,0.521667480,0.057142258,2.857147217,-0.177037001,-0.163529116,0.000022765,-1.487586261,0.002966000,0.003297762,0.028571624,0.092705560
0.154000000,-0.025426000,-0.029563904,0.004396439,0.991217041,0.090910003,0.079918861,-0.004396439,2.316494751,-0.642260015,-0.604829788,-0.127471924,-10.386804199,0.903816998,0.824559212,0.162637711,4.029296875,-0.036359999,-0.033733801,0.009084041,-0.201270399,-0.163994998,-0.164778308,-0.008806239,0.039852164,-0.038986001,-0.023078918,-0.039560318,-1.872295380,0.193624005,0.177195549,0.057142258,3.810992432,-0.568023980,-0.525863647,-0.057142258,-11.432977295,0.582072973,0.521667480,0.057142258,2.710632324,-0.177019998,-0.163529116,-0.004394939,-1.487676705,0.002960000,0.003297762,0.000004343,0.001185310
0.156000000,-0.025431000,-0.029563904,-0.048351288,0.330416107,0.090894997,0.079918861,0.004396439,2.914288330,-0.642243028,-0.604829788,-0.092308044,-9.789010620,0.903832018,0.824559212,0.162637711,4.029296875,-0.036336999,-0.033733801,-0.009752657,-0.205961356,-0.164024994,-0.164778308,0.027297025,0.133973493,-0.038936000,-0.023078918,-0.021978378,-1.211463165,0.193671003,0.177195549,0.048351288,4.109902954,-0.568046987,-0.525863647,-0.065933228,-10.685714722,0.582087994,0.521667480,0.065933228,3.003662109,-0.177001998,-0.163529116,0.008796512,-1.487586261,0.002954000,0.003297762,0.009514500,0.092705560
0.158000000,-0.025436999,-0.029563904,-0.004396439,0.330416107,0.090879001,0.079918861,0.004396439,2.764846802,-0.642225981,-0.605211258,-0.021978378,-9.789010620,0.903846979,0.824940681,0.180219650,3.736267090,-0.036313999,-0.033733801,-0.001004312,-0.205961356,-0.164055005,-0.164778308,0.027735104,0.133973493,-0.038885001,-0.023078918,-0.021978378,-1.431740570,0.193712994,0.177577019,0.109889984,3.063729858,-0.568067014,-0.526245117,-0.048351288,-11.432977295,0.582104027,0.522048950,0.065933228,3.003662109,-0.176983997,-0.163529116,-0.004394939,-1.586808455,0.002948000,0.003297762,0.000004343,0.047024454
0.160000000,-0.025442000,-0.029563904,0.004396439,0.330416107,0.090864003,0.079537392,-0.101099014,3.213198853,-0.642211020,-0.605211258,-0.057142258,-10.685714722,0.903862000,0.825322151,0.197801590,3.736267090,-0.036290001,-0.033733801,0.021202320,-0.303072658,-0.164085999,-0.164778308,0.019583978,0.083306154,-0.038835000,-0.023078918,-0.013187408,-1.431740570,0.193748996,0.177577019,0.083517075,3.810992432,-0.568085015,-0.526245117,-0.083517075,-10.386804199,0.582121015,0.522048950,0.065933228,2.710632324,-0.176964998,-0.163529116,-0.000007589,-1.388454512,0.002944000,0.003297762,-0.009525252,0.046866415
0.162000000,-0.025447000,-0.029563904,-0.013187408,0.110138702,0.090850003,0.079537392,-0.013187408,2.764846802,-0.642196000,-0.605211258,-0.197801590,-10.685714722,0.903876007,0.825703621,0.206592560,3.443237305,-0.036268000,-0.033733801,-0.005043738,-0.303072658,-0.164116994,-0.164778308,0.018271698,0.083306154,-0.038784001,-0.023078918,-0.030769348,-1.431740570,0.193776995,0.177577019,0.057142258,4.109902954,-0.568099022,-0.526626587,-0.048351288,-11.283508301,0.582140028,0.522430420,0.083517075,2.417572021,-0.176946998,-0.163529116,-0.004378809,-1.388544956,0.002941000,0.003297762,0.019052780,-0.044653835
0.164000000,-0.025452999,-0.029563904,-0.013187408,0.330416107,0.090836003,0.079537392,-0.039560318,2.167025757,-0.642183006,-0.605592728,-0.074726105,-9.938452148,0.903891027,0.826085091,0.197801590,3.589752197,-0.036245000,-0.033733801,0.021871813,-0.303072658,-0.164149001,-0.164778308,0.001095246,0.083306154,-0.038734999,-0.023078918,-0.021978378,-1.652017975,0.193795994,0.177577019,0.039560318,3.063729858,-0.568108976,-0.526626587,-0.074726105,-11.134066772,0.582161009,0.522430420,0.083517075,2.124542236,-0.176927999,-0.163529116,0.004409162,-1.289232318,0.002938000,0.003297762,0.019044096,0.092547521
0.166000000,-0.025458001,-0.029563904,0.013187408,0.330416107,0.090824001,0.079537392,-0.021978378,2.465936279,-0.642171979,-0.605592728,0.021978378,-11.582418823,0.903904021,0.826848030,0.215385437,3.589752197,-0.036224000,-0.033733801,-0.003704608,-0.400162292,-0.164179996,-0.164778308,-0.018709778,0.032650120,-0.038686000,-0.023078918,0.004396439,-1.431740570,0.193804994,0.177958488,-0.004396439,3.661550903,-0.568113983,-0.526626587,-0.092308044,-12.329681396,0.582184017,0.522430420,0.065933228,2.417572021,-0.176909998,-0.163529116,-0.000007589,-1.388454512,0.002937000,0.003297762,-0.009525252,0.046866415
0.168000000,-0.025464000,-0.029563904,-0.039560318,0.991217041,0.090813003,0.079537392,-0.004396439,2.465936279,-0.642162025,-0.605592728,-0.074726105,-10.536273193,0.903918028,0.827229500,0.215385437,3.589752197,-0.036203999,-0.033733801,-0.000334819,-0.303072658,-0.164212003,-0.164778308,0.009246372,0.083306154,-0.038637999,-0.023078918,-0.021978378,-2.312818909,0.193804994,0.177958488,0.065933228,3.512081909,-0.568113983,-0.527008057,-0.101099014,-11.881329346,0.582210004,0.522811890,0.048351288,2.857147217,-0.176891997,-0.163529116,0.004394939,-1.487586261,0.002937000,0.003297762,-0.000004343,0.092705560
0.170000000,-0.025472000,-0.029563904,-0.030769348,0.330416107,0.090801999,0.079537392,-0.057142258,2.615377808,-0.642153978,-0.605974197,-0.127471924,-9.938452148,0.903930008,0.827610970,0.189010620,3.443237305,-0.036185000,-0.033733801,-0.005043738,-0.303072658,-0.164248005,-0.164778308,0.018271698,0.083306154,-0.038589999,-0.023078918,-0.013187408,-1.211463165,0.193803996,0.177958488,0.083517075,3.512081909,-0.568113029,-0.527008057,-0.030769348,-10.685714722,0.582239985,0.522811890,0.057142258,2.417572021,-0.176872000,-0.163529116,-0.008781337,-1.289413207,0.002938000,0.003297762,0.009531872,-0.090492980
0.172000000,-0.025480000,-0.029563904,0.004396439,0.770939636,0.090790004,0.079537392,-0.039560318,3.213198853,-0.642147005,-0.605974197,0.048351288,-10.984625244,0.903940976,0.827992439,0.162637711,3.589752197,-0.036166999,-0.033733801,-0.009752657,-0.205961356,-0.164287999,-0.164778308,0.027297025,0.133973493,-0.038543001,-0.023078918,-0.021978378,-1.431740570,0.193802997,0.177958488,0.021978378,3.512081909,-0.568109989,-0.527008057,-0.048351288,-12.329681396,0.582274973,0.522811890,0.039560318,2.710632324,-0.176848993,-0.163529116,0.004394939,-1.388454512,0.002939000,0.003297762,-0.000004343,0.046866415
0.174000000,-0.025490001,-0.029563904,-0.013187408,0.770939636,0.090778001,0.079155922,-0.039560318,2.914288330,-0.642139971,-0.605974197,-0.021978378,-12.329681396,0.903952003,0.827992439,0.153846741,3.296691895,-0.036148999,-0.033733801,-0.009084041,-0.205961356,-0.164330006,-0.164778308,0.008806239,0.133973493,-0.038495999,-0.023078918,-0.030769348,-0.991217041,0.193800002,0.177958488,0.013187408,3.810992432,-0.568107009,-0.527008057,-0.136262894,-11.731860352,0.582314014,0.523193359,0.065933228,2.417572021,-0.176824003,-0.163529116,-0.004394939,-1.289322762,0.002941000,0.003297762,0.000004343,0.001027271
0.176000000,-0.025501000,-0.029563904,-0.039560318,0.330416107,0.090765998,0.079537392,-0.039560318,2.017584229,-0.642134011,-0.605974197,-0.101099014,-9.938452148,0.903962016,0.828373909,0.145055771,3.150177002,-0.036130998,-0.033733801,-0.005713231,-0.303072658,-0.164376006,-0.164778308,0.036760431,0.083306154,-0.038449001,-0.023460388,0.004396439,-1.872295380,0.193797007,0.178339958,0.101099014,3.810992432,-0.568103015,-0.527389526,-0.048351288,-11.881329346,0.582356989,0.523193359,0.057142258,2.710632324,-0.176798001,-0.163529116,-0.008781337,-1.388454512,0.002943000,0.003297762,0.009531872,0.046866415
0.178000000,-0.025513001,-0.029563904,-0.021978378,0.991217041,0.090755001,0.079155922,-0.030769348,2.764846802,-0.642129004,-0.605974197,0.021978378,-11.881329346,0.903972030,0.828755379,0.145055771,3.589752197,-0.036113001,-0.033733801,-0.005043738,-0.303072658,-0.164425001,-0.164778308,0.018271698,0.083306154,-0.038401000,-0.023460388,-0.013187408,-1.431740570,0.193793997,0.178339958,0.039560318,4.408786011,-0.568098009,-0.527389526,-0.092308044,-12.329681396,0.582404017,0.523193359,0.092308044,2.564117432,-0.176770002,-0.163529116,-0.000007589,-1.190100569,0.002946000,0.003297762,-0.009525252,0.046708377
0.180000000,-0.025525000,-0.029563904,-0.021978378,0.330416107,0.090742998,0.079155922,-0.013187408,2.764846802,-0.642122984,-0.605974197,-0.039560318,-11.283508301,0.903981984,0.829136848,0.127471924,3.882781982,-0.036093999,-0.033733801,-0.000334819,-0.303072658,-0.164476007,-0.164778308,0.009246372,0.083306154,-0.038353000,-0.023460388,-0.004396439,-1.431740570,0.193790004,0.178339958,0.030769348,3.512081909,-0.568091989,-0.527389526,-0.065933228,-11.283508301,0.582454979,0.523574829,0.083517075,2.271057129,-0.176742002,-0.163529116,-0.017554133,-1.487676705,0.002948000,0.003297762,0.028586928,0.001185310
0.182000000,-0.025536999,-0.029945374,-0.039560318,0.550662231,0.090731002,0.079155922,-0.057142258,2.914288330,-0.642117977,-0.605974197,-0.048351288,-11.283508301,0.903991997,0.829136848,0.118680954,3.736267090,-0.036075000,-0.033733801,-0.004375122,-0.104159097,-0.164528996,-0.164778308,-0.000219087,0.090519503,-0.038304001,-0.023460388,0.013187408,-1.431740570,0.193784997,0.178339958,-0.039560318,3.512081909,-0.568085015,-0.527389526,0.021978378,-12.628564453,0.582508981,0.523574829,0.065933228,2.417572021,-0.176713005,-0.163529116,0.004409162,-1.388454512,0.002951000,0.003297762,0.019044096,0.046866415
0.184000000,-0.025549000,-0.029945374,-0.021978378,0.770939636,0.090719998,0.079155922,0.030769348,3.063729858,-0.642112970,-0.605974197,-0.057142258,-12.030770874,0.904002011,0.829518318,0.109889984,4.029296875,-0.036054000,-0.033733801,-0.004375122,-0.400162292,-0.164583996,-0.164778308,-0.000219087,0.032650120,-0.038254000,-0.023460388,0.004396439,-0.991217041,0.193780005,0.178339958,0.048351288,4.558255005,-0.568077028,-0.527389526,-0.013187408,-11.432977295,0.582566977,0.523956299,0.057142258,2.417572021,-0.176684007,-0.163529116,0.004394939,-1.388454512,0.002954000,0.003297762,-0.000004343,0.046866415
0.186000000,-0.025560001,-0.029945374,0.039560318,0.550662231,0.090709001,0.079155922,-0.048351288,3.063729858,-0.642108023,-0.605974197,0.057142258,-12.329681396,0.904012024,0.829518318,0.092308044,3.882781982,-0.036033001,-0.033733801,-0.000334819,-0.303072658,-0.164639995,-0.164778308,0.009246372,0.083306154,-0.038201999,-0.023460388,-0.004396439,-1.431740570,0.193774000,0.178721428,0.101099014,4.259344482,-0.568068027,-0.527389526,0.039560318,-12.778033447,0.582628012,0.523956299,0.065933228,2.417572021,-0.176653996,-0.163529116,0.008810736,-1.289322762,0.002957000,0.003297762,0.028562939,0.001027271
0.188000000,-0.025571000,-0.029945374,0.039560318,0.550662231,0.090697996,0.079155922,0.039560318,2.615377808,-0.642103016,-0.605974197,0.013187408,-11.432977295,0.904024005,0.829899788,0.092308044,3.882781982,-0.036010001,-0.033733801,0.000334819,-0.205961356,-0.164698005,-0.164778308,-0.009246372,0.133973493,-0.038148999,-0.023460388,-0.013187408,-1.652017975,0.193767995,0.178721428,0.083517075,3.213198853,-0.568059027,-0.527389526,-0.065933228,-11.432977295,0.582691014,0.523956299,0.048351288,2.710632324,-0.176624998,-0.163529116,-0.008781337,-1.388544956,0.002960000,0.003297762,0.009531872,-0.044653835
0.190000000,-0.025581000,-0.029945374,0.030769348,0.330416107,0.090687998,0.078774452,-0.048351288,3.362640381,-0.642096996,-0.605974197,-0.004396439,-11.432977295,0.904035985,0.829899788,0.092308044,3.882781982,-0.035985999,-0.033733801,-0.001004312,-0.104159097,-0.164756000,-0.164778308,0.027735104,0.090519503,-0.038095001,-0.023460388,-0.021978378,-1.431740570,0.193761006,0.178721428,0.030769348,4.857138062,-0.568049014,-0.527770996,-0.074726105,-12.030770874,0.582758009,0.524337769,0.065933228,2.564117432,-0.176596999,-0.163529116,0.004409162,-1.388454512,0.002962000,0.003297762,0.019044096,0.046866415
0.192000000,-0.025589000,-0.029945374,0.039560318,0.330416107,0.090677999,0.078774452,-0.101099014,3.362640381,-0.642090023,-0.605974197,0.013187408,-12.329681396,0.904049993,0.830281258,0.101099014,3.443237305,-0.035960000,-0.033733801,0.004375122,-0.303072658,-0.164814994,-0.164778308,0.000219087,0.083306154,-0.038038000,-0.023460388,0.030769348,-1.652017975,0.193754002,0.178721428,0.065933228,4.857138062,-0.568037987,-0.527389526,0.039560318,-13.226385498,0.582826972,0.524337769,0.065933228,2.417572021,-0.176569000,-0.163529116,-0.004378809,-1.487676705,0.002964000,0.003297762,0.019052780,0.001185310
0.194000000,-0.025597000,-0.029945374,0.039560318,0.550662231,0.090668999,0.078774452,-0.039560318,1.868142700,-0.642081976,-0.605974197,-0.013187408,-11.881329346,0.904065013,0.830281258,0.101099014,3.736267090,-0.035930999,-0.033733801,-0.004375122,-0.104159097,-0.164874002,-0.164778308,-0.000219087,0.090519503,-0.037978999,-0.023460388,-0.013187408,-1.652017975,0.193746999,0.178721428,0.013187408,3.362640381,-0.568026006,-0.527770996,-0.101099014,-11.731860352,0.582898021,0.524719238,0.065933228,2.417572021,-0.176542997,-0.163529116,0.008796512,-1.190191013,0.002966000,0.003297762,0.009514500,-0.044811874
0.196000000,-0.025602000,-0.029945374,0.004396439,0.550662231,0.090660997,0.078774452,-0.101099014,3.810992432,-0.642073989,-0.605974197,-0.004396439,-12.030770874,0.904080987,0.830662727,0.101099014,3.736267090,-0.035900000,-0.033733801,-0.001004312,-0.205961356,-0.164932996,-0.164778308,0.027735104,0.133973493,-0.037918001,-0.023460388,0.030769348,-1.431740570,0.193739995,0.178721428,0.048351288,3.810992432,-0.568014026,-0.527770996,-0.039560318,-12.628564453,0.582971990,0.524719238,0.048351288,2.710632324,-0.176517993,-0.163529116,-0.013182910,-1.388544956,0.002968000,0.003297762,0.000013028,-0.044653835
0.198000000,-0.025606001,-0.029945374,0.004396439,0.550662231,0.090654001,0.078774452,-0.004396439,2.914288330,-0.642063975,-0.605974197,0.057142258,-12.927474976,0.904098988,0.830662727,0.092308044,3.736267090,-0.035867002,-0.033733801,-0.008414548,-0.002356838,-0.164991006,-0.164778308,-0.009682493,0.047065513,-0.037854001,-0.023460388,-0.004396439,-1.431740570,0.193731993,0.178721428,-0.021978378,5.753842163,-0.568000972,-0.527770996,-0.004396439,-12.927474976,0.583047986,0.524719238,0.021978378,2.710632324,-0.176495001,-0.163529116,-0.008796512,-1.388544956,0.002969000,0.003297762,-0.009514500,-0.044653835
0.200000000,-0.025606999,-0.029945374,0.004396439,1.211463165,0.090646997,0.078392982,-0.030769348,2.615377808,-0.642053008,-0.605974197,0.030769348,-12.628564453,0.904119015,0.830662727,0.083517075,3.736267090,-0.035829999,-0.033733801,0.008414548,-0.201270399,-0.165048003,-0.164778308,0.009682493,0.039852164,-0.037788000,-0.023460388,0.004396439,-1.431740570,0.193724006,0.178721428,-0.021978378,4.857138062,-0.567987978,-0.527770996,-0.021978378,-12.180212402,0.583124995,0.524719238,0.039560318,2.857147217,-0.176475003,-0.163529116,0.004409162,-1.190191013,0.002969000,0.003297762,0.019044096,-0.044811874
0.202000000,-0.025606001,-0.029945374,0.013187408,0.550662231,0.090640999,0.078392982,-0.057142258,3.362640381,-0.642035007,-0.605974197,0.030769348,-12.479122925,0.904146016,0.831044197,0.092308044,3.589752197,-0.035783999,-0.033733801,-0.005043738,-0.201270399,-0.165105999,-0.164778308,0.018271698,0.039852164,-0.037714001,-0.023460388,0.004396439,-0.991217041,0.193715006,0.178721428,-0.004396439,3.661550903,-0.567964971,-0.527389526,0.021978378,-12.778033447,0.583209991,0.524719238,0.030769348,2.857147217,-0.176455006,-0.163529116,-0.004394939,-1.091059264,0.002969000,0.003297762,0.000004343,-0.090651019
0.204000000,-0.025602000,-0.029945374,0.030769348,0.770939636,0.090635002,0.078392982,-0.101099014,3.213198853,-0.642006993,-0.605974197,0.074726105,-10.835156250,0.904183984,0.831044197,0.092308044,3.882781982,-0.035721000,-0.033733801,0.009084041,-0.400162292,-0.165166005,-0.164778308,-0.008806239,0.032650120,-0.037629001,-0.023460388,0.013187408,-1.431740570,0.193702996,0.178721428,-0.004396439,4.707696533,-0.567928016,-0.527389526,0.057142258,-12.329681396,0.583307981,0.525100708,0.013187408,2.857147217,-0.176434994,-0.163529116,-0.008765207,-1.091059264,0.002969000,0.003297762,0.028580309,-0.090651019
0.206000000,-0.025596000,-0.029945374,-0.004396439,1.211463165,0.090628996,0.078392982,-0.057142258,2.167025757,-0.641969979,-0.605974197,0.048351288,-13.525268555,0.904232025,0.831425667,0.109889984,3.443237305,-0.035643999,-0.033733801,-0.005043738,-0.303072658,-0.165226996,-0.164778308,0.018271698,0.083306154,-0.037535001,-0.023460388,-0.004396439,-1.431740570,0.193689004,0.178721428,-0.004396439,4.259344482,-0.567875981,-0.527389526,-0.004396439,-12.778033447,0.583418012,0.525100708,0.030769348,2.710632324,-0.176413998,-0.163529116,0.004394939,-1.388454512,0.002968000,0.003297762,-0.000004343,0.046866415
0.208000000,-0.025588000,-0.029945374,-0.013187408,0.991217041,0.090622999,0.078392982,-0.092308044,2.914288330,-0.641925991,-0.605974197,-0.030769348,-13.076916504,0.904287994,0.831425667,0.118680954,3.150177002,-0.035553999,-0.033733801,-0.005043738,-0.201270399,-0.165289998,-0.164778308,0.018271698,0.039852164,-0.037434001,-0.023460388,0.013187408,-1.431740570,0.193673000,0.178721428,0.013187408,3.213198853,-0.567812979,-0.527389526,0.083517075,-13.226385498,0.583536983,0.525100708,0.013187408,2.564117432,-0.176393002,-0.163529116,0.000007589,-1.388454512,0.002967000,0.003297762,0.009525252,0.046866415
0.210000000,-0.025578000,-0.029945374,-0.004396439,0.110138702,0.090617001,0.078392982,-0.065933228,2.914288330,-0.641875982,-0.605592728,0.039560318,-12.628564453,0.904352009,0.831807137,0.109889984,3.736267090,-0.035454001,-0.033733801,-0.001004312,-0.201270399,-0.165353000,-0.164778308,0.027735104,0.039852164,-0.037326999,-0.023460388,0.004396439,-0.991217041,0.193654999,0.178721428,-0.013187408,4.857138062,-0.567740023,-0.527389526,-0.021978378,-13.375827026,0.583665013,0.525100708,0.021978378,2.710632324,-0.176372007,-0.163529116,0.000022765,-1.190191013,0.002967000,0.003297762,0.028571624,-0.044811874
0.212000000,-0.025567001,-0.029945374,0.048351288,0.770939636,0.090611003,0.078392982,0.013187408,2.167025757,-0.641821980,-0.605592728,0.109889984,-12.180212402,0.904420972,0.832188606,0.101099014,3.882781982,-0.035344999,-0.033733801,0.003704608,-0.201270399,-0.165417999,-0.164778308,0.018709778,0.039852164,-0.037216000,-0.023460388,-0.021978378,-0.770939636,0.193635002,0.179102898,0.039560318,4.408786011,-0.567659020,-0.527389526,0.057142258,-13.375827026,0.583800018,0.525100708,0.030769348,2.564117432,-0.176350996,-0.163529116,-0.004378809,-1.190191013,0.002966000,0.003297762,0.019052780,-0.044811874
0.214000000,-0.025553999,-0.029945374,-0.039560318,0.330416107,0.090605997,0.078392982,0.013187408,2.764846802,-0.641763985,-0.605592728,0.057142258,-13.674737549,0.904495001,0.832188606,0.109889984,3.882781982,-0.035229001,-0.033733801,0.007744034,-0.201270399,-0.165482998,-0.164778308,0.028173184,0.039852164,-0.037101999,-0.023460388,0.013187408,-1.652017975,0.193614006,0.179102898,-0.004396439,4.259344482,-0.567570984,-0.527389526,0.021978378,-12.329681396,0.583940983,0.525100708,0.039560318,2.710632324,-0.176330999,-0.163529116,0.004394939,-1.289322762,0.002965000,0.003297762,-0.000004343,0.001027271
0.216000000,-0.025539000,-0.029945374,0.004396439,0.550662231,0.090600997,0.078011513,-0.039560318,3.661550903,-0.641705990,-0.605592728,0.021978378,-12.628564453,0.904572010,0.832570076,0.101099014,3.882781982,-0.035108000,-0.033733801,-0.004375122,-0.201270399,-0.165548995,-0.164778308,-0.000219087,0.039852164,-0.036986999,-0.023460388,0.030769348,-1.431740570,0.193590999,0.179102898,0.013187408,3.810992432,-0.567480028,-0.527389526,-0.004396439,-12.927474976,0.584084988,0.525100708,0.030769348,2.710632324,-0.176312000,-0.163529116,0.000007589,-1.190100569,0.002964000,0.003297762,0.009525252,0.046708377
0.218000000,-0.025524000,-0.029945374,0.039560318,0.550662231,0.090595998,0.078011513,0.004396439,2.615377808,-0.641646981,-0.605211258,0.101099014,-13.824179077,0.904650986,0.832570076,0.101099014,3.882781982,-0.034983002,-0.033733801,-0.000334819,-0.196557774,-0.165615007,-0.164778308,0.009246372,-0.054257859,-0.036873002,-0.023460388,-0.021978378,-1.431740570,0.193566993,0.179102898,0.030769348,4.857138062,-0.567385972,-0.527389526,0.065933228,-13.525268555,0.584231973,0.525482178,0.039560318,2.857147217,-0.176293999,-0.163529116,0.000007589,-1.289232318,0.002963000,0.003297762,0.009525252,0.092547521
0.220000000,-0.025506999,-0.029945374,-0.004396439,0.770939636,0.090590999,0.078011513,0.013187408,2.914288330,-0.641591012,-0.605211258,0.039560318,-13.824179077,0.904730022,0.832951546,0.109889984,3.882781982,-0.034858000,-0.033733801,0.009084041,-0.196557774,-0.165682003,-0.164778308,-0.008806239,-0.054257859,-0.036761001,-0.023460388,0.021978378,-1.431740570,0.193542004,0.179102898,0.048351288,4.558255005,-0.567291021,-0.527008057,0.092308044,-13.525268555,0.584379971,0.525482178,0.030769348,2.857147217,-0.176276997,-0.163529116,0.000007589,-1.289322762,0.002962000,0.003297762,0.009525252,0.001027271
0.222000000,-0.025490001,-0.029945374,0.013187408,0.991217041,0.090586998,0.078011513,0.039560318,2.615377808,-0.641538024,-0.605211258,0.065933228,-12.628564453,0.904808998,0.832951546,0.118680954,2.710632324,-0.034733001,-0.033733801,0.003704608,-0.298360033,-0.165748000,-0.164778308,0.018709778,-0.010803870,-0.036653001,-0.023460388,-0.021978378,-1.431740570,0.193515003,0.179102898,0.048351288,4.408786011,-0.567197025,-0.527008057,-0.048351288,-13.375827026,0.584527016,0.525482178,0.039560318,2.564117432,-0.176260993,-0.163529116,-0.004378809,-1.289322762,0.002961000,0.003297762,0.019052780,0.001027271
0.224000000,-0.025472000,-0.029945374,0.030769348,0.330416107,0.090584002,0.078011513,-0.048351288,3.063729858,-0.641489029,-0.604829788,0.101099014,-13.525268555,0.904886007,0.833333015,0.109889984,3.736267090,-0.034610000,-0.033733801,-0.009752657,-0.196557774,-0.165813997,-0.164778308,0.027297025,-0.054257859,-0.036550000,-0.023460388,0.021978378,-1.431740570,0.193488002,0.179102898,-0.057142258,4.259344482,-0.567107022,-0.527008057,0.065933228,-13.973620605,0.584671974,0.525482178,0.048351288,2.857147217,-0.176247999,-0.163529116,0.000022765,-1.487676705,0.002960000,0.003297762,0.028571624,0.001185310
0.226000000,-0.025452999,-0.029945374,0.004396439,1.431740570,0.090581000,0.078011513,-0.048351288,2.017584229,-0.641447008,-0.604829788,0.048351288,-13.824179077,0.904959023,0.833333015,0.127471924,3.003662109,-0.034490999,-0.033733801,-0.004375122,-0.196557774,-0.165878996,-0.164778308,-0.000219087,-0.054257859,-0.036454000,-0.023460388,0.013187408,-1.652017975,0.193460003,0.179102898,0.021978378,5.006607056,-0.567022026,-0.527008057,0.136262894,-13.076916504,0.584814012,0.525482178,0.021978378,2.857147217,-0.176237002,-0.163529116,-0.013167735,-1.091059264,0.002959000,0.003297762,0.019059400,-0.090651019
0.228000000,-0.025434000,-0.029945374,0.004396439,0.770939636,0.090579003,0.078011513,0.021978378,2.615377808,-0.641412020,-0.604829788,0.074726105,-11.881329346,0.905027986,0.833714485,0.109889984,2.710632324,-0.034379002,-0.033733801,0.007744034,-0.099468140,-0.165942997,-0.164778308,0.028173184,-0.003601826,-0.036366999,-0.023460388,0.004396439,-0.991217041,0.193432003,0.179102898,-0.013187408,4.408786011,-0.566944003,-0.527008057,0.021978378,-13.674737549,0.584949970,0.525863647,0.030769348,2.857147217,-0.176228002,-0.163529116,0.004409162,-1.190191013,0.002959000,0.003297762,0.019044096,-0.044811874
0.230000000,-0.025415000,-0.029563904,0.021978378,0.330416107,0.090576999,0.078011513,0.004396439,2.465936279,-0.641386986,-0.604448318,0.083517075,-14.123089600,0.905090988,0.833714485,0.109889984,2.564117432,-0.034274001,-0.033733801,0.007744034,-0.196557774,-0.166006997,-0.164778308,0.028173184,-0.054257859,-0.036290001,-0.023460388,-0.030769348,-0.991217041,0.193403006,0.179102898,-0.039560318,3.362640381,-0.566874027,-0.526626587,0.021978378,-14.272531128,0.585080028,0.525863647,0.030769348,2.710632324,-0.176220998,-0.163529116,0.008796512,-1.388454512,0.002958000,0.003297762,0.009514500,0.046866415
0.232000000,-0.025395000,-0.029563904,0.030769348,0.550662231,0.090576001,0.078011513,0.004396439,3.063729858,-0.641372025,-0.604448318,0.101099014,-14.272531128,0.905147016,0.834095955,0.109889984,2.564117432,-0.034178998,-0.033733801,0.003704608,-0.196557774,-0.166069001,-0.164778308,0.018709778,-0.054257859,-0.036224999,-0.023460388,0.004396439,-1.211463165,0.193373993,0.179102898,-0.021978378,5.454931641,-0.566815019,-0.526626587,0.083517075,-14.421972656,0.585201025,0.525863647,0.021978378,2.710632324,-0.176218003,-0.163529116,-0.004394939,-1.289322762,0.002958000,0.003297762,0.000004343,0.001027271
0.234000000,-0.025376000,-0.029945374,0.021978378,0.991217041,0.090576001,0.078011513,0.004396439,1.868142700,-0.641368985,-0.604066849,0.092308044,-13.525268555,0.905193985,0.834095955,0.101099014,2.857147217,-0.034095000,-0.033733801,-0.001004312,-0.094732797,-0.166128993,-0.164778308,0.027735104,-0.097721547,-0.036173001,-0.023460388,0.004396439,-1.211463165,0.193344995,0.179102898,0.057142258,3.810992432,-0.566767991,-0.526626587,0.021978378,-12.778033447,0.585313022,0.525863647,0.021978378,2.710632324,-0.176217005,-0.163529116,-0.004394939,-1.289413207,0.002958000,0.003297762,0.000004343,-0.090492980
0.236000000,-0.025353000,-0.029563904,0.030769348,0.330416107,0.090581000,0.078011513,-0.057142258,2.764846802,-0.641369998,-0.604066849,0.065933228,-12.927474976,0.905237973,0.834477425,0.092308044,2.857147217,-0.034010001,-0.033733801,-0.000334819,-0.099468140,-0.166188002,-0.164778308,0.009246372,-0.003601826,-0.036123998,-0.023460388,0.021978378,-1.211463165,0.193313003,0.179102898,-0.057142258,4.558255005,-0.566724002,-0.526245117,0.092308044,-15.468118286,0.585425019,0.525863647,0.021978378,2.564117432,-0.176217005,-0.163529116,0.004409162,-1.190191013,0.002958000,0.003297762,0.019044096,-0.044811874
0.238000000,-0.025325000,-0.029563904,0.030769348,1.211463165,0.090591997,0.078011513,-0.004396439,2.465936279,-0.641372025,-0.604066849,0.030769348,-13.973620605,0.905281007,0.834477425,0.092308044,2.857147217,-0.033923000,-0.033733801,-0.004375122,0.108871722,-0.166244000,-0.164778308,-0.000219087,-0.184629526,-0.036075000,-0.023460388,0.039560318,-1.431740570,0.193278998,0.179102898,-0.039560318,4.558255005,-0.566679001,-0.526245117,0.145055771,-12.927474976,0.585537016,0.525863647,0.039560318,2.564117432,-0.176217005,-0.163529116,-0.004378809,-1.289322762,0.002959000,0.003297762,0.019052780,0.001027271
0.240000000,-0.025293000,-0.029563904,0.004396439,0.770939636,0.090607002,0.078011513,0.039560318,2.465936279,-0.641373992,-0.604066849,0.013187408,-14.720883179,0.905321002,0.834858894,0.092308044,2.857147217,-0.033833001,-0.033733801,-0.003704608,-0.196557774,-0.166299000,-0.164778308,-0.018709778,-0.054257859,-0.036026999,-0.023460388,-0.021978378,-1.211463165,0.193241999,0.178721428,0.039560318,5.454931641,-0.566633999,-0.526245117,0.057142258,-15.169235229,0.585649014,0.526245117,0.048351288,2.271057129,-0.176217005,-0.163529116,-0.004378809,-1.289322762,0.002960000,0.003297762,0.019052780,0.001027271
0.242000000,-0.025258999,-0.029563904,0.004396439,0.550662231,0.090626001,0.078011513,-0.039560318,2.465936279,-0.641376972,-0.603685379,-0.004396439,-13.674737549,0.905360997,0.834858894,0.109889984,2.857147217,-0.033741999,-0.033733801,-0.014461576,0.007069463,-0.166352004,-0.164778308,0.036322351,-0.141175536,-0.035980999,-0.023460388,0.021978378,-0.991217041,0.193202004,0.179102898,0.048351288,4.259344482,-0.566590011,-0.525863647,0.021978378,-13.674737549,0.585761011,0.526245117,0.021978378,2.271057129,-0.176218003,-0.163529116,0.000007589,-1.190191013,0.002961000,0.003297762,0.009525252,-0.044811874
0.244000000,-0.025220999,-0.029563904,0.004396439,1.211463165,0.090649001,0.078011513,-0.021978378,2.914288330,-0.641380012,-0.603685379,0.013187408,-13.674737549,0.905398011,0.835240364,0.092308044,3.003662109,-0.033652000,-0.033733801,-0.000334819,-0.191822431,-0.166403994,-0.164778308,0.009246372,-0.148377580,-0.035935000,-0.023460388,0.013187408,-0.770939636,0.193160996,0.179102898,-0.057142258,4.259344482,-0.566546977,-0.525863647,0.030769348,-14.571441650,0.585871994,0.526245117,0.030769348,2.564117432,-0.176218003,-0.163529116,0.004394939,-1.388454512,0.002962000,0.003297762,-0.000004343,0.046866415
0.246000000,-0.025181999,-0.029563904,0.004396439,0.330416107,0.090673998,0.078011513,0.013187408,1.718673706,-0.641384006,-0.603303909,0.127471924,-13.375827026,0.905435026,0.835240364,0.092308044,2.857147217,-0.033562999,-0.033733801,0.009084041,0.104159097,-0.166455999,-0.164778308,-0.008806239,-0.090519503,-0.035891999,-0.023460388,0.004396439,-0.991217041,0.193118006,0.178721428,-0.065933228,5.156048584,-0.566505015,-0.525863647,0.048351288,-14.571441650,0.585982025,0.526245117,0.030769348,2.710632324,-0.176219001,-0.163529116,-0.004394939,-1.289322762,0.002964000,0.003297762,0.000004343,0.001027271
0.248000000,-0.025141999,-0.029563904,0.004396439,0.550662231,0.090701997,0.077630043,-0.030769348,3.512081909,-0.641389012,-0.603303909,0.127471924,-13.375827026,0.905471027,0.835621834,0.092308044,3.003662109,-0.033475999,-0.033733801,-0.005043738,0.205961356,-0.166508004,-0.164778308,0.018271698,-0.133973493,-0.035851002,-0.023460388,-0.013187408,-0.770939636,0.193074003,0.178721428,-0.013187408,4.857138062,-0.566465020,-0.525482178,0.092308044,-15.169235229,0.586089015,0.526626587,0.048351288,2.564117432,-0.176220000,-0.163529116,0.004409162,-1.091059264,0.002965000,0.003297762,0.019044096,-0.090651019
0.250000000,-0.025102001,-0.029563904,0.021978378,0.330416107,0.090732001,0.077630043,-0.013187408,3.063729858,-0.641394019,-0.603303909,0.030769348,-13.226385498,0.905505002,0.836003304,0.101099014,3.296691895,-0.033394001,-0.033733801,-0.004375122,0.002356838,-0.166559994,-0.164778308,-0.000219087,-0.047065513,-0.035812002,-0.023460388,-0.013187408,-1.431740570,0.193029001,0.178721428,0.030769348,4.259344482,-0.566426992,-0.525482178,0.039560318,-13.226385498,0.586193979,0.526626587,0.039560318,2.564117432,-0.176220000,-0.163529116,0.008810736,-1.091059264,0.002967000,0.003297762,0.028562939,-0.090651019
0.252000000,-0.025062000,-0.029563904,0.030769348,0.550662231,0.090761997,0.077630043,0.004396439,2.764846802,-0.641399980,-0.603303909,0.039560318,-15.019793701,0.905538976,0.836003304,0.101099014,3.003662109,-0.033316001,-0.033733801,-0.005043738,-0.094732797,-0.166612998,-0.164778308,0.018271698,-0.097721547,-0.035776000,-0.023460388,0.013187408,-1.211463165,0.192983001,0.178721428,0.030769348,4.558255005,-0.566392004,-0.525482178,0.039560318,-14.720883179,0.586295009,0.526626587,0.039560318,2.710632324,-0.176220998,-0.163529116,0.004409162,-1.289322762,0.002969000,0.003297762,0.019044096,0.001027271
0.254000000,-0.025022000,-0.029563904,0.004396439,0.770939636,0.090792999,0.077630043,0.013187408,2.316494751,-0.641407013,-0.603303909,0.057142258,-13.674737549,0.905571997,0.836384773,0.101099014,3.296691895,-0.033243999,-0.033733801,0.004375122,0.007069463,-0.166667998,-0.164778308,0.000219087,-0.141175536,-0.035744000,-0.023460388,0.004396439,-0.991217041,0.192937002,0.178721428,-0.065933228,5.156048584,-0.566359997,-0.525482178,0.074726105,-13.375827026,0.586391985,0.526626587,0.030769348,3.150177002,-0.176221997,-0.163529116,0.004394939,-1.388454512,0.002971000,0.003297762,-0.000004343,0.046866415
0.256000000,-0.024985000,-0.029563904,-0.030769348,0.550662231,0.090823002,0.077630043,-0.004396439,3.512081909,-0.641412973,-0.602922440,0.013187408,-13.674737549,0.905604005,0.836384773,0.109889984,3.736267090,-0.033179998,-0.033733801,-0.005713231,0.108871722,-0.166723996,-0.164778308,0.036760431,-0.184629526,-0.035714999,-0.023460388,-0.013187408,-0.991217041,0.192890003,0.178721428,-0.030769348,3.661550903,-0.566331983,-0.525100708,0.101099014,-14.870324707,0.586484015,0.526626587,0.039560318,2.710632324,-0.176222995,-0.163529116,0.008781337,-1.190191013,0.002973000,0.003297762,-0.009531872,-0.044811874
0.258000000,-0.024948999,-0.029563904,0.004396439,0.991217041,0.090852998,0.077630043,-0.048351288,2.167025757,-0.641421020,-0.602922440,0.065933228,-14.123089600,0.905636013,0.836766243,0.101099014,3.736267090,-0.033123001,-0.033733801,0.004375122,0.104159097,-0.166782007,-0.164778308,0.000219087,-0.090519503,-0.035691001,-0.023460388,0.004396439,-0.991217041,0.192844003,0.178721428,-0.030769348,4.259344482,-0.566307008,-0.525100708,0.083517075,-14.720883179,0.586570978,0.527008057,0.039560318,2.271057129,-0.176225007,-0.163529116,-0.008796512,-1.091059264,0.002975000,0.003297762,-0.009514500,-0.090651019
0.260000000,-0.024916001,-0.029563904,0.004396439,1.211463165,0.090880997,0.077630043,-0.013187408,2.914288330,-0.641427994,-0.602922440,0.074726105,-15.318676758,0.905668020,0.836766243,0.101099014,3.736267090,-0.033075999,-0.033733801,0.007744034,-0.094732797,-0.166842997,-0.164778308,0.028173184,-0.097721547,-0.035670001,-0.023460388,0.021978378,-1.211463165,0.192798004,0.178721428,-0.004396439,4.857138062,-0.566286027,-0.525100708,-0.013187408,-13.674737549,0.586652994,0.527008057,0.057142258,2.271057129,-0.176226005,-0.163529116,-0.004394939,-1.190191013,0.002977000,0.003297762,0.000004343,-0.044811874
0.262000000,-0.024888000,-0.029563904,0.004396439,0.110138702,0.090907000,0.077630043,0.021978378,2.316494751,-0.641435981,-0.602540970,0.074726105,-13.226385498,0.905699015,0.837147713,0.101099014,3.296691895,-0.033039998,-0.033733801,-0.008414548,0.007069463,-0.166906998,-0.164778308,-0.009682493,-0.141175536,-0.035654999,-0.023460388,0.021978378,-1.431740570,0.192753002,0.178721428,-0.021978378,4.109902954,-0.566271007,-0.524719238,0.118680954,-14.720883179,0.586727977,0.527008057,0.057142258,2.564117432,-0.176227003,-0.163529116,-0.000007589,-1.190100569,0.002979000,0.003297762,-0.009525252,0.046708377
0.264000000,-0.024862999,-0.029563904,-0.004396439,0.550662231,0.090930000,0.077630043,0.004396439,2.764846802,-0.641444981,-0.602540970,0.101099014,-15.019793701,0.905730009,0.837147713,0.092308044,3.443237305,-0.033016000,-0.033733801,-0.004375122,0.007069463,-0.166973993,-0.164778308,-0.000219087,-0.141175536,-0.035643999,-0.023460388,0.004396439,-1.211463165,0.192708999,0.178721428,-0.004396439,4.408786011,-0.566259980,-0.524719238,0.048351288,-15.169235229,0.586795986,0.527008057,0.074726105,2.417572021,-0.176229000,-0.163529116,-0.017569308,-1.289322762,0.002980000,0.003297762,0.009540556,0.001027271
0.266000000,-0.024843000,-0.029563904,-0.013187408,0.770939636,0.090949997,0.077630043,-0.074726105,3.362640381,-0.641453028,-0.602540970,0.021978378,-14.272531128,0.905762017,0.837147713,0.109889984,2.857147217,-0.033004001,-0.033733801,-0.009084041,0.108871722,-0.167045996,-0.164778308,0.008806239,-0.184629526,-0.035640001,-0.023460388,0.004396439,-1.211463165,0.192665994,0.178721428,-0.048351288,4.707696533,-0.566254973,-0.524719238,0.057142258,-14.272531128,0.586856008,0.527389526,0.074726105,2.417572021,-0.176229998,-0.163529116,0.004394939,-1.289322762,0.002982000,0.003297762,-0.000004343,0.001027271
0.268000000,-0.024828000,-0.029563904,-0.021978378,0.770939636,0.090967000,0.077630043,-0.004396439,2.615377808,-0.641462982,-0.602159500,0.101099014,-13.973620605,0.905793011,0.837529182,0.109889984,3.003662109,-0.033002999,-0.033733801,0.004375122,0.104159097,-0.167120993,-0.164778308,0.000219087,-0.090519503,-0.035641000,-0.023460388,0.030769348,-0.770939636,0.192623004,0.178721428,0.004396439,4.558255005,-0.566255987,-0.524337769,0.092308044,-15.767028809,0.586910009,0.527389526,0.092308044,2.124542236,-0.176231995,-0.163529116,0.000022765,-1.388454512,0.002983000,0.003297762,0.028571624,0.046866415
0.270000000,-0.024813000,-0.029563904,0.021978378,1.211463165,0.090984002,0.077630043,0.065933228,2.615377808,-0.641475976,-0.602159500,0.039560318,-14.421972656,0.905822992,0.837910652,0.127471924,2.857147217,-0.033002999,-0.033733801,-0.018501879,0.104159097,-0.167201996,-0.164778308,0.026856892,-0.090519503,-0.035647001,-0.023460388,0.013187408,-0.991217041,0.192577004,0.178721428,0.004396439,4.857138062,-0.566263020,-0.524337769,0.039560318,-14.272531128,0.586962998,0.527770996,0.083517075,1.978027344,-0.176237002,-0.163529116,-0.008765207,-1.388454512,0.002985000,0.003297762,0.028580309,0.046866415
0.272000000,-0.024798000,-0.029563904,0.030769348,0.770939636,0.091002002,0.077630043,-0.013187408,2.615377808,-0.641492009,-0.602159500,0.039560318,-14.123089600,0.905852020,0.837910652,0.127471924,2.564117432,-0.033002999,-0.033733801,-0.009084041,0.108871722,-0.167288005,-0.164778308,0.008806239,-0.184629526,-0.035659000,-0.023460388,0.030769348,-1.211463165,0.192526996,0.178339958,-0.065933228,4.109902954,-0.566276014,-0.523956299,0.065933228,-14.571441650,0.587015986,0.527770996,0.074726105,2.417572021,-0.176244006,-0.163529116,0.004394939,-1.289322762,0.002986000,0.003297762,-0.000004343,0.001027271
0.274000000,-0.024784001,-0.029563904,0.004396439,0.550662231,0.091018997,0.077630043,0.048351288,3.512081909,-0.641511977,-0.601778030,0.092308044,-16.514291382,0.905879974,0.838292122,0.127471924,2.564117432,-0.033004001,-0.033733801,-0.000334819,0.108871722,-0.167376995,-0.164778308,0.009246372,-0.184629526,-0.035675999,-0.023460388,0.013187408,-1.211463165,0.192473993,0.178339958,-0.039560318,3.810992432,-0.566293001,-0.523956299,0.118680954,-15.767028809,0.587068975,0.528152466,0.083517075,2.124542236,-0.176254004,-0.163529116,0.000007589,-1.487676705,0.002988000,0.003297762,0.009525252,0.001185310
0.276000000,-0.024769999,-0.029563904,-0.039560318,0.991217041,0.091036998,0.077630043,0.013187408,3.063729858,-0.641533971,-0.601778030,0.039560318,-14.870324707,0.905907989,0.838673592,0.145055771,2.857147217,-0.033004001,-0.033733801,0.004375122,0.108871722,-0.167472005,-0.164778308,0.000219087,-0.184629526,-0.035696998,-0.023460388,0.004396439,-0.550662231,0.192421004,0.178339958,-0.030769348,5.006607056,-0.566316009,-0.523956299,0.057142258,-14.123089600,0.587119997,0.528152466,0.127471924,2.417572021,-0.176265001,-0.163529116,0.004378809,-1.090968819,0.002990000,0.003297762,-0.019052780,0.000869232
0.278000000,-0.024757000,-0.029563904,-0.004396439,0.330416107,0.091054000,0.077630043,-0.030769348,2.615377808,-0.641559005,-0.601396561,0.083517075,-14.123089600,0.905934989,0.838673592,0.127471924,2.857147217,-0.033004001,-0.033733801,-0.022541306,0.108871722,-0.167569995,-0.164778308,0.017393486,-0.184629526,-0.035723001,-0.023460388,-0.004396439,-0.770939636,0.192366004,0.178339958,-0.004396439,4.408786011,-0.566343009,-0.523574829,0.118680954,-14.870324707,0.587170005,0.528533936,0.109889984,2.271057129,-0.176278993,-0.163529116,-0.008796512,-1.388454512,0.002992000,0.003297762,-0.009514500,0.046866415
0.280000000,-0.024744000,-0.029563904,0.004396439,0.550662231,0.091071002,0.077630043,-0.004396439,2.316494751,-0.641587019,-0.601396561,0.127471924,-13.824179077,0.905961990,0.839055061,0.136262894,3.296691895,-0.033004001,-0.033733801,-0.008414548,0.016494711,-0.167671993,-0.164778308,-0.009682493,-0.329395584,-0.035751998,-0.023460388,0.004396439,-1.211463165,0.192312002,0.178339958,-0.013187408,4.857138062,-0.566374004,-0.523574829,0.127471924,-15.767028809,0.587217987,0.528915405,0.127471924,2.124542236,-0.176294997,-0.163529116,0.004394939,-1.190191013,0.002994000,0.003297762,-0.000004343,-0.044811874
0.282000000,-0.024733000,-0.029563904,0.021978378,0.550662231,0.091087997,0.077630043,0.092308044,2.914288330,-0.641615987,-0.601396561,0.021978378,-14.421972656,0.905987978,0.839436531,0.136262894,3.443237305,-0.033004001,-0.033733801,0.000334819,0.210673981,-0.167777002,-0.164778308,-0.009246372,-0.228083516,-0.035783999,-0.023460388,0.021978378,-0.991217041,0.192258000,0.178339958,-0.004396439,4.259344482,-0.566408992,-0.523574829,-0.004396439,-12.778033447,0.587264001,0.528915405,0.127471924,1.978027344,-0.176312000,-0.163529116,0.008810736,-1.289322762,0.002995000,0.003297762,0.028562939,0.001027271
0.284000000,-0.024721000,-0.029563904,0.021978378,0.770939636,0.091103002,0.077630043,0.013187408,2.615377808,-0.641647995,-0.601015091,0.109889984,-15.617587280,0.906014979,0.839818001,0.145055771,3.150177002,-0.033004999,-0.033733801,0.008414548,0.011782087,-0.167886004,-0.164778308,0.009682493,-0.235285560,-0.035817999,-0.023460388,0.004396439,-0.770939636,0.192206994,0.178339958,-0.048351288,4.707696533,-0.566447020,-0.523574829,0.109889984,-14.870324707,0.587306023,0.529296875,0.153846741,1.978027344,-0.176330999,-0.163529116,0.000007589,-1.190100569,0.002997000,0.003297762,0.009525252,0.046708377
0.286000000,-0.024711000,-0.029563904,0.004396439,0.330416107,0.091117002,0.077630043,0.048351288,2.465936279,-0.641682029,-0.601015091,0.048351288,-15.019793701,0.906041026,0.839818001,0.127471924,3.296691895,-0.033004999,-0.033733801,0.008414548,0.113584346,-0.167998001,-0.164778308,0.009682493,-0.278739550,-0.035854999,-0.023460388,-0.021978378,-1.211463165,0.192157999,0.178339958,-0.030769348,4.259344482,-0.566488028,-0.523193359,0.057142258,-16.065939331,0.587345004,0.529678345,0.145055771,1.978027344,-0.176351994,-0.163529116,0.008810736,-1.289322762,0.002999000,0.003297762,0.028562939,0.001027271
0.288000000,-0.024702000,-0.029563904,0.004396439,0.770939636,0.091130003,0.077630043,0.048351288,2.764846802,-0.641717017,-0.601015091,0.021978378,-15.468118286,0.906068027,0.840199471,0.127471924,2.857147217,-0.033004999,-0.033733801,-0.009752657,0.011782087,-0.168112993,-0.164778308,0.027297025,-0.235285560,-0.035893999,-0.023460388,0.004396439,-1.652017975,0.192112997,0.178339958,0.030769348,3.810992432,-0.566532016,-0.523193359,-0.013187408,-13.824179077,0.587381005,0.530059814,0.162637711,1.978027344,-0.176374003,-0.163529116,-0.004378809,-1.388454512,0.003000000,0.003297762,0.019052780,0.046866415
0.290000000,-0.024693999,-0.029563904,-0.039560318,0.991217041,0.091141999,0.077630043,-0.039560318,2.914288330,-0.641753972,-0.600633621,0.065933228,-14.421972656,0.906095982,0.840580940,0.127471924,2.857147217,-0.033006001,-0.033733801,-0.003704608,0.113584346,-0.168229997,-0.164778308,-0.018709778,-0.278739550,-0.035934001,-0.023460388,0.004396439,-0.991217041,0.192073002,0.178339958,-0.101099014,5.156048584,-0.566578984,-0.523193359,0.109889984,-14.870324707,0.587412000,0.530441284,0.171428680,2.124542236,-0.176396996,-0.163529116,-0.008765207,-1.388454512,0.003001000,0.003297762,0.028580309,0.046866415
0.292000000,-0.024688000,-0.029563904,0.021978378,1.211463165,0.091151997,0.077630043,-0.039560318,2.914288330,-0.641790986,-0.600633621,0.065933228,-15.767028809,0.906122983,0.840580940,0.118680954,3.003662109,-0.033006001,-0.033733801,0.008414548,0.011782087,-0.168349996,-0.164778308,0.009682493,-0.235285560,-0.035975002,-0.023460388,0.030769348,-1.211463165,0.192038000,0.178339958,-0.013187408,4.408786011,-0.566627026,-0.523193359,0.048351288,-13.525268555,0.587437987,0.530822754,0.162637711,1.978027344,-0.176421002,-0.163529116,0.013167735,-1.289413207,0.003002000,0.003297762,-0.019059400,-0.090492980
0.294000000,-0.024682000,-0.029563904,0.030769348,0.770939636,0.091159999,0.077630043,0.039560318,3.063729858,-0.641830027,-0.600252151,0.074726105,-14.870324707,0.906152010,0.840962410,0.118680954,3.003662109,-0.033006001,-0.033733801,0.009752657,0.108871722,-0.168470994,-0.164778308,-0.027297025,-0.184629526,-0.036017001,-0.023460388,-0.004396439,-0.991217041,0.192009002,0.178339958,-0.039560318,3.960433960,-0.566676974,-0.523193359,-0.021978378,-14.123089600,0.587459981,0.530822754,0.127471924,1.831512451,-0.176446006,-0.163529116,-0.004394939,-1.388544956,0.003003000,0.003297762,0.000004343,-0.044653835
0.296000000,-0.024677999,-0.029563904,0.004396439,0.550662231,0.091165997,0.077630043,0.013187408,2.615377808,-0.641870022,-0.600252151,0.004396439,-15.617587280,0.906180978,0.840962410,0.118680954,3.150177002,-0.033007000,-0.033733801,0.005043738,-0.090020172,-0.168595001,-0.164778308,-0.018271698,-0.191831570,-0.036059000,-0.023460388,0.021978378,-1.211463165,0.191986993,0.178339958,0.039560318,4.408786011,-0.566729009,-0.522811890,0.057142258,-15.169235229,0.587476015,0.531204224,0.153846741,1.978027344,-0.176470995,-0.163529116,0.008796512,-1.289322762,0.003004000,0.003297762,0.009514500,0.001027271
0.298000000,-0.024676001,-0.029563904,0.013187408,0.991217041,0.091169998,0.077630043,-0.039560318,2.316494751,-0.641910017,-0.600252151,0.074726105,-15.468118286,0.906211972,0.841343880,0.127471924,2.857147217,-0.033007000,-0.033733801,0.004375122,0.113584346,-0.168720007,-0.164778308,0.000219087,-0.278739550,-0.036100999,-0.023460388,0.013187408,-0.550662231,0.191973999,0.178339958,-0.013187408,4.259344482,-0.566781998,-0.522811890,-0.013187408,-13.824179077,0.587485015,0.531586647,0.145055771,1.684967041,-0.176496997,-0.163529116,-0.004378809,-1.289322762,0.003005000,0.003297762,0.019052780,0.001027271
0.300000000,-0.024675000,-0.029563904,0.030769348,0.550662231,0.091170996,0.077630043,-0.013187408,2.167025757,-0.641950011,-0.599870682,0.048351288,-15.468118286,0.906243026,0.841725349,0.118680954,2.857147217,-0.033008002,-0.033733801,-0.000334819,0.016494711,-0.168846995,-0.164778308,0.009246372,-0.329395584,-0.036141001,-0.023460388,0.004396439,-1.431740570,0.191969007,0.178339958,0.004396439,4.558255005,-0.566834986,-0.522811890,0.074726105,-15.468118286,0.587489009,0.531968117,0.162637711,1.978027344,-0.176523998,-0.163529116,-0.004409162,-1.289232318,0.003005000,0.003297762,-0.019044096,0.092547521
0.302000000,-0.024676001,-0.029563904,0.030769348,0.991217041,0.091170996,0.077630043,0.030769348,2.764846802,-0.641991973,-0.599870682,0.083517075,-13.973620605,0.906278014,0.841725349,0.118680954,3.003662109,-0.033011999,-0.033733801,-0.000334819,0.011782087,-0.168975994,-0.164778308,0.009246372,-0.235285560,-0.036184002,-0.023460388,0.013187408,-1.431740570,0.191971004,0.178339958,0.057142258,4.109902954,-0.566893995,-0.522811890,0.004396439,-14.720883179,0.587485015,0.531968117,0.127471924,1.831512451,-0.176553994,-0.163529116,-0.008765207,-1.190100569,0.003004000,0.003297762,0.028580309,0.046708377
0.304000000,-0.024677999,-0.029563904,0.021978378,0.550662231,0.091169998,0.077630043,-0.004396439,2.316494751,-0.642036021,-0.599870682,0.057142258,-16.215380859,0.906316996,0.842106819,0.101099014,2.710632324,-0.033022001,-0.033733801,0.009084041,0.113584346,-0.169110000,-0.164778308,-0.008806239,-0.278739550,-0.036231000,-0.023460388,-0.030769348,-0.991217041,0.191976994,0.178339958,-0.013187408,3.960433960,-0.566965997,-0.522811890,0.048351288,-13.973620605,0.587473989,0.532349586,0.127471924,1.684967041,-0.176588997,-0.163529116,0.004394939,-1.289322762,0.003001000,0.003297762,-0.000004343,0.001027271
0.306000000,-0.024682000,-0.029563904,0.004396439,0.330416107,0.091167003,0.077630043,-0.030769348,2.914288330,-0.642082989,-0.599870682,0.057142258,-13.674737549,0.906359971,0.842106819,0.118680954,2.710632324,-0.033039000,-0.033733801,0.007744034,0.215386605,-0.169248998,-0.164778308,0.028173184,-0.322193540,-0.036281999,-0.023460388,0.013187408,-0.770939636,0.191985995,0.177958488,-0.048351288,5.454931641,-0.567049026,-0.522811890,0.092308044,-15.019793701,0.587457001,0.532731056,0.127471924,1.978027344,-0.176630005,-0.163529116,0.013182910,-1.388454512,0.002997000,0.003297762,-0.000013028,0.046866415
0.308000000,-0.024687000,-0.029563904,-0.004396439,0.770939636,0.091164000,0.077630043,-0.004396439,2.914288330,-0.642131984,-0.599870682,0.057142258,-16.215380859,0.906405985,0.842488289,0.127471924,2.857147217,-0.033061001,-0.033733801,-0.000334819,0.113584346,-0.169392005,-0.164778308,0.009246372,-0.278739550,-0.036336001,-0.023460388,0.030769348,-0.991217041,0.191999003,0.177958488,-0.030769348,4.259344482,-0.567142010,-0.522811890,0.048351288,-14.123089600,0.587433994,0.532731056,0.136262894,2.564117432,-0.176675007,-0.163529116,0.008796512,-1.289322762,0.002992000,0.003297762,0.009514500,0.001027271
0.310000000,-0.024693999,-0.029563904,0.013187408,0.770939636,0.091160998,0.077630043,0.004396439,2.914288330,-0.642184019,-0.599489212,0.004396439,-15.019793701,0.906453013,0.842869759,0.136262894,2.564117432,-0.033087999,-0.033733801,-0.013792960,0.016494711,-0.169539005,-0.164778308,0.017831566,-0.329395584,-0.036394000,-0.023460388,-0.030769348,-1.431740570,0.192013994,0.177958488,0.030769348,3.512081909,-0.567242980,-0.522430420,0.030769348,-14.272531128,0.587405026,0.533112526,0.118680954,2.124542236,-0.176725000,-0.163529116,0.004394939,-1.388454512,0.002985000,0.003297762,-0.000004343,0.046866415
0.312000000,-0.024702000,-0.029563904,0.013187408,0.550662231,0.091155998,0.077630043,-0.048351288,2.764846802,-0.642238975,-0.599489212,0.013187408,-14.123089600,0.906502008,0.842869759,0.136262894,2.710632324,-0.033121001,-0.033733801,-0.005043738,0.118296971,-0.169689000,-0.164778308,0.018271698,-0.372849574,-0.036454000,-0.023460388,0.048351288,-1.211463165,0.192032993,0.177958488,-0.048351288,4.558255005,-0.567353010,-0.522430420,0.021978378,-15.617587280,0.587372005,0.533493996,0.145055771,2.564117432,-0.176778004,-0.163529116,0.008810736,-1.388454512,0.002978000,0.003297762,0.028562939,0.046866415
0.314000000,-0.024711000,-0.029563904,0.004396439,0.770939636,0.091150999,0.077630043,0.030769348,2.465936279,-0.642297029,-0.599489212,-0.004396439,-14.571441650,0.906551003,0.843251228,0.136262894,2.857147217,-0.033158001,-0.033733801,0.009752657,0.016494711,-0.169843003,-0.164778308,-0.027297025,-0.329395584,-0.036516000,-0.023460388,0.039560318,-1.211463165,0.192054003,0.177958488,-0.030769348,5.156048584,-0.567470014,-0.522430420,-0.013187408,-14.720883179,0.587334991,0.533875465,0.153846741,1.831512451,-0.176835001,-0.163529116,0.000007589,-1.289322762,0.002970000,0.003297762,0.009525252,0.001027271
0.316000000,-0.024721000,-0.029563904,-0.004396439,0.770939636,0.091145001,0.077630043,0.039560318,2.615377808,-0.642356992,-0.599489212,0.021978378,-15.169235229,0.906598985,0.843632698,0.136262894,2.564117432,-0.033199001,-0.033733801,0.003704608,0.215386605,-0.170001000,-0.164778308,0.018709778,-0.322193540,-0.036580998,-0.023460388,0.021978378,-0.770939636,0.192076996,0.177958488,0.074726105,4.259344482,-0.567592025,-0.522430420,-0.013187408,-14.720883179,0.587293983,0.534256935,0.118680954,2.271057129,-0.176894993,-0.163529116,-0.004394939,-1.289322762,0.002962000,0.003297762,0.000004343,0.001027271
0.318000000,-0.024731999,-0.029563904,0.004396439,0.550662231,0.091139004,0.078011513,0.092308044,2.316494751,-0.642421007,-0.599489212,0.048351288,-15.468118286,0.906646013,0.843632698,0.145055771,2.710632324,-0.033243999,-0.033733801,-0.000334819,0.220099230,-0.170160994,-0.164778308,0.009246372,-0.416303563,-0.036646001,-0.023460388,-0.004396439,-0.991217041,0.192102998,0.177958488,-0.083517075,4.259344482,-0.567718983,-0.522430420,0.013187408,-13.973620605,0.587249994,0.534256935,0.162637711,2.857147217,-0.176956996,-0.163529116,0.004394939,-1.487676705,0.002954000,0.003297762,-0.000004343,0.001185310
0.320000000,-0.024744000,-0.029563904,0.004396439,0.550662231,0.091132000,0.077630043,-0.048351288,3.362640381,-0.642488003,-0.599489212,-0.004396439,-14.421972656,0.906691015,0.844015121,0.145055771,2.564117432,-0.033293001,-0.033733801,0.003704608,0.123009595,-0.170324996,-0.164778308,0.018709778,-0.466959597,-0.036713000,-0.023460388,0.004396439,-1.211463165,0.192129999,0.177958488,-0.039560318,4.707696533,-0.567849994,-0.522430420,-0.021978378,-15.169235229,0.587203979,0.534638405,0.162637711,1.391937256,-0.177020997,-0.163529116,-0.008781337,-1.487676705,0.002946000,0.003297762,0.009531872,0.001185310
