sainanliu129-hub/model/applications/Body_GravityPara_Iden/data/跑步/PD-M1-v0_multi_joint_20260226-181712.csv
time,cmd_leg_l1_joint,pos_leg_l1_joint,vel_leg_l1_joint,torque_leg_l1_joint,cmd_leg_l2_joint,pos_leg_l2_joint,vel_leg_l2_joint,torque_leg_l2_joint,cmd_leg_l3_joint,pos_leg_l3_joint,vel_leg_l3_joint,torque_leg_l3_joint,cmd_leg_l4_joint,pos_leg_l4_joint,vel_leg_l4_joint,torque_leg_l4_joint,cmd_leg_l5_joint,pos_leg_l5_joint,vel_leg_l5_joint,torque_leg_l5_joint,cmd_leg_l6_joint,pos_leg_l6_joint,vel_leg_l6_joint,torque_leg_l6_joint,cmd_leg_r1_joint,pos_leg_r1_joint,vel_leg_r1_joint,torque_leg_r1_joint,cmd_leg_r2_joint,pos_leg_r2_joint,vel_leg_r2_joint,torque_leg_r2_joint,cmd_leg_r3_joint,pos_leg_r3_joint,vel_leg_r3_joint,torque_leg_r3_joint,cmd_leg_r4_joint,pos_leg_r4_joint,vel_leg_r4_joint,torque_leg_r4_joint,cmd_leg_r5_joint,pos_leg_r5_joint,vel_leg_r5_joint,torque_leg_r5_joint,cmd_leg_r6_joint,pos_leg_r6_joint,vel_leg_r6_joint,torque_leg_r6_joint
0.000000000,0.000000000,-0.003623962,0.013187408,0.991217041,0.000000000,-0.007057190,0.057142258,0.821969604,-0.006823000,-0.006294250,0.065933228,0.224176025,0.424885005,0.316815376,0.320878983,3.736267090,-0.396259993,-0.369077644,-0.369072868,-1.785176479,0.000000000,-0.001753412,-0.071174593,-0.043818085,0.000000000,0.006675720,0.030769348,-0.550662231,0.000000000,0.002098083,-0.013187408,-0.971438599,0.065402001,0.053215981,0.101099014,3.063729858,0.276596010,0.184062004,0.153846741,3.150177002,-0.291951001,-0.264206560,-0.263647605,-1.884373372,0.000000000,-0.000004600,0.166872150,0.088792201
0.001999820,-0.000031000,-0.003623962,0.004396439,0.991217041,0.000016000,-0.007057190,0.074726105,0.224176025,-0.006821000,-0.006294250,0.021978378,-0.971438599,0.424870014,0.317196846,0.276922226,3.443237305,-0.396315992,-0.369840339,-0.364683569,-1.586918184,0.000000000,-0.001753756,-0.061048445,0.128176296,-0.000017000,0.006675720,-0.021978378,-0.330416107,-0.000004000,0.002098083,0.004396439,-0.373617554,0.065428004,0.053215981,0.039560318,3.810992432,0.276553988,0.184443474,0.162637711,3.589752197,-0.291940987,-0.264587903,-0.268041621,-1.586844180,0.000004000,-0.000004570,0.176708363,0.044390958
0.003999639,-0.000061000,-0.003623962,0.021978378,-0.110138702,0.000031000,-0.007057190,0.004396439,0.523086548,-0.006816000,-0.006294250,0.013187408,-0.523086548,0.424854010,0.317959785,0.285715103,3.882781982,-0.396375000,-0.370603034,-0.386668763,-1.586965662,0.000000000,-0.001754101,-0.030643185,0.214070215,-0.000034000,0.006675720,-0.021978378,-0.330416107,-0.000010000,0.002098083,-0.057142258,-0.971438599,0.065458000,0.053215981,0.021978378,3.362640381,0.276510000,0.184824944,0.171428680,3.882781982,-0.291929990,-0.265159866,-0.285602519,-1.586849806,0.000007000,0.000421465,0.157139100,-0.044210823
0.005999459,-0.000091000,-0.003242493,0.057142258,0.770939636,0.000045000,-0.006675720,-0.013187408,-0.074734497,-0.006810000,-0.006294250,-0.057142258,-0.373617554,0.424836993,0.318341255,0.250549316,4.175811768,-0.396436006,-0.371365730,-0.391076997,-1.388612621,0.000000000,-0.001754446,-0.000215832,0.214111192,-0.000051000,0.006675720,0.004396439,-0.330416107,-0.000016000,0.002098083,-0.004396439,-0.672528076,0.065490000,0.053215981,0.030769348,3.362640381,0.276464999,0.185206413,0.153846741,3.736267090,-0.291918993,-0.265731783,-0.285588728,-1.686043375,0.000010000,0.000847649,0.137560852,-0.088384253
0.007999279,-0.000120000,-0.003623962,0.021978378,0.550662231,0.000057000,-0.006675720,0.030769348,0.074734497,-0.006802000,-0.006294250,-0.004396439,-0.523086548,0.424820006,0.319104195,0.320878983,3.736267090,-0.396499991,-0.372318888,-0.404264849,-1.388701958,0.000000000,-0.002195218,0.009869484,0.299761367,-0.000069000,0.006675720,0.039560318,-0.991217041,-0.000024000,0.002098083,0.004396439,-1.120880127,0.065523997,0.053215981,-0.074726105,2.914288330,0.276419014,0.185206413,0.189010620,4.029296875,-0.291909009,-0.266303654,-0.298759925,-1.487736487,0.000013000,0.001273983,0.127807185,-0.176984857
0.009999099,-0.000148000,-0.003242493,0.030769348,0.550662231,0.000069000,-0.006675720,0.048351288,-0.523086548,-0.006792000,-0.006294250,-0.004396439,-0.672528076,0.424802989,0.319485664,0.338460922,3.296691895,-0.396566004,-0.373081584,-0.421853709,-1.388702076,0.000000000,-0.002195670,0.030164319,0.299688769,-0.000088000,0.006675720,0.030769348,-0.330416107,-0.000033000,0.001716614,-0.048351288,-0.224176025,0.065560997,0.053215981,0.004396439,3.512081909,0.276371002,0.185587883,0.189010620,3.443237305,-0.291898012,-0.267066343,-0.298771766,-1.289349396,0.000015000,0.001274339,0.088537154,-0.088293697
0.011998918,-0.000176000,-0.003242493,0.039560318,0.770939636,0.000079000,-0.006675720,-0.039560318,-0.074734497,-0.006781000,-0.006294250,-0.048351288,-1.419790649,0.424784988,0.320248604,0.391208649,4.322357178,-0.396634012,-0.373844281,-0.421889429,-1.388783709,0.000000000,-0.002196122,0.091093614,0.385462975,-0.000106000,0.006675720,0.021978378,-0.330416107,-0.000043000,0.002098083,0.057142258,-0.074734497,0.065600999,0.053215981,0.065933228,3.661550903,0.276322007,0.186350822,0.189010620,3.443237305,-0.291887999,-0.267447687,-0.316361600,-1.388508605,0.000017000,0.001274516,0.049250025,-0.043898791
0.013998738,-0.000202000,-0.003623962,-0.021978378,0.110138702,0.000089000,-0.006675720,0.048351288,-0.971438599,-0.006769000,-0.006294250,0.021978378,0.224176025,0.424766988,0.321393013,0.461538315,3.443237305,-0.396703988,-0.374797863,-0.417480041,-1.388777582,0.000000000,-0.001756003,0.081024954,0.471322431,-0.000125000,0.006675720,0.013187408,-0.110138702,-0.000055000,0.002098083,0.004396439,-1.569232178,0.065641999,0.053215981,0.030769348,4.109902954,0.276271999,0.186350822,0.180219650,3.150177002,-0.291877002,-0.268210375,-0.311970786,-1.586861347,0.000018000,0.001274872,0.039431965,-0.043823433
0.015998558,-0.000228000,-0.003242493,-0.004396439,0.110138702,0.000097000,-0.006675720,0.039560318,-0.074734497,-0.006755000,-0.006294250,-0.057142258,-0.672528076,0.424748003,0.322155952,0.426374435,3.736267090,-0.396777004,-0.375560560,-0.408692041,-1.487883077,0.000000000,-0.001756351,0.081049243,0.342475422,-0.000145000,0.006675720,0.004396439,-0.991217041,-0.000067000,0.002098083,-0.004396439,-0.523086548,0.065686002,0.053597450,0.092308044,3.362640381,0.276219994,0.187113762,0.189010620,3.003662109,-0.291866988,-0.268973063,-0.320784517,-1.388508579,0.000019000,0.001275227,-0.039196008,-0.043877679
0.017998378,-0.000252000,-0.003242493,0.021978378,0.550662231,0.000104000,-0.006675720,-0.004396439,-0.074734497,-0.006740000,-0.006294250,0.048351288,-0.523086548,0.424728990,0.322918892,0.338460922,3.589752197,-0.396851003,-0.376323257,-0.373519968,-1.686236384,0.000000000,-0.001756699,0.040439549,0.342299355,-0.000164000,0.006675720,0.004396439,-0.770939636,-0.000080000,0.002098083,0.004396439,0.523086548,0.065732002,0.053597450,0.057142258,3.512081909,0.276167989,0.187495232,0.206592560,3.296691895,-0.291855991,-0.269354407,-0.338367967,-1.190190170,0.000020000,0.001275404,-0.058858268,-0.132590171
0.019998197,-0.000276000,-0.003242493,-0.004396439,0.550662231,0.000111000,-0.006294250,0.039560318,-0.672528076,-0.006724000,-0.006294250,-0.004396439,0.224176025,0.424708992,0.323300362,0.285715103,3.443237305,-0.396926999,-0.376895440,-0.360322494,-1.785311860,0.000000000,-0.001315987,0.010013930,0.213768735,-0.000184000,0.006675720,-0.004396439,-0.770939636,-0.000093000,0.002098083,0.048351288,-1.270321655,0.065779001,0.053597450,0.021978378,3.960433960,0.276113987,0.187876701,0.197801590,3.443237305,-0.291846007,-0.270307910,-0.342770636,-1.487667673,0.000021000,0.000849186,-0.127756018,0.000324621
0.021998017,-0.000298000,-0.003242493,0.048351288,0.770939636,0.000116000,-0.006294250,0.039560318,0.074734497,-0.006707000,-0.006294250,-0.030769348,-1.120880127,0.424688995,0.323681831,0.250549316,3.443237305,-0.397004992,-0.377658137,-0.364705738,-1.686095435,0.000000000,-0.001316230,-0.020483079,0.170874941,-0.000205000,0.006675720,-0.030769348,-0.550662231,-0.000108000,0.002098083,-0.030769348,0.523086548,0.065828003,0.053597450,0.074726105,3.213198853,0.276059002,0.188258171,0.162637711,3.443237305,-0.291835994,-0.270880022,-0.338364985,-1.686031732,0.000022000,0.000422643,-0.157332126,-0.088428198
0.023997837,-0.000319000,-0.003242493,0.021978378,0.770939636,0.000121000,-0.006294250,0.013187408,-0.224176025,-0.006690000,-0.006294250,-0.021978378,0.074734497,0.424668998,0.324444771,0.250549316,3.443237305,-0.397085011,-0.378420835,-0.333928804,-1.388547928,0.000000000,-0.001316473,-0.071318994,0.128081320,-0.000225000,0.006675720,-0.021978378,-0.330416107,-0.000123000,0.001716614,-0.004396439,-0.821969604,0.065879002,0.053597450,-0.074726105,4.408786011,0.276003003,0.188258171,0.171428680,3.589752197,-0.291826010,-0.271452087,-0.347136817,-1.785196627,0.000022000,-0.000004049,-0.196754650,-0.044298372
0.025997657,-0.000339000,-0.003623962,-0.039560318,0.770939636,0.000124000,-0.006294250,0.083517075,-0.224176025,-0.006671000,-0.006294250,0.013187408,-0.971438599,0.424647987,0.324826241,0.250549316,3.882781982,-0.397166014,-0.378992699,-0.338319126,-1.586919208,0.000000000,-0.001757921,-0.061210955,0.127800680,-0.000246000,0.006675720,0.013187408,-0.991217041,-0.000138000,0.001716614,-0.004396439,-0.821969604,0.065931000,0.053597450,0.030769348,3.960433960,0.275945991,0.188639641,0.162637711,3.589752197,-0.291815996,-0.272214774,-0.342742806,-1.884373022,0.000022000,-0.000003994,-0.186960576,0.000000247
0.027997476,-0.000357000,-0.003623962,0.013187408,0.550662231,0.000127000,-0.006294250,0.004396439,-1.270321655,-0.006653000,-0.006294250,0.013187408,-0.523086548,0.424627006,0.325207710,0.285715103,3.736267090,-0.397249013,-0.379755397,-0.338299938,-1.487718902,0.000000000,-0.001758271,-0.101916251,0.084977280,-0.000267000,0.006675720,-0.013187408,-1.211463165,-0.000154000,0.001716614,-0.057142258,-0.971438599,0.065985002,0.053978920,-0.030769348,3.362640381,0.275887996,0.189021111,0.145055771,3.736267090,-0.291806012,-0.272786791,-0.316357323,-1.983555188,0.000022000,-0.000430933,-0.187031504,0.044064283
0.029997296,-0.000374000,-0.003623962,0.004396439,0.770939636,0.000129000,-0.005912781,-0.013187408,0.373617554,-0.006634000,-0.006294250,0.039560318,-0.373617554,0.424605995,0.325970650,0.320878983,3.589752197,-0.397332996,-0.380327210,-0.325111815,-1.289377783,0.000000000,-0.002199986,-0.091798606,0.084902688,-0.000289000,0.006675720,0.004396439,-0.330416107,-0.000170000,0.001716614,-0.057142258,-0.373617554,0.066040002,0.053978920,0.065933228,3.362640381,0.275828987,0.189402580,0.136262894,3.589752197,-0.291795999,-0.273358761,-0.298773688,-2.082771031,0.000023000,-0.000858020,-0.128041785,0.088101147
0.031997116,-0.000390000,-0.003623962,0.030769348,0.330416107,0.000130000,-0.006294250,-0.048351288,0.672528076,-0.006614000,-0.006294250,-0.048351288,-0.672528076,0.424584001,0.326733589,0.382417679,3.589752197,-0.397419006,-0.381089908,-0.316346782,-1.289318307,0.000000000,-0.002200444,-0.051104721,-0.000759414,-0.000311000,0.006675720,0.039560318,-0.330416107,-0.000187000,0.001716614,0.021978378,-0.224176025,0.066096000,0.053978920,0.039560318,3.362640381,0.275768995,0.189784050,0.118680954,3.589752197,-0.291785985,-0.273930684,-0.268003811,-2.082782630,0.000023000,-0.001285256,-0.118243672,0.087858027
0.033996936,-0.000404000,-0.003623962,0.013187408,0.330416107,0.000130000,-0.005912781,0.039560318,-0.373617554,-0.006594000,-0.006294250,-0.048351288,-0.821969604,0.424562007,0.327496529,0.435165405,3.443237305,-0.397507012,-0.381661669,-0.303150508,-1.091036717,0.000000000,-0.002642426,-0.061328399,0.084853792,-0.000333000,0.006675720,0.039560318,-0.550662231,-0.000204000,0.002098083,0.039560318,-1.718673706,0.066152997,0.053978920,0.109889984,3.960433960,0.275707990,0.189784050,0.145055771,3.296691895,-0.291776001,-0.274502790,-0.241677536,-1.884396144,0.000022000,-0.000858238,-0.000063054,0.088103490
0.035996755,-0.000416000,-0.003623962,0.021978378,0.770939636,0.000128000,-0.005912781,0.021978378,0.373617554,-0.006572000,-0.006294250,0.030769348,-0.373617554,0.424539000,0.328259468,0.435165405,4.029296875,-0.397601008,-0.382233957,-0.307582728,-1.091084280,0.000000000,-0.002201133,-0.010394693,0.170577158,-0.000356000,0.006675720,-0.021978378,-0.110138702,-0.000223000,0.001716614,-0.057142258,-0.523086548,0.066214003,0.053978920,0.074726105,3.362640381,0.275644988,0.190165520,0.136262894,3.589752197,-0.291765004,-0.274884133,-0.215325412,-1.785231321,0.000019000,-0.000858311,0.059031625,0.132367412
0.037996575,-0.000428000,-0.003623962,0.030769348,0.330416107,0.000125000,-0.005912781,0.039560318,-0.672528076,-0.006546000,-0.006294250,0.039560318,-0.821969604,0.424515009,0.329022408,0.356044769,3.443237305,-0.397702008,-0.382996656,-0.281265785,-1.091084366,0.000000000,-0.002201593,0.071088000,0.170535527,-0.000379000,0.006675720,0.030769348,-0.550662231,-0.000244000,0.001716614,-0.083517075,0.373617554,0.066279002,0.054360390,0.065933228,3.512081909,0.275579005,0.190546989,0.145055771,3.003662109,-0.291752994,-0.275265475,-0.206546003,-1.785276549,0.000012000,-0.000858385,0.098435781,0.220856728
0.039996395,-0.000438000,-0.003623962,0.039560318,0.770939636,0.000120000,-0.005912781,0.057142258,-0.821969604,-0.006518000,-0.006294250,0.030769348,0.074734497,0.424488991,0.329785347,0.276922226,3.150177002,-0.397810012,-0.383378005,-0.263724877,-1.190231247,0.000000000,-0.002201824,0.132216911,0.127666664,-0.000403000,0.006675720,0.021978378,-0.330416107,-0.000267000,0.001716614,0.004396439,-0.821969604,0.066347003,0.054360390,0.057142258,4.109902954,0.275510013,0.190928459,0.162637711,3.150177002,-0.291741014,-0.275646818,-0.206554633,-1.884464458,0.000002000,-0.000858458,0.137846783,0.265051606
0.041996215,-0.000448000,-0.003623962,-0.013187408,0.550662231,0.000114000,-0.005912781,0.048351288,-0.373617554,-0.006487000,-0.006294250,0.004396439,-0.821969604,0.424463004,0.330166817,0.276922226,3.589752197,-0.397922993,-0.383950241,-0.254911703,-1.190308544,0.000000000,-0.001760214,0.111909955,0.298911925,-0.000427000,0.006675720,0.004396439,-0.770939636,-0.000291000,0.001716614,-0.004396439,-2.017584229,0.066418998,0.054360390,0.092308044,3.810992432,0.275438994,0.191309929,0.153846741,3.296691895,-0.291729003,-0.276028161,-0.158212097,-1.785231306,-0.000012000,-0.000858532,0.108322272,0.132320920
0.043996034,-0.000457000,-0.003242493,0.004396439,0.770939636,0.000107000,-0.005531311,-0.004396439,-0.971438599,-0.006453000,-0.006294250,-0.004396439,-0.523086548,0.424436003,0.330548286,0.241758347,3.736267090,-0.398039013,-0.384331591,-0.232956128,-1.091108130,0.000000000,-0.001760392,0.142497777,0.256145667,-0.000452000,0.006675720,0.004396439,-0.550662231,-0.000318000,0.001716614,-0.030769348,-0.672528076,0.066494003,0.054360390,-0.021978378,3.661550903,0.275366008,0.191309929,0.153846741,3.443237305,-0.291716009,-0.276409550,-0.158189316,-1.686020398,-0.000028000,-0.000003702,0.167492055,0.176927780
0.045995854,-0.000466000,-0.003242493,-0.021978378,0.550662231,0.000098000,-0.005531311,-0.013187408,-1.419790649,-0.006417000,-0.006294250,-0.021978378,-0.821969604,0.424407989,0.331311226,0.259340286,3.736267090,-0.398158014,-0.384903774,-0.219752761,-1.091072189,0.000000000,-0.001318572,0.132369885,0.256228748,-0.000477000,0.006675720,0.030769348,-0.770939636,-0.000346000,0.001716614,-0.004396439,-0.672528076,0.066573001,0.054360390,0.030769348,2.615377808,0.275292009,0.191691399,0.180219650,3.882781982,-0.291703999,-0.276790893,-0.149400338,-1.586843987,-0.000047000,-0.000003676,0.128095861,0.132680517
0.047995674,-0.000474000,-0.003242493,0.004396439,0.770939636,0.000088000,-0.005531311,-0.004396439,-0.074734497,-0.006380000,-0.006294250,0.013187408,-0.971438599,0.424380004,0.331692696,0.276922226,3.443237305,-0.398279011,-0.385285124,-0.215362376,-0.991877746,0.000000000,-0.001318698,0.142578114,0.213468783,-0.000503000,0.006675720,-0.004396439,-0.550662231,-0.000375000,0.001716614,-0.004396439,-0.821969604,0.066653997,0.054741859,0.057142258,3.512081909,0.275216013,0.192072868,0.180219650,3.150177002,-0.291691989,-0.276981518,-0.136203162,-1.289314788,-0.000069000,0.000423865,0.137975336,0.000141607
0.049995494,-0.000482000,-0.003242493,-0.013187408,0.770939636,0.000077000,-0.005531311,0.021978378,-1.569232178,-0.006340000,-0.006294250,0.004396439,0.074734497,0.424351990,0.332455635,0.312088013,3.296691895,-0.398400992,-0.385666635,-0.188963702,-1.190171053,0.000000000,-0.000434441,0.142660696,0.213655428,-0.000529000,0.006675720,0.021978378,-0.330416107,-0.000405000,0.001716614,-0.013187408,-0.672528076,0.066737004,0.054741859,0.039560318,2.914288330,0.275139987,0.192454338,0.180219650,2.710632324,-0.291680008,-0.277362862,-0.131814553,-1.388496849,-0.000093000,0.000423940,0.088715202,-0.044066359
0.051995313,-0.000490000,-0.003242493,0.004396439,1.211463165,0.000065000,-0.005531311,-0.004396439,-0.224176025,-0.006300000,-0.006294250,-0.004396439,-0.523086548,0.424324006,0.332837105,0.364835739,3.443237305,-0.398521990,-0.386047984,-0.184566104,-1.289365298,0.000000000,-0.000434460,0.112100099,0.341879572,-0.000555000,0.006675720,0.004396439,-0.770939636,-0.000436000,0.001716614,-0.013187408,-0.971438599,0.066822998,0.054741859,0.030769348,3.213198853,0.275063008,0.192835808,0.189010620,3.003662109,-0.291667998,-0.277362862,-0.105449502,-1.388485432,-0.000118000,0.000423940,0.088713937,0.044371465
0.053995133,-0.000498000,-0.003242493,0.021978378,0.550662231,0.000053000,-0.005531311,0.030769348,-0.224176025,-0.006258000,-0.006294250,-0.039560318,-0.672528076,0.424295992,0.333981514,0.399999619,3.150177002,-0.398642004,-0.386429334,-0.175770905,-1.091000332,0.000000000,-0.000434480,0.050946147,0.256364065,-0.000582000,0.006675720,0.004396439,-0.330416107,-0.000469000,0.001716614,-0.048351288,-1.718673706,0.066910997,0.054741859,0.021978378,2.914288330,0.274984986,0.193217278,0.189010620,3.150177002,-0.291658014,-0.277744205,-0.092272867,-1.289326196,-0.000146000,0.000424015,0.039436955,-0.088285854
0.055994953,-0.000506000,-0.003623962,-0.039560318,0.330416107,0.000040000,-0.005531311,0.048351288,-1.419790649,-0.006215000,-0.006294250,-0.048351288,-1.120880127,0.424268007,0.334744453,0.408790588,3.150177002,-0.398759007,-0.386810685,-0.171373303,-1.091012080,0.000000000,-0.000434500,0.020367067,0.341820125,-0.000608000,0.006675720,0.013187408,-0.550662231,-0.000501000,0.001716614,0.013187408,-0.523086548,0.067001000,0.054741859,0.048351288,3.512081909,0.274908006,0.193598747,0.189010620,3.003662109,-0.291648000,-0.277744205,-0.079094068,-1.289337614,-0.000175000,0.000424015,0.009866473,-0.176713414
0.057994773,-0.000515000,-0.003242493,0.021978378,1.431740570,0.000026000,-0.005531311,0.083517075,0.523086548,-0.006172000,-0.006294250,0.021978378,0.224176025,0.424239993,0.335125923,0.320878983,2.857147217,-0.398871988,-0.387192035,-0.166978097,-0.991817882,0.000000000,-0.000434520,0.010173617,0.213575261,-0.000635000,0.006675720,0.030769348,-0.550662231,-0.000535000,0.001716614,-0.004396439,-0.523086548,0.067092001,0.055123329,0.013187408,3.213198853,0.274830997,0.193980217,0.189010620,3.150177002,-0.291639000,-0.278126025,-0.079099631,-1.090962060,-0.000205000,0.000425159,-0.049278926,0.000120247
0.059994592,-0.000524000,-0.003623962,-0.004396439,0.330416107,0.000012000,-0.005149841,-0.004396439,-0.821969604,-0.006128000,-0.006294250,0.074726105,-0.523086548,0.424214005,0.335888863,0.259340286,3.443237305,-0.398979992,-0.387573385,-0.162572340,-0.991829630,0.000000000,-0.000434540,-0.081606497,0.299015807,-0.000662000,0.006675720,-0.021978378,-0.770939636,-0.000568000,0.001716614,-0.030769348,-1.120880127,0.067184001,0.055123329,0.057142258,3.810992432,0.274753988,0.194361687,0.136262894,3.296691895,-0.291631997,-0.278126025,-0.083496906,-0.991779978,-0.000236000,0.000425159,-0.078850574,0.044317957
0.061994412,-0.000533000,-0.003623962,-0.013187408,0.770939636,-0.000002000,-0.005149841,-0.004396439,0.074734497,-0.006084000,-0.006294250,-0.057142258,-1.419790649,0.424187988,0.336270332,0.241758347,3.150177002,-0.399082005,-0.387764006,-0.144977019,-0.991871665,0.000000000,-0.000877034,-0.122423196,0.298879360,-0.000688000,0.006675720,0.030769348,-0.991217041,-0.000602000,0.001716614,-0.030769348,-0.523086548,0.067276999,0.055123329,0.092308044,2.465936279,0.274679005,0.194743156,0.153846741,3.443237305,-0.291626990,-0.278317220,-0.092277241,-0.892609515,-0.000267000,-0.000003576,-0.157731627,0.176824960
0.063994232,-0.000543000,-0.003623962,-0.013187408,0.330416107,-0.000016000,-0.005149841,0.048351288,-0.224176025,-0.006040000,-0.006294250,-0.074726105,-0.373617554,0.424163014,0.336651802,0.215385437,3.296691895,-0.399177015,-0.388145357,-0.131792589,-1.190225005,0.000000000,-0.000877108,-0.132633988,0.298796274,-0.000715000,0.006675720,0.013187408,-0.330416107,-0.000636000,0.001716614,0.048351288,-0.821969604,0.067371003,0.055123329,0.013187408,3.661550903,0.274603993,0.195124626,0.145055771,3.589752197,-0.291622996,-0.278507890,-0.087859562,-0.991814703,-0.000300000,-0.000431291,-0.207046461,0.220910067
0.065994052,-0.000554000,-0.003242493,0.004396439,0.330416107,-0.000031000,-0.005149841,0.074726105,-0.523086548,-0.005996000,-0.006294250,0.021978378,-1.718673706,0.424138993,0.337033272,0.189010620,3.589752197,-0.399264008,-0.388335926,-0.122980660,-1.190231354,0.000000000,-0.001319710,-0.153060013,0.213191002,-0.000742000,0.006675720,0.021978378,-0.110138702,-0.000670000,0.001716614,-0.013187408,-1.120880127,0.067465998,0.055123329,0.092308044,3.810992432,0.274531990,0.195124626,0.127471924,3.150177002,-0.291621000,-0.278698514,-0.087842105,-0.793490794,-0.000332000,-0.000859054,-0.187349175,0.220832405
0.067993871,-0.000566000,-0.003242493,0.021978378,0.110138702,-0.000045000,-0.005149841,-0.004396439,-0.971438599,-0.005953000,-0.006294250,0.013187408,-0.074734497,0.424116999,0.337414742,0.232967377,3.589752197,-0.399342000,-0.388526443,-0.109775664,-1.289461987,0.000000000,-0.001762367,-0.163280583,0.255709299,-0.000769000,0.006675720,0.013187408,-0.550662231,-0.000703000,0.001716614,-0.065933228,-1.868142700,0.067561999,0.055504799,0.092308044,3.362640381,0.274461001,0.195506096,0.127471924,3.443237305,-0.291624010,-0.278889090,-0.092204852,-0.892713296,-0.000366000,-0.001286866,-0.216953697,0.264899157
0.069993691,-0.000578000,-0.003242493,0.004396439,0.550662231,-0.000063000,-0.005149841,-0.013187408,-1.718673706,-0.005907000,-0.006294250,0.013187408,0.074734497,0.424095988,0.338177681,0.250549316,3.589752197,-0.399416000,-0.388716908,-0.100944130,-1.190351325,0.000000000,-0.002205079,-0.204106547,0.298315953,-0.000797000,0.006675720,-0.004396439,-0.770939636,-0.000738000,0.001716614,-0.048351288,-0.672528076,0.067662999,0.055504799,0.092308044,3.362640381,0.274392992,0.195887566,0.118680954,3.443237305,-0.291637003,-0.279079619,-0.079011947,-0.793594603,-0.000407000,-0.001714727,-0.187390484,0.309026200
0.071993511,-0.000589000,-0.003623962,-0.004396439,0.550662231,-0.000082000,-0.005149841,0.048351288,-1.270321655,-0.005858000,-0.006294250,0.057142258,-0.672528076,0.424077004,0.338559151,0.259340286,3.443237305,-0.399484992,-0.388907320,-0.100934387,-1.388840754,0.000000000,-0.002647846,-0.183729301,0.383453231,-0.000825000,0.006675720,-0.030769348,-1.211463165,-0.000775000,0.001716614,0.048351288,-0.672528076,0.067768998,0.055504799,0.057142258,3.512081909,0.274327010,0.195887566,0.109889984,3.443237305,-0.291660994,-0.279079619,-0.057072167,-0.793594603,-0.000453000,-0.001714727,-0.118353713,0.309026200
0.073993331,-0.000600000,-0.003623962,0.021978378,0.110138702,-0.000104000,-0.004768372,0.030769348,-0.672528076,-0.005808000,-0.006294250,-0.004396439,0.224176025,0.424057990,0.338940620,0.303297043,3.736267090,-0.399549991,-0.389097680,-0.074565487,-1.388789073,0.000000000,-0.003090668,-0.163323620,0.297830984,-0.000855000,0.006675720,0.021978378,-0.330416107,-0.000812000,0.001716614,0.048351288,-0.672528076,0.067878999,0.055504799,0.048351288,3.362640381,0.274262011,0.196269035,0.101099014,3.296691895,-0.291693985,-0.279270101,-0.079023810,-0.992045401,-0.000505000,-0.002142636,-0.128242785,0.397200651
0.075993150,-0.000612000,-0.003623962,0.013187408,0.770939636,-0.000128000,-0.004768372,-0.013187408,-0.523086548,-0.005756000,-0.006294250,0.021978378,-0.373617554,0.424039990,0.339703560,0.364835739,3.003662109,-0.399612010,-0.389097680,-0.057004506,-1.488029796,0.000000000,-0.003090668,-0.142900640,0.340470000,-0.000885000,0.006675720,0.039560318,-0.991217041,-0.000851000,0.001716614,0.030769348,-1.270321655,0.067992002,0.055886269,0.013187408,3.213198853,0.274199009,0.196269035,0.101099014,3.296691895,-0.291736990,-0.279460536,-0.065834156,-1.091308319,-0.000562000,-0.002570594,-0.118388690,0.441195478
0.077992970,-0.000623000,-0.003242493,-0.013187408,0.770939636,-0.000153000,-0.004768372,0.013187408,-1.120880127,-0.005703000,-0.006294250,-0.074726105,0.821969604,0.424023002,0.340466499,0.364835739,3.003662109,-0.399672002,-0.389287988,-0.030700908,-1.488173853,0.000000000,-0.003533544,-0.061255622,0.425689565,-0.000916000,0.006675720,0.013187408,-0.770939636,-0.000890000,0.001716614,-0.004396439,-0.373617554,0.068108000,0.055886269,0.030769348,3.063729858,0.274136990,0.196650505,0.092308044,3.296691895,-0.291786999,-0.279651443,-0.079089692,-1.091192972,-0.000623000,-0.002142861,-0.009913447,0.352911142
0.079992790,-0.000636000,-0.003242493,-0.013187408,0.770939636,-0.000180000,-0.004768372,0.013187408,-1.120880127,-0.005649000,-0.006294250,-0.074726105,0.821969604,0.424005985,0.340466499,0.364835739,3.003662109,-0.399729997,-0.389287988,-0.030700908,-1.488173853,0.000000000,-0.003533544,-0.061255622,0.425689565,-0.000947000,0.006675720,-0.013187408,-0.110138702,-0.000930000,0.001716614,-0.048351288,0.074734497,0.068226002,0.055886269,0.030769348,3.063729858,0.274073988,0.197031975,0.118680954,3.589752197,-0.291844010,-0.279841877,-0.070312604,-0.992097366,-0.000688000,-0.002570869,0.009809495,0.397023035
0.081992610,-0.000648000,-0.003242493,-0.021978378,0.550662231,-0.000207000,-0.004768372,0.057142258,-0.672528076,-0.005595000,-0.006294250,0.021978378,-0.821969604,0.423988998,0.341610909,0.285715103,3.296691895,-0.399785995,-0.389287988,0.013123969,-1.289820434,0.000000000,-0.003533544,0.061238125,0.425877537,-0.000977000,0.006675720,0.021978378,-0.330416107,-0.000970000,0.001716614,0.030769348,-1.569232178,0.068346001,0.055886269,0.039560318,2.615377808,0.274010986,0.197031975,0.109889984,3.150177002,-0.291907012,-0.280032785,-0.087920086,-1.091192989,-0.000756000,-0.002143087,0.068985695,0.352869927
0.083992429,-0.000662000,-0.003242493,0.004396439,0.330416107,-0.000235000,-0.004768372,0.004396439,-0.971438599,-0.005540000,-0.006294250,0.004396439,-0.224176025,0.423972011,0.342373848,0.241758347,2.857147217,-0.399841994,-0.389287988,0.026296287,-1.389045037,0.000000000,-0.003533544,0.071456428,0.468492538,-0.001007000,0.006675720,0.048351288,-0.770939636,-0.001011000,0.001716614,-0.021978378,-1.419790649,0.068466000,0.055886269,0.039560318,2.615377808,0.273948014,0.197413445,0.092308044,3.296691895,-0.291976005,-0.280032785,-0.083531487,-1.091192989,-0.000825000,-0.002143087,0.078851549,0.352869927
0.085992249,-0.000677000,-0.003623962,-0.004396439,0.770939636,-0.000264000,-0.004768372,0.039560318,-0.523086548,-0.005485000,-0.005912781,-0.013187408,-0.523086548,0.423954993,0.342755318,0.215385437,3.296691895,-0.399897009,-0.389097680,0.048233427,-1.289843945,0.000000000,-0.003090668,0.122486280,0.511481313,-0.001037000,0.006675720,0.039560318,-0.330416107,-0.001053000,0.001716614,-0.021978378,-1.270321655,0.068585999,0.056267738,0.092308044,3.661550903,0.273882985,0.197794914,0.101099014,3.003662109,-0.292048991,-0.280414126,-0.074743477,-0.991930118,-0.000896000,-0.002143313,0.078866438,0.220347737
0.087992069,-0.000692000,-0.003623962,0.013187408,0.991217041,-0.000293000,-0.004768372,0.039560318,0.074734497,-0.005430000,-0.005912781,-0.013187408,-0.523086548,0.423936993,0.343136787,0.180219650,3.589752197,-0.399953008,-0.389097680,0.057039293,-1.190625364,0.000000000,-0.003090668,0.102086943,0.468851810,-0.001066000,0.006675720,-0.013187408,-0.991217041,-0.001094000,0.001716614,0.004396439,-0.373617554,0.068705998,0.056267738,0.136262894,2.914288330,0.273817003,0.197794914,0.127471924,3.003662109,-0.292126000,-0.280414126,-0.070344046,-1.091135335,-0.000968000,-0.002143313,0.069005174,0.264471752
0.089991889,-0.000710000,-0.003623962,0.013187408,0.991217041,-0.000322000,-0.004768372,0.039560318,0.074734497,-0.005376000,-0.005912781,0.030769348,-0.971438599,0.423918009,0.343136787,0.180219650,3.589752197,-0.400009006,-0.388907320,0.052664670,-1.289699949,0.000000000,-0.002647846,0.091866496,0.426238131,-0.001094000,0.006675720,0.004396439,-0.550662231,-0.001135000,0.001716614,-0.004396439,-0.971438599,0.068824001,0.056267738,0.065933228,2.167025757,0.273748010,0.198176384,0.136262894,2.857147217,-0.292205006,-0.280604988,-0.061565788,-1.091008369,-0.001041000,-0.001715430,0.108482002,0.087872324
0.091991708,-0.000728000,-0.003623962,0.021978378,0.991217041,-0.000351000,-0.004386902,-0.030769348,-0.971438599,-0.005324000,-0.005912781,0.039560318,-0.373617554,0.423898011,0.343900681,0.215385437,3.443237305,-0.400068015,-0.388907320,0.061438174,-1.190465246,0.000000000,-0.002647846,0.112278321,0.383584616,-0.001120000,0.006675720,-0.021978378,-0.550662231,-0.001176000,0.001716614,-0.039560318,-1.270321655,0.068939999,0.056649208,0.065933228,2.615377808,0.273676008,0.198557854,0.109889984,3.150177002,-0.292286992,-0.280604988,-0.061574456,-1.091008369,-0.001112000,-0.001715430,0.128211457,0.087872324
0.093991528,-0.000748000,-0.003623962,-0.013187408,-0.110138702,-0.000379000,-0.004386902,-0.004396439,-1.120880127,-0.005272000,-0.005912781,0.039560318,-0.373617554,0.423877001,0.344663620,0.224176407,3.296691895,-0.400128007,-0.388907320,0.052634726,-0.992040121,0.000000000,-0.002647846,0.132677594,0.298296619,-0.001145000,0.006675720,0.004396439,-0.330416107,-0.001217000,0.001716614,0.030769348,-1.270321655,0.069054000,0.056649208,0.039560318,3.512081909,0.273602009,0.198557854,0.118680954,3.150177002,-0.292369992,-0.280795802,-0.057168663,-1.190155812,-0.001183000,-0.001287496,0.138096409,0.043781014
0.095991348,-0.000770000,-0.003242493,0.057142258,0.550662231,-0.000406000,-0.004386902,-0.021978378,-0.224176025,-0.005222000,-0.005912781,0.013187408,-0.971438599,0.423853993,0.345045090,0.224176407,3.443237305,-0.400191009,-0.388716908,0.052650477,-1.190351325,0.000000000,-0.002205079,0.132661740,0.298315953,-0.001169000,0.006675720,0.021978378,-0.110138702,-0.001257000,0.001716614,-0.013187408,-0.672528076,0.069164000,0.056649208,0.013187408,2.316494751,0.273523003,0.198939323,0.127471924,2.857147217,-0.292452008,-0.280795802,-0.052765848,-1.190155812,-0.001252000,-0.001287496,0.108500021,0.043781014
0.097991168,-0.000794000,-0.003623962,0.021978378,0.330416107,-0.000432000,-0.004386902,-0.013187408,-0.821969604,-0.005174000,-0.005912781,0.004396439,-0.373617554,0.423828989,0.345426559,0.276922226,3.296691895,-0.400258005,-0.388716908,0.026309670,-0.991938233,0.000000000,-0.002205079,0.091834800,0.212998980,-0.001191000,0.006675720,0.021978378,-0.330416107,-0.001297000,0.001716614,0.013187408,-1.419790649,0.069270998,0.057030678,0.109889984,2.167025757,0.273440987,0.199320793,0.145055771,3.003662109,-0.292535007,-0.280986570,-0.043964946,-1.190126864,-0.001318000,-0.000859510,0.108517900,-0.044431840
0.099990987,-0.000820000,-0.003242493,0.030769348,0.550662231,-0.000457000,-0.004386902,-0.004396439,-1.868142700,-0.005128000,-0.005912781,-0.030769348,-0.523086548,0.423803002,0.346189499,0.303297043,3.003662109,-0.400328994,-0.388526443,0.030739656,-0.991908124,0.000000000,-0.001762367,0.040820880,0.213130188,-0.001210000,0.006675720,-0.004396439,-0.550662231,-0.001336000,0.001716614,-0.030769348,-1.718673706,0.069371998,0.057030678,0.021978378,2.465936279,0.273353994,0.199702263,0.127471924,3.003662109,-0.292614996,-0.280986570,-0.052749598,-1.190126864,-0.001381000,-0.000859510,0.088781619,-0.044431840
0.101990807,-0.000854000,-0.003623962,-0.021978378,0.330416107,-0.000480000,-0.004386902,0.021978378,-0.672528076,-0.005084000,-0.005912781,0.048351288,-1.270321655,0.423774004,0.346570969,0.276922226,3.150177002,-0.400402993,-0.388526443,0.008784129,-1.091060921,0.000000000,-0.001762367,0.010205834,0.170363363,-0.001228000,0.006675720,-0.030769348,-0.330416107,-0.001375000,0.001716614,-0.021978378,-1.419790649,0.069471002,0.057030678,0.057142258,2.914288330,0.273259997,0.199702263,0.127471924,3.150177002,-0.292699993,-0.281177290,-0.043955184,-1.090938820,-0.001442000,-0.000431474,0.128263238,-0.176790903
0.103990627,-0.000900000,-0.003242493,0.013187408,0.330416107,-0.000504000,-0.004386902,-0.039560318,-0.821969604,-0.005040000,-0.005912781,0.048351288,-0.672528076,0.423741013,0.347333908,0.303297043,3.003662109,-0.400480986,-0.388526443,-0.004374693,-0.991908124,0.000000000,-0.001762367,-0.040808363,0.213130188,-0.001244000,0.006675720,0.004396439,-0.110138702,-0.001415000,0.001716614,-0.057142258,-1.120880127,0.069569997,0.057412148,0.039560318,2.914288330,0.273160011,0.200083733,0.118680954,3.003662109,-0.292793989,-0.281177290,-0.057137104,-0.991768269,-0.001503000,-0.000431474,0.118392847,-0.132612212
0.105990447,-0.000959000,-0.003623962,-0.013187408,0.330416107,-0.000528000,-0.004386902,-0.004396439,-0.523086548,-0.004998000,-0.005912781,-0.004396439,-0.971438599,0.423705995,0.347715378,0.250549316,2.564117432,-0.400563002,-0.388716908,-0.021946808,-0.991938233,0.000000000,-0.002205079,-0.040821653,0.212998980,-0.001259000,0.006675720,0.004396439,-0.550662231,-0.001455000,0.001716614,0.048351288,-0.523086548,0.069669001,0.057412148,0.118680954,2.465936279,0.273054004,0.200465202,0.118680954,3.150177002,-0.292896003,-0.281367964,-0.065912124,-1.090961846,-0.001565000,-0.000003386,0.098673236,-0.176660229
0.107990266,-0.001028000,-0.003242493,0.030769348,0.550662231,-0.000551000,-0.004386902,-0.004396439,-0.672528076,-0.004956000,-0.005912781,-0.057142258,-1.419790649,0.423667997,0.348096848,0.224176407,2.710632324,-0.400647014,-0.388716908,-0.035110699,-1.091085034,0.000000000,-0.002205079,-0.071435588,0.170223117,-0.001272000,0.006675720,0.030769348,-0.770939636,-0.001496000,0.001335144,-0.013187408,-0.373617554,0.069766998,0.057412148,0.057142258,2.017584229,0.272942007,0.200465202,0.101099014,3.296691895,-0.293006003,-0.281367964,-0.039547072,-1.190138156,-0.001626000,-0.000003386,0.098675402,-0.220825337
0.109990086,-0.001107000,-0.003623962,-0.048351288,0.770939636,-0.000575000,-0.004005432,0.021978378,-1.270321655,-0.004914000,-0.005912781,0.021978378,-0.971438599,0.423628002,0.348478317,0.197801590,2.857147217,-0.400732994,-0.388716908,-0.017533743,-1.190291580,0.000000000,-0.002205079,-0.071425510,0.212881603,-0.001285000,0.006675720,-0.013187408,-0.110138702,-0.001537000,0.001335144,0.030769348,-1.120880127,0.069863997,0.057793617,0.065933228,3.512081909,0.272825003,0.200465202,0.074726105,3.443237305,-0.293121994,-0.281558592,-0.030752538,-1.289337606,-0.001687000,0.000424753,0.059210272,-0.176507624
0.111989906,-0.001196000,-0.003623962,0.021978378,0.550662231,-0.000598000,-0.004005432,0.004396439,-1.120880127,-0.004873000,-0.005912781,0.083517075,-1.120880127,0.423586011,0.348859787,0.189010620,2.710632324,-0.400821000,-0.388716908,-0.013170881,-1.190291580,0.000000000,-0.002205079,-0.020412363,0.212881603,-0.001298000,0.006675720,0.013187408,-0.770939636,-0.001578000,0.001335144,-0.004396439,-1.270321655,0.069959998,0.057793617,0.083517075,2.615377808,0.272702992,0.200846672,0.065933228,3.443237305,-0.293242991,-0.281558592,-0.021963552,-1.190166969,-0.001748000,0.000424753,0.059211275,-0.220681017
0.113989726,-0.001292000,-0.003623962,0.039560318,0.991217041,-0.000621000,-0.004005432,0.039560318,-0.821969604,-0.004833000,-0.005531311,0.057142258,-0.971438599,0.423541009,0.349241257,0.171428680,2.857147217,-0.400911003,-0.388907320,-0.004394952,-1.190321732,0.000000000,-0.002647846,-0.000003692,0.212726819,-0.001309000,0.006675720,-0.013187408,-0.330416107,-0.001619000,0.001716614,0.021978378,-1.868142700,0.070054002,0.057793617,-0.013187408,3.362640381,0.272576988,0.200846672,0.065933228,3.589752197,-0.293368995,-0.281558592,-0.017575930,-1.289349041,-0.001808000,0.000424753,0.009869990,-0.264832535
0.115989545,-0.001396000,-0.003623962,-0.048351288,0.330416107,-0.000644000,-0.004005432,-0.013187408,-0.672528076,-0.004794000,-0.005531311,0.013187408,-0.821969604,0.423494011,0.349622726,0.145055771,3.150177002,-0.401001990,-0.388716908,0.008782917,-1.289498126,0.000000000,-0.002205079,0.010207718,0.255540090,-0.001321000,0.006675720,0.013187408,-0.770939636,-0.001660000,0.001335144,-0.021978378,-0.523086548,0.070147000,0.057793617,0.057142258,1.868142700,0.272446990,0.201228142,0.057142258,3.589752197,-0.293498009,-0.281558592,-0.017570624,-1.190166969,-0.001869000,0.000424753,0.049342991,-0.220681017
0.117989365,-0.001506000,-0.003623962,-0.013187408,0.110138702,-0.000666000,-0.004005432,0.039560318,-1.270321655,-0.004755000,-0.005531311,0.013187408,-0.373617554,0.423446000,0.350004196,0.171428680,3.150177002,-0.401093990,-0.388716908,-0.000006038,-1.190351325,0.000000000,-0.002205079,0.010203786,0.298315953,-0.001332000,0.006675720,0.004396439,-0.330416107,-0.001700000,0.001335144,-0.057142258,-1.120880127,0.070238002,0.058175087,0.083517075,2.764846802,0.272312999,0.201228142,0.048351288,3.589752197,-0.293628991,-0.281558592,-0.013180826,-1.190178404,-0.001930000,0.000424753,0.019737137,-0.309005928
0.119989185,-0.001622000,-0.003623962,0.004396439,1.211463165,-0.000689000,-0.004005432,-0.021978378,-1.419790649,-0.004716000,-0.005531311,0.057142258,-0.074734497,0.423395991,0.350004196,0.171428680,3.296691895,-0.401185989,-0.388716908,0.017570918,-1.091144779,0.000000000,-0.002205079,0.010213864,0.255657466,-0.001344000,0.006675720,0.013187408,-0.330416107,-0.001739000,0.001335144,0.013187408,-1.569232178,0.070326999,0.058175087,0.030769348,2.465936279,0.272177011,0.201228142,0.048351288,3.150177002,-0.293761998,-0.281558592,-0.013180826,-1.289349041,-0.001990000,0.000424753,0.019737137,-0.264832535
0.121989005,-0.001742000,-0.003623962,0.004396439,0.110138702,-0.000711000,-0.004005432,-0.013187408,-1.270321655,-0.004678000,-0.005531311,0.039560318,0.074734497,0.423345000,0.350385666,0.171428680,3.296691895,-0.401279002,-0.388716908,0.017545816,-1.289557872,0.000000000,-0.002205079,0.051022366,0.340974440,-0.001356000,0.006675720,0.030769348,-0.991217041,-0.001777000,0.001335144,-0.013187408,-0.821969604,0.070413999,0.058556557,0.021978378,2.465936279,0.272038013,0.201609612,0.057142258,3.589752197,-0.293895990,-0.281558592,-0.013180826,-1.289349041,-0.002050000,0.000424753,0.019737137,-0.264832535
0.123988824,-0.001865000,-0.003623962,-0.004396439,0.110138702,-0.000733000,-0.004005432,0.013187408,-1.120880127,-0.004641000,-0.005531311,0.039560318,-0.224176025,0.423292011,0.350767136,0.171428680,3.443237305,-0.401371002,-0.388716908,-0.008806113,-1.190351325,0.000000000,-0.002205079,0.030600784,0.298315953,-0.001368000,0.006675720,0.013187408,-1.211463165,-0.001814000,0.001335144,0.048351288,-0.373617554,0.070497997,0.058556557,0.039560318,2.914288330,0.271896988,0.201609612,0.048351288,3.589752197,-0.294028014,-0.281558592,0.004394970,-1.190166969,-0.002110000,0.000424753,-0.000000569,-0.220681017
0.125988644,-0.001991000,-0.003623962,0.013187408,0.770939636,-0.000755000,-0.004005432,-0.030769348,-0.821969604,-0.004603000,-0.005531311,0.013187408,-0.523086548,0.423238993,0.351148605,0.162637711,3.736267090,-0.401463002,-0.388716908,0.004381925,-1.091144779,0.000000000,-0.002205079,0.020408431,0.255657466,-0.001382000,0.006675720,0.021978378,-0.991217041,-0.001850000,0.001335144,-0.039560318,-1.120880127,0.070579000,0.058556557,0.074726105,1.868142700,0.271755010,0.201609612,0.039560318,3.150177002,-0.294160008,-0.281558592,-0.004391839,-1.190178404,-0.002170000,0.000424753,0.019738140,-0.309005928
0.127988464,-0.002119000,-0.003623962,0.013187408,0.330416107,-0.000776000,-0.004005432,-0.013187408,-0.971438599,-0.004567000,-0.005531311,0.013187408,-0.523086548,0.423184991,0.351530075,0.197801590,3.296691895,-0.401553005,-0.388716908,-0.004381925,-1.190291580,0.000000000,-0.002205079,-0.020408431,0.212881603,-0.001396000,0.006675720,0.021978378,-0.330416107,-0.001884000,0.001335144,-0.004396439,-1.868142700,0.070657000,0.058938026,0.083517075,2.017584229,0.271611989,0.201609612,0.030769348,3.589752197,-0.294288993,-0.281558592,0.008787898,-1.190166969,-0.002229000,0.000424753,-0.009868853,-0.220681017
0.129988284,-0.002248000,-0.003623962,0.021978378,-0.330416107,-0.000797000,-0.004005432,0.039560318,-1.718673706,-0.004530000,-0.005531311,0.004396439,0.224176025,0.423130006,0.351911545,0.215385437,3.296691895,-0.401641995,-0.388716908,-0.008794991,-1.190291580,0.000000000,-0.002205079,0.010195426,0.212881603,-0.001412000,0.006675720,-0.021978378,-1.211463165,-0.001917000,0.001335144,-0.057142258,-1.270321655,0.070731997,0.058938026,0.101099014,2.615377808,0.271468997,0.201991081,0.039560318,3.589752197,-0.294414014,-0.281558592,0.008790074,-1.190166969,-0.002288000,0.000424753,0.009866577,-0.220681017
0.131988103,-0.002377000,-0.003242493,0.021978378,0.550662231,-0.000818000,-0.004005432,-0.004396439,-1.419790649,-0.004494000,-0.005531311,0.004396439,-1.120880127,0.423074991,0.352293015,0.215385437,2.857147217,-0.401730001,-0.388716908,0.004394954,-1.190291580,0.000000000,-0.002205079,0.000003073,0.212881603,-0.001429000,0.006675720,0.030769348,-0.110138702,-0.001947000,0.001335144,0.021978378,0.074734497,0.070803002,0.058938026,0.127471924,2.316494751,0.271324992,0.201991081,0.039560318,3.150177002,-0.294535011,-0.281558592,0.004396193,-1.190166969,-0.002347000,0.000424753,0.019737002,-0.220681017
0.133987923,-0.002505000,-0.003623962,-0.004396439,0.770939636,-0.000839000,-0.004005432,0.048351288,-0.373617554,-0.004458000,-0.005149841,0.021978378,-0.523086548,0.423018992,0.352674484,0.197801590,3.296691895,-0.401814997,-0.388716908,-0.004406075,-1.289498126,0.000000000,-0.002205079,0.020402285,0.255540090,-0.001447000,0.006675720,0.030769348,-0.770939636,-0.001976000,0.001335144,0.030769348,-1.569232178,0.070871003,0.059319496,-0.004396439,1.718673706,0.271180987,0.201991081,0.039560318,3.150177002,-0.294651002,-0.281558592,-0.000001089,-1.289337606,-0.002406000,0.000424753,-0.009869856,-0.176507624
0.135987743,-0.002641000,-0.003623962,-0.004396439,0.110138702,-0.000858000,-0.004005432,0.074726105,-0.523086548,-0.004423000,-0.005149841,-0.030769348,-0.523086548,0.422962993,0.353055954,0.232967377,2.857147217,-0.401901007,-0.388716908,0.000006038,-1.289498126,0.000000000,-0.002205079,-0.010203786,0.255540090,-0.001467000,0.006675720,0.004396439,-0.330416107,-0.002003000,0.001335144,-0.065933228,-0.672528076,0.070935003,0.059319496,0.021978378,2.017584229,0.271032989,0.201991081,0.039560318,3.003662109,-0.294766992,-0.281558592,0.004398370,-1.289349041,-0.002464000,0.000424753,0.039472432,-0.264832535
0.137987563,-0.002788000,-0.003623962,-0.013187408,0.550662231,-0.000877000,-0.004005432,-0.048351288,-0.373617554,-0.004387000,-0.005149841,0.021978378,-0.971438599,0.422904015,0.353818893,0.224176407,2.857147217,-0.401988000,-0.388716908,0.008769889,-1.289557872,0.000000000,-0.002205079,0.030613076,0.340974440,-0.001488000,0.006675720,-0.004396439,-0.770939636,-0.002030000,0.001335144,-0.057142258,-0.672528076,0.070995003,0.059319496,0.074726105,2.465936279,0.270877987,0.201991081,0.030769348,3.296691895,-0.294885993,-0.281558592,0.004394970,-1.289349041,-0.002521000,0.000424753,-0.000000569,-0.264832535
0.139987382,-0.002945000,-0.003623962,0.004396439,0.330416107,-0.000895000,-0.004005432,-0.065933228,-0.821969604,-0.004352000,-0.005149841,-0.030769348,0.373617554,0.422845006,0.354200363,0.197801590,3.150177002,-0.402076006,-0.388716908,0.008782917,-1.388644927,0.000000000,-0.002205079,0.010207718,0.212764227,-0.001511000,0.006675720,-0.004396439,-0.770939636,-0.002056000,0.001335144,-0.030769348,-0.971438599,0.071053997,0.059700966,0.118680954,1.868142700,0.270716995,0.202372551,0.030769348,3.296691895,-0.295004994,-0.281558592,0.004398370,-1.090996332,-0.002577000,0.000424753,0.039472432,-0.264854411
0.141987202,-0.003109000,-0.003623962,-0.004396439,0.550662231,-0.000912000,-0.003623962,-0.030769348,-1.419790649,-0.004317000,-0.005149841,0.004396439,-1.270321655,0.422782987,0.354581833,0.189010620,3.589752197,-0.402164996,-0.388716908,0.000006038,-1.190291580,0.000000000,-0.002205079,-0.010203786,0.212881603,-0.001534000,0.006675720,0.021978378,-0.330416107,-0.002081000,0.001335144,0.057142258,-0.074734497,0.071108997,0.059700966,0.057142258,1.270321655,0.270552009,0.202372551,0.030769348,3.443237305,-0.295125991,-0.281558592,0.000001089,-1.190178404,-0.002633000,0.000424753,0.009869856,-0.309005928
0.143987022,-0.003282000,-0.003623962,-0.030769348,0.991217041,-0.000929000,-0.003623962,-0.004396439,-0.523086548,-0.004282000,-0.005149841,0.065933228,-1.120880127,0.422719985,0.354581833,0.171428680,3.003662109,-0.402253002,-0.388716908,-0.004394954,-1.289498126,0.000000000,-0.002205079,-0.000003073,0.255540090,-0.001559000,0.006675720,-0.013187408,-1.211463165,-0.002105000,0.001335144,0.004396439,-1.270321655,0.071162999,0.060082436,0.109889984,2.465936279,0.270384014,0.202372551,0.030769348,3.882781982,-0.295246005,-0.281558592,-0.013180826,-1.190178404,-0.002688000,0.000424753,0.019737137,-0.309005928
0.145986842,-0.003461000,-0.003623962,0.048351288,0.110138702,-0.000946000,-0.003623962,-0.004396439,-0.821969604,-0.004247000,-0.005149841,-0.004396439,0.074734497,0.422654986,0.354963303,0.162637711,2.417572021,-0.402341008,-0.388716908,0.000006038,-1.289498126,0.000000000,-0.002205079,-0.010203786,0.255540090,-0.001586000,0.006675720,-0.004396439,-0.550662231,-0.002128000,0.001335144,-0.013187408,-1.868142700,0.071214996,0.060082436,0.048351288,1.868142700,0.270213008,0.202372551,0.021978378,3.296691895,-0.295365989,-0.281558592,0.004394970,-1.388531112,-0.002743000,0.000424753,-0.000000569,-0.308984052
0.147986661,-0.003645000,-0.003623962,0.013187408,0.550662231,-0.000962000,-0.003623962,0.013187408,-0.821969604,-0.004213000,-0.005149841,-0.092308044,0.373617554,0.422589004,0.355344772,0.153846741,2.857147217,-0.402429014,-0.388716908,-0.000006038,-1.190351325,0.000000000,-0.002205079,0.010203786,0.298315953,-0.001613000,0.006675720,-0.013187408,-1.652017975,-0.002151000,0.001335144,0.013187408,-0.373617554,0.071266003,0.060082436,0.065933228,1.868142700,0.270040989,0.202372551,0.013187408,3.589752197,-0.295484990,-0.281558592,0.000003265,-1.289349041,-0.002799000,0.000424753,0.029605286,-0.264832535
0.149986481,-0.003834000,-0.003623962,0.004396439,-0.110138702,-0.000979000,-0.003623962,0.048351288,-1.270321655,-0.004180000,-0.005149841,-0.030769348,-0.672528076,0.422520012,0.355726242,0.136262894,2.857147217,-0.402516007,-0.388716908,0.013195028,-1.388704673,0.000000000,-0.002205079,-0.020393925,0.298198577,-0.001642000,0.006675720,0.013187408,-0.550662231,-0.002174000,0.001335144,-0.057142258,-1.270321655,0.071315996,0.060463905,0.118680954,0.971438599,0.269867003,0.202372551,0.013187408,3.443237305,-0.295601994,-0.281558592,-0.004391839,-1.289349041,-0.002854000,0.000424753,0.019738140,-0.264832535
0.151986301,-0.004026000,-0.003623962,-0.004396439,0.110138702,-0.000996000,-0.003623962,-0.039560318,-0.971438599,-0.004147000,-0.005149841,0.074726105,-1.270321655,0.422450006,0.355726242,0.127471924,2.857147217,-0.402601004,-0.388716908,-0.000006038,-1.388704673,0.000000000,-0.002205079,0.010203786,0.298198577,-0.001672000,0.006675720,-0.013187408,-0.550662231,-0.002195000,0.001335144,-0.004396439,-2.167025757,0.071364999,0.060463905,0.039560318,2.167025757,0.269694000,0.202372551,0.004396439,3.882781982,-0.295717001,-0.281558592,0.004396193,-1.289360475,-0.002909000,0.000424753,0.019737002,-0.353157445
0.153986121,-0.004221000,-0.003623962,0.013187408,0.330416107,-0.001013000,-0.003623962,0.039560318,-1.120880127,-0.004114000,-0.005149841,0.039560318,-0.672528076,0.422376990,0.356107712,0.153846741,3.003662109,-0.402684987,-0.388716908,-0.000006038,-1.388644927,0.000000000,-0.002205079,0.010203786,0.212764227,-0.001704000,0.006675720,0.013187408,-0.991217041,-0.002216000,0.001335144,-0.004396439,-0.672528076,0.071414001,0.060845375,0.065933228,1.569232178,0.269522011,0.202372551,0.004396439,3.296691895,-0.295830011,-0.281558592,-0.004394970,-1.388531112,-0.002965000,0.000424753,0.000000569,-0.308984052
0.155985940,-0.004418000,-0.003623962,-0.004396439,0.770939636,-0.001031000,-0.003623962,-0.065933228,-0.672528076,-0.004082000,-0.005149841,0.013187408,0.523086548,0.422302991,0.356489182,0.136262894,3.296691895,-0.402767003,-0.388716908,0.004394954,-1.289557872,0.000000000,-0.002205079,0.000003073,0.340974440,-0.001737000,0.006675720,0.021978378,-0.991217041,-0.002237000,0.001335144,-0.004396439,-1.270321655,0.071462996,0.060845375,0.074726105,1.718673706,0.269351006,0.202372551,-0.004396439,3.150177002,-0.295938998,-0.281749307,0.013183003,-1.289314378,-0.003021000,-0.000003363,0.000000013,-0.353279663
0.157985760,-0.004616000,-0.003623962,0.013187408,0.330416107,-0.001050000,-0.003623962,0.004396439,-0.672528076,-0.004051000,-0.005149841,-0.013187408,-0.074734497,0.422226995,0.356870651,0.145055771,3.150177002,-0.402846992,-0.388716908,-0.000006038,-1.289498126,0.000000000,-0.002205079,0.010203786,0.255540090,-0.001772000,0.006675720,0.004396439,-1.211463165,-0.002257000,0.001335144,-0.030769348,-1.718673706,0.071512997,0.060845375,0.057142258,1.569232178,0.269183993,0.202372551,0.004396439,3.296691895,-0.296043009,-0.281749307,-0.008788983,-1.289314378,-0.003078000,-0.000003363,0.009868254,-0.353279663
0.159985580,-0.004813000,-0.003623962,0.030769348,0.770939636,-0.001069000,-0.003623962,-0.004396439,-0.672528076,-0.004021000,-0.005149841,0.013187408,-0.373617554,0.422147989,0.356870651,0.136262894,3.150177002,-0.402925014,-0.388716908,-0.000006038,-1.388704673,0.000000000,-0.002205079,0.010203786,0.298198577,-0.001808000,0.006675720,-0.013187408,-0.110138702,-0.002277000,0.001335144,-0.021978378,-1.419790649,0.071562998,0.061226845,0.118680954,1.419790649,0.269019991,0.202372551,-0.004396439,3.589752197,-0.296144009,-0.281749307,-0.004394011,-1.487667170,-0.003135000,-0.000003363,0.019738662,-0.264959592
0.161985400,-0.005009000,-0.003623962,-0.004396439,-0.110138702,-0.001090000,-0.003623962,-0.065933228,-0.672528076,-0.003991000,-0.005149841,0.057142258,-0.373617554,0.422066987,0.357252121,0.136262894,3.150177002,-0.402999014,-0.388716908,0.004381925,-1.388704673,0.000000000,-0.002205079,0.020408431,0.298198577,-0.001845000,0.006675720,0.004396439,-0.550662231,-0.002296000,0.000953674,-0.039560318,-0.971438599,0.071615003,0.061226845,0.013187408,1.868142700,0.268860996,0.202372551,-0.004396439,3.589752197,-0.296238989,-0.281749307,-0.004394970,-1.289314378,-0.003194000,-0.000003363,-0.000000004,-0.353279663
0.163985219,-0.005203000,-0.003623962,0.013187408,-0.110138702,-0.001112000,-0.003623962,-0.021978378,-0.523086548,-0.003963000,-0.004768372,0.048351288,-0.821969604,0.421983987,0.357633591,0.136262894,3.296691895,-0.403070003,-0.388716908,-0.004394954,-1.289438381,0.000000000,-0.002205079,-0.000003073,0.170105740,-0.001884000,0.006675720,0.048351288,-0.550662231,-0.002315000,0.000953674,-0.004396439,-0.821969604,0.071667999,0.061608315,0.013187408,2.017584229,0.268707991,0.202372551,-0.004396439,3.150177002,-0.296328992,-0.281749307,0.004394022,-1.487667170,-0.003253000,-0.000003363,0.019738670,-0.264959592
0.165985039,-0.005393000,-0.003623962,0.004396439,-0.110138702,-0.001135000,-0.003623962,0.030769348,-0.672528076,-0.003935000,-0.004768372,0.004396439,-0.672528076,0.421898991,0.357633591,0.145055771,3.003662109,-0.403138012,-0.388716908,-0.004394954,-1.289498126,0.000000000,-0.002205079,-0.000003073,0.255540090,-0.001924000,0.006675720,-0.004396439,-0.770939636,-0.002333000,0.001335144,0.048351288,-1.419790649,0.071722999,0.061608315,0.118680954,0.373617554,0.268561006,0.202372551,-0.004396439,2.857147217,-0.296411991,-0.281749307,-0.008788983,-1.487667170,-0.003314000,-0.000003363,0.009868254,-0.264959592
0.167984859,-0.005581000,-0.003623962,-0.004396439,0.330416107,-0.001160000,-0.003623962,0.048351288,-1.569232178,-0.003908000,-0.004768372,-0.013187408,-0.074734497,0.421810001,0.358015060,0.162637711,2.710632324,-0.403203011,-0.388716908,-0.004406075,-1.388704673,0.000000000,-0.002205079,0.020402285,0.298198577,-0.001966000,0.006675720,0.004396439,-0.770939636,-0.002352000,0.001335144,0.013187408,-2.017584229,0.071778998,0.061989784,0.004396439,0.971438599,0.268418014,0.202372551,-0.013187408,3.003662109,-0.296489000,-0.281749307,0.008788989,-1.388490774,-0.003376000,-0.000003363,0.009868271,-0.309119628
0.169984679,-0.005771000,-0.003623962,-0.013187408,0.330416107,-0.001188000,-0.003623962,-0.101099014,-0.672528076,-0.003882000,-0.005149841,-0.030769348,-0.224176025,0.421716988,0.358396530,0.145055771,3.150177002,-0.403266996,-0.388716908,0.004381925,-1.388704673,0.000000000,-0.002205079,0.020408431,0.298198577,-0.002013000,0.006675720,-0.013187408,-0.991217041,-0.002371000,0.000953674,-0.048351288,-1.270321655,0.071836002,0.062371254,0.109889984,1.270321655,0.268270999,0.202372551,-0.004396439,3.150177002,-0.296564013,-0.281749307,-0.004394011,-1.388490774,-0.003440000,-0.000003363,0.019738662,-0.309119628
0.171984498,-0.005962000,-0.003623962,0.048351288,0.110138702,-0.001217000,-0.003623962,0.004396439,-0.821969604,-0.003856000,-0.004768372,-0.039560318,-1.270321655,0.421618998,0.358778000,0.145055771,3.003662109,-0.403329998,-0.388716908,0.004406075,-1.289498126,0.000000000,-0.002205079,-0.020402285,0.255540090,-0.002063000,0.006675720,0.004396439,-0.330416107,-0.002391000,0.000953674,-0.013187408,-1.419790649,0.071893997,0.062371254,0.101099014,1.120880127,0.268119991,0.202372551,-0.004396439,3.589752197,-0.296636999,-0.281749307,-0.008788989,-1.388490774,-0.003504000,-0.000003363,-0.009868271,-0.309119628
0.173984318,-0.006154000,-0.003623962,0.030769348,0.110138702,-0.001248000,-0.003623962,-0.039560318,-1.419790649,-0.003831000,-0.004768372,-0.021978378,-0.821969604,0.421516001,0.358778000,0.127471924,3.443237305,-0.403391987,-0.388716908,-0.008794991,-1.289498126,0.000000000,-0.002205079,0.010195426,0.255540090,-0.002117000,0.006675720,-0.039560318,-0.770939636,-0.002412000,0.000953674,-0.013187408,-1.120880127,0.071951002,0.062371254,0.101099014,1.120880127,0.267967999,0.202372551,-0.004396439,3.589752197,-0.296707004,-0.281749307,-0.008788989,-1.388490774,-0.003571000,-0.000003363,-0.009868271,-0.309119628
0.175984138,-0.006348000,-0.003623962,0.004396439,-0.330416107,-0.001281000,-0.003623962,0.021978378,-0.672528076,-0.003806000,-0.004768372,-0.039560318,-1.120880127,0.421409994,0.359159470,0.145055771,3.150177002,-0.403452992,-0.388716908,-0.004406075,-1.487851474,0.000000000,-0.002205079,0.020402285,0.255422714,-0.002175000,0.006675720,-0.021978378,-0.991217041,-0.002433000,0.000953674,-0.004396439,-0.971438599,0.072008997,0.062752724,0.083517075,1.120880127,0.267814010,0.202372551,-0.004396439,2.857147217,-0.296775997,-0.281749307,-0.004394970,-1.487689217,-0.003638000,-0.000003363,-0.000000004,-0.353289459
0.177983957,-0.006543000,-0.003623962,0.030769348,0.110138702,-0.001316000,-0.003623962,0.021978378,-1.120880127,-0.003782000,-0.004768372,-0.004396439,-0.224176025,0.421299011,0.359540939,0.145055771,2.564117432,-0.403513014,-0.388716908,0.008769889,-1.487851474,0.000000000,-0.002205079,0.030613076,0.255422714,-0.002235000,0.006675720,0.030769348,-0.110138702,-0.002453000,0.000953674,0.013187408,-2.465936279,0.072067000,0.062752724,0.065933228,1.419790649,0.267661005,0.202372551,-0.004396439,2.857147217,-0.296842009,-0.281749307,-0.004394970,-1.388490774,-0.003705000,-0.000003363,-0.000000004,-0.309119628
0.179983777,-0.006739000,-0.003623962,0.021978378,0.110138702,-0.001351000,-0.003623962,0.021978378,-1.569232178,-0.003758000,-0.004768372,0.048351288,-0.821969604,0.421186000,0.359540939,0.118680954,3.150177002,-0.403571993,-0.388716908,0.004394954,-1.289498126,0.000000000,-0.002205079,0.000003073,0.255540090,-0.002300000,0.006675720,0.004396439,-0.550662231,-0.002474000,0.000953674,-0.039560318,-0.971438599,0.072126001,0.062752724,0.083517075,1.569232178,0.267509997,0.202372551,-0.004396439,3.003662109,-0.296905994,-0.281749307,0.000000003,-1.586843566,-0.003774000,-0.000003363,0.009870403,-0.220799557
0.181983597,-0.006935000,-0.003623962,-0.004396439,0.110138702,-0.001388000,-0.003623962,-0.013187408,-0.672528076,-0.003735000,-0.004768372,0.048351288,-0.821969604,0.421068996,0.359922409,0.101099014,2.417572021,-0.403629005,-0.388716908,-0.000006038,-1.289498126,0.000000000,-0.002205079,0.010203786,0.255540090,-0.002367000,0.006675720,0.004396439,-0.770939636,-0.002493000,0.000953674,-0.039560318,-1.120880127,0.072186001,0.063134193,0.136262894,1.270321655,0.267363012,0.202372551,-0.004396439,3.150177002,-0.296968013,-0.281749307,-0.008788989,-1.487667170,-0.003843000,-0.000003363,-0.009868271,-0.264959592
0.183983417,-0.007133000,-0.003623962,-0.021978378,0.330416107,-0.001426000,-0.003623962,0.048351288,-0.672528076,-0.003712000,-0.004768372,-0.021978378,0.074734497,0.420949012,0.360303879,0.109889984,3.003662109,-0.403683990,-0.388716908,0.004381925,-1.388704673,0.000000000,-0.002205079,0.020408431,0.298198577,-0.002437000,0.006675720,0.013187408,-0.991217041,-0.002512000,0.000953674,0.004396439,-1.120880127,0.072245002,0.063134193,0.065933228,0.672528076,0.267221004,0.202372551,-0.004396439,3.589752197,-0.297028005,-0.281749307,-0.013182997,-1.586865613,-0.003913000,-0.000003363,0.019736512,-0.309129424
0.185983236,-0.007330000,-0.003623962,-0.013187408,-0.550662231,-0.001465000,-0.003623962,0.030769348,-1.120880127,-0.003689000,-0.004768372,0.004396439,-0.821969604,0.420828015,0.360303879,0.101099014,2.857147217,-0.403737992,-0.388716908,-0.004394954,-1.487851474,0.000000000,-0.002205079,-0.000003073,0.255422714,-0.002509000,0.006675720,-0.013187408,-0.991217041,-0.002530000,0.000953674,0.013187408,-1.569232178,0.072305001,0.063515663,0.039560318,0.672528076,0.267084986,0.202372551,-0.013187408,3.296691895,-0.297086000,-0.281749307,-0.008788983,-1.586865613,-0.003982000,-0.000003363,0.009868254,-0.309129424
0.187983056,-0.007529000,-0.003623962,-0.021978378,-0.550662231,-0.001505000,-0.003623962,0.021978378,-1.120880127,-0.003667000,-0.004768372,-0.004396439,0.672528076,0.420704007,0.360685349,0.101099014,2.564117432,-0.403789014,-0.388716908,-0.013182955,-1.487933358,0.000000000,-0.002205079,-0.000009219,0.340866583,-0.002585000,0.006675720,0.004396439,-0.770939636,-0.002546000,0.000953674,0.057142258,-2.167025757,0.072365999,0.063515663,0.065933228,2.017584229,0.266957998,0.202372551,-0.004396439,3.150177002,-0.297141999,-0.281749307,-0.004394970,-1.388490774,-0.004052000,-0.000003363,-0.000000004,-0.309119628
0.189982876,-0.007727000,-0.003623962,-0.004396439,-0.110138702,-0.001545000,-0.003623962,-0.039560318,-0.971438599,-0.003646000,-0.004768372,0.083517075,-0.821969604,0.420578003,0.360685349,0.092308044,2.857147217,-0.403838009,-0.388716908,0.013182955,-1.487851474,0.000000000,-0.002205079,0.000009219,0.255422714,-0.002662000,0.006675720,-0.013187408,-0.770939636,-0.002560000,0.000953674,-0.030769348,-1.569232178,0.072428003,0.063897133,0.101099014,0.821969604,0.266840011,0.202372551,-0.004396439,3.296691895,-0.297196001,-0.281749307,0.000000009,-1.586865613,-0.004122000,-0.000003363,0.029606928,-0.309129424
0.191982696,-0.007925000,-0.003623962,-0.021978378,-0.330416107,-0.001586000,-0.003623962,0.013187408,-1.270321655,-0.003624000,-0.004768372,-0.048351288,-0.074734497,0.420450985,0.361066818,0.083517075,2.710632324,-0.403885007,-0.388716908,-0.004406075,-1.587080159,0.000000000,-0.002205079,0.020402285,0.298090720,-0.002742000,0.006675720,0.013187408,-0.770939636,-0.002572000,0.000953674,-0.074726105,-0.074734497,0.072489999,0.063897133,0.065933228,0.523086548,0.266732991,0.202372551,-0.013187408,2.857147217,-0.297248006,-0.281749307,-0.000000003,-1.487689217,-0.004191000,-0.000003363,-0.009870403,-0.353289459
0.193982515,-0.008124000,-0.003623962,0.013187408,-0.330416107,-0.001626000,-0.003623962,-0.004396439,-0.821969604,-0.003603000,-0.004768372,-0.004396439,-0.074734497,0.420323998,0.361066818,0.083517075,2.710632324,-0.403928995,-0.388716908,0.008769889,-1.487851474,0.000000000,-0.002205079,0.030613076,0.255422714,-0.002823000,0.006675720,-0.004396439,-0.550662231,-0.002583000,0.000953674,-0.013187408,-2.167025757,0.072552003,0.063897133,0.092308044,1.270321655,0.266638011,0.202372551,-0.013187408,3.150177002,-0.297298014,-0.281749307,-0.013183009,-1.289314378,-0.004260000,-0.000003363,-0.019736538,-0.353279663
0.195982335,-0.008321000,-0.003623962,0.030769348,-0.550662231,-0.001667000,-0.003623962,0.004396439,-1.120880127,-0.003583000,-0.004768372,-0.021978378,-0.224176025,0.420195013,0.361448288,0.083517075,2.710632324,-0.403970987,-0.388716908,0.004394954,-1.487851474,0.000000000,-0.002205079,0.000003073,0.255422714,-0.002906000,0.006675720,-0.004396439,-0.770939636,-0.002590000,0.000953674,0.004396439,-1.419790649,0.072616003,0.064278603,0.118680954,0.971438599,0.266557992,0.202372551,-0.004396439,3.150177002,-0.297347009,-0.281749307,-0.004394028,-1.487689217,-0.004328000,-0.000003363,-0.039475195,-0.353289459
0.197982155,-0.008519000,-0.003623962,-0.013187408,-0.550662231,-0.001707000,-0.003623962,-0.074726105,-1.120880127,-0.003562000,-0.004386902,0.039560318,-0.821969604,0.420065999,0.361448288,0.083517075,2.564117432,-0.404009014,-0.388716908,-0.004394954,-1.487851474,0.000000000,-0.002205079,-0.000003073,0.255422714,-0.002991000,0.006675720,0.004396439,-0.991217041,-0.002595000,0.000953674,0.013187408,-1.868142700,0.072679996,0.064278603,0.118680954,1.419790649,0.266492993,0.202372551,-0.004396439,3.150177002,-0.297394007,-0.281749307,-0.017577028,-1.388512821,-0.004395000,-0.000003363,-0.029604804,-0.397449495
0.199981975,-0.008716000,-0.003623962,0.048351288,-0.330416107,-0.001748000,-0.003623962,0.030769348,-1.120880127,-0.003542000,-0.004386902,0.030769348,0.672528076,0.419937998,0.361448288,0.074726105,2.857147217,-0.404044986,-0.388716908,-0.004418149,-1.388644927,0.000000000,-0.002205079,0.040805429,0.212764227,-0.003078000,0.006675720,-0.013187408,-0.550662231,-0.002596000,0.000953674,-0.048351288,-0.821969604,0.072743997,0.064660072,0.092308044,1.270321655,0.266443998,0.202372551,-0.004396439,3.150177002,-0.297439009,-0.281939976,-0.030752571,-1.487632619,-0.004462000,-0.000431528,-0.059216906,-0.265108544
0.201981794,-0.008910000,-0.003623962,0.004396439,-0.991217041,-0.001789000,-0.003623962,-0.065933228,-0.971438599,-0.003521000,-0.004386902,0.065933228,-1.120880127,0.419806987,0.361829758,0.065933228,2.710632324,-0.404076993,-0.388716908,0.013170881,-1.487851474,-0.000001000,-0.002205079,0.020412363,0.255422714,-0.003168000,0.006675720,-0.013187408,-0.550662231,-0.002596000,0.000953674,0.039560318,-0.821969604,0.072811998,0.064660072,0.171428680,0.821969604,0.266406000,0.202372551,-0.004396439,3.150177002,-0.297482014,-0.281939976,-0.030752571,-1.487644227,-0.004528000,-0.000431528,-0.059216906,-0.176793439
0.203981614,-0.009102000,-0.003623962,0.013187408,-0.330416107,-0.001833000,-0.003623962,-0.004396439,-1.120880127,-0.003500000,-0.004386902,-0.021978378,-0.074734497,0.419672012,0.361829758,0.065933228,2.710632324,-0.404105991,-0.388716908,0.000006038,-1.487851474,-0.000002000,-0.002205079,-0.010203786,0.255422714,-0.003265000,0.006675720,-0.013187408,-0.770939636,-0.002595000,0.000953674,0.013187408,-1.270321655,0.072881997,0.064660072,0.074726105,1.868142700,0.266368002,0.202372551,-0.004396439,3.150177002,-0.297520995,-0.281939976,-0.035143338,-1.388450462,-0.004595000,-0.000431528,-0.088828197,-0.309255215
0.205981434,-0.009292000,-0.003623962,0.004396439,-0.330416107,-0.001880000,-0.003623962,-0.048351288,-1.419790649,-0.003479000,-0.004386902,0.030769348,0.821969604,0.419533014,0.361829758,0.057142258,2.710632324,-0.404132009,-0.388716908,-0.000006038,-1.388644927,-0.000004000,-0.002205079,0.010203786,0.212764227,-0.003368000,0.006294250,0.004396439,-0.770939636,-0.002592000,0.000953674,-0.004396439,-0.821969604,0.072956003,0.065041542,0.021978378,0.971438599,0.266330987,0.202372551,-0.004396439,3.003662109,-0.297558993,-0.282130597,-0.039530698,-1.487597096,-0.004662000,-0.000859742,-0.078967375,-0.353577562
0.207981254,-0.009480000,-0.003623962,0.004396439,-0.110138702,-0.001928000,-0.003623962,0.004396439,-0.074734497,-0.003457000,-0.004386902,-0.004396439,-0.224176025,0.419391990,0.362211227,0.074726105,2.857147217,-0.404155999,-0.388716908,0.004394954,-1.487851474,-0.000008000,-0.002205079,0.000003073,0.255422714,-0.003476000,0.006675720,0.030769348,-0.770939636,-0.002589000,0.000953674,0.004396439,-1.270321655,0.073032998,0.065041542,0.039560318,0.971438599,0.266297013,0.202372551,-0.004396439,3.589752197,-0.297594011,-0.282130597,-0.039534083,-1.487598096,-0.004729000,-0.000859742,-0.059226515,-0.265257514
0.209981073,-0.009667000,-0.003623962,0.030769348,-0.330416107,-0.001977000,-0.003623962,-0.057142258,-1.120880127,-0.003434000,-0.004386902,-0.083517075,-1.270321655,0.419247001,0.362211227,0.074726105,2.710632324,-0.404177994,-0.388716908,0.013195028,-1.487851474,-0.000012000,-0.002205079,-0.020393925,0.255422714,-0.003590000,0.006294250,-0.021978378,0.110138702,-0.002586000,0.000953674,0.004396439,-0.523086548,0.073110998,0.065041542,0.101099014,1.120880127,0.266263992,0.202372551,-0.004396439,3.003662109,-0.297627002,-0.282321171,-0.035136799,-1.487563601,-0.004796000,-0.001288004,-0.049363340,-0.265406501
0.211980893,-0.009854000,-0.003623962,-0.013187408,0.550662231,-0.002027000,-0.003623962,0.013187408,-1.718673706,-0.003413000,-0.004386902,0.074726105,-0.672528076,0.419101000,0.362592697,0.083517075,2.710632324,-0.404199004,-0.388716908,0.004381925,-1.586998275,-0.000018000,-0.002205079,0.020408431,0.212646851,-0.003707000,0.006294250,-0.021978378,-0.550662231,-0.002581000,0.000953674,-0.004396439,-0.821969604,0.073190004,0.065423012,0.057142258,1.569232178,0.266232014,0.202372551,-0.004396439,3.150177002,-0.297659010,-0.282321171,-0.039522001,-1.487563601,-0.004863000,-0.001288004,-0.078976934,-0.265406501
0.213980713,-0.010042000,-0.003623962,0.021978378,-0.330416107,-0.002077000,-0.003623962,0.004396439,-1.419790649,-0.003391000,-0.004386902,-0.013187408,0.821969604,0.418951988,0.362592697,0.083517075,2.710632324,-0.404217988,-0.388716908,-0.017582992,-1.487851474,-0.000024000,-0.002205079,0.010189280,0.255422714,-0.003828000,0.006294250,0.004396439,-1.872295380,-0.002576000,0.000953674,0.004396439,-1.718673706,0.073269002,0.065423012,0.136262894,1.270321655,0.266202986,0.202372551,-0.004396439,3.150177002,-0.297690004,-0.282321171,-0.043924830,-1.190051842,-0.004929000,-0.001288004,-0.049366789,-0.221155729
0.215980533,-0.010230000,-0.003623962,-0.030769348,-0.330416107,-0.002127000,-0.003623962,-0.013187408,-1.569232178,-0.003370000,-0.004386902,0.030769348,-0.074734497,0.418803006,0.362592697,0.083517075,2.710632324,-0.404237986,-0.388716908,-0.008806113,-1.388704673,-0.000031000,-0.002205079,0.030600784,0.298198577,-0.003952000,0.006294250,0.004396439,-0.330416107,-0.002570000,0.000572205,-0.127471924,-1.419790649,0.073348999,0.065804482,0.074726105,1.120880127,0.266175985,0.202372551,-0.004396439,3.150177002,-0.297719985,-0.282511698,-0.061470343,-1.289222575,-0.004996000,-0.001716315,-0.108609367,-0.177167907
0.217980352,-0.010420000,-0.003623962,0.021978378,-0.110138702,-0.002177000,-0.003623962,-0.021978378,-0.971438599,-0.003350000,-0.004386902,-0.048351288,-0.523086548,0.418653011,0.362974167,0.083517075,2.857147217,-0.404256999,-0.388716908,0.004394954,-1.686226960,-0.000039000,-0.002205079,0.000003073,0.255314857,-0.004079000,0.006294250,-0.004396439,-0.550662231,-0.002563000,0.000572205,-0.039560318,-1.419790649,0.073426999,0.065804482,0.136262894,1.120880127,0.266151011,0.202372551,-0.004396439,2.857147217,-0.297751009,-0.282702177,-0.070224676,-1.289199643,-0.005061000,-0.002144675,-0.148113246,-0.177300025
0.219980172,-0.010613000,-0.003623962,-0.013187408,-0.550662231,-0.002226000,-0.003623962,-0.004396439,-0.523086548,-0.003331000,-0.004386902,-0.021978378,-0.672528076,0.418502986,0.362974167,0.083517075,2.857147217,-0.404278010,-0.388716908,-0.000018112,-1.487851474,-0.000047000,-0.002205079,0.030606930,0.255422714,-0.004207000,0.006294250,-0.013187408,-1.211463165,-0.002556000,0.000953674,0.048351288,-1.419790649,0.073504001,0.065804482,0.083517075,0.971438599,0.266128004,0.202372551,-0.013187408,2.857147217,-0.297780991,-0.282893040,-0.070240977,-1.685903983,-0.005127000,-0.001716493,-0.148113016,-0.265622054
0.221979992,-0.010808000,-0.003623962,0.021978378,-0.110138702,-0.002273000,-0.003623962,0.021978378,-1.120880127,-0.003313000,-0.004386902,0.021978378,-1.120880127,0.418352991,0.363355637,0.074726105,2.857147217,-0.404298991,-0.388716908,-0.004406075,-1.487851474,-0.000057000,-0.002205079,0.020402285,0.255422714,-0.004337000,0.006294250,-0.004396439,-1.211463165,-0.002549000,0.000572205,-0.030769348,-0.224176025,0.073578000,0.066185951,0.039560318,0.523086548,0.266108990,0.202372551,-0.013187408,3.296691895,-0.297812998,-0.283083519,-0.061458345,-1.586699908,-0.005191000,-0.002144903,-0.108636090,-0.221585978
0.223979812,-0.011007000,-0.003623962,-0.039560318,-0.550662231,-0.002319000,-0.003623962,-0.039560318,-1.718673706,-0.003296000,-0.004386902,-0.030769348,-0.672528076,0.418204010,0.363355637,0.057142258,3.150177002,-0.404321015,-0.388716908,-0.000006038,-1.686226960,-0.000067000,-0.002205079,0.010203786,0.255314857,-0.004467000,0.006294250,0.013187408,-0.770939636,-0.002540000,0.000572205,-0.030769348,0.074734497,0.073650002,0.066185951,0.074726105,2.017584229,0.266092002,0.202372551,-0.004396439,3.150177002,-0.297845006,-0.283273951,-0.070234382,-1.487598739,-0.005255000,-0.002573362,-0.108657090,-0.089262697
0.225979631,-0.011210000,-0.003623962,0.065933228,-0.550662231,-0.002362000,-0.003623962,0.039560318,-0.373617554,-0.003282000,-0.004386902,0.004396439,0.971438599,0.418056995,0.363355637,0.048351288,3.443237305,-0.404345989,-0.388716908,0.004381925,-1.686226960,-0.000079000,-0.002205079,0.020408431,0.255314857,-0.004597000,0.006294250,0.013187408,-1.211463165,-0.002531000,0.000572205,-0.057142258,-0.821969604,0.073717996,0.066567421,0.083517075,0.074734497,0.266077995,0.202372551,-0.004396439,3.150177002,-0.297879010,-0.283273951,-0.074634915,-1.586671268,-0.005317000,-0.002573362,-0.098787826,-0.221748470
0.227979451,-0.011419000,-0.003623962,0.004396439,-0.110138702,-0.002402000,-0.003623962,-0.004396439,-1.120880127,-0.003269000,-0.004386902,0.048351288,-0.373617554,0.417910993,0.363355637,0.039560318,3.150177002,-0.404372990,-0.388716908,-0.000006038,-1.686226960,-0.000091000,-0.002205079,0.010203786,0.255314857,-0.004727000,0.006294250,-0.004396439,-0.770939636,-0.002522000,0.000572205,-0.004396439,-2.017584229,0.073781997,0.066567421,0.021978378,1.120880127,0.266066998,0.202372551,-0.004396439,3.150177002,-0.297915012,-0.283464335,-0.052661558,-1.685859447,-0.005379000,-0.003001869,-0.088909748,-0.177849807
0.229979271,-0.011632000,-0.003623962,-0.021978378,-0.770939636,-0.002439000,-0.003623962,0.065933228,-1.718673706,-0.003258000,-0.004386902,0.004396439,-0.224176025,0.417768002,0.363737106,0.048351288,3.443237305,-0.404404014,-0.388716908,-0.004406075,-1.487791728,-0.000103000,-0.002205079,0.020402285,0.169988364,-0.004856000,0.006294250,-0.004396439,-1.431740570,-0.002512000,0.000572205,-0.030769348,-0.074734497,0.073840998,0.066567421,0.030769348,0.821969604,0.266059011,0.202372551,-0.013187408,3.003662109,-0.297953993,-0.283464335,-0.035114997,-1.586642659,-0.005439000,-0.003001869,-0.049398475,-0.221910988
0.231979091,-0.011852000,-0.003623962,-0.004396439,-0.330416107,-0.002473000,-0.003623962,-0.057142258,-1.270321655,-0.003249000,-0.004386902,-0.004396439,-0.373617554,0.417627007,0.363737106,0.030769348,3.003662109,-0.404437006,-0.388716908,0.004394954,-1.686226960,-0.000117000,-0.002205079,0.000003073,0.255314857,-0.004984000,0.006294250,-0.013187408,-0.991217041,-0.002502000,0.000572205,0.013187408,-2.167025757,0.073895000,0.066567421,0.127471924,1.569232178,0.266054988,0.202372551,-0.004396439,3.150177002,-0.297995001,-0.283654671,-0.026356312,-1.784989040,-0.005498000,-0.003430426,-0.009901384,-0.222258132
0.233978910,-0.012080000,-0.003623962,0.030769348,-0.550662231,-0.002502000,-0.003623962,0.039560318,-1.718673706,-0.003243000,-0.004386902,0.048351288,-0.523086548,0.417490005,0.363737106,0.030769348,3.443237305,-0.404475003,-0.388716908,-0.000006038,-1.686226960,-0.000132000,-0.002205079,0.010203786,0.255314857,-0.005109000,0.006294250,0.004396439,-0.770939636,-0.002492000,0.000572205,-0.013187408,-0.971438599,0.073942997,0.066948891,0.092308044,0.821969604,0.266054988,0.202372551,-0.004396439,3.003662109,-0.298038989,-0.283654671,-0.000008700,-1.487576113,-0.005555000,-0.003430426,0.009875958,-0.089580775
0.235978730,-0.012321000,-0.003623962,0.013187408,-0.550662231,-0.002531000,-0.003623962,-0.021978378,-2.017584229,-0.003238000,-0.004386902,0.030769348,-0.523086548,0.417353988,0.363737106,0.021978378,2.857147217,-0.404518992,-0.388716908,-0.000006038,-1.487851474,-0.000160000,-0.002205079,0.010203786,0.255422714,-0.005234000,0.006294250,0.057142258,-0.770939636,-0.002477000,0.000572205,-0.004396439,-0.672528076,0.073990002,0.066948891,0.092308044,0.672528076,0.266066998,0.202372551,-0.013187408,2.857147217,-0.298083991,-0.283654671,-0.013182982,-1.586706381,-0.005612000,-0.003430426,-0.000013785,-0.133803271
0.237978550,-0.012576000,-0.003623962,-0.004396439,-0.770939636,-0.002560000,-0.003623962,-0.013187408,-0.821969604,-0.003233000,-0.004386902,0.021978378,0.672528076,0.417219996,0.363737106,0.030769348,3.003662109,-0.404569000,-0.388716908,-0.000018112,-1.586998275,-0.000205000,-0.002205079,0.030606930,0.212646851,-0.005361000,0.006294250,-0.030769348,-0.550662231,-0.002456000,0.000572205,-0.004396439,-1.569232178,0.074037999,0.066948891,0.039560318,2.017584229,0.266093999,0.202372551,-0.004396439,3.296691895,-0.298130989,-0.283654671,-0.004411407,-1.785059219,-0.005668000,-0.003430426,0.019745179,-0.133978004
0.239978370,-0.012842000,-0.003623962,-0.021978378,-0.770939636,-0.002590000,-0.003623962,0.004396439,-0.672528076,-0.003228000,-0.004386902,0.030769348,-0.224176025,0.417086989,0.363737106,0.013187408,2.564117432,-0.404624999,-0.388716908,-0.008794991,-1.686145076,-0.000265000,-0.002205079,0.010195426,0.169870988,-0.005488000,0.006294250,-0.030769348,-1.211463165,-0.002432000,0.000572205,-0.048351288,-1.120880127,0.074086003,0.067330360,0.083517075,0.523086548,0.266133010,0.202372551,-0.004396439,3.003662109,-0.298177987,-0.283654671,0.004376611,-1.586614080,-0.005723000,-0.003430426,0.019754368,-0.222073530
0.241978189,-0.013119000,-0.003623962,-0.021978378,-0.770939636,-0.002619000,-0.003623962,0.004396439,-0.523086548,-0.003223000,-0.004386902,-0.004396439,0.373617554,0.416954011,0.363737106,0.013187408,2.710632324,-0.404686987,-0.388716908,-0.004394954,-1.586998275,-0.000339000,-0.002205079,-0.000003073,0.212646851,-0.005617000,0.006294250,-0.013187408,-1.211463165,-0.002402000,0.000572205,0.030769348,-1.120880127,0.074133001,0.067330360,0.048351288,0.373617554,0.266184986,0.202372551,-0.004396439,3.296691895,-0.298227012,-0.283654671,-0.004411407,-1.685836649,-0.005778000,-0.003430426,0.019745179,-0.178025767
0.243978009,-0.013403000,-0.003623962,-0.013187408,-1.431740570,-0.002647000,-0.003623962,0.065933228,-1.868142700,-0.003218000,-0.004386902,0.013187408,0.224176025,0.416823000,0.363737106,0.013187408,2.564117432,-0.404754013,-0.388716908,0.000006038,-1.487851474,-0.000428000,-0.002205079,-0.010203786,0.255422714,-0.005746000,0.006294250,-0.004396439,-0.770939636,-0.002369000,0.000572205,-0.004396439,-1.718673706,0.074180000,0.067711830,0.074726105,0.523086548,0.266247988,0.202372551,-0.004396439,3.150177002,-0.298278004,-0.283654671,0.008780274,-1.487483812,-0.005831000,-0.003430426,0.009883006,-0.177851034
0.245977829,-0.013692000,-0.003623962,0.013187408,-0.770939636,-0.002675000,-0.003623962,-0.039560318,-1.569232178,-0.003214000,-0.004386902,0.021978378,-0.821969604,0.416691989,0.363737106,-0.004396439,2.857147217,-0.404826999,-0.388716908,0.004394954,-1.686226960,-0.000529000,-0.002205079,0.000003073,0.255314857,-0.005875000,0.006294250,-0.004396439,-1.211463165,-0.002332000,0.000572205,-0.048351288,-0.821969604,0.074225001,0.067711830,0.057142258,1.718673706,0.266319990,0.202372551,-0.013187408,3.443237305,-0.298330992,-0.283654671,-0.000008700,-1.685836649,-0.005885000,-0.003430426,0.009875958,-0.178025767
0.247977649,-0.013985000,-0.003623962,-0.004396439,-0.330416107,-0.002702000,-0.003623962,-0.048351288,-1.569232178,-0.003210000,-0.004386902,-0.013187408,0.074734497,0.416561991,0.363737106,-0.004396439,2.710632324,-0.404904991,-0.388716908,0.004381925,-1.487851474,-0.000643000,-0.002205079,0.020408431,0.255422714,-0.006006000,0.006294250,0.004396439,-1.431740570,-0.002292000,0.000572205,-0.021978378,-0.672528076,0.074268997,0.067711830,0.083517075,0.971438599,0.266402006,0.202372551,-0.013187408,3.150177002,-0.298384994,-0.283654671,-0.004411407,-1.487483812,-0.005937000,-0.003430426,0.019745179,-0.177851034
0.249977468,-0.014279000,-0.003623962,0.021978378,-0.550662231,-0.002727000,-0.003623962,-0.004396439,-1.120880127,-0.003206000,-0.004386902,-0.013187408,0.523086548,0.416433007,0.363737106,0.004396439,3.296691895,-0.404987007,-0.388716908,0.013182955,-1.586998275,-0.000769000,-0.002205079,0.000009219,0.212646851,-0.006137000,0.006294250,0.039560318,-1.652017975,-0.002249000,0.000572205,0.021978378,-0.821969604,0.074309997,0.067711830,0.101099014,0.523086548,0.266492009,0.202372551,-0.004396439,3.443237305,-0.298442990,-0.283654671,0.004411407,-1.685836649,-0.005989000,-0.003430426,-0.019745179,-0.178025767
0.251977288,-0.014573000,-0.003623962,-0.013187408,-0.550662231,-0.002750000,-0.003623962,-0.013187408,-1.270321655,-0.003203000,-0.004386902,0.021978378,0.523086548,0.416303992,0.363737106,-0.004396439,2.857147217,-0.405074000,-0.388716908,-0.000018112,-1.586998275,-0.000905000,-0.002205079,0.030606930,0.212646851,-0.006268000,0.006294250,0.004396439,-0.770939636,-0.002204000,0.000572205,0.004396439,-1.718673706,0.074349001,0.068093300,0.057142258,0.224176025,0.266588002,0.202372551,0.004396439,3.150177002,-0.298503011,-0.283654671,0.004376611,-1.388261243,-0.006040000,-0.003430426,0.019754368,-0.221898797
0.253977108,-0.014864000,-0.003623962,-0.013187408,-0.770939636,-0.002772000,-0.003623962,-0.004396439,-1.868142700,-0.003200000,-0.004005432,0.057142258,-1.419790649,0.416175991,0.363737106,-0.004396439,2.710632324,-0.405166000,-0.388716908,0.004381925,-1.586938529,-0.001051000,-0.002205079,0.020408431,0.127212501,-0.006400000,0.006294250,-0.030769348,-0.991217041,-0.002156000,0.000572205,0.013187408,-1.120880127,0.074383996,0.068093300,0.004396439,1.270321655,0.266690999,0.202372551,0.004396439,2.857147217,-0.298566014,-0.283654671,-0.000026096,-1.388353544,-0.006090000,-0.003430426,0.029623589,-0.133628538
0.255976928,-0.015150000,-0.003623962,-0.004396439,-0.991217041,-0.002791000,-0.003623962,0.013187408,-0.373617554,-0.003197000,-0.004005432,0.004396439,-0.821969604,0.416049004,0.363737106,0.004396439,3.589752197,-0.405261993,-0.388716908,0.004394954,-1.785373761,-0.001206000,-0.002205079,0.000003073,0.212538994,-0.006532000,0.006294250,0.021978378,-0.991217041,-0.002106000,0.000572205,-0.057142258,-0.821969604,0.074415997,0.068093300,0.092308044,1.868142700,0.266797990,0.202372551,-0.004396439,3.003662109,-0.298633009,-0.283654671,0.008797670,-1.586614080,-0.006140000,-0.003430426,-0.009864625,-0.222073530
0.257976747,-0.015429000,-0.003623962,0.013187408,-0.991217041,-0.002807000,-0.003623962,-0.004396439,-2.167025757,-0.003195000,-0.004005432,-0.004396439,-0.074734497,0.415921986,0.363737106,-0.004396439,2.710632324,-0.405360997,-0.388716908,-0.000006038,-1.586998275,-0.001370000,-0.002205079,0.010203786,0.212646851,-0.006665000,0.006294250,0.004396439,-0.550662231,-0.002056000,0.000572205,-0.039560318,-1.569232178,0.074442998,0.068093300,0.057142258,0.373617554,0.266909987,0.202372551,-0.004396439,3.150177002,-0.298703015,-0.283654671,-0.000008700,-1.487391511,-0.006189000,-0.003430426,0.009875958,-0.266121292
0.259976567,-0.015698999,-0.003623962,-0.013187408,-0.991217041,-0.002821000,-0.003623962,-0.039560318,-0.971438599,-0.003193000,-0.004005432,-0.039560318,-0.074734497,0.415796012,0.363737106,0.004396439,3.150177002,-0.405463994,-0.388716908,0.008794991,-1.586998275,-0.001541000,-0.002205079,-0.010195426,0.212646851,-0.006797000,0.006294250,0.004396439,-0.550662231,-0.002004000,0.000190735,-0.074726105,-0.672528076,0.074464999,0.068474770,0.039560318,1.569232178,0.267024994,0.202372551,-0.013187408,3.003662109,-0.298777014,-0.283654671,0.017568293,-1.487483812,-0.006237000,-0.003430426,0.009892195,-0.177851034
0.261976387,-0.015958000,-0.003623962,0.013187408,-0.991217041,-0.002832000,-0.003623962,0.021978378,-1.868142700,-0.003192000,-0.004005432,0.021978378,0.672528076,0.415668994,0.363737106,-0.004396439,2.857147217,-0.405571014,-0.388716908,0.008794991,-1.586998275,-0.001719000,-0.002205079,-0.010195426,0.212646851,-0.006930000,0.006294250,0.013187408,-0.991217041,-0.001951000,0.000572205,-0.004396439,-1.868142700,0.074483000,0.068474770,0.048351288,1.718673706,0.267141014,0.202372551,-0.004396439,3.150177002,-0.298855007,-0.283654671,-0.013200378,-1.586614080,-0.006284000,-0.003430426,0.019733846,-0.222073530
0.263976207,-0.016204000,-0.003623962,-0.004396439,-0.330416107,-0.002839000,-0.003623962,0.013187408,-2.465936279,-0.003191000,-0.004005432,0.021978378,0.672528076,0.415542990,0.363737106,0.013187408,3.443237305,-0.405681014,-0.388716908,-0.000006038,-1.586998275,-0.001903000,-0.002205079,0.010203786,0.212646851,-0.007063000,0.006294250,0.004396439,-0.991217041,-0.001898000,0.000190735,0.004396439,-0.074734497,0.074493997,0.068474770,0.092308044,1.270321655,0.267259002,0.202372551,-0.004396439,3.150177002,-0.298936993,-0.283654671,-0.004394963,-1.388168942,-0.006331000,-0.003430426,-0.000004596,-0.310169055
0.265976026,-0.016434999,-0.003623962,0.004396439,-1.211463165,-0.002842000,-0.003623962,-0.039560318,-1.718673706,-0.003190000,-0.004005432,0.021978378,-0.672528076,0.415417999,0.363737106,-0.004396439,2.857147217,-0.405793011,-0.388716908,0.008794991,-1.785291877,-0.002092000,-0.002205079,-0.010195426,0.127095124,-0.007195000,0.006294250,-0.004396439,-1.211463165,-0.001845000,0.000572205,0.065933228,-1.270321655,0.074500002,0.068474770,0.101099014,1.120880127,0.267376006,0.202372551,-0.004396439,2.857147217,-0.299023986,-0.283654671,-0.000008700,-1.685766471,-0.006376000,-0.003430426,0.009875958,-0.266305894
0.267975846,-0.016652999,-0.003623962,-0.021978378,-0.991217041,-0.002840000,-0.003623962,-0.030769348,-1.718673706,-0.003192000,-0.004005432,0.030769348,-0.672528076,0.415291995,0.363737106,0.004396439,2.857147217,-0.405910999,-0.388716908,0.013170881,-1.686145076,-0.002297000,-0.002205079,0.020412363,0.169870988,-0.007328000,0.006294250,0.004396439,-1.431740570,-0.001792000,0.000190735,-0.092308044,-0.971438599,0.074499004,0.068856239,0.048351288,0.971438599,0.267495990,0.202372551,-0.004396439,2.857147217,-0.299116999,-0.283654671,-0.008814115,-1.685766471,-0.006421000,-0.003430426,0.029614399,-0.266305894
0.269975666,-0.016868001,-0.003623962,-0.030769348,-0.991217041,-0.002827000,-0.003623962,0.039560318,-2.017584229,-0.003202000,-0.004005432,-0.048351288,-0.224176025,0.415167004,0.363737106,-0.004396439,2.710632324,-0.406042010,-0.388716908,-0.008782917,-1.686145076,-0.002548000,-0.002205079,-0.010207718,0.169870988,-0.007463000,0.006294250,-0.030769348,-1.211463165,-0.001734000,0.000190735,-0.057142258,-0.821969604,0.074491002,0.068856239,0.013187408,1.120880127,0.267628014,0.202372551,0.004396439,2.857147217,-0.299221992,-0.283654671,-0.000008700,-1.586543902,-0.006466000,-0.003430426,0.009875958,-0.310353657
0.271975486,-0.017082000,-0.003623962,-0.021978378,-0.770939636,-0.002805000,-0.003623962,0.083517075,-1.419790649,-0.003218000,-0.004386902,-0.065933228,0.373617554,0.415042996,0.363737106,0.004396439,3.003662109,-0.406185001,-0.388716908,-0.004418149,-1.686085330,-0.002845000,-0.002205079,0.040805429,0.084436638,-0.007598000,0.006294250,-0.013187408,-1.652017975,-0.001672000,0.000190735,-0.013187408,-1.419790649,0.074478000,0.068856239,0.004396439,0.821969604,0.267773986,0.202372551,-0.013187408,2.857147217,-0.299338996,-0.283654671,0.004376611,-1.586614080,-0.006511000,-0.003430426,0.019754368,-0.222073530
0.273975305,-0.017294001,-0.004005432,-0.013187408,-0.991217041,-0.002774000,-0.003242493,0.083517075,-1.868142700,-0.003242000,-0.004386902,-0.004396439,0.074734497,0.414918989,0.363737106,0.004396439,3.003662109,-0.406340003,-0.388716908,-0.008769889,-1.487791728,-0.003185000,-0.002205079,-0.030613076,0.169988364,-0.007735000,0.005912781,-0.039560318,-0.991217041,-0.001606000,0.000572205,0.083517075,-0.821969604,0.074459001,0.068856239,0.048351288,0.523086548,0.267931998,0.202372551,0.004396439,3.003662109,-0.299468011,-0.283654671,-0.008814115,-1.586614080,-0.006556000,-0.003430426,0.029614399,-0.222073530
0.275975125,-0.017502001,-0.004005432,0.004396439,-1.211463165,-0.002735000,-0.003623962,-0.013187408,-0.672528076,-0.003272000,-0.004005432,0.083517075,0.373617554,0.414795995,0.363737106,0.004396439,2.857147217,-0.406506002,-0.388716908,-0.004394954,-1.686085330,-0.003564000,-0.002205079,-0.000003073,0.084436638,-0.007873000,0.005912781,-0.021978378,-1.652017975,-0.001537000,0.000190735,0.048351288,0.074734497,0.074435003,0.068856239,0.048351288,1.419790649,0.268101007,0.202372551,-0.004396439,3.296691895,-0.299607009,-0.283654671,-0.000026096,-1.487391511,-0.006600000,-0.003430426,0.029623589,-0.266121292
0.277974945,-0.017707000,-0.004005432,-0.013187408,-0.991217041,-0.002688000,-0.003623962,-0.057142258,-0.971438599,-0.003307000,-0.004005432,0.021978378,-1.120880127,0.414671987,0.363737106,0.004396439,3.296691895,-0.406682014,-0.388716908,-0.000006038,-1.586878784,-0.003979000,-0.002205079,0.010203786,0.041778151,-0.008012000,0.005912781,-0.004396439,-0.991217041,-0.001465000,0.000190735,-0.013187408,-1.718673706,0.074405000,0.068856239,0.048351288,1.718673706,0.268281996,0.202372551,-0.004396439,3.150177002,-0.299755991,-0.283654671,-0.000008700,-1.586543902,-0.006643000,-0.003430426,0.009875958,-0.310353657
0.279974765,-0.017907999,-0.004005432,-0.039560318,-0.991217041,-0.002635000,-0.003623962,-0.021978378,-2.167025757,-0.003348000,-0.004005432,0.004396439,-0.971438599,0.414550006,0.363737106,0.004396439,2.857147217,-0.406866014,-0.388716908,-0.000006038,-1.686025585,-0.004427000,-0.002205079,0.010203786,-0.000997712,-0.008150000,0.005912781,0.004396439,-0.991217041,-0.001390000,0.000190735,-0.004396439,-0.971438599,0.074371003,0.069237709,0.065933228,0.523086548,0.268472999,0.202372551,-0.004396439,3.150177002,-0.299914986,-0.283654671,-0.000008700,-1.388353544,-0.006686000,-0.003430426,0.009875958,-0.133628538
0.281974584,-0.018103000,-0.004005432,0.004396439,-1.211463165,-0.002577000,-0.003623962,0.039560318,-2.764846802,-0.003393000,-0.004386902,-0.021978378,-0.074734497,0.414427996,0.363737106,0.004396439,2.857147217,-0.407059014,-0.388907320,-0.008781704,-1.785238323,-0.004903000,-0.002647846,-0.010209604,0.041446317,-0.008289000,0.005912781,0.013187408,-1.431740570,-0.001312000,0.000190735,0.013187408,-0.672528076,0.074332997,0.069237709,0.083517075,1.270321655,0.268673986,0.202372551,-0.004396439,3.150177002,-0.300081998,-0.283654671,-0.004394963,-1.487321333,-0.006728000,-0.003430426,-0.000004596,-0.354401420
0.283974404,-0.018293001,-0.004005432,0.021978378,-0.770939636,-0.002513000,-0.003623962,-0.021978378,-1.120880127,-0.003443000,-0.004386902,-0.004396439,-0.523086548,0.414306015,0.363737106,-0.004396439,3.150177002,-0.407260001,-0.388907320,-0.013182951,-1.785238323,-0.005405000,-0.002647846,-0.000011073,0.041446317,-0.008427000,0.005912781,-0.004396439,-1.652017975,-0.001232000,0.000190735,0.021978378,-1.270321655,0.074290998,0.069237709,0.109889984,1.718673706,0.268884003,0.202372551,-0.004396439,3.150177002,-0.300258994,-0.283654671,-0.004411407,-1.288946373,-0.006770000,-0.003430426,0.019745179,-0.354216818
0.285974224,-0.018476000,-0.004005432,-0.004396439,-1.211463165,-0.002446000,-0.003623962,-0.039560318,-2.167025757,-0.003496000,-0.004386902,-0.013187408,0.074734497,0.414184988,0.363737106,-0.004396439,2.710632324,-0.407467008,-0.388907320,-0.008781704,-1.785238323,-0.005928000,-0.002647846,-0.010209604,0.041446317,-0.008565000,0.005912781,0.021978378,-1.431740570,-0.001151000,0.000190735,-0.021978378,-1.569232178,0.074244998,0.069237709,0.065933228,1.270321655,0.269102007,0.202372551,-0.004396439,3.150177002,-0.300442994,-0.283654671,-0.008761923,-1.388168942,-0.006810000,-0.003430426,-0.029632778,-0.310169055
0.287974044,-0.018652000,-0.004005432,0.021978378,-1.211463165,-0.002375000,-0.003623962,0.039560318,-1.270321655,-0.003553000,-0.004386902,-0.074726105,-0.224176025,0.414063990,0.363737106,0.004396439,3.296691895,-0.407678992,-0.388907320,0.000007249,-1.884307372,-0.006471000,-0.002647846,-0.010204435,-0.086767482,-0.008701000,0.005912781,-0.013187408,-1.652017975,-0.001068000,0.000190735,-0.030769348,-0.523086548,0.074196003,0.069619179,0.065933228,0.672528076,0.269327998,0.202372551,-0.004396439,3.003662109,-0.300633997,-0.283654671,-0.008761923,-1.685766471,-0.006850000,-0.003430426,-0.029632778,-0.266305894
0.289973863,-0.018820999,-0.004005432,-0.004396439,-0.991217041,-0.002302000,-0.003242493,0.065933228,-0.523086548,-0.003611000,-0.004005432,0.030769348,-1.270321655,0.413944006,0.363737106,-0.004396439,2.564117432,-0.407896012,-0.388907320,-0.017555208,-1.586813198,-0.007028000,-0.002647846,-0.030621428,-0.043841680,-0.008837000,0.005912781,-0.021978378,-1.652017975,-0.000984000,0.000190735,-0.101099014,-1.569232178,0.074143998,0.069619179,0.021978378,0.821969604,0.269560993,0.202372551,-0.013187408,3.003662109,-0.300832003,-0.283654671,-0.008761923,-1.586543902,-0.006889000,-0.003430426,-0.029632778,-0.310353657
0.291973683,-0.018981000,-0.004005432,0.013187408,-1.211463165,-0.002228000,-0.003242493,-0.004396439,-2.167025757,-0.003672000,-0.004005432,0.013187408,-0.821969604,0.413823992,0.363737106,-0.004396439,2.857147217,-0.408116996,-0.388907320,-0.021941960,-1.586741442,-0.007597000,-0.002647846,-0.040827340,-0.129270578,-0.008970000,0.005912781,0.004396439,-1.431740570,-0.000899000,0.000190735,-0.083517075,-0.821969604,0.074088998,0.069619179,0.013187408,1.120880127,0.269800991,0.202372551,-0.004396439,3.443237305,-0.301037014,-0.283654671,-0.026321520,-1.586614080,-0.006926000,-0.003430426,-0.049396646,-0.222073530
0.293973503,-0.019131999,-0.004386902,-0.013187408,-1.211463165,-0.002153000,-0.003242493,0.004396439,-1.718673706,-0.003735000,-0.004386902,-0.021978378,0.971438599,0.413704008,0.363737106,-0.004396439,2.710632324,-0.408340991,-0.388907320,-0.017569703,-1.785094810,-0.008174000,-0.002647846,-0.010216985,-0.129411480,-0.009102000,0.005912781,-0.048351288,-1.652017975,-0.000813000,0.000190735,0.013187408,-1.120880127,0.074033000,0.069619179,0.013187408,1.120880127,0.270047009,0.202372551,-0.004396439,3.150177002,-0.301247001,-0.283844960,-0.030700282,-1.586585532,-0.006962000,-0.003859032,-0.059282401,-0.222236097
0.295973323,-0.019273000,-0.004386902,-0.030769348,-0.991217041,-0.002078000,-0.003242493,0.048351288,-0.971438599,-0.003798000,-0.004005432,0.021978378,-0.074734497,0.413585007,0.363737106,0.004396439,3.003662109,-0.408565998,-0.389097680,-0.030708188,-1.785077005,-0.008756000,-0.003090668,-0.061247390,-0.129615080,-0.009232000,0.005912781,-0.013187408,-1.872295380,-0.000728000,0.000190735,0.021978378,-0.373617554,0.073973998,0.069619179,0.013187408,1.718673706,0.270296991,0.202372551,-0.013187408,3.003662109,-0.301461995,-0.283844960,-0.030700282,-1.487357179,-0.006997000,-0.003859032,-0.059282401,-0.266270435
0.297973142,-0.019404000,-0.004386902,-0.030769348,-1.431740570,-0.002004000,-0.003242493,0.039560318,-0.971438599,-0.003861000,-0.004386902,-0.048351288,-0.821969604,0.413466007,0.363737106,0.013187408,2.857147217,-0.408793002,-0.389097680,-0.035059892,-1.785077005,-0.009339000,-0.003090668,-0.112270482,-0.129615080,-0.009360000,0.005912781,-0.021978378,-0.550662231,-0.000643000,0.000190735,-0.030769348,-0.821969604,0.073913999,0.070000648,0.039560318,1.120880127,0.270552993,0.202372551,-0.013187408,3.443237305,-0.301681012,-0.283844960,-0.021911311,-1.586585532,-0.007031000,-0.003859032,-0.059274205,-0.222236097
0.299972962,-0.019523000,-0.004386902,0.013187408,-1.652017975,-0.001932000,-0.003242493,0.004396439,-1.419790649,-0.003925000,-0.004005432,0.013187408,-0.224176025,0.413347989,0.363737106,0.004396439,3.003662109,-0.409020990,-0.389097680,-0.048233427,-1.785077005,-0.009921000,-0.003090668,-0.122486280,-0.129615080,-0.009484000,0.005912781,-0.004396439,-0.770939636,-0.000558000,0.000190735,-0.013187408,-0.821969604,0.073852003,0.070000648,0.039560318,1.120880127,0.270812005,0.202372551,-0.004396439,3.150177002,-0.301905006,-0.283844960,-0.008758651,-1.685732173,-0.007063000,-0.003859032,-0.029635589,-0.266476914
0.301972782,-0.019638000,-0.004386902,-0.013187408,-1.211463165,-0.001858000,-0.003242493,-0.039560318,-1.868142700,-0.003993000,-0.004005432,-0.004396439,-1.120880127,0.413228005,0.363737106,0.004396439,2.564117432,-0.409251988,-0.389287988,-0.052642831,-1.685760961,-0.010522000,-0.003533544,-0.091893038,-0.257861251,-0.009607000,0.005912781,0.030769348,-1.431740570,-0.000473000,0.000190735,-0.039560318,-1.120880127,0.073781997,0.070000648,0.092308044,1.569232178,0.271079987,0.202372551,0.004396439,3.296691895,-0.302139014,-0.284035202,-0.021970981,-1.685697906,-0.007094000,-0.004287687,-0.000028719,-0.266647957
0.303972602,-0.019755000,-0.004386902,0.004396439,-1.211463165,-0.001778000,-0.003242493,-0.021978378,-1.270321655,-0.004068000,-0.004005432,-0.013187408,-0.224176025,0.413105994,0.363737106,-0.004396439,2.710632324,-0.409491986,-0.389478243,-0.048227026,-1.884078617,-0.011167000,-0.003976476,-0.102104947,-0.258256476,-0.009729000,0.005912781,0.013187408,-1.431740570,-0.000387000,0.000190735,-0.013187408,-1.120880127,0.073696002,0.070000648,0.057142258,1.270321655,0.271362007,0.202372551,-0.004396439,3.443237305,-0.302390009,-0.284035202,0.000032635,-1.785025292,-0.007125000,-0.004287687,-0.029626916,-0.134356877
0.305972421,-0.019871000,-0.004386902,0.004396439,-0.991217041,-0.001691000,-0.003242493,-0.004396439,-1.270321655,-0.004152000,-0.004386902,-0.039560318,-0.373617554,0.412981004,0.363737106,-0.004396439,2.564117432,-0.409738988,-0.389478243,-0.057015014,-1.884186421,-0.011849000,-0.003976476,-0.102116039,-0.172843978,-0.009851000,0.005912781,0.013187408,-1.431740570,-0.000299000,0.000190735,-0.039560318,-0.821969604,0.073596001,0.070000648,-0.030769348,1.270321655,0.271656990,0.202372551,0.004396439,3.296691895,-0.302655995,-0.284035202,0.008755377,-1.785025292,-0.007156000,-0.004287687,0.029638402,-0.134356877
0.307972241,-0.019987000,-0.004386902,-0.039560318,-1.431740570,-0.001600000,-0.003242493,-0.039560318,-2.017584229,-0.004243000,-0.004386902,0.021978378,0.074734497,0.412854999,0.363737106,0.004396439,2.857147217,-0.409994006,-0.389858595,-0.083275752,-1.685653643,-0.012566000,-0.004862505,-0.163420950,-0.258412469,-0.009971000,0.005912781,0.013187408,-1.652017975,-0.000211000,0.000190735,-0.030769348,-0.373617554,0.073482998,0.070000648,0.030769348,0.672528076,0.271966010,0.202372551,-0.004396439,3.589752197,-0.302937001,-0.284035202,-0.004437517,-1.784932045,-0.007187000,-0.004287687,0.039496096,-0.222627051
0.309972061,-0.020101000,-0.004386902,0.013187408,-1.431740570,-0.001504000,-0.003242493,-0.030769348,-2.316494751,-0.004341000,-0.004386902,0.021978378,0.074734497,0.412728995,0.363737106,0.004396439,2.710632324,-0.410255998,-0.389858595,-0.074460204,-1.685653643,-0.013311000,-0.004862505,-0.183820548,-0.258412469,-0.010091000,0.005912781,-0.013187408,-2.312818909,-0.000121000,0.000190735,-0.048351288,-1.718673706,0.073357001,0.070000648,0.057142258,1.120880127,0.272287995,0.202372551,-0.004396439,2.857147217,-0.303232998,-0.284035202,0.004350494,-1.685791153,-0.007218000,-0.004287687,0.039507583,-0.178377783
0.311971881,-0.020212000,-0.004386902,-0.004396439,-1.211463165,-0.001404000,-0.003242493,0.013187408,-1.718673706,-0.004445000,-0.004005432,-0.021978378,-0.971438599,0.412602991,0.363737106,0.004396439,2.857147217,-0.410524011,-0.390048692,-0.091986185,-1.586490952,-0.014081000,-0.005305602,-0.204282487,-0.215747601,-0.010209000,0.005912781,-0.004396439,-1.431740570,-0.000029000,0.000190735,-0.013187408,-0.672528076,0.073220000,0.070000648,0.013187408,1.120880127,0.272621989,0.202372551,-0.004396439,3.296691895,-0.303541005,-0.284035202,0.004415763,-1.784932045,-0.007248000,-0.004287687,-0.019746248,-0.222627051
0.313971700,-0.020318000,-0.004386902,-0.013187408,-1.652017975,-0.001301000,-0.003242493,-0.057142258,-0.672528076,-0.004554000,-0.004005432,0.013187408,-0.672528076,0.412476987,0.363737106,0.004396439,2.857147217,-0.410798013,-0.390238737,-0.100781286,-1.784836960,-0.014872000,-0.005748755,-0.183911046,-0.216237716,-0.010326000,0.005912781,0.004396439,-1.872295380,0.000063000,0.000572205,0.030769348,-0.672528076,0.073072001,0.070000648,0.004396439,1.270321655,0.272967994,0.202372551,-0.004396439,3.296691895,-0.303860992,-0.284035202,-0.000010880,-1.884166184,-0.007277000,-0.004287687,0.009877067,-0.178606145
0.315971520,-0.020419000,-0.004386902,0.004396439,-1.872295380,-0.001195000,-0.003242493,0.039560318,-1.419790649,-0.004668000,-0.004386902,0.013187408,0.373617554,0.412351996,0.363737106,0.004396439,2.857147217,-0.411078006,-0.390428729,-0.109446585,-1.586431544,-0.015678000,-0.006191962,-0.245201200,-0.216097225,-0.010442000,0.005912781,0.021978378,-1.872295380,0.000156000,0.000572205,0.074726105,-0.373617554,0.072915003,0.070382118,0.039560318,0.672528076,0.273324996,0.202372551,-0.004396439,3.736267090,-0.304192990,-0.284035202,0.000010880,-1.784932045,-0.007305000,-0.004287687,-0.009877067,-0.222627051
0.317971340,-0.020514000,-0.004386902,0.004396439,-1.872295380,-0.001087000,-0.003242493,0.048351288,-1.718673706,-0.004787000,-0.004386902,0.013187408,0.971438599,0.412230015,0.363737106,-0.013187408,2.857147217,-0.411363006,-0.390618668,-0.113829490,-1.487135038,-0.016496001,-0.006635225,-0.235033583,-0.258785374,-0.010556000,0.005912781,0.021978378,-1.652017975,0.000251000,0.000572205,0.039560318,-1.419790649,0.072748996,0.070382118,0.057142258,1.868142700,0.273694009,0.202372551,0.004396439,3.296691895,-0.304535002,-0.284035202,-0.004394959,-1.983169591,-0.007332000,-0.004287687,-0.000005745,-0.311105841
0.319971160,-0.020601001,-0.004768372,-0.039560318,-1.211463165,-0.000978000,-0.003242493,0.030769348,-1.270321655,-0.004910000,-0.004386902,0.004396439,-0.224176025,0.412111014,0.363737106,0.004396439,2.857147217,-0.411653012,-0.390808555,-0.109348385,-1.586372220,-0.017321000,-0.007078543,-0.265683358,-0.216446974,-0.010669000,0.005531311,-0.021978378,-2.092541504,0.000347000,0.000572205,-0.013187408,-0.523086548,0.072576001,0.070382118,0.074726105,0.821969604,0.274073005,0.202372551,0.004396439,3.443237305,-0.304886997,-0.284035202,-0.004372248,-1.784816679,-0.007358000,-0.004287687,-0.019757735,-0.310887352
