sainanliu129-hub/model/applications/Body_GravityPara_Iden/data/跑步/PD-M1-v0_multi_joint_20260226-182352.csv
time,cmd_leg_l1_joint,pos_leg_l1_joint,vel_leg_l1_joint,torque_leg_l1_joint,cmd_leg_l2_joint,pos_leg_l2_joint,vel_leg_l2_joint,torque_leg_l2_joint,cmd_leg_l3_joint,pos_leg_l3_joint,vel_leg_l3_joint,torque_leg_l3_joint,cmd_leg_l4_joint,pos_leg_l4_joint,vel_leg_l4_joint,torque_leg_l4_joint,cmd_leg_l5_joint,pos_leg_l5_joint,vel_leg_l5_joint,torque_leg_l5_joint,cmd_leg_l6_joint,pos_leg_l6_joint,vel_leg_l6_joint,torque_leg_l6_joint,cmd_leg_r1_joint,pos_leg_r1_joint,vel_leg_r1_joint,torque_leg_r1_joint,cmd_leg_r2_joint,pos_leg_r2_joint,vel_leg_r2_joint,torque_leg_r2_joint,cmd_leg_r3_joint,pos_leg_r3_joint,vel_leg_r3_joint,torque_leg_r3_joint,cmd_leg_r4_joint,pos_leg_r4_joint,vel_leg_r4_joint,torque_leg_r4_joint,cmd_leg_r5_joint,pos_leg_r5_joint,vel_leg_r5_joint,torque_leg_r5_joint,cmd_leg_r6_joint,pos_leg_r6_joint,vel_leg_r6_joint,torque_leg_r6_joint
0.000000000,0.000000000,-0.027275085,0.030769348,3.193897247,0.000000000,0.004386902,0.039560318,-2.465936279,-0.044241000,-0.038338661,0.004396439,-1.419790649,0.457652986,0.349241257,0.276922226,3.443237305,-0.359522998,-0.333038735,-0.338363288,-1.587154203,0.000000000,-0.003041711,0.019731458,0.303023569,0.000000000,-0.015068054,0.004396439,1.872295380,0.000000000,0.001716614,-0.021978378,-0.523086548,0.056293000,0.047493935,0.039560318,3.512081909,0.316834986,0.219158173,0.259340286,3.589752197,-0.307476014,-0.280795948,-0.342737395,-1.190144193,0.000000000,-0.000431447,-0.049374022,0.044042452
0.002000000,0.000112000,-0.027275085,-0.030769348,2.973619843,-0.000094000,0.004386902,0.021978378,-3.063729858,-0.044202998,-0.038338661,0.004396439,-1.419790649,0.457679987,0.349622726,0.250549316,4.029296875,-0.359508008,-0.333420665,-0.360358571,-1.487844053,0.000000000,-0.002171991,0.069943508,0.259934623,-0.000085000,-0.015068054,-0.004396439,1.652017975,0.000081000,0.001716614,0.048351288,-0.672528076,0.056292001,0.047493935,0.021978378,2.465936279,0.316899002,0.219539642,0.215385437,3.589752197,-0.307521999,-0.281558633,-0.355920525,-1.388485289,0.000002000,-0.000431501,-0.039519569,-0.044314995
0.004000000,0.000222000,-0.027275085,0.004396439,2.973619843,-0.000182000,0.004386902,-0.004396439,-2.465936279,-0.044165999,-0.038720131,-0.092308044,-0.821969604,0.457706004,0.350385666,0.312088013,3.882781982,-0.359494001,-0.334183353,-0.351593505,-1.289491267,0.000000000,-0.002172463,0.110080395,0.259985958,-0.000169000,-0.015068054,-0.004396439,1.652017975,0.000156000,0.001716614,-0.004396439,-0.672528076,0.056290999,0.047493935,0.101099014,3.213198853,0.316962987,0.219921112,0.224176407,3.589752197,-0.307576001,-0.282321319,-0.360318743,-1.586837988,0.000006000,-0.000431556,-0.009917324,-0.044326574
0.006000000,0.000330000,-0.027275085,0.030769348,3.193897247,-0.000267000,0.004386902,0.021978378,-2.615377808,-0.044128999,-0.038720131,-0.065933228,-0.224176025,0.457731009,0.350767136,0.338460922,3.589752197,-0.359479994,-0.334946041,-0.369158114,-1.289491341,0.000000000,-0.002172933,0.090032529,0.259923946,-0.000251000,-0.015068054,-0.004396439,1.652017975,0.000226000,0.001716614,-0.083517075,-0.523086548,0.056288999,0.047493935,-0.021978378,3.512081909,0.317025989,0.220302582,0.197801590,3.736267090,-0.307637990,-0.283084004,-0.347132490,-1.884372844,0.000013000,-0.000431612,-0.039536799,-0.000206902
0.008000000,0.000435000,-0.027275085,0.021978378,3.193897247,-0.000346000,0.004386902,0.048351288,-2.914288330,-0.044093002,-0.038720131,-0.039560318,-0.971438599,0.457753986,0.351530075,0.417581558,4.175811768,-0.359465986,-0.335709116,-0.369159264,-1.190297058,0.000000000,-0.001302732,0.150354935,0.390493276,-0.000331000,-0.015068054,-0.004396439,1.652017975,0.000291000,0.001716614,0.057142258,-1.270321655,0.056286000,0.047875404,0.074726105,2.764846802,0.317086995,0.220684052,0.180219650,3.882781982,-0.307707012,-0.283846690,-0.373499709,-1.983543383,0.000021000,-0.000431668,-0.019798230,-0.044349793
0.010000000,0.000537000,-0.027275085,0.021978378,3.193897247,-0.000421000,0.004386902,-0.057142258,-3.063729858,-0.044057999,-0.039101601,-0.030769348,-0.672528076,0.457776010,0.352674484,0.461538315,3.443237305,-0.359452009,-0.336471804,-0.382330985,-1.388672105,0.000000000,-0.001302995,0.120278092,0.390342122,-0.000409000,-0.015068054,0.021978378,1.872295380,0.000350000,0.001716614,-0.083517075,-0.971438599,0.056281999,0.047875404,0.039560318,3.661550903,0.317148000,0.221065521,0.180219650,4.029296875,-0.307783008,-0.284418653,-0.364699823,-2.281122577,0.000032000,-0.000860211,-0.059355253,-0.000502109
0.012000000,0.000636000,-0.027275085,-0.004396439,3.193897247,-0.000490000,0.004386902,-0.048351288,-2.316494751,-0.044024002,-0.039101601,-0.030769348,-1.718673706,0.457796991,0.353437424,0.452747345,3.736267090,-0.359438002,-0.337234492,-0.377933542,-1.487773812,0.000000000,-0.001303256,0.110270236,0.259966575,-0.000484000,-0.015068054,0.004396439,1.872295380,0.000404000,0.001716614,0.004396439,-1.419790649,0.056278002,0.047875404,0.057142258,3.512081909,0.317207009,0.221446991,0.180219650,3.882781982,-0.307864994,-0.285181338,-0.338340069,-2.082770874,0.000044000,-0.000860370,-0.039605075,0.087779263
0.014000000,0.000731000,-0.027275085,0.021978378,2.973619843,-0.000553000,0.004386902,0.039560318,-2.914288330,-0.043990999,-0.039101601,-0.109889984,-0.672528076,0.457816005,0.354200363,0.356044769,3.443237305,-0.359425008,-0.337997180,-0.369144582,-1.586989991,0.000000000,-0.001303516,0.110297679,0.303282977,-0.000554000,-0.015068054,0.004396439,1.652017975,0.000453000,0.001716614,-0.004396439,-0.971438599,0.056272998,0.047875404,0.004396439,2.764846802,0.317265004,0.221828461,0.197801590,4.029296875,-0.307953000,-0.285944023,-0.342736257,-2.082770871,0.000058000,-0.000860530,-0.029734618,0.087758499
0.016000000,0.000822000,-0.027275085,-0.004396439,3.193897247,-0.000612000,0.004386902,0.030769348,-3.063729858,-0.043958999,-0.039101601,-0.065933228,-1.120880127,0.457834005,0.354963303,0.303297043,3.150177002,-0.359411001,-0.338569314,-0.369122761,-1.487715249,0.000000000,-0.000867991,0.070198096,0.173239192,-0.000621000,-0.015068054,0.013187408,1.872295380,0.000496000,0.001716614,-0.039560318,0.074734497,0.056267001,0.047875404,-0.039560318,2.167025757,0.317321986,0.222209930,0.189010620,4.175811768,-0.308046997,-0.286706707,-0.338343462,-2.082770869,0.000073000,-0.000860691,-0.019855116,0.087737736
0.018000000,0.000909000,-0.027275085,-0.013187408,3.193897247,-0.000664000,0.004386902,-0.021978378,-2.316494751,-0.043926999,-0.039101601,-0.039560318,-1.569232178,0.457850009,0.355344772,0.294506073,3.589752197,-0.359398007,-0.339332002,-0.347145779,-1.785232883,0.000000000,-0.000868146,0.040086914,0.129744715,-0.000682000,-0.015068054,-0.004396439,1.652017975,0.000535000,0.001716614,-0.013187408,-1.270321655,0.056260001,0.047875404,0.021978378,2.914288330,0.317378014,0.222591400,0.162637711,4.029296875,-0.308147013,-0.287278621,-0.320778260,-2.082782517,0.000090000,-0.001289686,0.019643453,0.087492312
0.020000000,0.000992000,-0.027275085,0.039560318,2.533096313,-0.000711000,0.004386902,-0.074726105,-1.718673706,-0.043896999,-0.039483070,-0.074726105,-0.373617554,0.457865000,0.356107712,0.285715103,3.882781982,-0.359385997,-0.340094691,-0.325167835,-1.884397670,0.000000000,-0.000868300,0.009959288,0.086316296,-0.000738000,-0.015068054,-0.004396439,1.872295380,0.000568000,0.001716614,-0.004396439,-1.270321655,0.056253001,0.047875404,0.057142258,3.063729858,0.317431986,0.222972870,0.215385437,3.296691895,-0.308250993,-0.287850735,-0.294419795,-1.785208089,0.000108000,-0.000860934,0.059244337,0.043684264
0.022000000,0.001070000,-0.027275085,0.004396439,3.414174652,-0.000752000,0.004386902,-0.039560318,-2.465936279,-0.043868002,-0.039483070,-0.065933228,0.074734497,0.457877994,0.356870651,0.329669952,3.443237305,-0.359373003,-0.340857856,-0.316365930,-1.586833325,0.000000000,-0.000869544,-0.050332095,-0.043729524,-0.000788000,-0.015068054,0.004396439,1.652017975,0.000597000,0.001716614,-0.057142258,-1.569232178,0.056244999,0.047875404,-0.004396439,2.764846802,0.317485005,0.223354340,0.206592560,3.443237305,-0.308360010,-0.288422802,-0.276841557,-1.785213882,0.000126000,-0.000432031,0.098849054,0.132014345
0.024000000,0.001142000,-0.027275085,0.021978378,2.973619843,-0.000786000,0.004386902,0.021978378,-3.512081909,-0.043839999,-0.039483070,-0.057142258,-0.971438599,0.457888007,0.357252121,0.364835739,3.296691895,-0.359360993,-0.341239677,-0.298784310,-1.785209617,0.000000000,-0.000868530,-0.070436456,0.042948753,-0.000832000,-0.015068054,0.030769348,1.872295380,0.000621000,0.001716614,-0.013187408,-0.074734497,0.056235999,0.047875404,0.039560318,2.764846802,0.317535996,0.223735809,0.197801590,3.150177002,-0.308472991,-0.288804145,-0.254878154,-1.983588717,0.000146000,-0.000432064,0.168092046,0.131986882
0.026000000,0.001209000,-0.027275085,0.013187408,2.973619843,-0.000815000,0.004386902,-0.048351288,-3.063729858,-0.043814000,-0.039483070,-0.013187408,-0.821969604,0.457897007,0.358396530,0.443956375,3.882781982,-0.359349012,-0.341811577,-0.298762309,-1.487668720,0.000000000,-0.001304803,-0.110699067,-0.000513041,-0.000868000,-0.015068054,-0.004396439,1.872295380,0.000640000,0.001716614,0.004396439,-1.270321655,0.056226999,0.047875404,0.030769348,2.764846802,0.317586005,0.224117279,0.215385437,3.150177002,-0.308589011,-0.289376166,-0.237283484,-1.289314757,0.000167000,-0.000002960,0.207720220,0.088115323
0.028000000,0.001271000,-0.027275085,-0.021978378,2.973619843,-0.000836000,0.004386902,-0.013187408,-3.661550903,-0.043788001,-0.039864540,-0.013187408,-0.523086548,0.457904011,0.359159470,0.426374435,2.417572021,-0.359337002,-0.342574266,-0.294351868,-1.586827617,0.000000000,-0.001305057,-0.160999369,-0.043888576,-0.000896000,-0.015068054,0.074726105,1.652017975,0.000654000,0.001716614,-0.021978378,-0.821969604,0.056217000,0.047875404,0.057142258,3.063729858,0.317633986,0.224498749,0.215385437,3.443237305,-0.308708996,-0.289948140,-0.237264878,-1.487667392,0.000188000,0.000426295,0.168216162,0.000165278
0.030000000,0.001326000,-0.027275085,0.039560318,2.973619843,-0.000851000,0.004386902,0.004396439,-2.316494751,-0.043763999,-0.039864540,-0.109889984,-0.523086548,0.457908988,0.359922409,0.382417679,3.589752197,-0.359326005,-0.343146116,-0.303139811,-1.289315983,0.000000000,-0.001741590,-0.120847051,-0.000593263,-0.000916000,-0.015068054,-0.004396439,1.872295380,0.000664000,0.001716614,-0.039560318,-1.120880127,0.056207001,0.047875404,0.039560318,3.362640381,0.317681015,0.225261688,0.224176407,3.443237305,-0.308831006,-0.290329483,-0.219688804,-1.487678864,0.000209000,0.000426362,0.168233469,-0.087923588
0.032000000,0.001374000,-0.027275085,0.004396439,3.414174652,-0.000860000,0.004005432,-0.074726105,-1.868142700,-0.043740999,-0.039864540,-0.083517075,-0.373617554,0.457911998,0.360685349,0.312088013,3.150177002,-0.359315008,-0.343717917,-0.294336849,-1.289316117,0.000000000,-0.002178278,-0.120901977,-0.000741793,-0.000927000,-0.015068054,0.021978378,1.872295380,0.000669000,0.001716614,-0.004396439,-0.224176025,0.056196000,0.047875404,0.004396439,2.764846802,0.317725986,0.225643158,0.180219650,3.589752197,-0.308955997,-0.290901410,-0.210881154,-1.289360782,0.000231000,0.000855818,0.168291989,-0.175860405
0.034000000,0.001417000,-0.027275085,0.039560318,2.973619843,-0.000861000,0.004005432,0.030769348,-3.512081909,-0.043719999,-0.039864540,-0.065933228,-0.373617554,0.457911998,0.361066818,0.276922226,2.857147217,-0.359304011,-0.344289668,-0.298751580,-0.991892584,0.000000000,-0.002615123,-0.070666557,0.129267642,-0.000930000,-0.015068054,0.004396439,1.872295380,0.000670000,0.001716614,-0.004396439,-1.569232178,0.056184001,0.047875404,0.074726105,2.167025757,0.317770004,0.226024628,0.189010620,3.443237305,-0.309083998,-0.291091947,-0.210875655,-1.190155727,0.000253000,0.001285258,0.128739593,-0.043637905
0.036000000,0.001457000,-0.027275085,0.039560318,2.973619843,-0.000856000,0.004005432,0.004396439,-2.167025757,-0.043698002,-0.040246010,-0.083517075,-1.718673706,0.457911015,0.361829758,0.268131256,3.296691895,-0.359293014,-0.344861952,-0.298771325,-0.892727769,0.000000000,-0.002178967,-0.050514487,0.172725910,-0.000929000,-0.015068054,0.013187408,1.652017975,0.000663000,0.001716614,-0.021978378,-1.270321655,0.056163002,0.047875404,0.039560318,2.764846802,0.317811012,0.226406097,0.189010620,3.443237305,-0.309222013,-0.291664096,-0.215313465,-1.090962022,0.000278000,0.000856051,0.000056319,0.000242292
0.038000000,0.001497000,-0.027275085,-0.004396439,2.753342438,-0.000845000,0.004005432,0.074726105,-2.615377808,-0.043676000,-0.040246010,-0.074726105,-0.224176025,0.457908988,0.362211227,0.241758347,3.736267090,-0.359281003,-0.345433703,-0.281231127,-1.190316134,0.000000000,-0.002615966,0.009836972,0.215687992,-0.000929000,-0.015068054,0.013187408,1.652017975,0.000649000,0.001716614,-0.039560318,-0.971438599,0.056132000,0.047875404,0.013187408,3.063729858,0.317851007,0.226787567,0.162637711,3.443237305,-0.309372991,-0.292045440,-0.206520080,-1.190149893,0.000307000,0.000856167,0.019854912,-0.043756857
0.040000000,0.001537000,-0.027275085,0.039560318,2.753342438,-0.000829000,0.004005432,0.013187408,-2.914288330,-0.043653999,-0.040246010,-0.030769348,-1.419790649,0.457904994,0.362592697,0.294506073,3.589752197,-0.359268993,-0.346005986,-0.263700402,-1.190286634,0.000000000,-0.002179654,0.090413035,0.215786939,-0.000928000,-0.015068054,0.004396439,1.872295380,0.000627000,0.001716614,-0.039560318,-0.672528076,0.056090999,0.047875404,0.057142258,3.063729858,0.317887992,0.226787567,0.162637711,3.882781982,-0.309534013,-0.292426783,-0.224118145,-1.090962022,0.000340000,0.000856283,-0.079147657,0.000242438
0.042000000,0.001575000,-0.027275085,0.021978378,2.973619843,-0.000808000,0.004005432,-0.065933228,-3.213198853,-0.043632001,-0.040246010,-0.021978378,-0.373617554,0.457899988,0.363355637,0.312088013,3.150177002,-0.359255999,-0.346577738,-0.224239414,-0.991963295,0.000000000,-0.002616808,0.201170966,0.215747450,-0.000926000,-0.015068054,0.021978378,1.652017975,0.000599000,0.001716614,-0.101099014,-0.971438599,0.056040999,0.047875404,-0.030769348,2.465936279,0.317923993,0.227169037,0.162637711,3.882781982,-0.309706002,-0.292808126,-0.232906185,-0.892609315,0.000376000,0.000856399,-0.079154574,0.000198419
0.044000000,0.001612000,-0.026893616,0.030769348,2.973619843,-0.000782000,0.004005432,0.021978378,-3.362640381,-0.043611001,-0.040246010,-0.021978378,-0.373617554,0.457893997,0.364500046,0.408790588,4.029296875,-0.359243989,-0.347150403,-0.219772480,-1.091068810,0.000000000,-0.001306566,0.191229219,0.259298778,-0.000925000,-0.015068054,-0.021978378,1.652017975,0.000564000,0.001716614,0.083517075,-0.373617554,0.055985000,0.047875404,-0.030769348,1.718673706,0.317959011,0.227550507,0.136262894,4.029296875,-0.309888005,-0.293380226,-0.237300115,-0.892597802,0.000415000,0.000426889,-0.148523999,0.088106298
0.046000000,0.001647000,-0.026893616,0.030769348,2.753342438,-0.000752000,0.004005432,-0.021978378,-2.615377808,-0.043589000,-0.040627480,0.021978378,-0.971438599,0.457888007,0.365262985,0.399999619,3.003662109,-0.359232008,-0.347531748,-0.210977508,-1.190262907,0.000000000,-0.001306690,0.171115003,0.302507749,-0.000923000,-0.015068054,-0.004396439,1.652017975,0.000524000,0.001716614,0.013187408,-1.419790649,0.055920999,0.047875404,0.021978378,2.465936279,0.317992985,0.227931976,0.153846741,3.589752197,-0.310077995,-0.293952279,-0.228495621,-0.892609352,0.000456000,-0.000002770,-0.188201080,0.087992096
0.048000000,0.001681000,-0.026893616,0.004396439,3.193897247,-0.000718000,0.004005432,-0.074726105,-3.063729858,-0.043568999,-0.040627480,-0.092308044,-0.373617554,0.457879990,0.366025925,0.399999619,3.736267090,-0.359219998,-0.348103880,-0.188989119,-1.190221650,0.000000000,-0.000869862,0.181249515,0.302591805,-0.000920000,-0.015068054,0.004396439,1.652017975,0.000478000,0.001716614,-0.048351288,0.224176025,0.055852000,0.047875404,0.030769348,2.615377808,0.318026006,0.228313446,0.162637711,3.589752197,-0.310276985,-0.294333622,-0.232889625,-1.090962052,0.000500000,-0.000002756,-0.158504312,0.087981931
0.050000000,0.001712000,-0.026893616,0.030769348,2.973619843,-0.000680000,0.004005432,-0.004396439,-3.063729858,-0.043550000,-0.040627480,-0.013187408,-0.971438599,0.457870990,0.366788864,0.312088013,3.296691895,-0.359207988,-0.348294617,-0.162601821,-1.289339348,0.000000000,-0.000432859,0.161143889,0.172907896,-0.000918000,-0.015068054,0.021978378,1.652017975,0.000428000,0.001716614,0.039560318,-1.120880127,0.055778001,0.047875404,-0.013187408,3.213198853,0.318058014,0.228694916,0.162637711,3.589752197,-0.310481995,-0.294905626,-0.232872008,-1.090973628,0.000546000,-0.000432616,-0.158562249,0.087845576
0.052000000,0.001741000,-0.026893616,0.013187408,2.973619843,-0.000638000,0.004005432,0.013187408,-3.661550903,-0.043531999,-0.040627480,-0.004396439,-0.523086548,0.457861990,0.367170334,0.268131256,3.589752197,-0.359196991,-0.348675961,-0.153811473,-1.190168740,0.000000000,-0.000432879,0.141016656,0.216157815,-0.000915000,-0.015068054,0.004396439,1.872295380,0.000373000,0.001716614,-0.004396439,-0.672528076,0.055700000,0.048256874,0.065933228,2.615377808,0.318091005,0.228694916,0.153846741,3.443237305,-0.310692996,-0.295096239,-0.202106293,-1.190149980,0.000593000,-0.000862539,-0.109048961,0.043716768
0.054000000,0.001767000,-0.026893616,-0.004396439,3.414174652,-0.000593000,0.004005432,-0.048351288,-3.213198853,-0.043515000,-0.040627480,-0.039560318,-0.224176025,0.457852006,0.367933273,0.259340286,3.296691895,-0.359187007,-0.348866648,-0.131824180,-1.190139265,0.000000000,0.000004227,0.090671604,0.216282914,-0.000911000,-0.015068054,0.021978378,1.652017975,0.000315000,0.001716614,-0.004396439,-0.672528076,0.055619001,0.048256874,-0.092308044,2.764846802,0.318123013,0.229076385,0.180219650,3.443237305,-0.310909003,-0.295668146,-0.206498052,-1.388508546,0.000642000,-0.001292650,-0.079365481,0.043510741
0.056000000,0.001790000,-0.026893616,0.004396439,3.414174652,-0.000545000,0.004005432,-0.048351288,-2.914288330,-0.043499999,-0.040627480,-0.065933228,-1.270321655,0.457841992,0.368314743,0.224176407,3.296691895,-0.359178007,-0.349247992,-0.127429203,-1.190139279,0.000000000,0.000004259,0.000000198,0.216257210,-0.000908000,-0.015068054,0.004396439,1.652017975,0.000253000,0.001716614,-0.074726105,-1.419790649,0.055535998,0.048256874,-0.039560318,3.213198853,0.318156004,0.229457855,0.180219650,3.736267090,-0.311129987,-0.296049488,-0.184556722,-1.586861267,0.000691000,-0.001292788,0.009838375,0.043439419
0.058000000,0.001810000,-0.026893616,0.021978378,2.753342438,-0.000495000,0.004005432,-0.048351288,-2.764846802,-0.043488000,-0.041008949,-0.039560318,0.074734497,0.457830995,0.368696213,0.276922226,3.296691895,-0.359171003,-0.349438628,-0.123036350,-1.190121744,0.000000000,0.000441468,-0.010059162,0.129884339,-0.000904000,-0.015068054,-0.004396439,1.652017975,0.000189000,0.001716614,0.013187408,-0.821969604,0.055452000,0.048256874,0.039560318,2.167025757,0.318188995,0.229839325,0.180219650,3.150177002,-0.311354011,-0.296240266,-0.158203792,-1.686020152,0.000741000,-0.000862803,0.069344164,-0.000374168
0.060000000,0.001827000,-0.026893616,0.004396439,3.193897247,-0.000442000,0.004005432,0.065933228,-2.914288330,-0.043476999,-0.041008949,-0.065933228,-0.672528076,0.457819015,0.369459152,0.285715103,3.003662109,-0.359164000,-0.349629337,-0.096671118,-1.289315955,0.000000000,0.000004292,-0.010076602,0.086492528,-0.000900000,-0.015068054,-0.013187408,1.872295380,0.000123000,0.001716614,0.065933228,-0.373617554,0.055367999,0.048256874,0.057142258,3.213198853,0.318224013,0.230220795,0.197801590,3.443237305,-0.311580002,-0.296621608,-0.171397803,-1.686043367,0.000792000,-0.000862892,0.118916540,0.087546050
0.062000000,0.001839000,-0.026893616,0.021978378,2.973619843,-0.000387000,0.004005432,-0.004396439,-3.213198853,-0.043469001,-0.041008949,0.004396439,-1.120880127,0.457807988,0.369840622,0.303297043,3.443237305,-0.359158993,-0.349819996,-0.083476479,-0.991815877,0.000000000,-0.000432937,-0.100787242,0.216103521,-0.000895000,-0.015068054,0.039560318,1.652017975,0.000054000,0.001716614,0.021978378,-1.270321655,0.055284999,0.048256874,-0.048351288,2.914288330,0.318259001,0.230602264,0.206592560,3.443237305,-0.311807990,-0.297193681,-0.140628818,-2.082725510,0.000842000,-0.000432844,0.148706785,-0.000230756
0.064000000,0.001847000,-0.026893616,-0.021978378,2.973619843,-0.000331000,0.004005432,0.030769348,-2.167025757,-0.043462999,-0.041008949,-0.048351288,0.672528076,0.457796007,0.370603561,0.382417679,3.296691895,-0.359154999,-0.349819996,-0.087867949,-1.190157138,0.000000000,-0.000432937,-0.131022162,0.129593330,-0.000890000,-0.015068054,-0.004396439,1.872295380,-0.000015000,0.001716614,-0.083517075,-1.569232178,0.055204000,0.048256874,0.048351288,2.465936279,0.318295985,0.231365204,0.206592560,3.443237305,-0.312036991,-0.297193681,-0.105477930,-1.884372807,0.000893000,-0.000432844,0.168543360,-0.000208780
0.066000000,0.001851000,-0.026893616,-0.021978378,2.973619843,-0.000273000,0.004005432,0.004396439,-3.213198853,-0.043460999,-0.041008949,0.004396439,-0.523086548,0.457783014,0.371366501,0.347251892,3.003662109,-0.359153986,-0.350010605,-0.065865490,-1.091033589,0.000000000,-0.000870220,-0.201584589,0.259193482,-0.000885000,-0.015068054,-0.013187408,1.652017975,-0.000085000,0.001716614,-0.039560318,-0.672528076,0.055125002,0.048256874,0.057142258,2.167025757,0.318334997,0.231746674,0.189010620,3.150177002,-0.312265992,-0.297384363,-0.074700082,-1.983549175,0.000942000,-0.000002656,0.218147132,0.043950643
0.068000000,0.001848000,-0.026893616,0.030769348,2.753342438,-0.000209000,0.004005432,-0.004396439,-3.213198853,-0.043460999,-0.041008949,-0.021978378,-0.074734497,0.457769990,0.372129440,0.356044769,3.443237305,-0.359154999,-0.350201163,-0.061444679,-1.091069039,0.000000000,-0.001307556,-0.211682992,0.259051217,-0.000875000,-0.015068054,0.013187408,1.872295380,-0.000160000,0.001716614,-0.039560318,-0.672528076,0.055048000,0.048256874,0.004396439,2.764846802,0.318374991,0.232128143,0.171428680,3.589752197,-0.312496990,-0.297574998,-0.070285105,-2.082759150,0.000992000,0.000427584,0.188421422,-0.087670951
0.070000000,0.001829000,-0.026893616,-0.004396439,3.634420776,-0.000123000,0.004005432,-0.083517075,-2.914288330,-0.043466002,-0.041008949,-0.030769348,-0.523086548,0.457749993,0.372510910,0.285715103,3.443237305,-0.359160990,-0.350391671,-0.074588247,-0.991951564,0.000000000,-0.001744945,-0.241949562,0.302190274,-0.000847000,-0.015068054,0.039560318,1.652017975,-0.000254000,0.001716614,0.039560318,-1.120880127,0.054967001,0.048256874,-0.021978378,2.914288330,0.318414003,0.232128143,0.162637711,3.736267090,-0.312736005,-0.297765585,-0.052687100,-1.983605977,0.001046000,0.000857876,0.188435422,-0.131400111
0.072000000,0.001796000,-0.026893616,0.021978378,2.973619843,-0.000015000,0.003623962,-0.057142258,-3.063729858,-0.043474998,-0.041390419,-0.083517075,-0.971438599,0.457726002,0.373273849,0.241758347,2.857147217,-0.359171987,-0.350582129,-0.092147935,-1.091140017,0.000000000,-0.002182388,-0.221827044,0.258766507,-0.000802000,-0.015068054,0.004396439,1.872295380,-0.000365000,0.001716614,-0.004396439,-1.270321655,0.054880999,0.048256874,-0.048351288,1.868142700,0.318453014,0.232509613,0.153846741,3.443237305,-0.312983990,-0.297765274,-0.052653971,-1.884419330,0.001103000,0.001718402,0.168616862,-0.087048025
0.074000000,0.001751000,-0.026893616,0.013187408,3.634420776,0.000112000,0.004005432,0.004396439,-3.063729858,-0.043488000,-0.041390419,-0.065933228,-0.373617554,0.457697004,0.373655319,0.215385437,3.003662109,-0.359187007,-0.350772536,-0.092179137,-1.190387367,0.000000000,-0.002619884,-0.141207128,0.301785397,-0.000741000,-0.015068054,0.004396439,1.872295380,-0.000491000,0.001716614,0.004396439,-0.821969604,0.054792002,0.048256874,0.048351288,2.017584229,0.318491012,0.232891083,0.153846741,3.443237305,-0.313239992,-0.297765274,-0.048264377,-1.785219849,0.001162000,0.001718402,0.158697796,-0.043148182
0.076000000,0.001695000,-0.026512146,0.057142258,3.414174652,0.000254000,0.004005432,0.039560318,-3.063729858,-0.043504000,-0.041390419,-0.021978378,-0.224176025,0.457664996,0.374036789,0.206592560,3.296691895,-0.359207004,-0.350962893,-0.079004276,-1.091376015,0.000000000,-0.003057434,-0.110970338,0.431391175,-0.000667000,-0.015068054,0.004396439,1.652017975,-0.000631000,0.001716614,-0.039560318,-0.821969604,0.054699998,0.048256874,-0.004396439,2.465936279,0.318529993,0.233272552,0.153846741,3.736267090,-0.313502014,-0.297955718,-0.026325397,-2.082863781,0.001223000,0.002148799,0.069441027,-0.174614657
0.078000000,0.001629000,-0.026893616,0.004396439,3.414174652,0.000409000,0.004005432,-0.057142258,-2.914288330,-0.043522000,-0.041390419,-0.048351288,-0.821969604,0.457630992,0.374418259,0.180219650,3.589752197,-0.359230012,-0.350962893,-0.065830416,-0.992218613,0.000000000,-0.003057434,-0.100876610,0.474708502,-0.000583000,-0.015068054,0.039560318,1.652017975,-0.000780000,0.001716614,-0.048351288,-1.569232178,0.054606002,0.048256874,0.057142258,2.465936279,0.318569005,0.233654022,0.145055771,3.150177002,-0.313771009,-0.297955718,0.030736945,-1.785225805,0.001286000,0.002148799,-0.039689680,-0.042946580
0.080000000,0.001556000,-0.026512146,0.030769348,3.634420776,0.000576000,0.003623962,-0.004396439,-2.764846802,-0.043543998,-0.041390419,-0.013187408,0.373617554,0.457594007,0.374799728,0.206592560,3.589752197,-0.359257013,-0.351153199,-0.043858021,-1.091435207,0.000000000,-0.003495037,-0.090786189,0.431237738,-0.000490000,-0.015068054,-0.004396439,1.872295380,-0.000939000,0.001716614,0.039560318,-0.821969604,0.054510001,0.048256874,0.057142258,2.465936279,0.318607986,0.234035492,0.136262894,3.296691895,-0.314043999,-0.297955718,0.026337405,-1.884431084,0.001350000,0.002148799,-0.049604152,-0.086832674
0.082000000,0.001477000,-0.026512146,0.004396439,2.973619843,0.000750000,0.004005432,0.004396439,-2.764846802,-0.043567002,-0.041390419,-0.021978378,-0.821969604,0.457556993,0.375181198,0.224176407,3.736267090,-0.359288007,-0.351153199,-0.017567646,-1.190681006,0.000000000,-0.003495037,-0.010100953,0.474380313,-0.000391000,-0.015068054,0.057142258,1.872295380,-0.001104000,0.001716614,-0.048351288,-1.120880127,0.054412998,0.048256874,0.048351288,2.316494751,0.318648994,0.234035492,0.127471924,3.736267090,-0.314319998,-0.297765274,0.026324298,-1.686112824,0.001414000,0.001718402,-0.089266808,-0.175024570
0.084000000,0.001393000,-0.026512146,0.021978378,2.753342438,0.000929000,0.003623962,0.004396439,-2.167025757,-0.043591999,-0.041390419,-0.057142258,-1.419790649,0.457520992,0.375562668,0.241758347,3.589752197,-0.359322011,-0.351153199,0.013144710,-1.190681006,0.000000000,-0.003495037,0.040343711,0.474380313,-0.000287000,-0.015068054,-0.004396439,1.872295380,-0.001273000,0.001716614,-0.013187408,-1.270321655,0.054315999,0.048256874,0.039560318,1.868142700,0.318691999,0.234416962,0.145055771,3.736267090,-0.314599991,-0.297765274,0.030732530,-1.586913344,0.001478000,0.001718402,-0.059516705,-0.131124727
0.086000000,0.001306000,-0.026512146,0.013187408,3.414174652,0.001111000,0.003623962,0.013187408,-3.063729858,-0.043618999,-0.041390419,-0.039560318,0.224176025,0.457484990,0.376325607,0.250549316,3.296691895,-0.359358013,-0.351153199,0.026337004,-1.190564597,0.000000000,-0.003495037,0.030274111,0.387921317,-0.000182000,-0.015068054,0.013187408,1.652017975,-0.001443000,0.001716614,-0.039560318,-0.821969604,0.054219000,0.048256874,-0.039560318,2.167025757,0.318735987,0.234798431,0.145055771,3.736267090,-0.314882010,-0.297765274,0.026360621,-1.686066596,0.001542000,0.001718402,-0.009930622,-0.087136455
0.088000000,0.001218000,-0.026512146,0.021978378,3.414174652,0.001293000,0.004005432,-0.013187408,-2.316494751,-0.043646999,-0.041390419,-0.013187408,-0.523086548,0.457450986,0.376707077,0.285715103,3.443237305,-0.359396994,-0.350962893,0.039449107,-0.992218613,0.000000000,-0.003057434,0.121015962,0.474708502,-0.000077000,-0.015068054,0.013187408,1.872295380,-0.001614000,0.001716614,-0.039560318,-0.821969604,0.054122999,0.048256874,0.065933228,2.465936279,0.318782002,0.234798431,0.109889984,3.589752197,-0.315164000,-0.297765274,0.004394968,-1.686066596,0.001603000,0.001718402,-0.000002312,-0.087136455
0.090000000,0.001130000,-0.026512146,0.004396439,3.634420776,0.001473000,0.003623962,-0.048351288,-2.316494751,-0.043675002,-0.041771889,-0.039560318,-0.672528076,0.457419991,0.377470016,0.320878983,3.443237305,-0.359438002,-0.350962893,0.043868543,-0.893000875,0.000000000,-0.003057434,0.090774500,0.431561357,0.000026000,-0.015068054,-0.030769348,1.431740570,-0.001781000,0.001716614,-0.039560318,-1.718673706,0.054028999,0.048256874,0.048351288,2.316494751,0.318830013,0.235179901,0.153846741,3.296691895,-0.315447003,-0.297765274,-0.004376330,-1.487667635,0.001663000,0.001718402,0.039671480,0.000663231
0.092000000,0.001045000,-0.026512146,0.013187408,3.193897247,0.001647000,0.003623962,-0.057142258,-2.764846802,-0.043703999,-0.041771889,-0.048351288,-0.971438599,0.457392991,0.377851486,0.329669952,3.736267090,-0.359481007,-0.350772536,0.035048140,-0.892941736,0.000000000,-0.002619884,0.151240972,0.431691769,0.000123000,-0.015068054,-0.004396439,1.652017975,-0.001944000,0.001716614,-0.030769348,-1.419790649,0.053936001,0.048256874,0.004396439,2.615377808,0.318881989,0.235561371,0.145055771,3.296691895,-0.315728009,-0.297765274,0.004411700,-1.686020368,0.001720000,0.001718402,0.039666858,0.000751660
0.094000000,0.000963000,-0.026512146,-0.004396439,2.533096313,0.001813000,0.003623962,0.021978378,-2.914288330,-0.043733001,-0.041390419,0.021978378,-0.672528076,0.457370013,0.378614426,0.285715103,3.150177002,-0.359524995,-0.350772536,0.052653091,-0.892941736,0.000000000,-0.002619884,0.110931049,0.431691769,0.000214000,-0.015068054,0.013187408,1.652017975,-0.002100000,0.001716614,-0.004396439,-0.971438599,0.053846002,0.048256874,0.013187408,2.465936279,0.318935990,0.235942841,0.127471924,3.589752197,-0.316008002,-0.297765274,-0.017563749,-1.586820888,0.001775000,0.001718402,0.029759508,0.044651503
0.096000000,0.000886000,-0.026512146,-0.013187408,2.973619843,0.001968000,0.003623962,-0.004396439,-2.167025757,-0.043761998,-0.041390419,0.030769348,-0.224176025,0.457352012,0.378995895,0.241758347,3.443237305,-0.359571010,-0.350772536,0.026315104,-0.892893207,0.000000000,-0.002619884,0.070587404,0.345221869,0.000296000,-0.015068054,0.030769348,1.652017975,-0.002246000,0.001716614,0.030769348,-0.821969604,0.053760000,0.048256874,0.004396439,2.615377808,0.318993986,0.235942841,0.136262894,3.296691895,-0.316284001,-0.297765274,0.000013264,-1.686020368,0.001825000,0.001718402,0.029752415,0.000751660
0.098000000,0.000816000,-0.026512146,0.004396439,2.973619843,0.002111000,0.003623962,-0.048351288,-2.167025757,-0.043790001,-0.041771889,-0.021978378,-0.672528076,0.457340986,0.379377365,0.206592560,3.443237305,-0.359616995,-0.350582129,0.017546908,-0.793639988,0.000000000,-0.002182388,0.050413622,0.302171278,0.000366000,-0.015068054,0.013187408,1.652017975,-0.002381000,0.001335144,-0.021978378,-0.672528076,0.053677000,0.048638344,0.021978378,1.718673706,0.319054991,0.236324310,0.153846741,3.296691895,-0.316556990,-0.297765274,-0.004394968,-1.785219849,0.001871000,0.001718402,0.000002312,-0.043148182
0.100000000,0.000755000,-0.026512146,0.030769348,3.414174652,0.002237000,0.003623962,-0.039560318,-1.569232178,-0.043816999,-0.041771889,-0.021978378,-0.971438599,0.457336992,0.379758835,0.189010620,3.150177002,-0.359665006,-0.350582129,-0.000017477,-0.694470803,0.000000000,-0.002182388,0.030241870,0.345471082,0.000423000,-0.015068054,-0.039560318,1.652017975,-0.002502000,0.001335144,0.021978378,-1.120880127,0.053599998,0.048638344,0.021978378,1.718673706,0.319121003,0.236705780,0.153846741,3.003662109,-0.316825002,-0.297765274,0.000004422,-1.586820888,0.001912000,0.001718402,0.009918906,0.044651503
0.102000000,0.000698000,-0.026512146,-0.013187408,3.193897247,0.002357000,0.003623962,0.030769348,-2.615377808,-0.043844000,-0.041771889,-0.039560318,-0.373617554,0.457338989,0.380140305,0.189010620,3.150177002,-0.359717011,-0.350582129,0.008794796,-0.892787047,0.000000000,-0.002182388,-0.010073912,0.258881135,0.000473000,-0.015068054,0.013187408,1.872295380,-0.002618000,0.001716614,0.021978378,-0.971438599,0.053525001,0.048638344,-0.013187408,2.465936279,0.319193989,0.237087250,0.153846741,3.296691895,-0.317090005,-0.297765274,-0.004394968,-1.785173621,0.001952000,0.001718402,0.000002312,0.044739933
0.104000000,0.000641000,-0.026512146,0.004396439,3.193897247,0.002482000,0.004005432,0.004396439,-2.615377808,-0.043873999,-0.041771889,0.039560318,-0.523086548,0.457343012,0.380521774,0.171428680,3.150177002,-0.359779000,-0.350582129,-0.004405660,-0.793581137,0.000000000,-0.002182388,0.020158985,0.215705620,0.000524000,-0.015068054,-0.021978378,1.872295380,-0.002739000,0.001335144,-0.030769348,-1.718673706,0.053452000,0.048638344,0.004396439,1.270321655,0.319274992,0.237468719,0.136262894,3.443237305,-0.317353994,-0.297765274,0.004385172,-1.884373102,0.001992000,0.001718402,-0.019837971,0.000840090
0.106000000,0.000584000,-0.026512146,0.021978378,2.753342438,0.002611000,0.003623962,-0.092308044,-1.718673706,-0.043906000,-0.041771889,0.057142258,-0.821969604,0.457349986,0.380903244,0.171428680,3.589752197,-0.359849989,-0.350582129,-0.013182980,-0.892787047,0.000000000,-0.002182388,-0.000008973,0.258881135,0.000575000,-0.015068054,-0.021978378,1.652017975,-0.002863000,0.001335144,-0.083517075,-1.569232178,0.053380001,0.048638344,0.039560318,1.419790649,0.319366008,0.237468719,0.145055771,3.150177002,-0.317618012,-0.297765274,0.000004422,-1.884373102,0.002032000,0.001718402,0.009918906,0.000840090
0.108000000,0.000527000,-0.026512146,0.039560318,3.414174652,0.002741000,0.003623962,-0.092308044,-1.718673706,-0.043939002,-0.041771889,-0.039560318,-0.373617554,0.457359999,0.381284714,0.180219650,3.150177002,-0.359930009,-0.350582129,-0.013182980,-0.892787047,0.000000000,-0.002182388,-0.000008973,0.258881135,0.000625000,-0.015068054,-0.004396439,1.652017975,-0.002988000,0.001335144,-0.065933228,-1.120880127,0.053309999,0.048638344,0.039560318,1.419790649,0.319465011,0.237850189,0.109889984,3.589752197,-0.317880988,-0.297765274,-0.004394968,-1.685974140,0.002073000,0.001718402,0.000002312,0.088639776
0.110000000,0.000471000,-0.026512146,-0.004396439,2.973619843,0.002872000,0.003623962,-0.013187408,-2.465936279,-0.043974001,-0.041771889,0.004396439,-0.373617554,0.457372010,0.381666183,0.180219650,3.003662109,-0.360017985,-0.350582129,-0.008783146,-0.793581137,0.000000000,-0.002182388,-0.010085876,0.215705620,0.000674000,-0.015068054,0.030769348,1.872295380,-0.003113000,0.001335144,-0.039560318,-1.718673706,0.053241000,0.048638344,0.004396439,2.615377808,0.319572002,0.238231659,0.127471924,3.443237305,-0.318143010,-0.297765274,0.000013264,-1.884373102,0.002112000,0.001718402,0.029752415,0.000840090
0.112000000,0.000415000,-0.026512146,0.013187408,2.753342438,0.003000000,0.003623962,-0.030769348,-2.914288330,-0.044009998,-0.041771889,-0.030769348,-0.523086548,0.457385987,0.382047653,0.206592560,3.003662109,-0.360112011,-0.350772536,-0.008767039,-0.793681385,0.000000000,-0.002619884,-0.030250943,0.302060536,0.000723000,-0.015068054,0.004396439,1.872295380,-0.003237000,0.001335144,-0.030769348,-2.615377808,0.053173002,0.048638344,0.048351288,1.270321655,0.319685996,0.238613129,0.127471924,3.443237305,-0.318405002,-0.297765274,-0.004394968,-2.082725836,0.002151000,0.001718402,0.000002312,0.000928519
0.114000000,0.000361000,-0.026512146,0.004396439,2.973619843,0.003126000,0.003623962,-0.013187408,-2.316494751,-0.044046000,-0.041771889,0.048351288,-0.971438599,0.457401991,0.382429123,0.224176407,3.003662109,-0.360213995,-0.350772536,-0.013168993,-0.991963722,0.000000000,-0.002619884,-0.020171822,0.215462729,0.000769000,-0.015068054,0.030769348,2.092541504,-0.003358000,0.001335144,-0.030769348,-1.120880127,0.053105999,0.048638344,0.030769348,1.718673706,0.319806010,0.238613129,0.127471924,3.003662109,-0.318666995,-0.297765274,-0.013182998,-1.785173621,0.002189000,0.001718402,0.000006934,0.044739933
0.116000000,0.000307000,-0.026512146,0.004396439,3.414174652,0.003246000,0.003623962,-0.030769348,-3.063729858,-0.044082999,-0.041771889,-0.004396439,-1.270321655,0.457421005,0.382810593,0.250549316,2.710632324,-0.360321999,-0.350772536,-0.004380023,-0.892822553,0.000000000,-0.002619884,-0.020166827,0.258761632,0.000813000,-0.015068054,0.013187408,1.872295380,-0.003474000,0.001335144,-0.030769348,-1.868142700,0.053041000,0.048638344,-0.004396439,2.167025757,0.319932997,0.238994598,0.118680954,3.443237305,-0.318928003,-0.297765274,0.004394968,-2.082725836,0.002225000,0.001718402,-0.000002312,0.000928519
0.118000000,0.000255000,-0.026130676,0.013187408,3.193897247,0.003361000,0.003623962,-0.013187408,-1.419790649,-0.044121001,-0.041771889,-0.057142258,-0.821969604,0.457441002,0.383573532,0.276922226,3.150177002,-0.360435992,-0.350772536,-0.013168993,-0.892822553,0.000000000,-0.002619884,-0.020171822,0.258761632,0.000854000,-0.015068054,-0.004396439,1.872295380,-0.003584000,0.001335144,-0.004396439,-1.120880127,0.052976999,0.048638344,0.030769348,1.120880127,0.320066005,0.239376068,0.101099014,3.589752197,-0.319189012,-0.297765274,0.013191840,-1.884373102,0.002259000,0.001718402,0.019826575,0.000840090
0.120000000,0.000205000,-0.026130676,-0.021978378,2.973619843,0.003467000,0.003623962,0.021978378,-2.764846802,-0.044158999,-0.041771889,-0.013187408,-0.224176025,0.457462996,0.383955002,0.215385437,3.150177002,-0.360554010,-0.350772536,-0.021984974,-0.991963722,0.000000000,-0.002619884,0.020143095,0.215462729,0.000892000,-0.015068054,-0.013187408,2.092541504,-0.003686000,0.001335144,0.083517075,-1.270321655,0.052914001,0.048638344,0.013187408,2.017584229,0.320203990,0.239376068,0.101099014,3.443237305,-0.319449991,-0.297765274,-0.008784562,-2.082725836,0.002290000,0.001718402,0.009921377,0.000928519
0.122000000,0.000156000,-0.026130676,-0.013187408,3.193897247,0.003563000,0.003623962,0.004396439,-2.017584229,-0.044195998,-0.041771889,-0.004396439,-1.120880127,0.457486987,0.384336472,0.276922226,2.857147217,-0.360677987,-0.350772536,0.000006993,-0.892893207,0.000000000,-0.002619884,-0.010082712,0.345221869,0.000927000,-0.015068054,0.030769348,2.092541504,-0.003780000,0.001335144,-0.048351288,-1.270321655,0.052852001,0.048638344,0.030769348,1.569232178,0.320345998,0.239757538,0.092308044,3.443237305,-0.319709986,-0.297765274,-0.013174156,-1.983526355,0.002318000,0.001718402,0.019840443,0.044828362
0.124000000,0.000110000,-0.026130676,0.048351288,3.193897247,0.003648000,0.003623962,0.013187408,-1.270321655,-0.044233002,-0.041771889,0.013187408,-0.373617554,0.457513005,0.384717941,0.215385437,2.124542236,-0.360805005,-0.350772536,-0.013182976,-0.892822553,0.000000000,-0.002619884,-0.000010773,0.258761632,0.000957000,-0.015068054,-0.013187408,2.092541504,-0.003863000,0.001335144,0.048351288,-0.523086548,0.052790999,0.048638344,-0.030769348,1.718673706,0.320493013,0.239757538,0.092308044,3.296691895,-0.319970012,-0.297765274,-0.004376330,-2.082725836,0.002343000,0.001718402,0.039671480,0.000928519
0.126000000,0.000065000,-0.026130676,-0.004396439,2.973619843,0.003720000,0.003623962,-0.021978378,-1.868142700,-0.044270001,-0.041771889,0.048351288,-0.523086548,0.457540005,0.385099411,0.189010620,2.710632324,-0.360935986,-0.350772536,0.008795960,-0.992034376,0.000000000,-0.002619884,-0.010073343,0.301922966,0.000982000,-0.015068054,-0.021978378,1.872295380,-0.003934000,0.001335144,-0.004396439,-2.316494751,0.052731000,0.048638344,0.021978378,1.718673706,0.320643008,0.240139008,0.083517075,3.589752197,-0.320230007,-0.297765274,0.000004422,-2.181901216,0.002364000,0.001718402,0.009918906,0.044926608
0.128000000,0.000024000,-0.026130676,0.030769348,2.973619843,0.003777000,0.003623962,0.004396439,-2.615377808,-0.044305000,-0.041771889,-0.074726105,-0.821969604,0.457567990,0.385480881,0.171428680,2.857147217,-0.361068994,-0.350772536,0.008781977,-0.992034376,0.000000000,-0.002619884,0.010087707,0.301922966,0.001002000,-0.015068054,-0.013187408,1.652017975,-0.003991000,0.001335144,-0.057142258,-1.569232178,0.052673001,0.048638344,0.021978378,1.419790649,0.320796013,0.240139008,0.109889984,3.150177002,-0.320490003,-0.297765274,-0.008774765,-2.181901216,0.002380000,0.001718402,0.029757037,0.044926608
0.130000000,-0.000015000,-0.026130676,-0.004396439,3.193897247,0.003819000,0.003623962,-0.057142258,-1.718673706,-0.044339001,-0.041771889,-0.013187408,-2.017584229,0.457596987,0.385862350,0.153846741,3.150177002,-0.361205012,-0.350772536,0.008781977,-1.091246198,0.000000000,-0.002619884,0.010087707,0.345084300,0.001016000,-0.015068054,0.004396439,1.872295380,-0.004034000,0.001335144,-0.004396439,-2.615377808,0.052615002,0.048638344,0.004396439,1.270321655,0.320951998,0.240520477,0.109889984,3.589752197,-0.320749998,-0.297765274,-0.004385172,-2.281122834,0.002392000,0.001718402,0.019837971,0.001016969
0.132000000,-0.000051000,-0.026130676,-0.004396439,2.753342438,0.003842000,0.003623962,-0.013187408,-1.419790649,-0.044372000,-0.041771889,0.004396439,-0.672528076,0.457626998,0.386243820,0.162637711,2.857147217,-0.361342996,-0.350772536,-0.000020976,-0.892893207,0.000000000,-0.002619884,0.030243761,0.345221869,0.001024000,-0.015068054,-0.021978378,1.872295380,-0.004059000,0.001335144,-0.039560318,-1.868142700,0.052558001,0.048638344,-0.048351288,2.017584229,0.321110010,0.240520477,0.118680954,2.857147217,-0.321009994,-0.297765274,0.000022106,-2.082701735,0.002398000,0.001718402,0.049585923,0.088826451
0.134000000,-0.000084000,-0.026130676,-0.004396439,2.973619843,0.003847000,0.003623962,-0.021978378,-2.167025757,-0.044403002,-0.041771889,-0.004396439,-0.971438599,0.457659990,0.386625290,0.136262894,2.857147217,-0.361483008,-0.350772536,-0.004421975,-1.091175544,0.000000000,-0.002619884,0.040320695,0.258624063,0.001025000,-0.015068054,0.004396439,2.092541504,-0.004068000,0.000953674,-0.057142258,-1.718673706,0.052503001,0.048638344,0.039560318,1.419790649,0.321269989,0.240901947,0.118680954,2.857147217,-0.321269006,-0.297765274,0.000004422,-2.181901216,0.002400000,0.001718402,0.009918906,0.044926608
0.136000000,-0.000116000,-0.026130676,0.021978378,2.973619843,0.003847000,0.003623962,-0.004396439,-1.718673706,-0.044434000,-0.041771889,-0.004396439,0.224176025,0.457702011,0.386625290,0.118680954,3.443237305,-0.361629993,-0.350772536,-0.008808991,-1.091175544,0.000000000,-0.002619884,0.030236580,0.258624063,0.001020000,-0.015068054,-0.021978378,1.872295380,-0.004073000,0.001335144,0.048351288,-1.868142700,0.052448999,0.048638344,0.048351288,1.569232178,0.321438015,0.241283417,0.101099014,2.564117432,-0.321525991,-0.297765274,0.000004422,-1.983502254,0.002399000,0.001718402,0.009918906,0.132726294
0.138000000,-0.000149000,-0.026130676,0.004396439,3.193897247,0.003848000,0.004005432,0.021978378,-2.465936279,-0.044466000,-0.041771889,0.048351288,-1.569232178,0.457756996,0.387006760,0.109889984,3.150177002,-0.361786008,-0.350772536,-0.008795960,-1.091175544,0.000000000,-0.002619884,0.010073343,0.258624063,0.001009000,-0.015068054,-0.004396439,2.092541504,-0.004077000,0.001335144,0.030769348,-2.316494751,0.052395999,0.048638344,-0.004396439,1.718673706,0.321615010,0.241283417,0.127471924,3.150177002,-0.321777999,-0.297765274,-0.004394968,-2.281122834,0.002397000,0.001718402,0.000002312,0.001016969
0.140000000,-0.000182000,-0.026130676,0.013187408,3.193897247,0.003848000,0.003623962,-0.048351288,-1.120880127,-0.044496998,-0.041771889,0.004396439,-0.971438599,0.457823992,0.387006760,0.118680954,3.150177002,-0.361950994,-0.350772536,0.008781977,-0.992034376,0.000000000,-0.002619884,0.010087707,0.301922966,0.000993000,-0.015068054,0.039560318,1.872295380,-0.004081000,0.000953674,-0.004396439,-1.569232178,0.052345000,0.048638344,0.004396439,2.017584229,0.321799994,0.241664886,0.136262894,3.003662109,-0.322028995,-0.297765274,-0.008774765,-2.181901216,0.002394000,0.001718402,0.029757037,0.044926608
0.142000000,-0.000215000,-0.026130676,0.030769348,2.533096313,0.003848000,0.003623962,0.013187408,-1.868142700,-0.044528000,-0.041771889,0.004396439,-1.419790649,0.457901001,0.387388229,0.136262894,3.296691895,-0.362123996,-0.350772536,-0.013209990,-1.190316713,0.000000000,-0.002619884,0.040313514,0.215325160,0.000973000,-0.015068054,0.021978378,1.872295380,-0.004085000,0.000953674,0.030769348,-0.971438599,0.052294999,0.048638344,0.004396439,1.718673706,0.321994007,0.242046356,0.136262894,3.003662109,-0.322277009,-0.297765274,0.004402858,-2.281122834,0.002390000,0.001718402,0.019833349,0.001016969
0.144000000,-0.000247000,-0.026130676,0.004396439,2.973619843,0.003849000,0.004005432,-0.030769348,-1.868142700,-0.044558000,-0.041771889,-0.021978378,-0.373617554,0.457987994,0.387769699,0.136262894,3.443237305,-0.362304986,-0.350772536,-0.004394961,-0.992034376,0.000000000,-0.002619884,-0.000003591,0.301922966,0.000948000,-0.015068054,0.004396439,1.872295380,-0.004088000,0.000953674,-0.048351288,-2.167025757,0.052246001,0.048638344,-0.004396439,1.718673706,0.322194993,0.242046356,0.136262894,3.296691895,-0.322524011,-0.297765274,-0.008793404,-2.181901216,0.002385000,0.001718402,-0.009912131,0.044926608
0.146000000,-0.000278000,-0.026130676,-0.039560318,3.193897247,0.003849000,0.004005432,0.057142258,-1.718673706,-0.044589002,-0.041771889,-0.004396439,-0.971438599,0.458083004,0.387769699,0.136262894,3.589752197,-0.362493008,-0.350772536,0.004394961,-0.992034376,0.000000000,-0.002619884,0.000003591,0.301922966,0.000920000,-0.015068054,-0.021978378,1.872295380,-0.004091000,0.000953674,-0.004396439,-1.419790649,0.052198000,0.048638344,-0.013187408,1.569232178,0.322403014,0.242427826,0.136262894,3.150177002,-0.322771013,-0.297765274,-0.008774765,-2.281054469,0.002379000,0.001718402,0.029757037,0.088914881
0.148000000,-0.000308000,-0.026130676,0.004396439,2.753342438,0.003849000,0.004005432,0.013187408,-2.465936279,-0.044619001,-0.041771889,-0.039560318,-2.615377808,0.458186001,0.388151169,0.136262894,3.296691895,-0.362688988,-0.350772536,0.004394961,-1.190316713,0.000000000,-0.002619884,0.000003591,0.215325160,0.000888000,-0.015068054,0.021978378,1.872295380,-0.004094000,0.000953674,0.021978378,-1.718673706,0.052150000,0.048638344,0.004396439,1.120880127,0.322618991,0.242809296,0.127471924,3.150177002,-0.323018014,-0.297765274,-0.008784562,-2.380276087,0.002373000,0.001718402,0.009921377,0.045005241
0.150000000,-0.000336000,-0.026130676,0.021978378,2.973619843,0.003850000,0.004005432,-0.074726105,-0.672528076,-0.044647999,-0.041771889,-0.021978378,-0.373617554,0.458294988,0.388532639,0.127471924,3.443237305,-0.362892002,-0.350772536,0.004380023,-1.190387367,0.000000000,-0.002619884,0.020166827,0.301785397,0.000853000,-0.015068054,-0.004396439,1.652017975,-0.004097000,0.000953674,0.021978378,-1.718673706,0.052103002,0.048638344,0.004396439,1.868142700,0.322840005,0.243190765,0.136262894,3.296691895,-0.323266000,-0.297765274,0.000004422,-2.281054469,0.002366000,0.001718402,0.009918906,0.088914881
0.152000000,-0.000362000,-0.026130676,0.021978378,3.193897247,0.003850000,0.004005432,0.083517075,-1.120880127,-0.044677000,-0.041771889,0.074726105,0.224176025,0.458409995,0.388914108,0.145055771,3.150177002,-0.363101006,-0.350772536,-0.004394961,-1.091175544,0.000000000,-0.002619884,-0.000003591,0.258624063,0.000816000,-0.015068054,-0.013187408,1.872295380,-0.004099000,0.000953674,-0.013187408,-2.465936279,0.052057002,0.048638344,0.048351288,0.971438599,0.323067993,0.243190765,0.136262894,3.150177002,-0.323516995,-0.297765274,0.004394968,-2.281054469,0.002358000,0.001718402,-0.000002312,0.088914881
0.154000000,-0.000386000,-0.026130676,0.048351288,3.414174652,0.003850000,0.004005432,0.083517075,-2.764846802,-0.044705000,-0.041771889,0.004396439,-1.419790649,0.458530009,0.388914108,0.162637711,2.857147217,-0.363317013,-0.350772536,0.004394961,-1.091246198,0.000000000,-0.002619884,0.000003591,0.345084300,0.000776000,-0.015068054,-0.013187408,1.872295380,-0.004101000,0.000953674,-0.083517075,-1.270321655,0.052011002,0.048638344,-0.048351288,1.868142700,0.323300987,0.243572235,0.145055771,3.150177002,-0.323769987,-0.297765274,-0.004385172,-2.380276087,0.002350000,0.001718402,0.019837971,0.045005241
0.156000000,-0.000408000,-0.026130676,-0.013187408,2.973619843,0.003850000,0.004005432,-0.013187408,-1.868142700,-0.044732001,-0.041771889,0.004396439,-0.971438599,0.458653986,0.389295578,0.180219650,3.589752197,-0.363537997,-0.350772536,0.004380023,-1.091175544,0.000000000,-0.002619884,0.020166827,0.258624063,0.000735000,-0.015068054,0.030769348,1.652017975,-0.004103000,0.000953674,0.021978378,-1.419790649,0.051964000,0.048638344,-0.021978378,1.419790649,0.323538989,0.243953705,0.136262894,3.296691895,-0.324025989,-0.297765274,0.004402858,-2.380207721,0.002341000,0.001718402,0.019833349,0.132903153
0.158000000,-0.000426000,-0.026130676,-0.004396439,2.973619843,0.003850000,0.004005432,-0.057142258,-1.419790649,-0.044757999,-0.041771889,-0.074726105,-1.718673706,0.458779991,0.389677048,0.180219650,3.296691895,-0.363765001,-0.350772536,0.004366040,-1.190387367,0.000000000,-0.002619884,0.040327877,0.301785397,0.000693000,-0.015068054,0.013187408,1.872295380,-0.004104000,0.000953674,-0.004396439,-2.167025757,0.051918000,0.048638344,-0.013187408,0.971438599,0.323781997,0.243953705,0.101099014,3.296691895,-0.324286997,-0.297765274,-0.004402858,-2.479429340,0.002332000,0.001718402,-0.019833349,0.088993513
0.160000000,-0.000442000,-0.026130676,-0.021978378,2.533096313,0.003850000,0.004005432,0.048351288,-1.718673706,-0.044783000,-0.041771889,-0.004396439,-1.569232178,0.458907992,0.390058517,0.153846741,2.710632324,-0.363997996,-0.350772536,-0.008808991,-1.190387367,0.000000000,-0.002619884,0.030236580,0.301785397,0.000650000,-0.015068054,-0.004396439,1.872295380,-0.004105000,0.000953674,-0.021978378,-2.615377808,0.051871002,0.048638344,0.039560318,1.419790649,0.324028999,0.244335175,0.092308044,3.589752197,-0.324553013,-0.297765274,-0.000004422,-2.380207721,0.002322000,0.001718402,-0.009918906,0.132903153
0.162000000,-0.000454000,-0.026130676,-0.013187408,2.753342438,0.003851000,0.004005432,-0.021978378,-2.764846802,-0.044806000,-0.041771889,-0.048351288,-0.971438599,0.459037006,0.390439987,0.197801590,2.857147217,-0.364235014,-0.350772536,-0.004407992,-1.091246198,0.000000000,-0.002619884,0.020159646,0.345084300,0.000607000,-0.015068054,-0.021978378,1.872295380,-0.004106000,0.000953674,-0.048351288,-0.971438599,0.051824000,0.048638344,-0.013187408,2.316494751,0.324279010,0.244716644,0.092308044,3.443237305,-0.324824005,-0.297765274,0.008801294,-2.677828302,0.002312000,0.001718402,0.029747792,0.001193828
0.164000000,-0.000462000,-0.026130676,-0.004396439,2.533096313,0.003851000,0.004005432,-0.048351288,-2.615377808,-0.044829000,-0.041771889,0.021978378,-0.821969604,0.459165007,0.390821457,0.189010620,3.589752197,-0.364475995,-0.350772536,0.008781977,-1.190316713,0.000000000,-0.002619884,0.010087707,0.215325160,0.000565000,-0.015068054,-0.013187408,1.872295380,-0.004107000,0.000953674,-0.039560318,-1.120880127,0.051777001,0.048638344,-0.013187408,2.017584229,0.324532986,0.244716644,0.101099014,3.443237305,-0.325102001,-0.297765274,0.004385172,-2.578628821,0.002302000,0.001718402,-0.019837971,0.045093670
0.166000000,-0.000465000,-0.026130676,-0.013187408,3.193897247,0.003851000,0.004005432,0.004396439,-1.569232178,-0.044849001,-0.041771889,-0.021978378,-0.821969604,0.459293008,0.391202927,0.162637711,3.003662109,-0.364722013,-0.350772536,0.008767039,-1.289528535,0.000000000,-0.002619884,0.030250943,0.258486494,0.000522000,-0.015068054,-0.021978378,1.872295380,-0.004107000,0.000953674,0.048351288,-1.868142700,0.051727999,0.048638344,0.092308044,2.017584229,0.324790001,0.245098114,0.101099014,3.443237305,-0.325388014,-0.297765274,0.008801294,-2.479429340,0.002291000,0.001718402,0.029747792,0.088993513
0.168000000,-0.000465000,-0.026130676,-0.004396439,2.973619843,0.003846000,0.004005432,0.083517075,-1.868142700,-0.044868998,-0.041771889,-0.004396439,-1.120880127,0.459419996,0.391584396,0.145055771,3.443237305,-0.364973992,-0.350772536,-0.021970991,-1.190387367,0.000000000,-0.002619884,-0.000017954,0.301785397,0.000480000,-0.015068054,0.013187408,2.092541504,-0.004104000,0.000953674,0.030769348,-1.120880127,0.051679000,0.048638344,0.021978378,2.167025757,0.325049996,0.245098114,0.101099014,3.589752197,-0.325679988,-0.297765274,0.000004422,-2.677782074,0.002280000,0.001718402,0.009918906,0.089081943
0.170000000,-0.000462000,-0.026130676,-0.004396439,2.753342438,0.003825000,0.004005432,-0.004396439,-2.017584229,-0.044888999,-0.041771889,0.039560318,-1.120880127,0.459553987,0.391584396,0.136262894,3.296691895,-0.365236014,-0.350772536,-0.008795960,-1.388740358,0.000000000,-0.002619884,0.010073343,0.301647827,0.000433000,-0.015068054,-0.013187408,1.872295380,-0.004090000,0.000572205,0.021978378,-2.017584229,0.051630002,0.048638344,-0.048351288,1.569232178,0.325318009,0.245479584,0.092308044,3.736267090,-0.325975001,-0.297765274,-0.008774765,-2.578582593,0.002265000,0.001718402,0.029757037,0.132981785
0.172000000,-0.000457000,-0.026130676,0.021978378,2.973619843,0.003788000,0.004005432,0.039560318,-0.971438599,-0.044909999,-0.041771889,0.013187408,-1.120880127,0.459693998,0.391965866,0.118680954,3.882781982,-0.365509003,-0.350772536,-0.008795960,-1.289528535,0.000000000,-0.002619884,0.010073343,0.258486494,0.000381000,-0.015068054,0.013187408,1.872295380,-0.004063000,0.000572205,-0.039560318,-1.718673706,0.051582001,0.048638344,-0.030769348,2.167025757,0.325592995,0.245479584,0.083517075,3.589752197,-0.326272994,-0.297765274,0.000004422,-2.677782074,0.002248000,0.001718402,0.009918906,0.089081943
0.174000000,-0.000450000,-0.026130676,0.030769348,2.973619843,0.003735000,0.004005432,0.074726105,-2.615377808,-0.044930998,-0.041771889,0.004396439,-0.971438599,0.459841013,0.392347336,0.118680954,3.003662109,-0.365792006,-0.350772536,0.008781977,-1.487881526,0.000000000,-0.002619884,0.010087707,0.258348924,0.000326000,-0.015068054,0.004396439,1.872295380,-0.004027000,0.000572205,-0.030769348,-1.120880127,0.051532999,0.048638344,-0.083517075,2.017584229,0.325875014,0.245861053,0.083517075,3.003662109,-0.326575994,-0.297765274,-0.013182998,-2.677782074,0.002228000,0.001718402,0.000006934,0.089081943
0.176000000,-0.000440000,-0.026130676,0.021978378,2.533096313,0.003670000,0.004005432,0.004396439,-2.167025757,-0.044950999,-0.041771889,-0.039560318,-0.821969604,0.459993005,0.392347336,0.118680954,3.443237305,-0.366084993,-0.350772536,-0.008781977,-1.190387367,0.000000000,-0.002619884,-0.010087707,0.301785397,0.000268000,-0.015068054,0.030769348,1.872295380,-0.003981000,0.000572205,-0.021978378,-1.270321655,0.051484998,0.048638344,0.065933228,0.373617554,0.326164007,0.245861053,0.092308044,3.296691895,-0.326882005,-0.297765274,-0.013182998,-2.578582593,0.002205000,0.001718402,0.000006934,0.132981785
0.178000000,-0.000429000,-0.026130676,0.030769348,2.973619843,0.003592000,0.004005432,-0.039560318,-2.017584229,-0.044971999,-0.041771889,-0.030769348,-0.971438599,0.460150003,0.392728806,0.109889984,3.003662109,-0.366387010,-0.350772536,0.013182976,-1.289528535,0.000000000,-0.002619884,0.000010773,0.258486494,0.000206000,-0.015068054,0.048351288,1.872295380,-0.003926000,0.000572205,-0.048351288,-1.270321655,0.051437002,0.048638344,-0.057142258,2.017584229,0.326460004,0.246242523,0.083517075,3.296691895,-0.327194005,-0.297765274,-0.008793404,-2.776981554,0.002180000,0.001718402,-0.009912131,0.045182100
0.180000000,-0.000416000,-0.026130676,-0.004396439,2.753342438,0.003505000,0.004005432,-0.004396439,-2.316494751,-0.044991001,-0.041771889,0.013187408,-1.270321655,0.460312992,0.392728806,0.092308044,3.296691895,-0.366699010,-0.350772536,0.004380023,-1.388740358,0.000000000,-0.002619884,0.020166827,0.301647827,0.000142000,-0.015068054,0.021978378,2.092541504,-0.003865000,0.000572205,-0.021978378,-2.017584229,0.051387999,0.048638344,0.004396439,1.718673706,0.326761991,0.246242523,0.083517075,3.882781982,-0.327511013,-0.297765274,-0.004385172,-2.677782074,0.002154000,0.001718402,0.019837971,0.089081943
0.182000000,-0.000401000,-0.026130676,-0.013187408,2.973619843,0.003408000,0.004005432,0.004396439,-2.465936279,-0.045010000,-0.041771889,0.065933228,0.074734497,0.460478991,0.393110275,0.083517075,3.003662109,-0.367018998,-0.350772536,-0.008795960,-1.388740358,0.000000000,-0.002619884,0.010073343,0.301647827,0.000077000,-0.015068054,0.004396439,1.872295380,-0.003797000,0.000572205,-0.057142258,-1.718673706,0.051339999,0.048638344,0.030769348,1.419790649,0.327071011,0.246242523,0.074726105,3.882781982,-0.327832997,-0.297765274,0.004411700,-2.876134807,0.002126000,0.001718402,0.039666858,0.089170372
0.184000000,-0.000385000,-0.026130676,-0.021978378,2.753342438,0.003305000,0.004005432,-0.083517075,-3.362640381,-0.045028001,-0.041771889,-0.004396439,-0.971438599,0.460649014,0.393110275,0.074726105,3.003662109,-0.367347002,-0.350772536,-0.000006993,-1.487974321,0.000000000,-0.002619884,0.010082712,0.344818793,0.000009000,-0.015068054,0.004396439,1.872295380,-0.003724000,0.000572205,-0.004396439,-1.270321655,0.051291000,0.048638344,0.004396439,1.868142700,0.327387005,0.246623993,0.074726105,4.468872070,-0.328162014,-0.297765274,-0.004385172,-2.876181035,0.002096000,0.001718402,0.019837971,0.001282257
0.186000000,-0.000367000,-0.026130676,-0.004396439,2.533096313,0.003196000,0.004005432,0.021978378,-2.615377808,-0.045045000,-0.041771889,-0.021978378,-0.821969604,0.460822999,0.393491745,0.083517075,3.150177002,-0.367682993,-0.350772536,0.008781977,-1.587115489,0.000000000,-0.002619884,0.010087707,0.301519890,-0.000059000,-0.015068054,0.021978378,1.872295380,-0.003647000,0.000572205,-0.004396439,-1.419790649,0.051242001,0.048638344,0.004396439,1.419790649,0.327708989,0.246623993,0.074726105,3.882781982,-0.328498989,-0.297765274,-0.004394968,-2.975334288,0.002065000,0.001718402,0.000002312,0.045270529
0.188000000,-0.000348000,-0.026130676,-0.021978378,2.973619843,0.003083000,0.004005432,-0.039560318,-1.120880127,-0.045060001,-0.042153358,-0.057142258,-1.270321655,0.460999995,0.393491745,0.083517075,3.150177002,-0.368025988,-0.350772536,-0.004394961,-1.487881526,0.000000000,-0.002619884,-0.000003591,0.258348924,-0.000129000,-0.015068054,-0.030769348,1.872295380,-0.003567000,0.000572205,-0.039560318,-1.569232178,0.051192001,0.048638344,-0.048351288,1.569232178,0.328036994,0.247005463,0.092308044,3.589752197,-0.328842014,-0.297765274,-0.008784562,-2.975334288,0.002034000,0.001718402,0.009921377,0.045270529
0.190000000,-0.000328000,-0.026130676,-0.004396439,3.193897247,0.002968000,0.004005432,-0.004396439,-2.167025757,-0.045074001,-0.042153358,-0.013187408,-0.523086548,0.461178988,0.393873215,0.083517075,3.150177002,-0.368375003,-0.350772536,-0.013196959,-1.487974321,0.000000000,-0.002619884,0.020150277,0.344818793,-0.000198000,-0.015068054,-0.013187408,1.872295380,-0.003485000,0.000572205,-0.013187408,-1.419790649,0.051142000,0.048638344,-0.030769348,0.821969604,0.328370988,0.247005463,0.083517075,2.857147217,-0.329194009,-0.297765274,-0.000004422,-2.876134807,0.002002000,0.001718402,-0.009918906,0.089170372
0.192000000,-0.000307000,-0.026130676,0.030769348,2.753342438,0.002852000,0.004386902,0.021978378,-3.362640381,-0.045085002,-0.042153358,-0.004396439,-1.120880127,0.461360991,0.393873215,0.074726105,2.857147217,-0.368730992,-0.350772536,-0.008795960,-1.587115489,0.000000000,-0.002619884,0.010073343,0.301519890,-0.000267000,-0.014686584,0.004396439,1.652017975,-0.003402000,0.000190735,-0.092308044,-0.074734497,0.051091999,0.048638344,-0.065933228,-0.074734497,0.328711003,0.247386932,0.074726105,3.736267090,-0.329553992,-0.297765274,-0.004385172,-2.975334288,0.001969000,0.001718402,0.019837971,0.045270529
0.194000000,-0.000286000,-0.026130676,0.004396439,2.973619843,0.002737000,0.004386902,0.004396439,-2.167025757,-0.045095000,-0.042153358,0.004396439,-0.373617554,0.461544007,0.393873215,0.092308044,3.150177002,-0.369093001,-0.350772536,0.004380023,-1.587115489,0.000000000,-0.002619884,0.020166827,0.301519890,-0.000335000,-0.015068054,-0.021978378,1.872295380,-0.003319000,0.000572205,-0.021978378,-2.316494751,0.051040001,0.048638344,0.030769348,1.270321655,0.329057008,0.247386932,0.065933228,3.589752197,-0.329923004,-0.297765274,-0.004394968,-2.975334288,0.001937000,0.001718402,0.000002312,0.045270529
0.196000000,-0.000263000,-0.026130676,0.013187408,2.973619843,0.002624000,0.004386902,-0.048351288,-1.270321655,-0.045102000,-0.042153358,0.021978378,-1.120880127,0.461728007,0.394254684,0.092308044,3.150177002,-0.369459987,-0.350962893,-0.000008160,-1.686292288,0.000000000,-0.003057434,0.010083343,0.258009637,-0.000402000,-0.015068054,0.004396439,1.872295380,-0.003238000,0.000572205,-0.092308044,-1.569232178,0.050988000,0.048638344,-0.065933228,1.868142700,0.329409003,0.247386932,0.083517075,3.443237305,-0.330300987,-0.297765274,-0.004394968,-3.074487541,0.001905000,0.001718402,0.000002312,0.089258802
0.198000000,-0.000240000,-0.026130676,-0.013187408,2.753342438,0.002515000,0.004386902,0.021978378,-2.017584229,-0.045106001,-0.042153358,-0.057142258,-0.672528076,0.461912990,0.394254684,0.101099014,3.296691895,-0.369832009,-0.350962893,0.004377688,-1.488021730,0.000000000,-0.003057434,0.020168690,0.344624962,-0.000467000,-0.014686584,0.013187408,1.872295380,-0.003158000,0.000190735,-0.074726105,-1.120880127,0.050935000,0.048638344,0.004396439,1.569232178,0.329766005,0.247768402,0.101099014,2.857147217,-0.330689996,-0.297765274,-0.004394968,-3.074487541,0.001873000,0.001718402,0.000002312,0.089258802
0.200000000,-0.000216000,-0.026130676,0.013187408,2.533096313,0.002411000,0.004386902,0.021978378,-3.063729858,-0.045107000,-0.042153358,-0.030769348,-1.419790649,0.462098002,0.394636154,0.101099014,3.296691895,-0.370207995,-0.350962893,0.004394960,-1.587157009,0.000000000,-0.003057434,0.000004192,0.301317299,-0.000531000,-0.015068054,-0.004396439,1.872295380,-0.003082000,0.000190735,-0.039560318,-0.821969604,0.050880998,0.048256874,0.004396439,2.017584229,0.330128014,0.247768402,0.092308044,2.857147217,-0.331088990,-0.297956125,0.000003318,-3.173692582,0.001842000,0.001288219,0.009919457,0.045003327
0.202000000,-0.000189000,-0.026130676,-0.004396439,2.973619843,0.002307000,0.004386902,-0.048351288,-1.569232178,-0.045106001,-0.042153358,-0.048351288,-0.971438599,0.462285012,0.394636154,0.065933228,3.443237305,-0.370591998,-0.350962893,-0.008780808,-1.686292288,0.000000000,-0.003057434,-0.010089538,0.258009637,-0.000596000,-0.015068054,0.004396439,1.652017975,-0.003005000,0.000190735,-0.013187408,-1.569232178,0.050827000,0.048638344,-0.048351288,0.373617554,0.330498010,0.248149872,0.092308044,3.150177002,-0.331501007,-0.297956125,-0.017573698,-3.074498895,0.001810000,0.001288219,0.009924236,0.088911772
0.204000000,-0.000154000,-0.026130676,0.030769348,2.753342438,0.002196000,0.004386902,0.030769348,-3.512081909,-0.045101002,-0.042153358,-0.039560318,-0.971438599,0.462476999,0.395017624,0.065933228,3.443237305,-0.370986998,-0.350962893,0.004394960,-1.686374747,0.000000000,-0.003057434,0.000004192,0.344464445,-0.000666000,-0.014686584,0.030769348,1.872295380,-0.002922000,0.000190735,-0.004396439,-1.569232178,0.050772998,0.048638344,0.021978378,1.718673706,0.330875993,0.248531342,0.092308044,3.150177002,-0.331925988,-0.297956125,-0.017573698,-3.074498895,0.001777000,0.001288219,0.009924236,0.088911772
0.206000000,-0.000113000,-0.026130676,-0.021978378,2.973619843,0.002080000,0.004386902,-0.004396439,-2.316494751,-0.045092002,-0.042153358,-0.048351288,-0.672528076,0.462673992,0.395017624,0.092308044,3.003662109,-0.371390998,-0.350962893,-0.013199288,-1.686292288,0.000000000,-0.003057434,0.020149738,0.258009637,-0.000740000,-0.015068054,-0.021978378,1.872295380,-0.002835000,0.000190735,-0.030769348,-1.718673706,0.050719000,0.048256874,0.004396439,1.868142700,0.331263006,0.248531342,0.083517075,3.296691895,-0.332365006,-0.297956125,-0.004380744,-3.074498895,0.001743000,0.001288219,0.039673104,0.088911772
0.208000000,-0.000067000,-0.026130676,0.030769348,3.193897247,0.001958000,0.004386902,-0.004396439,-1.718673706,-0.045081001,-0.042153358,0.074726105,-1.120880127,0.462873012,0.395017624,0.083517075,3.296691895,-0.371805996,-0.350962893,-0.000040793,-1.785510025,0.000000000,-0.003057434,0.050407966,0.301156782,-0.000817000,-0.015068054,0.021978378,1.652017975,-0.002743000,0.000190735,-0.048351288,-0.821969604,0.050664000,0.048256874,-0.048351288,1.419790649,0.331658989,0.248912811,0.092308044,3.589752197,-0.332818002,-0.297956125,0.004394969,-3.173692582,0.001707000,0.001288219,-0.000001733,0.045003327
0.210000000,-0.000015000,-0.026130676,0.004396439,2.753342438,0.001833000,0.004386902,0.013187408,-2.316494751,-0.045067001,-0.042153358,-0.013187408,-1.569232178,0.463077009,0.395399094,0.083517075,2.710632324,-0.372229993,-0.350962893,-0.004394960,-1.884727763,0.000000000,-0.003057434,-0.000004192,0.344303927,-0.000895000,-0.015068054,-0.057142258,1.872295380,-0.002648000,0.000190735,-0.030769348,-0.523086548,0.050609000,0.048256874,0.021978378,1.718673706,0.332064003,0.248912811,0.109889984,3.150177002,-0.333283007,-0.297956125,-0.017573698,-3.372045302,0.001671000,0.001288219,0.009924236,0.045069682
0.212000000,0.000042000,-0.026130676,-0.021978378,2.753342438,0.001705000,0.004386902,0.004396439,-2.017584229,-0.045051001,-0.042153358,-0.083517075,-1.419790649,0.463283002,0.395399094,0.083517075,3.003662109,-0.372664005,-0.350962893,-0.008797124,-1.884727763,0.000000000,-0.003057434,0.010072773,0.344303927,-0.000974000,-0.015068054,0.004396439,1.652017975,-0.002550000,0.000190735,0.048351288,-0.821969604,0.050554000,0.048256874,0.074726105,1.718673706,0.332475990,0.249294281,0.101099014,3.150177002,-0.333761007,-0.297956125,-0.013183000,-3.471238989,0.001634000,0.001288219,0.000005198,0.001161238
0.214000000,0.000102000,-0.026130676,-0.013187408,2.753342438,0.001575000,0.004386902,0.004396439,-2.316494751,-0.045031998,-0.042153358,-0.083517075,-1.419790649,0.463492990,0.395780563,0.057142258,3.589752197,-0.373106003,-0.350962893,-0.008797124,-1.884727763,0.000000000,-0.003057434,0.010072773,0.344303927,-0.001053000,-0.015068054,0.004396439,1.872295380,-0.002450000,0.000190735,0.030769348,-2.167025757,0.050498001,0.048256874,0.030769348,1.868142700,0.332897007,0.249294281,0.109889984,3.296691895,-0.334250987,-0.297956125,-0.004400652,-3.272851614,0.001596000,0.001288219,-0.019835029,0.088978127
0.216000000,0.000165000,-0.026130676,0.048351288,2.533096313,0.001444000,0.004386902,-0.065933228,-2.316494751,-0.045012001,-0.042534828,-0.013187408,0.074734497,0.463703990,0.395780563,0.057142258,3.882781982,-0.373558015,-0.350962893,-0.000008160,-1.983863042,0.000000000,-0.003057434,0.010083343,0.300996265,-0.001130000,-0.015068054,-0.039560318,1.652017975,-0.002349000,0.000190735,-0.004396439,-0.224176025,0.050439999,0.048256874,0.021978378,2.615377808,0.333326012,0.249675751,0.101099014,3.443237305,-0.334753007,-0.298146617,-0.004385168,-3.272840273,0.001558000,0.001718615,0.019840288,0.089337390
0.218000000,0.000231000,-0.026130676,0.021978378,2.973619843,0.001314000,0.004386902,0.004396439,-1.868142700,-0.044989001,-0.042153358,0.030769348,-1.419790649,0.463918000,0.395780563,0.039560318,3.443237305,-0.374017000,-0.350962893,-0.008780808,-1.983945500,0.000000000,-0.003057434,-0.010089538,0.387451072,-0.001204000,-0.015068054,0.013187408,1.872295380,-0.002248000,0.000190735,0.030769348,-1.419790649,0.050381999,0.048256874,0.057142258,1.120880127,0.333761990,0.249675751,0.092308044,3.736267090,-0.335265994,-0.298146617,-0.008793406,-3.471193007,0.001520000,0.001718615,-0.009913288,0.089425845
0.220000000,0.000299000,-0.026130676,0.021978378,2.973619843,0.001184000,0.004386902,0.013187408,-2.316494751,-0.044966001,-0.042153358,0.021978378,-0.821969604,0.464134008,0.395780563,0.021978378,3.443237305,-0.374484986,-0.350962893,0.004394960,-1.983863042,0.000000000,-0.003057434,0.000004192,0.300996265,-0.001274000,-0.015068054,0.013187408,1.652017975,-0.002146000,0.000190735,0.004396439,-0.971438599,0.050322998,0.048256874,0.048351288,1.120880127,0.334206998,0.250057220,0.109889984,3.589752197,-0.335790992,-0.298146617,-0.017572590,-3.471193007,0.001482000,0.001718615,0.009927160,0.089425845
0.222000000,0.000369000,-0.026130676,0.039560318,2.973619843,0.001056000,0.004386902,-0.004396439,-2.764846802,-0.044941001,-0.042153358,-0.021978378,-1.120880127,0.464350998,0.395780563,0.030769348,3.589752197,-0.374960989,-0.350962893,0.008780808,-1.983945500,0.000000000,-0.003057434,0.010089538,0.387451072,-0.001339000,-0.014686584,0.048351288,1.431740570,-0.002046000,0.000190735,-0.057142258,-1.868142700,0.050262000,0.048256874,-0.013187408,2.167025757,0.334659010,0.250057220,0.092308044,3.589752197,-0.336326987,-0.298146617,-0.017590281,-3.371993523,0.001444000,0.001718615,-0.029744489,0.133320546
0.224000000,0.000439000,-0.026130676,0.021978378,2.973619843,0.000930000,0.004386902,0.030769348,-2.615377808,-0.044915002,-0.042153358,-0.039560318,-2.017584229,0.464569986,0.395780563,0.021978378,3.736267090,-0.375443995,-0.350962893,-0.004394960,-2.083080779,0.000000000,-0.003057434,-0.000004192,0.344143410,-0.001398000,-0.015068054,-0.004396439,1.652017975,-0.001948000,0.000190735,0.030769348,-0.224176025,0.050200000,0.048256874,0.013187408,1.718673706,0.335117996,0.250438690,0.074726105,3.736267090,-0.336874008,-0.298146617,-0.030767903,-3.371993523,0.001407000,0.001718615,-0.019819641,0.133320546
0.226000000,0.000509000,-0.026130676,-0.013187408,3.193897247,0.000809000,0.004386902,0.048351288,-2.017584229,-0.044888999,-0.042153358,0.030769348,-0.672528076,0.464789003,0.396162033,0.030769348,4.029296875,-0.375934988,-0.350962893,-0.017601453,-2.281433795,0.000000000,-0.003057434,0.030226703,0.343982893,-0.001450000,-0.015068054,0.021978378,1.872295380,-0.001852000,0.000190735,0.030769348,-1.270321655,0.050136000,0.048256874,-0.004396439,2.017584229,0.335584998,0.250438690,0.065933228,3.882781982,-0.337431014,-0.298337468,-0.057137385,-3.372010645,0.001370000,0.001288381,-0.039653472,0.132937864
0.228000000,0.000579000,-0.026130676,-0.004396439,2.753342438,0.000693000,0.004386902,-0.004396439,-2.167025757,-0.044861998,-0.042153358,-0.048351288,-2.764846802,0.465009004,0.396162033,0.021978378,3.443237305,-0.376432002,-0.350962893,-0.004410324,-2.281433795,0.000000000,-0.003057434,0.020160308,0.343982893,-0.001493000,-0.014686584,0.021978378,1.872295380,-0.001759000,0.000190735,-0.004396439,-1.120880127,0.050069999,0.047875404,-0.004396439,1.120880127,0.336059004,0.250820160,0.065933228,3.882781982,-0.337998003,-0.298337468,-0.061534720,-3.272851615,0.001335000,0.001288381,-0.049570201,0.088968184
0.230000000,0.000648000,-0.026130676,0.004396439,2.973619843,0.000582000,0.004386902,-0.030769348,-2.914288330,-0.044835001,-0.042153358,0.074726105,-1.868142700,0.465229005,0.396162033,0.030769348,3.150177002,-0.376935989,-0.350962893,-0.008797124,-2.281433795,0.000000000,-0.003057434,0.010072773,0.343982893,-0.001527000,-0.014686584,0.013187408,1.872295380,-0.001670000,0.000190735,0.004396439,-0.821969604,0.050002001,0.047875404,-0.021978378,1.868142700,0.336540014,0.250820160,0.065933228,4.175811768,-0.338575006,-0.298528271,-0.083501501,-3.173698212,0.001300000,0.000858099,-0.059494304,0.044642678
0.232000000,0.000715000,-0.026130676,0.030769348,3.414174652,0.000478000,0.004386902,0.074726105,-2.017584229,-0.044808000,-0.042153358,0.030769348,-1.270321655,0.465449005,0.396162033,0.030769348,3.296691895,-0.377447009,-0.351153881,-0.004407997,-2.281386358,0.000000000,-0.002620163,0.020162044,0.344226972,-0.001550000,-0.014686584,0.004396439,1.872295380,-0.001586000,0.000190735,-0.021978378,-0.672528076,0.049931001,0.047875404,-0.057142258,1.868142700,0.337027013,0.250820160,0.065933228,3.736267090,-0.339161009,-0.298718811,-0.118647920,-3.173692587,0.001267000,0.001288543,-0.019792435,0.044993680
0.234000000,0.000780000,-0.026130676,-0.004396439,3.193897247,0.000381000,0.004386902,-0.030769348,-2.465936279,-0.044780999,-0.042153358,0.048351288,-1.419790649,0.465667993,0.396162033,0.030769348,3.736267090,-0.377963990,-0.351153881,-0.013196964,-2.380527523,0.000000000,-0.002620163,0.020152673,0.300933196,-0.001562000,-0.015068054,0.004396439,1.652017975,-0.001507000,0.000190735,0.083517075,-0.971438599,0.049858000,0.047875404,-0.021978378,1.868142700,0.337522000,0.251201630,0.065933228,3.736267090,-0.339756995,-0.299100155,-0.118641279,-3.272851617,0.001234000,0.001288704,0.000046818,0.088948296
0.236000000,0.000846000,-0.026130676,-0.004396439,2.973619843,0.000285000,0.004386902,-0.013187408,-3.063729858,-0.044751000,-0.042153358,0.021978378,-1.868142700,0.465889007,0.396162033,0.030769348,3.150177002,-0.378491998,-0.351153881,-0.026399969,-2.479668688,0.000000000,-0.002620163,0.050387071,0.257639420,-0.001570000,-0.015068054,0.021978378,1.652017975,-0.001428000,0.000190735,-0.004396439,-0.971438599,0.049782999,0.047875404,-0.057142258,0.821969604,0.338027000,0.251201630,0.074726105,4.029296875,-0.340371013,-0.299290957,-0.144997477,-3.372027840,0.001203000,0.000858321,0.039725590,0.132524735
0.238000000,0.000916000,-0.026130676,0.065933228,2.973619843,0.000188000,0.004386902,-0.004396439,-2.316494751,-0.044718001,-0.042153358,0.057142258,-1.569232178,0.466109991,0.396162033,0.048351288,3.150177002,-0.379034013,-0.351153881,-0.022025991,-2.380527523,0.000000000,-0.002620163,0.080638024,0.300933196,-0.001579000,-0.014686584,0.030769348,1.652017975,-0.001349000,0.000190735,0.048351288,-0.971438599,0.049704999,0.047875404,0.004396439,1.718673706,0.338542998,0.251583099,0.065933228,4.029296875,-0.341006011,-0.299672300,-0.171362524,-3.272863033,0.001171000,0.000858431,0.039735013,0.088568737
0.240000000,0.000988000,-0.026130676,-0.013187408,3.193897247,0.000092000,0.004386902,-0.039560318,-2.167025757,-0.044682000,-0.042153358,0.004396439,-1.270321655,0.466333002,0.396543503,0.065933228,3.150177002,-0.379588008,-0.351153881,-0.039616964,-2.380456859,0.000000000,-0.002620163,0.100789293,0.214483247,-0.001586000,-0.015068054,-0.004396439,1.872295380,-0.001269000,0.000190735,-0.048351288,-0.971438599,0.049625002,0.047875404,0.004396439,1.419790649,0.339069992,0.251583099,0.057142258,3.882781982,-0.341659009,-0.299862841,-0.193312483,-3.272886297,0.001139000,0.001289026,0.089386356,0.001096458
0.242000000,0.001061000,-0.026130676,0.021978378,2.973619843,-0.000003000,0.004386902,0.004396439,-2.316494751,-0.044643998,-0.041771889,0.057142258,-1.569232178,0.466556996,0.396543503,0.065933228,3.150177002,-0.380154014,-0.351344820,-0.052782477,-2.281280088,0.000000000,-0.002182841,0.090706922,0.258026000,-0.001594000,-0.015068054,-0.021978378,1.652017975,-0.001189000,0.000190735,0.039560318,-0.971438599,0.049541999,0.047875404,0.021978378,2.167025757,0.339608014,0.251583099,0.057142258,4.029296875,-0.342330992,-0.300434677,-0.206480076,-3.074580072,0.001108000,0.001719883,0.099359603,-0.086442875
0.244000000,0.001136000,-0.026130676,0.030769348,3.193897247,-0.000097000,0.004386902,-0.013187408,-3.960433960,-0.044603001,-0.041771889,0.057142258,-1.868142700,0.466782004,0.396543503,0.083517075,2.271057129,-0.380730003,-0.351344820,-0.061582154,-2.479633063,0.000000000,-0.002182841,0.110865525,0.257911316,-0.001601000,-0.015068054,-0.013187408,1.652017975,-0.001110000,0.000190735,-0.004396439,-1.569232178,0.049456999,0.047493935,-0.065933228,2.017584229,0.340155005,0.251583099,0.048351288,4.175811768,-0.343017995,-0.300816020,-0.219657667,-2.876181075,0.001076000,0.001720094,0.109304195,0.001285186
0.246000000,0.001212000,-0.026130676,-0.004396439,2.753342438,-0.000190000,0.004386902,0.039560318,-2.914288330,-0.044560000,-0.041771889,0.083517075,-1.868142700,0.467009008,0.396924973,0.083517075,3.150177002,-0.381316006,-0.351535707,-0.057170678,-2.380397464,0.000000000,-0.001745469,0.100799718,0.215009032,-0.001607000,-0.015068054,0.013187408,1.652017975,-0.001033000,0.000190735,-0.021978378,-0.672528076,0.049369000,0.047875404,0.004396439,0.672528076,0.340712994,0.251964569,0.048351288,3.589752197,-0.343721986,-0.301197363,-0.259200294,-2.876227360,0.001046000,0.001720304,0.119267165,-0.086510233
0.248000000,0.001288000,-0.026130676,-0.021978378,2.973619843,-0.000280000,0.004386902,-0.030769348,-1.419790649,-0.044514000,-0.041771889,-0.013187408,-1.569232178,0.467236996,0.396924973,0.083517075,3.003662109,-0.381911993,-0.351726165,-0.057147347,-2.578780175,0.000000000,-0.002183068,0.040297252,0.214605346,-0.001613000,-0.015068054,-0.021978378,1.652017975,-0.000957000,0.000190735,-0.004396439,-0.821969604,0.049279001,0.047493935,-0.048351288,1.270321655,0.341280013,0.251964569,0.048351288,4.468872070,-0.344439000,-0.301960050,-0.276786145,-2.578745585,0.001015000,0.001720723,0.099443185,-0.218294751
0.250000000,0.001365000,-0.026130676,-0.013187408,3.414174652,-0.000367000,0.004005432,-0.118680954,-1.718673706,-0.044468001,-0.041771889,0.039560318,-1.270321655,0.467465997,0.397306442,0.065933228,2.857147217,-0.382515997,-0.351917053,-0.057142697,-2.578725531,0.000000000,-0.001745644,0.040307330,0.128451689,-0.001618000,-0.014686584,0.021978378,1.431740570,-0.000883000,0.000190735,-0.013187408,-0.821969604,0.049185999,0.047493935,-0.021978378,1.718673706,0.341856986,0.251964569,0.065933228,4.029296875,-0.345169008,-0.302531838,-0.289951447,-2.677944393,0.000985000,0.002151933,0.109437475,-0.174021951
0.252000000,0.001441000,-0.026130676,-0.021978378,3.193897247,-0.000450000,0.004386902,-0.021978378,-3.213198853,-0.044419002,-0.041771889,0.013187408,-2.615377808,0.467696011,0.397306442,0.074726105,2.710632324,-0.383127987,-0.351917053,-0.083489043,-2.479550460,0.000000000,-0.001745644,-0.000045473,0.171722194,-0.001623000,-0.015068054,0.004396439,1.652017975,-0.000812000,0.000190735,-0.004396439,-1.419790649,0.049091000,0.047493935,0.021978378,1.868142700,0.342442989,0.252346039,0.057142258,4.175811768,-0.345912009,-0.303103579,-0.320691489,-2.578756775,0.000956000,0.002583296,0.119454914,-0.129885259
0.254000000,0.001516000,-0.026130676,0.004396439,2.973619843,-0.000529000,0.004005432,-0.109889984,-3.063729858,-0.044369001,-0.041390419,-0.013187408,-2.465936279,0.467927992,0.397306442,0.083517075,3.003662109,-0.383747995,-0.352298398,-0.096657067,-2.578725579,0.000000000,-0.001745818,-0.030308460,0.128435969,-0.001627000,-0.015068054,0.030769348,1.652017975,-0.000744000,0.000190735,0.065933228,-0.672528076,0.048992999,0.047493935,-0.048351288,1.270321655,0.343037993,0.252346039,0.057142258,4.175811768,-0.346664995,-0.303866266,-0.342695799,-2.677967961,0.000928000,0.002583915,0.069821328,-0.173648625
0.256000000,0.001590000,-0.026130676,-0.039560318,3.193897247,-0.000604000,0.004386902,-0.013187408,-3.810992432,-0.044319000,-0.041390419,-0.030769348,-1.868142700,0.468160987,0.397687912,0.083517075,3.003662109,-0.384373993,-0.352298398,-0.118622447,-2.479597591,0.000000000,-0.001745818,-0.040405693,0.258120970,-0.001631000,-0.015068054,0.004396439,1.652017975,-0.000680000,0.000190735,-0.030769348,-0.672528076,0.048893001,0.047493935,-0.021978378,0.672528076,0.343641013,0.252346039,0.057142258,4.029296875,-0.347427994,-0.304628953,-0.373474833,-2.479545699,0.000900000,0.002584532,0.040046879,-0.086036947
0.258000000,0.001662000,-0.026130676,0.030769348,2.753342438,-0.000674000,0.004386902,-0.048351288,-2.914288330,-0.044268001,-0.041390419,-0.004396439,-1.718673706,0.468394995,0.397687912,0.092308044,2.564117432,-0.385004997,-0.352679744,-0.127392732,-2.578797675,0.000000000,-0.001745992,-0.080763353,0.301248583,-0.001634000,-0.015068054,-0.021978378,1.652017975,-0.000620000,0.000190735,-0.021978378,-0.224176025,0.048790000,0.047493935,-0.021978378,1.120880127,0.344251990,0.252727509,0.057142258,4.029296875,-0.348199010,-0.305391639,-0.413028555,-2.479406637,0.000873000,0.002585149,0.030149829,0.089349280
0.260000000,0.001732000,-0.026130676,0.030769348,2.973619843,-0.000738000,0.004005432,0.057142258,-2.615377808,-0.044216000,-0.041390419,0.021978378,-2.017584229,0.468629986,0.398069382,0.092308044,2.710632324,-0.385641992,-0.352870202,-0.118595338,-2.677986296,0.000000000,-0.002183747,-0.080779833,0.257671648,-0.001637000,-0.015068054,-0.021978378,1.652017975,-0.000564000,0.000190735,0.030769348,-0.373617554,0.048684001,0.047493935,0.021978378,1.270321655,0.344871014,0.252727509,0.065933228,3.736267090,-0.348977000,-0.306154326,-0.443834392,-2.281170855,0.000848000,0.002585764,-0.039417198,-0.086137269
0.262000000,0.001799000,-0.026130676,-0.021978378,2.533096313,-0.000795000,0.004005432,-0.030769348,-2.167025757,-0.044163998,-0.041390419,0.030769348,-1.569232178,0.468865991,0.398069382,0.092308044,2.857147217,-0.386283010,-0.353060609,-0.136147968,-2.578810170,0.000000000,-0.002621555,-0.100990953,0.214214822,-0.001638000,-0.015068054,-0.021978378,1.652017975,-0.000514000,0.000190735,-0.013187408,-0.523086548,0.048576001,0.047493935,0.004396439,0.971438599,0.345497996,0.253108978,0.083517075,3.589752197,-0.349761009,-0.307107958,-0.474617023,-2.281123182,0.000823000,0.002155027,-0.089195235,0.001279741
0.264000000,0.001864000,-0.026130676,-0.048351288,2.973619843,-0.000846000,0.004386902,0.065933228,-3.512081909,-0.044112001,-0.041390419,-0.021978378,-2.316494751,0.469103992,0.398450851,0.092308044,2.710632324,-0.386927009,-0.353441955,-0.140576994,-2.777185370,0.000000000,-0.002621833,-0.050561951,0.214041193,-0.001640000,-0.015068054,0.013187408,1.652017975,-0.000469000,0.000572205,0.048351288,-0.672528076,0.048466001,0.047493935,0.021978378,1.718673706,0.346132010,0.253108978,0.083517075,4.175811768,-0.350549996,-0.308251988,-0.505391929,-2.677828740,0.000800000,0.002155794,-0.119052252,0.001503548
0.266000000,0.001925000,-0.025749207,0.039560318,2.973619843,-0.000889000,0.004005432,0.013187408,-2.764846802,-0.044059999,-0.041390419,0.021978378,-1.120880127,0.469343007,0.398450851,0.101099014,3.150177002,-0.387573987,-0.353823301,-0.166956001,-2.578810298,0.000000000,-0.002622111,-0.030407130,0.214162487,-0.001640000,-0.015068054,0.021978378,1.431740570,-0.000431000,0.000572205,-0.039560318,-1.419790649,0.048351999,0.047112465,-0.013187408,1.419790649,0.346772999,0.253490448,0.074726105,3.736267090,-0.351343006,-0.309776767,-0.544973438,-2.876263512,0.000778000,0.003020534,-0.128893396,-0.085301302
0.268000000,0.001983000,-0.025749207,0.004396439,3.193897247,-0.000927000,0.004005432,-0.004396439,-2.167025757,-0.044008002,-0.041390419,-0.004396439,-1.419790649,0.469583988,0.398450851,0.092308044,3.003662109,-0.388226002,-0.354204647,-0.180145026,-2.876397387,0.000000000,-0.002622389,-0.020330237,0.257103670,-0.001638000,-0.015068054,0.021978378,1.431740570,-0.000398000,0.000572205,-0.039560318,-1.419790649,0.048236001,0.047112465,-0.013187408,1.419790649,0.347422004,0.253490448,0.074726105,3.736267090,-0.352140993,-0.309776767,-0.544973438,-2.876263512,0.000757000,0.003020534,-0.128893396,-0.085301302
0.270000000,0.002045000,-0.025749207,0.021978378,3.193897247,-0.000963000,0.004005432,-0.021978378,-4.408786011,-0.043954998,-0.041390419,0.004396439,-1.569232178,0.469826013,0.398832321,0.101099014,2.857147217,-0.388889015,-0.354395004,-0.171354613,-2.578840246,0.000000000,-0.003060407,-0.020347771,0.213823721,-0.001626000,-0.014686584,0.030769348,1.872295380,-0.000365000,0.000572205,0.013187408,-0.672528076,0.048115000,0.047112465,-0.039560318,1.419790649,0.348085999,0.253490448,0.083517075,4.322357178,-0.352952987,-0.311684078,-0.562521830,-2.975387037,0.000737000,0.002158079,-0.129098815,-0.042081941
0.272000000,0.002108000,-0.025749207,0.021978378,3.193897247,-0.000999000,0.004005432,-0.039560318,-2.615377808,-0.043901000,-0.041390419,0.065933228,-0.373617554,0.470070004,0.398832321,0.101099014,3.003662109,-0.389562994,-0.354776350,-0.197735014,-2.678058128,0.000000000,-0.003060737,-0.000189096,0.256892971,-0.001605000,-0.015068054,-0.021978378,1.652017975,-0.000333000,0.000572205,0.039560318,-0.672528076,0.047988001,0.047112465,0.021978378,0.821969604,0.348762989,0.253871918,0.101099014,3.736267090,-0.353778988,-0.312637961,-0.562478461,-2.776993087,0.000717000,0.000861995,-0.129359750,0.044370791
0.274000000,0.002173000,-0.025749207,-0.004396439,2.973619843,-0.001034000,0.004005432,-0.030769348,-3.063729858,-0.043845002,-0.041390419,-0.004396439,-1.868142700,0.470317006,0.399213791,0.109889984,2.857147217,-0.390246987,-0.355157696,-0.197718629,-2.876433378,0.000000000,-0.003061067,-0.020377889,0.256690950,-0.001575000,-0.014686584,-0.004396439,1.872295380,-0.000302000,0.000572205,0.048351288,-0.523086548,0.047857001,0.047112465,-0.030769348,1.419790649,0.349451989,0.254253387,0.118680954,3.589752197,-0.354618996,-0.314163033,-0.575658087,-2.281123168,0.000698000,0.001727271,-0.059496943,0.001029239
0.276000000,0.002239000,-0.025749207,-0.004396439,2.753342438,-0.001068000,0.004005432,0.039560318,-2.615377808,-0.043788001,-0.041390419,0.083517075,-1.270321655,0.470564008,0.399213791,0.083517075,3.003662109,-0.390938997,-0.355730030,-0.210939120,-2.677973872,0.000000000,-0.002623500,0.030117680,0.170789751,-0.001537000,-0.015068054,-0.004396439,1.652017975,-0.000271000,0.000572205,0.030769348,-0.523086548,0.047720999,0.047112465,-0.048351288,0.821969604,0.350154012,0.254253387,0.127471924,3.736267090,-0.355470002,-0.315307063,-0.584438084,-1.983502181,0.000679000,0.001727869,-0.039570354,0.132029702
0.278000000,0.002304000,-0.025749207,0.013187408,2.973619843,-0.001100000,0.004005432,-0.004396439,-3.362640381,-0.043729998,-0.041390419,0.057142258,-0.821969604,0.470813006,0.399595261,0.092308044,3.150177002,-0.391640007,-0.356111376,-0.228543260,-2.380457658,0.000000000,-0.002623778,0.070496229,0.214143505,-0.001493000,-0.015068054,-0.013187408,1.652017975,-0.000242000,0.000572205,0.021978378,-0.523086548,0.047580998,0.047112465,-0.057142258,1.120880127,0.350867003,0.254634857,0.136262894,4.029296875,-0.356332988,-0.316451093,-0.602014150,-1.685927653,0.000660000,0.001728463,-0.039574823,0.175532706
0.280000000,0.002367000,-0.025749207,-0.021978378,2.973619843,-0.001131000,0.004005432,-0.004396439,-2.465936279,-0.043671001,-0.041390419,-0.048351288,-0.821969604,0.471064001,0.399595261,0.101099014,3.296691895,-0.392347008,-0.356492722,-0.254923280,-2.281245800,0.000000000,-0.002624055,0.090680088,0.171033465,-0.001443000,-0.015068054,0.021978378,1.431740570,-0.000213000,0.000572205,-0.039560318,-0.523086548,0.047437001,0.047112465,0.074726105,1.718673706,0.351590008,0.255016327,0.127471924,3.882781982,-0.357205987,-0.317595123,-0.623961666,-1.586703599,0.000643000,0.001729055,0.010309664,0.306468520
0.282000000,0.002429000,-0.025749207,0.048351288,3.193897247,-0.001160000,0.004005432,-0.039560318,-3.362640381,-0.043611001,-0.041390419,0.013187408,-1.270321655,0.471316010,0.399976730,0.101099014,3.296691895,-0.393059999,-0.357065006,-0.281300316,-1.884515954,0.000000000,-0.002186228,0.131114232,0.171497552,-0.001388000,-0.014686584,0.013187408,1.431740570,-0.000187000,0.000572205,-0.021978378,-0.821969604,0.047290001,0.047112465,0.074726105,1.718673706,0.352322996,0.255397797,0.145055771,3.882781982,-0.358089000,-0.318548858,-0.637147156,-1.983589326,0.000625000,-0.000435576,-0.020047960,0.130781819
0.284000000,0.002488000,-0.025749207,0.030769348,3.193897247,-0.001187000,0.004005432,0.004396439,-3.512081909,-0.043550000,-0.041390419,0.004396439,-1.419790649,0.471569002,0.399976730,0.101099014,3.150177002,-0.393777996,-0.357637239,-0.312039486,-1.983645122,0.000000000,-0.001748246,0.121059106,0.128501807,-0.001329000,-0.015068054,-0.004396439,1.652017975,-0.000162000,0.000572205,-0.030769348,-0.672528076,0.047139000,0.046730995,0.021978378,1.120880127,0.353064001,0.255779266,0.162637711,3.736267090,-0.358981013,-0.320264923,-0.645938382,-2.181924640,0.000608000,-0.000002593,-0.000000555,0.130936446
0.286000000,0.002543000,-0.025749207,0.004396439,3.414174652,-0.001212000,0.004005432,-0.004396439,-2.764846802,-0.043488000,-0.041390419,-0.039560318,-0.672528076,0.471821994,0.400358200,0.101099014,3.443237305,-0.394499987,-0.358399932,-0.320846311,-1.983645206,0.000000000,-0.001748592,0.161501232,0.128470480,-0.001266000,-0.015068054,0.004396439,1.652017975,-0.000139000,0.000572205,0.039560318,-1.120880127,0.046983998,0.046730995,0.030769348,1.419790649,0.353814006,0.255779266,0.136262894,3.882781982,-0.359880000,-0.321599598,-0.663518956,-2.380305290,0.000592000,0.000430802,-0.039870107,-0.043353000
0.288000000,0.002594000,-0.025749207,0.021978378,2.973619843,-0.001235000,0.004005432,0.048351288,-2.914288330,-0.043426000,-0.041390419,0.013187408,-0.523086548,0.472077012,0.400358200,0.101099014,4.029296875,-0.395224005,-0.358972114,-0.355994722,-1.884411066,0.000000000,-0.001310350,0.201986668,0.085582987,-0.001201000,-0.015068054,-0.004396439,1.652017975,-0.000119000,0.000572205,-0.048351288,-0.821969604,0.046827000,0.046730995,-0.092308044,1.868142700,0.354571015,0.256160736,0.127471924,3.882781982,-0.360785991,-0.322934323,-0.685485463,-2.479475916,0.000577000,-0.000002669,-0.049971033,0.000001216
0.290000000,0.002639000,-0.025749207,-0.004396439,3.414174652,-0.001254000,0.004005432,-0.048351288,-3.213198853,-0.043361999,-0.041390419,-0.021978378,-1.270321655,0.472332001,0.400739670,0.083517075,3.882781982,-0.395951003,-0.359925591,-0.373552036,-1.983563971,0.000000000,-0.000872019,0.222309038,0.042646075,-0.001134000,-0.015068054,-0.004396439,1.652017975,-0.000101000,0.000572205,0.013187408,-0.523086548,0.046666000,0.046730995,-0.013187408,2.017584229,0.355334997,0.256542206,0.145055771,3.882781982,-0.361698985,-0.324459695,-0.694273461,-2.281123228,0.000562000,-0.000002720,-0.029997878,0.000001090
0.292000000,0.002678000,-0.025749207,-0.004396439,3.193897247,-0.001271000,0.003623962,-0.004396439,-2.764846802,-0.043299001,-0.041390419,-0.065933228,-1.868142700,0.472588003,0.400739670,0.083517075,3.736267090,-0.396678001,-0.360497671,-0.391100843,-2.181944864,0.000000000,-0.000433413,0.202172854,0.129054732,-0.001066000,-0.015068054,0.030769348,1.652017975,-0.000086000,0.000572205,0.030769348,-1.569232178,0.046503000,0.046730995,-0.039560318,-0.074734497,0.356103987,0.256923676,0.109889984,4.029296875,-0.362616003,-0.325603724,-0.663514371,-2.082726247,0.000548000,-0.000002762,-0.000000618,0.000000974
0.294000000,0.002709000,-0.025749207,-0.013187408,3.414174652,-0.001284000,0.003623962,-0.057142258,-2.316494751,-0.043234002,-0.041390419,-0.013187408,-0.074734497,0.472844005,0.400739670,0.065933228,3.589752197,-0.397403985,-0.361451046,-0.391077312,-2.479478904,0.000000000,0.000005386,0.161830229,0.086174006,-0.000999000,-0.015068054,0.004396439,1.431740570,-0.000074000,0.000572205,-0.013187408,0.224176025,0.046337999,0.046349525,-0.092308044,1.120880127,0.356878012,0.256923676,0.127471924,4.175811768,-0.363537997,-0.327129097,-0.654726300,-1.686020926,0.000535000,-0.000002823,0.040025805,0.174198665
0.296000000,0.002733000,-0.025749207,0.048351288,3.414174652,-0.001294000,0.003623962,0.039560318,-3.810992432,-0.043170001,-0.041390419,0.048351288,-1.120880127,0.473100007,0.401121140,0.083517075,4.029296875,-0.398130000,-0.362213738,-0.395471315,-2.380280255,0.000000000,0.000005460,0.111286530,0.129239525,-0.000932000,-0.015068054,-0.021978378,1.652017975,-0.000065000,0.000572205,-0.030769348,-1.120880127,0.046170998,0.046349525,-0.039560318,2.167025757,0.357656002,0.257305145,0.127471924,4.029296875,-0.364463001,-0.328273126,-0.659120311,-1.586844626,0.000522000,-0.000002872,0.010009504,0.217671067
0.298000000,0.002748000,-0.025749207,-0.004396439,3.414174652,-0.001300000,0.003623962,-0.057142258,-2.615377808,-0.043104000,-0.041390419,0.039560318,-1.120880127,0.473356009,0.401121140,0.092308044,3.443237305,-0.398853004,-0.362976431,-0.408653346,-2.380302648,0.000000000,0.000005536,0.020238666,0.043066691,-0.000868000,-0.015068054,-0.013187408,1.431740570,-0.000059000,0.000572205,-0.013187408,-0.971438599,0.046002001,0.046349525,0.013187408,2.465936279,0.358437985,0.257686615,0.136262894,3.882781982,-0.365390003,-0.329798499,-0.659120278,-1.090962754,0.000510000,-0.000002942,0.030043955,0.261081679
0.300000000,0.002753000,-0.025749207,0.013187408,2.973619843,-0.001302000,0.003623962,-0.057142258,-3.362640381,-0.043039002,-0.041390419,-0.048351288,-0.224176025,0.473612010,0.401502609,0.092308044,3.443237305,-0.399572015,-0.363739124,-0.435018368,-2.380302916,0.000000000,0.000005611,-0.101214518,-0.043055321,-0.000806000,-0.015068054,0.004396439,1.652017975,-0.000057000,0.000572205,-0.048351288,-1.419790649,0.045832001,0.046349525,-0.021978378,1.569232178,0.359221995,0.257686615,0.118680954,4.615386963,-0.366320014,-0.330942529,-0.685484362,-1.289315500,0.000499000,-0.000002998,-0.010019125,0.173993056
0.302000000,0.002747000,-0.025749207,0.021978378,3.193897247,-0.001295000,0.003623962,0.004396439,-2.465936279,-0.042973001,-0.041390419,0.030769348,-0.971438599,0.473868996,0.401502609,0.083517075,3.296691895,-0.400292009,-0.364692482,-0.430607580,-2.380297109,0.000000000,-0.000433577,-0.151928557,-0.043319957,-0.000742000,-0.014686584,0.030769348,1.652017975,-0.000062000,0.000572205,0.030769348,0.074734497,0.045657001,0.045968056,-0.021978378,0.971438599,0.360015005,0.258068085,0.118680954,4.175811768,-0.367253989,-0.332467902,-0.689878337,-1.686020985,0.000489000,-0.000003077,0.020045572,0.000000657
0.304000000,0.002729000,-0.025749207,0.013187408,3.193897247,-0.001275000,0.003623962,0.013187408,-4.558255005,-0.042908002,-0.041390419,-0.021978378,-1.270321655,0.474126995,0.401884079,0.109889984,3.882781982,-0.401014000,-0.365455175,-0.443793118,-2.380297196,0.000000000,-0.000433606,-0.121586317,-0.043309748,-0.000673000,-0.014686584,-0.004396439,1.652017975,-0.000075000,0.000572205,-0.004396439,0.074734497,0.045474999,0.045968056,0.004396439,2.764846802,0.360819995,0.258068085,0.109889984,4.175811768,-0.368196011,-0.333993276,-0.703061293,-2.082748721,0.000479000,-0.000003162,0.050140858,-0.086923026
0.306000000,0.002701000,-0.025749207,0.030769348,3.414174652,-0.001245000,0.003623962,0.004396439,-2.465936279,-0.042842001,-0.041390419,-0.039560318,-1.419790649,0.474384993,0.401884079,0.092308044,3.736267090,-0.401739001,-0.366408484,-0.470128725,-2.181916224,0.000000000,-0.000873162,-0.182470779,-0.043538195,-0.000599000,-0.014686584,0.004396439,1.652017975,-0.000095000,0.000572205,0.030769348,-0.672528076,0.045288000,0.045968056,-0.013187408,1.270321655,0.361638010,0.258449554,0.109889984,4.468872070,-0.369145989,-0.335137307,-0.689878287,-2.082748981,0.000469000,-0.000003229,0.020062120,0.086893708
0.308000000,0.002665000,-0.025749207,-0.004396439,3.193897247,-0.001205000,0.003623962,-0.039560318,-3.362640381,-0.042776000,-0.041390419,-0.074726105,-0.821969604,0.474644989,0.401884079,0.092308044,3.736267090,-0.402465999,-0.367361741,-0.492060534,-2.082787122,0.000000000,-0.001312982,-0.233266884,0.085293134,-0.000521000,-0.015068054,-0.004396439,1.431740570,-0.000122000,0.000572205,-0.030769348,0.373617554,0.045095000,0.045968056,-0.004396439,0.971438599,0.362464994,0.258831024,0.109889984,4.175811768,-0.370103002,-0.336662681,-0.685484246,-2.380300404,0.000460000,-0.000003322,0.010035398,0.043421877
0.310000000,0.002622000,-0.025749207,0.013187408,2.973619843,-0.001157000,0.003623962,0.013187408,-3.512081909,-0.042709000,-0.041390419,-0.013187408,-0.672528076,0.474905014,0.402265549,0.074726105,3.589752197,-0.403194994,-0.368314949,-0.496441309,-2.181952126,0.000000000,-0.001753067,-0.203000026,0.041983211,-0.000440000,-0.015068054,-0.004396439,1.872295380,-0.000154000,0.000572205,0.004396439,-1.120880127,0.044897001,0.045968056,-0.048351288,2.017584229,0.363301992,0.258831024,0.118680954,4.468872070,-0.371068001,-0.337806712,-0.676696183,-2.082726915,0.000451000,-0.000003395,0.050197983,0.000000649
0.312000000,0.002574000,-0.025749207,0.004396439,3.414174652,-0.001104000,0.003623962,-0.013187408,-2.615377808,-0.042642001,-0.041390419,0.065933228,-0.523086548,0.475165993,0.402265549,0.092308044,3.150177002,-0.403925002,-0.369458991,-0.496479126,-2.082846765,0.000000000,-0.001753584,-0.121951626,0.170947629,-0.000357000,-0.015068054,0.030769348,1.872295380,-0.000191000,0.000572205,-0.039560318,-2.017584229,0.044695999,0.045968056,-0.004396439,1.868142700,0.364147007,0.259212494,0.127471924,4.468872070,-0.372038007,-0.339332087,-0.672302142,-1.586845059,0.000442000,-0.000003496,0.040177225,0.130155842
0.314000000,0.002522000,-0.025749207,-0.030769348,3.414174652,-0.001047000,0.003623962,-0.021978378,-3.063729858,-0.042574000,-0.041390419,-0.039560318,-0.672528076,0.475427985,0.402647018,0.092308044,3.150177002,-0.404657006,-0.370412148,-0.518417858,-1.983783236,0.000000000,-0.002194092,-0.152502962,0.299604202,-0.000272000,-0.015068054,-0.004396439,1.652017975,-0.000230000,0.000572205,-0.048351288,0.224176025,0.044491000,0.045586586,-0.004396439,1.419790649,0.364998013,0.259593964,0.118680954,4.468872070,-0.373014987,-0.340476119,-0.654725107,-1.289315896,0.000433000,-0.000003575,0.060289854,0.173479200
0.316000000,0.002469000,-0.025749207,0.013187408,2.973619843,-0.000987000,0.003623962,0.021978378,-2.914288330,-0.042505000,-0.041390419,-0.004396439,-1.120880127,0.475690007,0.402647018,0.118680954,3.296691895,-0.405389011,-0.371556192,-0.544830246,-1.587136455,0.000000000,-0.002194768,-0.071403085,0.385626525,-0.000186000,-0.014686584,0.013187408,1.652017975,-0.000272000,0.000572205,-0.021978378,-0.074734497,0.044282999,0.045586586,-0.013187408,1.569232178,0.365853995,0.259593964,0.118680954,4.322357178,-0.373997986,-0.341811760,-0.641534940,-0.991768986,0.000425000,0.000432486,0.070454309,0.130168957
0.318000000,0.002414000,-0.025749207,-0.004396439,3.414174652,-0.000927000,0.003623962,-0.083517075,-3.063729858,-0.042435002,-0.041390419,-0.039560318,-0.373617554,0.475951999,0.403028488,0.109889984,3.443237305,-0.406121999,-0.372509298,-0.562426260,-1.785686088,0.000000000,-0.002635700,-0.030917256,0.556929245,-0.000101000,-0.014686584,-0.004396439,1.652017975,-0.000315000,0.000572205,0.065933228,-0.373617554,0.044073999,0.045586586,0.021978378,1.270321655,0.366714001,0.259975433,0.127471924,4.322357178,-0.374985993,-0.343146481,-0.667908051,-1.090963036,0.000417000,-0.000003770,0.030168387,0.086667692
0.320000000,0.002361000,-0.025749207,-0.013187408,2.753342438,-0.000868000,0.003623962,-0.030769348,-3.362640381,-0.042362999,-0.041390419,-0.021978378,-0.523086548,0.476215005,0.403028488,0.109889984,4.175811768,-0.406856000,-0.373653343,-0.571257080,-1.785757700,0.000000000,-0.002636535,0.029987143,0.642569292,-0.000016000,-0.014686584,-0.021978378,1.872295380,-0.000358000,0.000572205,0.030769348,-0.224176025,0.043862998,0.045586586,-0.013187408,1.569232178,0.367576987,0.260356903,0.145055771,4.029296875,-0.375979006,-0.344481170,-0.654725973,-1.487657094,0.000410000,0.000432647,0.000088031,0.086802725
0.322000000,0.002310000,-0.025749207,0.048351288,3.193897247,-0.000812000,0.003623962,0.004396439,-3.512081909,-0.042289998,-0.041390419,-0.004396439,-1.120880127,0.476476997,0.403409958,0.092308044,4.322357178,-0.407588005,-0.374797388,-0.575658224,-1.785686737,0.000000000,-0.002637372,0.040150857,0.556525049,0.000066000,-0.015068054,-0.004396439,1.872295380,-0.000400000,0.000572205,-0.004396439,-0.074734497,0.043651000,0.045205116,-0.074726105,2.017584229,0.368440986,0.260738373,0.171428680,4.175811768,-0.376976013,-0.345815891,-0.663513983,-1.785198069,0.000403000,-0.000003976,-0.000000950,-0.043297444
