sainanliu129-hub/model/applications/Body_GravityPara_Iden/data/跑步/PD-M1-v0_multi_joint_20260226-181712_torque.csv
time,leg_l1_joint,leg_l2_joint,leg_l3_joint,leg_l4_joint,leg_l5_joint,leg_l6_joint,leg_r1_joint,leg_r2_joint,leg_r3_joint,leg_r4_joint,leg_r5_joint,leg_r6_joint
0,0.991217041,0.821969604,0.224176025,3.73626709,-1.785176479,-0.043818085,-0.550662231,-0.971438599,3.063729858,3.150177002,-1.884373372,0.088792201
0.00199982,0.991217041,0.224176025,-0.971438599,3.443237305,-1.586918184,0.128176296,-0.330416107,-0.373617554,3.810992432,3.589752197,-1.58684418,0.044390958
0.003999639,-0.110138702,0.523086548,-0.523086548,3.882781982,-1.586965662,0.214070215,-0.330416107,-0.971438599,3.362640381,3.882781982,-1.586849806,-0.044210823
0.005999459,0.770939636,-0.074734497,-0.373617554,4.175811768,-1.388612621,0.214111192,-0.330416107,-0.672528076,3.362640381,3.73626709,-1.686043375,-0.088384253
0.007999279,0.550662231,0.074734497,-0.523086548,3.73626709,-1.388701958,0.299761367,-0.991217041,-1.120880127,2.91428833,4.029296875,-1.487736487,-0.176984857
0.009999099,0.550662231,-0.523086548,-0.672528076,3.296691895,-1.388702076,0.299688769,-0.330416107,-0.224176025,3.512081909,3.443237305,-1.289349396,-0.088293697
0.011998918,0.770939636,-0.074734497,-1.419790649,4.322357178,-1.388783709,0.385462975,-0.330416107,-0.074734497,3.661550903,3.443237305,-1.388508605,-0.043898791
0.013998738,0.110138702,-0.971438599,0.224176025,3.443237305,-1.388777582,0.471322431,-0.110138702,-1.569232178,4.109902954,3.150177002,-1.586861347,-0.043823433
0.015998558,0.110138702,-0.074734497,-0.672528076,3.73626709,-1.487883077,0.342475422,-0.991217041,-0.523086548,3.362640381,3.003662109,-1.388508579,-0.043877679
0.017998378,0.550662231,-0.074734497,-0.523086548,3.589752197,-1.686236384,0.342299355,-0.770939636,0.523086548,3.512081909,3.296691895,-1.19019017,-0.132590171
0.019998197,0.550662231,-0.672528076,0.224176025,3.443237305,-1.78531186,0.213768735,-0.770939636,-1.270321655,3.96043396,3.443237305,-1.487667673,0.000324621
0.021998017,0.770939636,0.074734497,-1.120880127,3.443237305,-1.686095435,0.170874941,-0.550662231,0.523086548,3.213198853,3.443237305,-1.686031732,-0.088428198
0.023997837,0.770939636,-0.224176025,0.074734497,3.443237305,-1.388547928,0.12808132,-0.330416107,-0.821969604,4.408786011,3.589752197,-1.785196627,-0.044298372
0.025997657,0.770939636,-0.224176025,-0.971438599,3.882781982,-1.586919208,0.12780068,-0.991217041,-0.821969604,3.96043396,3.589752197,-1.884373022,2.47e-07
0.027997476,0.550662231,-1.270321655,-0.523086548,3.73626709,-1.487718902,0.08497728,-1.211463165,-0.971438599,3.362640381,3.73626709,-1.983555188,0.044064283
0.029997296,0.770939636,0.373617554,-0.373617554,3.589752197,-1.289377783,0.084902688,-0.330416107,-0.373617554,3.362640381,3.589752197,-2.082771031,0.088101147
0.031997116,0.330416107,0.672528076,-0.672528076,3.589752197,-1.289318307,-0.000759414,-0.330416107,-0.224176025,3.362640381,3.589752197,-2.08278263,0.087858027
0.033996936,0.330416107,-0.373617554,-0.821969604,3.443237305,-1.091036717,0.084853792,-0.550662231,-1.718673706,3.96043396,3.296691895,-1.884396144,0.08810349
0.035996755,0.770939636,0.373617554,-0.373617554,4.029296875,-1.09108428,0.170577158,-0.110138702,-0.523086548,3.362640381,3.589752197,-1.785231321,0.132367412
0.037996575,0.330416107,-0.672528076,-0.821969604,3.443237305,-1.091084366,0.170535527,-0.550662231,0.373617554,3.512081909,3.003662109,-1.785276549,0.220856728
0.039996395,0.770939636,-0.821969604,0.074734497,3.150177002,-1.190231247,0.127666664,-0.330416107,-0.821969604,4.109902954,3.150177002,-1.884464458,0.265051606
0.041996215,0.550662231,-0.373617554,-0.821969604,3.589752197,-1.190308544,0.298911925,-0.770939636,-2.017584229,3.810992432,3.296691895,-1.785231306,0.13232092
0.043996034,0.770939636,-0.971438599,-0.523086548,3.73626709,-1.09110813,0.256145667,-0.550662231,-0.672528076,3.661550903,3.443237305,-1.686020398,0.17692778
0.045995854,0.550662231,-1.419790649,-0.821969604,3.73626709,-1.091072189,0.256228748,-0.770939636,-0.672528076,2.615377808,3.882781982,-1.586843987,0.132680517
0.047995674,0.770939636,-0.074734497,-0.971438599,3.443237305,-0.991877746,0.213468783,-0.550662231,-0.821969604,3.512081909,3.150177002,-1.289314788,0.000141607
0.049995494,0.770939636,-1.569232178,0.074734497,3.296691895,-1.190171053,0.213655428,-0.330416107,-0.672528076,2.91428833,2.710632324,-1.388496849,-0.044066359
0.051995313,1.211463165,-0.224176025,-0.523086548,3.443237305,-1.289365298,0.341879572,-0.770939636,-0.971438599,3.213198853,3.003662109,-1.388485432,0.044371465
0.053995133,0.550662231,-0.224176025,-0.672528076,3.150177002,-1.091000332,0.256364065,-0.330416107,-1.718673706,2.91428833,3.150177002,-1.289326196,-0.088285854
0.055994953,0.330416107,-1.419790649,-1.120880127,3.150177002,-1.09101208,0.341820125,-0.550662231,-0.523086548,3.512081909,3.003662109,-1.289337614,-0.176713414
0.057994773,1.43174057,0.523086548,0.224176025,2.857147217,-0.991817882,0.213575261,-0.550662231,-0.523086548,3.213198853,3.150177002,-1.09096206,0.000120247
0.059994592,0.330416107,-0.821969604,-0.523086548,3.443237305,-0.99182963,0.299015807,-0.770939636,-1.120880127,3.810992432,3.296691895,-0.991779978,0.044317957
0.061994412,0.770939636,0.074734497,-1.419790649,3.150177002,-0.991871665,0.29887936,-0.991217041,-0.523086548,2.465936279,3.443237305,-0.892609515,0.17682496
0.063994232,0.330416107,-0.224176025,-0.373617554,3.296691895,-1.190225005,0.298796274,-0.330416107,-0.821969604,3.661550903,3.589752197,-0.991814703,0.220910067
0.065994052,0.330416107,-0.523086548,-1.718673706,3.589752197,-1.190231354,0.213191002,-0.110138702,-1.120880127,3.810992432,3.150177002,-0.793490794,0.220832405
0.067993871,0.110138702,-0.971438599,-0.074734497,3.589752197,-1.289461987,0.255709299,-0.550662231,-1.8681427,3.362640381,3.443237305,-0.892713296,0.264899157
0.069993691,0.550662231,-1.718673706,0.074734497,3.589752197,-1.190351325,0.298315953,-0.770939636,-0.672528076,3.362640381,3.443237305,-0.793594603,0.3090262
0.071993511,0.550662231,-1.270321655,-0.672528076,3.443237305,-1.388840754,0.383453231,-1.211463165,-0.672528076,3.512081909,3.443237305,-0.793594603,0.3090262
0.073993331,0.110138702,-0.672528076,0.224176025,3.73626709,-1.388789073,0.297830984,-0.330416107,-0.672528076,3.362640381,3.296691895,-0.992045401,0.397200651
0.07599315,0.770939636,-0.523086548,-0.373617554,3.003662109,-1.488029796,0.34047,-0.991217041,-1.270321655,3.213198853,3.296691895,-1.091308319,0.441195478
0.07799297,0.770939636,-1.120880127,0.821969604,3.003662109,-1.488173853,0.425689565,-0.770939636,-0.373617554,3.063729858,3.296691895,-1.091192972,0.352911142
0.07999279,0.770939636,-1.120880127,0.821969604,3.003662109,-1.488173853,0.425689565,-0.110138702,0.074734497,3.063729858,3.589752197,-0.992097366,0.397023035
0.08199261,0.550662231,-0.672528076,-0.821969604,3.296691895,-1.289820434,0.425877537,-0.330416107,-1.569232178,2.615377808,3.150177002,-1.091192989,0.352869927
0.083992429,0.330416107,-0.971438599,-0.224176025,2.857147217,-1.389045037,0.468492538,-0.770939636,-1.419790649,2.615377808,3.296691895,-1.091192989,0.352869927
0.085992249,0.770939636,-0.523086548,-0.523086548,3.296691895,-1.289843945,0.511481313,-0.330416107,-1.270321655,3.661550903,3.003662109,-0.991930118,0.220347737
0.087992069,0.991217041,0.074734497,-0.523086548,3.589752197,-1.190625364,0.46885181,-0.991217041,-0.373617554,2.91428833,3.003662109,-1.091135335,0.264471752
0.089991889,0.991217041,0.074734497,-0.971438599,3.589752197,-1.289699949,0.426238131,-0.550662231,-0.971438599,2.167025757,2.857147217,-1.091008369,0.087872324
0.091991708,0.991217041,-0.971438599,-0.373617554,3.443237305,-1.190465246,0.383584616,-0.550662231,-1.270321655,2.615377808,3.150177002,-1.091008369,0.087872324
0.093991528,-0.110138702,-1.120880127,-0.373617554,3.296691895,-0.992040121,0.298296619,-0.330416107,-1.270321655,3.512081909,3.150177002,-1.190155812,0.043781014
0.095991348,0.550662231,-0.224176025,-0.971438599,3.443237305,-1.190351325,0.298315953,-0.110138702,-0.672528076,2.316494751,2.857147217,-1.190155812,0.043781014
0.097991168,0.330416107,-0.821969604,-0.373617554,3.296691895,-0.991938233,0.21299898,-0.330416107,-1.419790649,2.167025757,3.003662109,-1.190126864,-0.04443184
0.099990987,0.550662231,-1.8681427,-0.523086548,3.003662109,-0.991908124,0.213130188,-0.550662231,-1.718673706,2.465936279,3.003662109,-1.190126864,-0.04443184
0.101990807,0.330416107,-0.672528076,-1.270321655,3.150177002,-1.091060921,0.170363363,-0.330416107,-1.419790649,2.91428833,3.150177002,-1.09093882,-0.176790903
0.103990627,0.330416107,-0.821969604,-0.672528076,3.003662109,-0.991908124,0.213130188,-0.110138702,-1.120880127,2.91428833,3.003662109,-0.991768269,-0.132612212
0.105990447,0.330416107,-0.523086548,-0.971438599,2.564117432,-0.991938233,0.21299898,-0.550662231,-0.523086548,2.465936279,3.150177002,-1.090961846,-0.176660229
0.107990266,0.550662231,-0.672528076,-1.419790649,2.710632324,-1.091085034,0.170223117,-0.770939636,-0.373617554,2.017584229,3.296691895,-1.190138156,-0.220825337
0.109990086,0.770939636,-1.270321655,-0.971438599,2.857147217,-1.19029158,0.212881603,-0.110138702,-1.120880127,3.512081909,3.443237305,-1.289337606,-0.176507624
0.111989906,0.550662231,-1.120880127,-1.120880127,2.710632324,-1.19029158,0.212881603,-0.770939636,-1.270321655,2.615377808,3.443237305,-1.190166969,-0.220681017
0.113989726,0.991217041,-0.821969604,-0.971438599,2.857147217,-1.190321732,0.212726819,-0.330416107,-1.8681427,3.362640381,3.589752197,-1.289349041,-0.264832535
0.115989545,0.330416107,-0.672528076,-0.821969604,3.150177002,-1.289498126,0.25554009,-0.770939636,-0.523086548,1.8681427,3.589752197,-1.190166969,-0.220681017
0.117989365,0.110138702,-1.270321655,-0.373617554,3.150177002,-1.190351325,0.298315953,-0.330416107,-1.120880127,2.764846802,3.589752197,-1.190178404,-0.309005928
0.119989185,1.211463165,-1.419790649,-0.074734497,3.296691895,-1.091144779,0.255657466,-0.330416107,-1.569232178,2.465936279,3.150177002,-1.289349041,-0.264832535
0.121989005,0.110138702,-1.270321655,0.074734497,3.296691895,-1.289557872,0.34097444,-0.991217041,-0.821969604,2.465936279,3.589752197,-1.289349041,-0.264832535
0.123988824,0.110138702,-1.120880127,-0.224176025,3.443237305,-1.190351325,0.298315953,-1.211463165,-0.373617554,2.91428833,3.589752197,-1.190166969,-0.220681017
0.125988644,0.770939636,-0.821969604,-0.523086548,3.73626709,-1.091144779,0.255657466,-0.991217041,-1.120880127,1.8681427,3.150177002,-1.190178404,-0.309005928
0.127988464,0.330416107,-0.971438599,-0.523086548,3.296691895,-1.19029158,0.212881603,-0.330416107,-1.8681427,2.017584229,3.589752197,-1.190166969,-0.220681017
0.129988284,-0.330416107,-1.718673706,0.224176025,3.296691895,-1.19029158,0.212881603,-1.211463165,-1.270321655,2.615377808,3.589752197,-1.190166969,-0.220681017
0.131988103,0.550662231,-1.419790649,-1.120880127,2.857147217,-1.19029158,0.212881603,-0.110138702,0.074734497,2.316494751,3.150177002,-1.190166969,-0.220681017
0.133987923,0.770939636,-0.373617554,-0.523086548,3.296691895,-1.289498126,0.25554009,-0.770939636,-1.569232178,1.718673706,3.150177002,-1.289337606,-0.176507624
0.135987743,0.110138702,-0.523086548,-0.523086548,2.857147217,-1.289498126,0.25554009,-0.330416107,-0.672528076,2.017584229,3.003662109,-1.289349041,-0.264832535
0.137987563,0.550662231,-0.373617554,-0.971438599,2.857147217,-1.289557872,0.34097444,-0.770939636,-0.672528076,2.465936279,3.296691895,-1.289349041,-0.264832535
0.139987382,0.330416107,-0.821969604,0.373617554,3.150177002,-1.388644927,0.212764227,-0.770939636,-0.971438599,1.8681427,3.296691895,-1.090996332,-0.264854411
0.141987202,0.550662231,-1.419790649,-1.270321655,3.589752197,-1.19029158,0.212881603,-0.330416107,-0.074734497,1.270321655,3.443237305,-1.190178404,-0.309005928
0.143987022,0.991217041,-0.523086548,-1.120880127,3.003662109,-1.289498126,0.25554009,-1.211463165,-1.270321655,2.465936279,3.882781982,-1.190178404,-0.309005928
0.145986842,0.110138702,-0.821969604,0.074734497,2.417572021,-1.289498126,0.25554009,-0.550662231,-1.8681427,1.8681427,3.296691895,-1.388531112,-0.308984052
0.147986661,0.550662231,-0.821969604,0.373617554,2.857147217,-1.190351325,0.298315953,-1.652017975,-0.373617554,1.8681427,3.589752197,-1.289349041,-0.264832535
0.149986481,-0.110138702,-1.270321655,-0.672528076,2.857147217,-1.388704673,0.298198577,-0.550662231,-1.270321655,0.971438599,3.443237305,-1.289349041,-0.264832535
0.151986301,0.110138702,-0.971438599,-1.270321655,2.857147217,-1.388704673,0.298198577,-0.550662231,-2.167025757,2.167025757,3.882781982,-1.289360475,-0.353157445
0.153986121,0.330416107,-1.120880127,-0.672528076,3.003662109,-1.388644927,0.212764227,-0.991217041,-0.672528076,1.569232178,3.296691895,-1.388531112,-0.308984052
0.15598594,0.770939636,-0.672528076,0.523086548,3.296691895,-1.289557872,0.34097444,-0.991217041,-1.270321655,1.718673706,3.150177002,-1.289314378,-0.353279663
0.15798576,0.330416107,-0.672528076,-0.074734497,3.150177002,-1.289498126,0.25554009,-1.211463165,-1.718673706,1.569232178,3.296691895,-1.289314378,-0.353279663
0.15998558,0.770939636,-0.672528076,-0.373617554,3.150177002,-1.388704673,0.298198577,-0.110138702,-1.419790649,1.419790649,3.589752197,-1.48766717,-0.264959592
0.1619854,-0.110138702,-0.672528076,-0.373617554,3.150177002,-1.388704673,0.298198577,-0.550662231,-0.971438599,1.8681427,3.589752197,-1.289314378,-0.353279663
0.163985219,-0.110138702,-0.523086548,-0.821969604,3.296691895,-1.289438381,0.17010574,-0.550662231,-0.821969604,2.017584229,3.150177002,-1.48766717,-0.264959592
0.165985039,-0.110138702,-0.672528076,-0.672528076,3.003662109,-1.289498126,0.25554009,-0.770939636,-1.419790649,0.373617554,2.857147217,-1.48766717,-0.264959592
0.167984859,0.330416107,-1.569232178,-0.074734497,2.710632324,-1.388704673,0.298198577,-0.770939636,-2.017584229,0.971438599,3.003662109,-1.388490774,-0.309119628
0.169984679,0.330416107,-0.672528076,-0.224176025,3.150177002,-1.388704673,0.298198577,-0.991217041,-1.270321655,1.270321655,3.150177002,-1.388490774,-0.309119628
0.171984498,0.110138702,-0.821969604,-1.270321655,3.003662109,-1.289498126,0.25554009,-0.330416107,-1.419790649,1.120880127,3.589752197,-1.388490774,-0.309119628
0.173984318,0.110138702,-1.419790649,-0.821969604,3.443237305,-1.289498126,0.25554009,-0.770939636,-1.120880127,1.120880127,3.589752197,-1.388490774,-0.309119628
0.175984138,-0.330416107,-0.672528076,-1.120880127,3.150177002,-1.487851474,0.255422714,-0.991217041,-0.971438599,1.120880127,2.857147217,-1.487689217,-0.353289459
0.177983957,0.110138702,-1.120880127,-0.224176025,2.564117432,-1.487851474,0.255422714,-0.110138702,-2.465936279,1.419790649,2.857147217,-1.388490774,-0.309119628
0.179983777,0.110138702,-1.569232178,-0.821969604,3.150177002,-1.289498126,0.25554009,-0.550662231,-0.971438599,1.569232178,3.003662109,-1.586843566,-0.220799557
0.181983597,0.110138702,-0.672528076,-0.821969604,2.417572021,-1.289498126,0.25554009,-0.770939636,-1.120880127,1.270321655,3.150177002,-1.48766717,-0.264959592
0.183983417,0.330416107,-0.672528076,0.074734497,3.003662109,-1.388704673,0.298198577,-0.991217041,-1.120880127,0.672528076,3.589752197,-1.586865613,-0.309129424
0.185983236,-0.550662231,-1.120880127,-0.821969604,2.857147217,-1.487851474,0.255422714,-0.991217041,-1.569232178,0.672528076,3.296691895,-1.586865613,-0.309129424
0.187983056,-0.550662231,-1.120880127,0.672528076,2.564117432,-1.487933358,0.340866583,-0.770939636,-2.167025757,2.017584229,3.150177002,-1.388490774,-0.309119628
0.189982876,-0.110138702,-0.971438599,-0.821969604,2.857147217,-1.487851474,0.255422714,-0.770939636,-1.569232178,0.821969604,3.296691895,-1.586865613,-0.309129424
0.191982696,-0.330416107,-1.270321655,-0.074734497,2.710632324,-1.587080159,0.29809072,-0.770939636,-0.074734497,0.523086548,2.857147217,-1.487689217,-0.353289459
0.193982515,-0.330416107,-0.821969604,-0.074734497,2.710632324,-1.487851474,0.255422714,-0.550662231,-2.167025757,1.270321655,3.150177002,-1.289314378,-0.353279663
0.195982335,-0.550662231,-1.120880127,-0.224176025,2.710632324,-1.487851474,0.255422714,-0.770939636,-1.419790649,0.971438599,3.150177002,-1.487689217,-0.353289459
0.197982155,-0.550662231,-1.120880127,-0.821969604,2.564117432,-1.487851474,0.255422714,-0.991217041,-1.8681427,1.419790649,3.150177002,-1.388512821,-0.397449495
0.199981975,-0.330416107,-1.120880127,0.672528076,2.857147217,-1.388644927,0.212764227,-0.550662231,-0.821969604,1.270321655,3.150177002,-1.487632619,-0.265108544
0.201981794,-0.991217041,-0.971438599,-1.120880127,2.710632324,-1.487851474,0.255422714,-0.550662231,-0.821969604,0.821969604,3.150177002,-1.487644227,-0.176793439
0.203981614,-0.330416107,-1.120880127,-0.074734497,2.710632324,-1.487851474,0.255422714,-0.770939636,-1.270321655,1.8681427,3.150177002,-1.388450462,-0.309255215
0.205981434,-0.330416107,-1.419790649,0.821969604,2.710632324,-1.388644927,0.212764227,-0.770939636,-0.821969604,0.971438599,3.003662109,-1.487597096,-0.353577562
0.207981254,-0.110138702,-0.074734497,-0.224176025,2.857147217,-1.487851474,0.255422714,-0.770939636,-1.270321655,0.971438599,3.589752197,-1.487598096,-0.265257514
0.209981073,-0.330416107,-1.120880127,-1.270321655,2.710632324,-1.487851474,0.255422714,0.110138702,-0.523086548,1.120880127,3.003662109,-1.487563601,-0.265406501
0.211980893,0.550662231,-1.718673706,-0.672528076,2.710632324,-1.586998275,0.212646851,-0.550662231,-0.821969604,1.569232178,3.150177002,-1.487563601,-0.265406501
0.213980713,-0.330416107,-1.419790649,0.821969604,2.710632324,-1.487851474,0.255422714,-1.87229538,-1.718673706,1.270321655,3.150177002,-1.190051842,-0.221155729
0.215980533,-0.330416107,-1.569232178,-0.074734497,2.710632324,-1.388704673,0.298198577,-0.330416107,-1.419790649,1.120880127,3.150177002,-1.289222575,-0.177167907
0.217980352,-0.110138702,-0.971438599,-0.523086548,2.857147217,-1.68622696,0.255314857,-0.550662231,-1.419790649,1.120880127,2.857147217,-1.289199643,-0.177300025
0.219980172,-0.550662231,-0.523086548,-0.672528076,2.857147217,-1.487851474,0.255422714,-1.211463165,-1.419790649,0.971438599,2.857147217,-1.685903983,-0.265622054
0.221979992,-0.110138702,-1.120880127,-1.120880127,2.857147217,-1.487851474,0.255422714,-1.211463165,-0.224176025,0.523086548,3.296691895,-1.586699908,-0.221585978
0.223979812,-0.550662231,-1.718673706,-0.672528076,3.150177002,-1.68622696,0.255314857,-0.770939636,0.074734497,2.017584229,3.150177002,-1.487598739,-0.089262697
0.225979631,-0.550662231,-0.373617554,0.971438599,3.443237305,-1.68622696,0.255314857,-1.211463165,-0.821969604,0.074734497,3.150177002,-1.586671268,-0.22174847
0.227979451,-0.110138702,-1.120880127,-0.373617554,3.150177002,-1.68622696,0.255314857,-0.770939636,-2.017584229,1.120880127,3.150177002,-1.685859447,-0.177849807
0.229979271,-0.770939636,-1.718673706,-0.224176025,3.443237305,-1.487791728,0.169988364,-1.43174057,-0.074734497,0.821969604,3.003662109,-1.586642659,-0.221910988
0.231979091,-0.330416107,-1.270321655,-0.373617554,3.003662109,-1.68622696,0.255314857,-0.991217041,-2.167025757,1.569232178,3.150177002,-1.78498904,-0.222258132
0.23397891,-0.550662231,-1.718673706,-0.523086548,3.443237305,-1.68622696,0.255314857,-0.770939636,-0.971438599,0.821969604,3.003662109,-1.487576113,-0.089580775
0.23597873,-0.550662231,-2.017584229,-0.523086548,2.857147217,-1.487851474,0.255422714,-0.770939636,-0.672528076,0.672528076,2.857147217,-1.586706381,-0.133803271
0.23797855,-0.770939636,-0.821969604,0.672528076,3.003662109,-1.586998275,0.212646851,-0.550662231,-1.569232178,2.017584229,3.296691895,-1.785059219,-0.133978004
0.23997837,-0.770939636,-0.672528076,-0.224176025,2.564117432,-1.686145076,0.169870988,-1.211463165,-1.120880127,0.523086548,3.003662109,-1.58661408,-0.22207353
0.241978189,-0.770939636,-0.523086548,0.373617554,2.710632324,-1.586998275,0.212646851,-1.211463165,-1.120880127,0.373617554,3.296691895,-1.685836649,-0.178025767
0.243978009,-1.43174057,-1.8681427,0.224176025,2.564117432,-1.487851474,0.255422714,-0.770939636,-1.718673706,0.523086548,3.150177002,-1.487483812,-0.177851034
0.245977829,-0.770939636,-1.569232178,-0.821969604,2.857147217,-1.68622696,0.255314857,-1.211463165,-0.821969604,1.718673706,3.443237305,-1.685836649,-0.178025767
0.247977649,-0.330416107,-1.569232178,0.074734497,2.710632324,-1.487851474,0.255422714,-1.43174057,-0.672528076,0.971438599,3.150177002,-1.487483812,-0.177851034
0.249977468,-0.550662231,-1.120880127,0.523086548,3.296691895,-1.586998275,0.212646851,-1.652017975,-0.821969604,0.523086548,3.443237305,-1.685836649,-0.178025767
0.251977288,-0.550662231,-1.270321655,0.523086548,2.857147217,-1.586998275,0.212646851,-0.770939636,-1.718673706,0.224176025,3.150177002,-1.388261243,-0.221898797
0.253977108,-0.770939636,-1.8681427,-1.419790649,2.710632324,-1.586938529,0.127212501,-0.991217041,-1.120880127,1.270321655,2.857147217,-1.388353544,-0.133628538
0.255976928,-0.991217041,-0.373617554,-0.821969604,3.589752197,-1.785373761,0.212538994,-0.991217041,-0.821969604,1.8681427,3.003662109,-1.58661408,-0.22207353
0.257976747,-0.991217041,-2.167025757,-0.074734497,2.710632324,-1.586998275,0.212646851,-0.550662231,-1.569232178,0.373617554,3.150177002,-1.487391511,-0.266121292
0.259976567,-0.991217041,-0.971438599,-0.074734497,3.150177002,-1.586998275,0.212646851,-0.550662231,-0.672528076,1.569232178,3.003662109,-1.487483812,-0.177851034
0.261976387,-0.991217041,-1.8681427,0.672528076,2.857147217,-1.586998275,0.212646851,-0.991217041,-1.8681427,1.718673706,3.150177002,-1.58661408,-0.22207353
0.263976207,-0.330416107,-2.465936279,0.672528076,3.443237305,-1.586998275,0.212646851,-0.991217041,-0.074734497,1.270321655,3.150177002,-1.388168942,-0.310169055
0.265976026,-1.211463165,-1.718673706,-0.672528076,2.857147217,-1.785291877,0.127095124,-1.211463165,-1.270321655,1.120880127,2.857147217,-1.685766471,-0.266305894
0.267975846,-0.991217041,-1.718673706,-0.672528076,2.857147217,-1.686145076,0.169870988,-1.43174057,-0.971438599,0.971438599,2.857147217,-1.685766471,-0.266305894
0.269975666,-0.991217041,-2.017584229,-0.224176025,2.710632324,-1.686145076,0.169870988,-1.211463165,-0.821969604,1.120880127,2.857147217,-1.586543902,-0.310353657
0.271975486,-0.770939636,-1.419790649,0.373617554,3.003662109,-1.68608533,0.084436638,-1.652017975,-1.419790649,0.821969604,2.857147217,-1.58661408,-0.22207353
0.273975305,-0.991217041,-1.8681427,0.074734497,3.003662109,-1.487791728,0.169988364,-0.991217041,-0.821969604,0.523086548,3.003662109,-1.58661408,-0.22207353
0.275975125,-1.211463165,-0.672528076,0.373617554,2.857147217,-1.68608533,0.084436638,-1.652017975,0.074734497,1.419790649,3.296691895,-1.487391511,-0.266121292
0.277974945,-0.991217041,-0.971438599,-1.120880127,3.296691895,-1.586878784,0.041778151,-0.991217041,-1.718673706,1.718673706,3.150177002,-1.586543902,-0.310353657
0.279974765,-0.991217041,-2.167025757,-0.971438599,2.857147217,-1.686025585,-0.000997712,-0.991217041,-0.971438599,0.523086548,3.150177002,-1.388353544,-0.133628538
0.281974584,-1.211463165,-2.764846802,-0.074734497,2.857147217,-1.785238323,0.041446317,-1.43174057,-0.672528076,1.270321655,3.150177002,-1.487321333,-0.35440142
0.283974404,-0.770939636,-1.120880127,-0.523086548,3.150177002,-1.785238323,0.041446317,-1.652017975,-1.270321655,1.718673706,3.150177002,-1.288946373,-0.354216818
0.285974224,-1.211463165,-2.167025757,0.074734497,2.710632324,-1.785238323,0.041446317,-1.43174057,-1.569232178,1.270321655,3.150177002,-1.388168942,-0.310169055
0.287974044,-1.211463165,-1.270321655,-0.224176025,3.296691895,-1.884307372,-0.086767482,-1.652017975,-0.523086548,0.672528076,3.003662109,-1.685766471,-0.266305894
0.289973863,-0.991217041,-0.523086548,-1.270321655,2.564117432,-1.586813198,-0.04384168,-1.652017975,-1.569232178,0.821969604,3.003662109,-1.586543902,-0.310353657
0.291973683,-1.211463165,-2.167025757,-0.821969604,2.857147217,-1.586741442,-0.129270578,-1.43174057,-0.821969604,1.120880127,3.443237305,-1.58661408,-0.22207353
0.293973503,-1.211463165,-1.718673706,0.971438599,2.710632324,-1.78509481,-0.12941148,-1.652017975,-1.120880127,1.120880127,3.150177002,-1.586585532,-0.222236097
0.295973323,-0.991217041,-0.971438599,-0.074734497,3.003662109,-1.785077005,-0.12961508,-1.87229538,-0.373617554,1.718673706,3.003662109,-1.487357179,-0.266270435
0.297973142,-1.43174057,-0.971438599,-0.821969604,2.857147217,-1.785077005,-0.12961508,-0.550662231,-0.821969604,1.120880127,3.443237305,-1.586585532,-0.222236097
0.299972962,-1.652017975,-1.419790649,-0.224176025,3.003662109,-1.785077005,-0.12961508,-0.770939636,-0.821969604,1.120880127,3.150177002,-1.685732173,-0.266476914
0.301972782,-1.211463165,-1.8681427,-1.120880127,2.564117432,-1.685760961,-0.257861251,-1.43174057,-1.120880127,1.569232178,3.296691895,-1.685697906,-0.266647957
0.303972602,-1.211463165,-1.270321655,-0.224176025,2.710632324,-1.884078617,-0.258256476,-1.43174057,-1.120880127,1.270321655,3.443237305,-1.785025292,-0.134356877
0.305972421,-0.991217041,-1.270321655,-0.373617554,2.564117432,-1.884186421,-0.172843978,-1.43174057,-0.821969604,1.270321655,3.296691895,-1.785025292,-0.134356877
0.307972241,-1.43174057,-2.017584229,0.074734497,2.857147217,-1.685653643,-0.258412469,-1.652017975,-0.373617554,0.672528076,3.589752197,-1.784932045,-0.222627051
0.309972061,-1.43174057,-2.316494751,0.074734497,2.710632324,-1.685653643,-0.258412469,-2.312818909,-1.718673706,1.120880127,2.857147217,-1.685791153,-0.178377783
0.311971881,-1.211463165,-1.718673706,-0.971438599,2.857147217,-1.586490952,-0.215747601,-1.43174057,-0.672528076,1.120880127,3.296691895,-1.784932045,-0.222627051
0.3139717,-1.652017975,-0.672528076,-0.672528076,2.857147217,-1.78483696,-0.216237716,-1.87229538,-0.672528076,1.270321655,3.296691895,-1.884166184,-0.178606145
0.31597152,-1.87229538,-1.419790649,0.373617554,2.857147217,-1.586431544,-0.216097225,-1.87229538,-0.373617554,0.672528076,3.73626709,-1.784932045,-0.222627051
0.31797134,-1.87229538,-1.718673706,0.971438599,2.857147217,-1.487135038,-0.258785374,-1.652017975,-1.419790649,1.8681427,3.296691895,-1.983169591,-0.311105841
0.31997116,-1.211463165,-1.270321655,-0.224176025,2.857147217,-1.58637222,-0.216446974,-2.092541504,-0.523086548,0.821969604,3.443237305,-1.784816679,-0.310887352
0.321970979,-1.211463165,-1.120880127,-0.523086548,2.710632324,-1.58631298,-0.216796847,-1.43174057,-0.373617554,1.8681427,3.589752197,-1.685697906,-0.266647957
0.323970799,-1.87229538,-1.718673706,0.224176025,3.003662109,-1.487220477,-0.174069509,-1.87229538,-0.373617554,1.8681427,3.589752197,-1.983284957,-0.22284554
0.325970619,-1.43174057,-1.419790649,-0.074734497,3.003662109,-1.388122398,-0.131481138,-1.211463165,-1.419790649,0.971438599,3.73626709,-2.08240373,-0.267084935
0.327970439,-1.43174057,-1.270321655,-0.074734497,2.857147217,-1.487402579,-0.089398583,-2.092541504,-0.971438599,1.419790649,3.003662109,-1.884050818,-0.266866446
0.329970258,-2.092541504,-0.971438599,0.373617554,3.003662109,-1.487391133,-0.089570285,-1.652017975,-0.373617554,0.672528076,3.589752197,-1.983284957,-0.22284554
0.331970078,-0.991217041,-1.419790649,-0.074734497,2.564117432,-1.289326285,-0.0039828,-2.312818909,-0.523086548,1.419790649,3.73626709,-2.181637869,-0.223064029
0.333969898,-1.652017975,-1.419790649,-0.074734497,2.710632324,-1.488018738,0.080356617,-1.652017975,-1.270321655,2.017584229,3.443237305,-1.784816679,-0.310887352
0.335969718,-1.211463165,-0.224176025,-0.373617554,3.003662109,-1.388679825,0.037864613,-0.550662231,-0.672528076,0.224176025,3.589752197,-2.181522503,-0.31132433
0.337969537,-1.652017975,-1.419790649,0.074734497,2.857147217,-1.190338351,0.038258543,-0.991217041,-0.971438599,0.523086548,3.443237305,-2.181637869,-0.223064029
0.339969357,-0.770939636,-0.224176025,-0.224176025,2.857147217,-1.190748648,0.123247442,-2.312818909,-0.971438599,1.270321655,3.73626709,-2.280872009,-0.179043123
0.341969177,-1.87229538,-1.120880127,0.971438599,2.710632324,-1.389141678,0.122120126,-1.43174057,-0.523086548,0.821969604,3.589752197,-2.082369583,-0.267299775
0.343968997,-1.211463165,-1.270321655,-0.373617554,2.710632324,-1.389179622,0.121771049,-1.652017975,-0.672528076,1.120880127,3.589752197,-2.181609511,-0.223292308
0.345968816,-1.211463165,-0.224176025,-0.523086548,2.710632324,-1.488160931,0.078338992,-1.652017975,-1.120880127,1.419790649,3.589752197,-2.082473911,-0.17926434
0.347968636,-1.652017975,0.074734497,0.672528076,2.857147217,-1.587612061,0.120103502,-1.87229538,-0.373617554,0.971438599,3.882781982,-2.082473911,-0.17926434
0.349968456,-1.43174057,-0.821969604,-0.373617554,2.710632324,-1.488213467,0.077603223,-1.43174057,-0.373617554,0.523086548,3.73626709,-2.379934198,-0.223782898
0.351968275,-1.87229538,-1.270321655,0.224176025,3.150177002,-1.884953412,0.075108567,-2.092541504,-0.074734497,0.373617554,3.589752197,-2.181581195,-0.223520629
0.353968095,-1.652017975,-1.120880127,0.373617554,2.857147217,-1.786085102,0.117800149,-1.87229538,-1.120880127,0.373617554,3.882781982,-2.379934198,-0.223782898
0.355967915,-2.092541504,-1.419790649,-1.270321655,2.857147217,-1.885007805,0.07418168,-1.43174057,-0.971438599,-0.373617554,4.175811768,-2.677693505,-0.091791017
0.357967735,-1.43174057,-1.270321655,-0.373617554,3.003662109,-1.885672023,0.158902987,-1.87229538,-0.373617554,0.971438599,4.029296875,-2.379934198,-0.223782898
0.359967554,-0.991217041,-0.672528076,-0.074734497,2.417572021,-1.489624271,0.246089528,-2.092541504,-0.523086548,0.224176025,3.73626709,-2.578287201,-0.224045166
0.361967374,-1.211463165,-2.167025757,0.523086548,2.857147217,-1.489699679,0.245697212,-2.092541504,0.523086548,0.971438599,3.589752197,-2.578315382,-0.223748288
0.363967194,-2.092541504,-1.569232178,-1.120880127,2.710632324,-1.58932049,0.287209892,-2.092541504,-0.672528076,0.523086548,4.175811768,-2.677428403,-0.267991035
0.365967014,-1.43174057,-0.821969604,0.224176025,2.564117432,-1.489850855,0.244911757,-1.87229538,-0.523086548,0.373617554,3.882781982,-2.677428403,-0.267991035
0.367966833,-1.211463165,-0.821969604,0.373617554,3.003662109,-1.391114756,0.287799615,-2.312818909,0.224176025,0.373617554,4.175811768,-2.875803504,-0.268221658
0.369966653,-1.652017975,-1.569232178,-0.373617554,2.710632324,-1.490784855,0.329240289,-1.652017975,-0.373617554,0.821969604,3.73626709,-3.074156459,-0.268462102
0.371966473,-1.43174057,-1.270321655,-0.074734497,2.857147217,-1.590401221,0.37082946,-1.211463165,-0.523086548,-0.224176025,3.73626709,-2.776541423,-0.312233781
0.373966293,-2.092541504,-1.419790649,-0.523086548,2.417572021,-1.391334522,0.286860583,-1.43174057,0.074734497,0.224176025,3.882781982,-2.875654444,-0.356476527
0.375966112,-1.211463165,-0.971438599,-1.270321655,2.564117432,-1.491035818,0.328226058,-1.87229538,-0.373617554,0.672528076,4.029296875,-2.974916525,-0.312464405
0.377965932,-0.991217041,-1.419790649,-0.373617554,2.417572021,-1.590683252,0.369740323,-1.87229538,0.074734497,-0.224176025,3.589752197,-2.974916525,-0.312464405
0.379965752,-1.652017975,-1.419790649,0.672528076,2.857147217,-1.58993901,0.284245608,-1.652017975,-0.672528076,0.224176025,3.589752197,-3.074156459,-0.268462102
0.381965572,-1.652017975,-0.672528076,-0.672528076,2.564117432,-1.688768201,0.240431937,-2.312818909,0.373617554,0.074734497,3.589752197,-3.074029546,-0.356707151
0.383965391,-1.652017975,-2.615377808,-0.523086548,3.003662109,-1.888062972,0.323495777,-1.87229538,0.074734497,0.821969604,3.882781982,-3.17326948,-0.312704848
0.385965211,-1.652017975,-1.718673706,0.074734497,2.564117432,-1.887246847,0.237964107,-2.092541504,-0.224176025,-1.419790649,3.589752197,-3.173229863,-0.313037736
0.387965031,-1.652017975,-2.017584229,0.224176025,2.857147217,-1.88732463,0.237472756,-1.211463165,0.523086548,0.821969604,3.73626709,-3.074122587,-0.26878654
0.389964851,-1.43174057,-1.120880127,-1.569232178,2.417572021,-1.987022735,0.27879474,-1.43174057,0.523086548,1.120880127,3.73626709,-3.074156411,-0.268432371
0.39196467,-1.211463165,-1.8681427,-0.224176025,2.857147217,-1.889399448,0.406732631,-2.533096313,0.224176025,-0.224176025,3.73626709,-3.272636293,-0.180438094
0.39396449,-1.211463165,-2.465936279,-0.224176025,2.564117432,-1.988092943,0.363220428,-2.533096313,-0.672528076,-0.672528076,3.150177002,-3.173396311,-0.224410666
0.39596431,-1.652017975,-2.017584229,0.074734497,2.271057129,-2.086888536,0.319212103,-2.312818909,0.523086548,-0.373617554,3.882781982,-3.074190261,-0.268048246
0.39796413,-1.43174057,-1.8681427,-1.270321655,2.271057129,-2.186630479,0.360423137,-1.43174057,0.672528076,0.523086548,3.443237305,-3.173396269,-0.2243861
0.399963949,-1.211463165,-1.419790649,-1.270321655,2.564117432,-1.889654271,0.405643408,-1.43174057,0.821969604,-0.672528076,3.882781982,-3.272543127,-0.268237215
0.401963769,-1.211463165,-1.270321655,0.224176025,2.564117432,-1.789957679,0.364171108,-1.43174057,0.523086548,-0.523086548,3.296691895,-3.272658521,-0.180008709
0.403963589,-1.211463165,-1.270321655,-0.224176025,2.417572021,-2.088083442,0.403341189,-1.43174057,-0.672528076,0.224176025,3.443237305,-3.17353976,-0.135785504
0.405963409,-1.211463165,-1.8681427,-1.419790649,2.710632324,-1.989490506,0.446568547,-1.87229538,0.672528076,-0.224176025,3.443237305,-3.074421012,-0.091572497
0.407963228,-0.991217041,0.672528076,-0.672528076,2.710632324,-1.98843827,0.361616342,-1.43174057,0.971438599,-0.672528076,3.589752197,-2.975297167,-0.047700458
0.409963048,-0.991217041,-0.672528076,-0.672528076,2.857147217,-1.889845093,0.404867641,-2.092541504,-0.672528076,-0.224176025,3.73626709,-2.677831877,-0.003549695
0.411962868,-1.211463165,-0.523086548,-1.419790649,2.710632324,-1.988553695,0.361080895,-1.87229538,0.672528076,-0.224176025,3.882781982,-2.677831871,-0.003550693
0.413962688,-1.211463165,-1.270321655,0.074734497,2.417572021,-1.988553695,0.361080895,-1.652017975,0.074734497,-0.074734497,3.73626709,-2.57873111,0.040360497
0.415962507,-1.652017975,-0.821969604,-1.270321655,2.271057129,-1.988611466,0.360813031,-2.092541504,0.672528076,0.224176025,3.73626709,-2.281590129,0.260829545
0.417962327,-1.43174057,0.074734497,-1.270321655,2.857147217,-1.988611466,0.360813031,-2.092541504,0.074734497,-0.821969604,3.589752197,-2.479829316,0.171813703
0.419962147,-2.092541504,-0.373617554,-0.074734497,2.857147217,-1.988669277,0.360545073,-1.652017975,0.971438599,-0.074734497,3.73626709,-2.28184593,0.348274259
0.421961967,-0.770939636,-0.074734497,-0.523086548,2.710632324,-1.890100065,0.403831965,-1.211463165,-0.224176025,1.270321655,4.029296875,-2.579158114,0.215007898
0.423961786,-0.991217041,-0.971438599,-1.270321655,2.710632324,-1.691796275,0.405784916,-1.43174057,0.074734497,-0.523086548,4.029296875,-2.975917107,0.213809033
0.425961606,-1.211463165,-0.224176025,-0.971438599,2.564117432,-1.991035829,0.529840406,-1.87229538,0.672528076,-0.971438599,3.882781982,-3.074984088,0.169540258
0.427961426,-1.43174057,-0.074734497,-0.074734497,2.564117432,-2.188348482,0.44241412,-1.87229538,0.971438599,-0.224176025,4.175811768,-3.174532285,0.30089961
0.429961246,-0.991217041,-0.821969604,-1.270321655,2.564117432,-2.189568771,0.527019158,-1.652017975,0.672528076,0.672528076,3.589752197,-2.876886494,0.257502827
0.431961065,-0.991217041,-0.672528076,-0.224176025,2.857147217,-2.289416777,0.56802096,-1.87229538,-0.373617554,-0.821969604,3.443237305,-2.678253432,0.170486076
0.433960885,-0.991217041,-0.821969604,-0.821969604,2.857147217,-2.190908495,0.611300889,-0.991217041,0.821969604,-0.821969604,4.029296875,-2.381138264,0.302125894
0.435960705,-1.43174057,0.074734497,-0.523086548,2.710632324,-2.191003521,0.610989793,-1.43174057,0.672528076,-1.120880127,3.73626709,-2.381055655,0.302505757
0.437960525,-1.211463165,-1.270321655,-1.419790649,2.564117432,-2.390666729,0.693200973,-1.87229538,-0.224176025,-0.074734497,3.589752197,-2.579367803,0.302279627
0.439960344,-1.211463165,-0.373617554,-1.569232178,2.271057129,-2.390776371,0.692764474,-1.87229538,0.971438599,-1.270321655,3.150177002,-2.182393302,0.215640449
0.441960164,-1.211463165,-0.373617554,-1.569232178,2.271057129,-2.390776371,0.692764474,-1.43174057,0.821969604,-0.672528076,3.589752197,-2.479806614,0.171405233
0.443959984,-1.211463165,-1.120880127,-1.419790649,2.710632324,-2.388355648,0.522965163,-1.87229538,1.120880127,-0.373617554,3.589752197,-2.281127734,-0.003822897
0.445959804,-0.770939636,-0.971438599,-1.419790649,2.710632324,-2.488058299,0.564465303,-1.43174057,0.672528076,-0.971438599,3.882781982,-2.280931544,-0.091547904
0.447959623,-1.652017975,-0.074734497,-0.373617554,2.564117432,-2.488059907,0.564385717,-2.092541504,1.718673706,-1.419790649,3.882781982,-2.280292346,-0.4419645
0.449959443,-1.43174057,-0.373617554,-2.316494751,2.564117432,-2.486860278,0.479548108,-1.652017975,-0.373617554,-1.718673706,3.589752197,-2.081776378,-0.529147802
0.451959263,-1.211463165,-1.120880127,-1.8681427,3.003662109,-2.486861643,0.479478885,-1.43174057,1.270321655,-0.971438599,4.322357178,-2.181196455,-0.397654512
0.453959083,-0.770939636,-0.523086548,-0.224176025,3.003662109,-2.187450191,0.356017598,-1.87229538,1.718673706,-0.971438599,4.615386963,-2.181358918,-0.309945364
0.455958902,-1.211463165,0.224176025,-1.270321655,2.710632324,-2.186216828,0.271439209,-2.092541504,0.074734497,-0.971438599,4.615386963,-1.983314305,-0.134658922
0.457958722,-0.991217041,-1.569232178,-1.569232178,3.150177002,-2.186217584,0.271396865,-1.87229538,0.523086548,-1.270321655,3.73626709,-1.785480403,0.128040795
0.459958542,-0.991217041,0.821969604,-1.569232178,3.150177002,-2.284774293,0.228094871,-1.43174057,0.523086548,-1.270321655,3.73626709,-1.686569976,0.259560621
0.461958362,-0.550662231,-0.224176025,-0.523086548,3.150177002,-2.184974552,0.187086427,-1.87229538,-0.074734497,-0.523086548,4.46887207,-1.686605674,0.25926047
0.463958181,-0.991217041,-0.821969604,-1.419790649,3.150177002,-2.184975063,0.187054574,-1.87229538,1.120880127,-0.373617554,4.615386963,-1.686421264,0.171555992
0.465958001,-1.211463165,-0.821969604,-0.672528076,3.003662109,-1.985433419,0.104761006,-1.652017975,0.074734497,-1.120880127,3.882781982,-1.983654255,0.039875704
0.467957821,-0.770939636,-0.672528076,-1.270321655,2.857147217,-1.885642296,0.0636852,-2.092541504,0.672528076,-0.672528076,3.589752197,-1.983450999,-0.04769758
0.469957641,-0.770939636,-0.074734497,-0.373617554,3.150177002,-1.885612581,0.06412566,-2.092541504,1.120880127,-0.523086548,4.029296875,-2.0825448,-0.091536429
0.47195746,-1.211463165,-0.672528076,-2.167025757,3.150177002,-2.28128601,-0.024987213,-1.211463165,1.270321655,-0.971438599,4.029296875,-1.983445851,-0.047891942
0.47395728,-0.770939636,0.074734497,-2.316494751,3.296691895,-1.985350203,0.105618412,-1.87229538,0.224176025,0.074734497,3.589752197,-1.488140667,0.171058201
0.4759571,-0.991217041,-0.971438599,-0.224176025,3.003662109,-2.183695869,0.103701475,-2.092541504,0.821969604,-0.224176025,4.175811768,-1.686714567,0.257912849
0.47795692,-1.211463165,0.224176025,-0.074734497,3.003662109,-2.183674946,0.103934307,-2.092541504,0.523086548,0.074734497,4.46887207,-1.290603583,0.520232128
0.479956739,-0.770939636,-0.074734497,-0.373617554,3.443237305,-2.283365758,0.145473693,-1.652017975,1.8681427,-0.523086548,4.322357178,-1.587871799,0.388565067
0.481956559,-0.770939636,-0.672528076,-1.270321655,3.443237305,-2.38199866,0.102343591,-2.092541504,1.120880127,-0.074734497,3.882781982,-1.785961976,0.301103131
0.483956379,-0.770939636,-0.074734497,-1.718673706,3.589752197,-2.580364753,0.100556811,-0.991217041,-0.523086548,-0.373617554,4.615386963,-1.785314673,0.03965579
0.485956199,-1.652017975,-1.270321655,-0.821969604,3.589752197,-2.481677907,0.14386146,-2.092541504,0.971438599,0.224176025,3.882781982,-1.883769333,-0.264872602
0.487956018,-0.770939636,0.373617554,-0.224176025,3.589752197,-2.382979648,0.187442215,-1.43174057,2.167025757,-0.224176025,3.589752197,-1.883979983,-0.177814963
0.489955838,-1.211463165,-0.074734497,-0.523086548,3.443237305,-2.28528063,0.315598263,-1.87229538,0.971438599,-0.523086548,4.322357178,-1.884168695,-0.090799955
0.491955658,-0.550662231,-0.224176025,-0.672528076,3.150177002,-2.285282253,0.315504333,-1.652017975,0.821969604,0.224176025,4.175811768,-1.586532946,-0.133608513
0.493955478,-0.770939636,-0.074734497,-1.120880127,3.73626709,-2.086867413,0.317678889,-1.652017975,0.523086548,-0.074734497,3.73626709,-1.587148351,0.127205177
0.495955297,-1.652017975,-0.523086548,-0.672528076,3.882781982,-2.085869162,0.233029813,-2.092541504,1.120880127,0.971438599,4.761901855,-1.488307048,0.257407543
0.497955117,-0.991217041,-0.224176025,0.224176025,3.882781982,-2.086818687,0.317772325,-1.87229538,1.270321655,-0.074734497,4.615386963,-1.488307381,0.257312624
0.499954937,-0.550662231,-0.373617554,-0.074734497,4.175811768,-1.788734745,0.278574551,-2.092541504,0.971438599,1.120880127,4.175811768,-1.488272045,0.257372191
0.501954757,-0.991217041,-0.373617554,-0.523086548,4.029296875,-1.591348784,0.36492084,-1.652017975,0.672528076,0.971438599,4.615386963,-1.587149197,0.12699363
0.503954576,-0.991217041,0.224176025,-0.672528076,4.761901855,-1.889258015,0.404644963,-1.211463165,2.017584229,-0.373617554,3.882781982,-1.686026077,-0.003292755
0.505954396,-0.770939636,-0.373617554,0.224176025,4.322357178,-1.788603817,0.27900972,-2.533096313,1.270321655,0.672528076,3.73626709,-1.78472469,-0.220161813
0.507954216,-0.770939636,-0.373617554,0.373617554,3.882781982,-1.690772514,0.406712469,-1.211463165,0.672528076,0.523086548,4.46887207,-1.883766487,-0.263800221
0.509954036,-0.991217041,-0.074734497,-0.971438599,4.175811768,-1.889074456,0.404977474,-2.092541504,2.017584229,-0.373617554,3.73626709,-1.883978301,-0.177112379
0.511953855,-1.43174057,-0.373617554,-0.373617554,4.908416748,-2.186162388,0.359905613,-1.652017975,1.120880127,-0.523086548,5.054931641,-1.884201792,-0.089810638
0.513953675,-1.211463165,-0.523086548,-0.373617554,4.615386963,-2.185876871,0.36111965,-1.652017975,0.971438599,-0.523086548,3.589752197,-1.289768491,0.170237616
0.515953495,-0.770939636,0.074734497,-0.074734497,4.175811768,-2.284630553,0.318000068,-1.652017975,1.120880127,0.074734497,4.615386963,-1.389198472,0.299990544
0.517953315,-1.652017975,0.074734497,-0.821969604,5.787536621,-1.985770642,0.194177364,-1.652017975,1.8681427,0.224176025,4.029296875,-1.389157217,0.300022123
0.519953134,-0.550662231,-0.074734497,-0.373617554,4.322357178,-1.785688069,0.027383612,-1.652017975,1.120880127,-0.224176025,4.175811768,-1.388968569,0.2134887
0.521952954,-0.991217041,-0.672528076,0.224176025,4.175811768,-1.785672273,0.027801845,-2.092541504,1.270321655,0.373617554,4.46887207,-1.785697848,0.212684328
0.523952774,-1.211463165,-0.074734497,-0.672528076,4.175811768,-1.885243696,0.069339439,-2.533096313,0.672528076,0.074734497,3.589752197,-1.686215461,0.083236326
0.525952593,-0.991217041,-0.074734497,-1.718673706,4.322357178,-1.885215779,0.06977244,-1.87229538,2.316494751,0.971438599,5.494506836,-1.983294591,-0.13318556
0.527952413,-0.330416107,0.523086548,-0.971438599,3.589752197,-2.183124619,0.110090433,-2.533096313,1.120880127,-0.672528076,3.882781982,-1.784751675,-0.219073763
0.529952233,-0.770939636,-0.971438599,-0.523086548,4.761901855,-2.084992729,0.237573837,-1.87229538,1.419790649,0.224176025,4.908416748,-1.883833479,-0.262317931
0.531952053,-0.991217041,-1.120880127,-2.017584229,4.761901855,-1.986845973,0.364680898,-1.87229538,1.718673706,-0.523086548,4.029296875,-1.983104806,-0.219293363
0.533951872,-0.770939636,-0.224176025,-1.120880127,5.054931641,-1.986733249,0.365070669,-2.092541504,1.419790649,-0.224176025,4.615386963,-1.884380079,-0.003506704
0.535951692,-0.770939636,0.821969604,-0.523086548,4.908416748,-1.98662127,0.365410651,-2.312818909,1.8681427,-0.224176025,3.882781982,-1.884781939,0.168852817
0.537951512,-1.211463165,-0.523086548,-0.971438599,4.908416748,-1.787509765,0.282973526,-1.87229538,0.971438599,-0.074734497,5.054931641,-1.488206961,0.25585224
0.539951332,-0.991217041,-0.971438599,-1.718673706,5.054931641,-1.786837797,0.199033612,-1.652017975,1.419790649,-1.120880127,4.322357178,-1.488099615,0.256229253
0.541951151,-0.770939636,0.224176025,-0.523086548,4.761901855,-1.390100857,0.201413559,-1.87229538,2.465936279,-1.120880127,5.494506836,-1.587355661,0.212048757
0.543950971,-1.43174057,0.074734497,-0.523086548,4.761901855,-1.389974075,0.202043278,-1.211463165,1.419790649,-0.672528076,3.73626709,-1.785114133,-0.046146484
0.545950791,-0.770939636,-0.074734497,-1.718673706,4.761901855,-1.489367945,0.243746781,-2.312818909,2.615377808,-0.523086548,5.054931641,-1.983103671,-0.218747827
0.547950611,-0.770939636,0.224176025,-1.8681427,5.054931641,-1.688253895,0.326743717,-1.211463165,1.419790649,-0.224176025,3.882781982,-1.983103517,-0.218673376
0.54995043,-1.211463165,0.971438599,-0.523086548,4.908416748,-1.787648998,0.368285232,-2.312818909,1.718673706,-0.074734497,5.934051514,-2.082375415,-0.17580985
0.55195025,-0.550662231,0.373617554,-0.373617554,4.761901855,-1.985385973,0.283721118,-2.092541504,2.167025757,-1.120880127,3.73626709,-1.983293868,-0.132605728
0.55395007,-0.110138702,0.224176025,-2.316494751,4.322357178,-1.985298321,0.284095037,-1.87229538,1.569232178,-0.971438599,5.054931641,-1.884021651,-0.175320009
0.55594989,-0.330416107,0.074734497,-0.821969604,4.615386963,-2.084668466,0.325707867,-1.652017975,1.718673706,-0.523086548,3.73626709,-1.884584472,0.082103991
0.557949709,-0.550662231,0.373617554,-1.120880127,5.054931641,-2.183109152,0.199660987,-1.87229538,1.8681427,0.224176025,4.615386963,-1.785703951,0.211246899
0.559949529,-0.770939636,0.074734497,-2.017584229,3.882781982,-2.08367649,0.158396727,-1.87229538,1.8681427,-0.074734497,5.054931641,-1.885358736,0.425493596
0.561949349,-0.110138702,-0.224176025,-1.120880127,4.761901855,-1.78544352,0.034201864,-1.43174057,2.465936279,-0.224176025,4.908416748,-1.786086996,0.382635521
0.563949169,-0.330416107,0.523086548,-1.270321655,5.494506836,-1.884825721,0.075865243,-1.211463165,3.063729858,0.074734497,4.761901855,-1.785896323,0.29675031
0.565948988,-0.330416107,-0.224176025,-0.971438599,4.322357178,-1.884799509,0.07629369,-1.87229538,1.120880127,0.821969604,4.175811768,-1.88476222,0.168094797
0.567948808,-0.110138702,-0.373617554,-0.821969604,4.908416748,-1.88516836,0.16044517,-2.092541504,2.764846802,0.224176025,5.494506836,-1.884381299,-0.003331359
0.569948628,-0.991217041,0.373617554,-0.821969604,6.080596924,-1.886162694,0.411855377,-1.87229538,2.316494751,0.224176025,3.73626709,-2.181484823,-0.217982603
0.571948448,-0.770939636,1.419790649,-0.971438599,6.080596924,-1.886100899,0.411954984,-2.092541504,1.8681427,0.373617554,6.227111816,-2.181664451,-0.132293948
0.573948267,-0.110138702,0.821969604,-1.569232178,4.761901855,-1.885614154,0.32890474,-1.87229538,1.569232178,0.821969604,4.322357178,-2.280751322,-0.175217654
0.575948087,-0.770939636,-0.523086548,-1.120880127,5.494506836,-1.68688496,0.246193796,-1.43174057,2.167025757,1.120880127,5.201477051,-2.181734339,-0.131145148
0.577947907,-0.770939636,0.224176025,-1.270321655,4.322357178,-1.388651695,0.03782771,-2.092541504,2.316494751,1.120880127,5.201477051,-1.785301654,0.039372546
0.579947727,-0.330416107,0.074734497,-1.270321655,5.494506836,-1.289328893,-0.002870557,-2.312818909,3.512081909,1.569232178,4.46887207,-1.884740319,0.167812236
0.581947546,-0.991217041,0.672528076,-1.270321655,4.761901855,-1.586748986,-0.045283228,-1.211463165,1.718673706,1.419790649,5.347991943,-1.984170007,0.29573283
0.583947366,-0.770939636,1.569232178,-2.167025757,6.227111816,-1.487258802,-0.170071335,-2.312818909,1.569232178,1.120880127,5.347991943,-1.884873028,0.253292615
0.585947186,-0.550662231,0.821969604,-1.120880127,6.227111816,-1.685850436,-0.086572917,-1.87229538,2.017584229,1.569232178,3.882781982,-1.68602799,-0.002603009
0.587947006,-0.110138702,-0.672528076,-1.419790649,4.761901855,-2.082747874,-0.003874368,-1.211463165,2.017584229,1.718673706,5.494506836,-2.082467816,-0.173639079
0.589946825,-0.330416107,-0.523086548,-2.017584229,5.347991943,-2.082945161,0.07977151,-2.312818909,2.615377808,1.419790649,4.322357178,-2.181385824,-0.30191032
0.591946645,-0.330416107,0.074734497,-1.419790649,5.934051514,-2.182210709,0.121239584,-1.211463165,1.270321655,1.718673706,6.080596924,-2.478994566,-0.259603378
0.593946465,-0.550662231,0.523086548,-2.316494751,4.615386963,-2.182028907,0.038139942,-1.43174057,2.017584229,2.316494751,4.908416748,-2.082467727,-0.173419353
0.595946285,-0.110138702,0.373617554,-1.120880127,6.080596924,-2.380527985,0.121386846,-1.87229538,2.167025757,1.8681427,4.322357178,-2.281219355,0.08271645
0.597946104,-0.330416107,-0.074734497,-2.017584229,7.399261475,-1.785499551,0.121524016,-1.652017975,1.8681427,1.8681427,4.175811768,-1.785821049,0.294989814
0.599945924,0.110138702,0.074734497,-2.017584229,7.545776367,-1.686176502,0.080908624,-2.312818909,2.167025757,3.512081909,5.934051514,-1.785736615,0.295229705
0.601945744,-0.770939636,0.821969604,-2.764846802,6.813201904,-1.388883973,0.205875903,-1.87229538,2.764846802,2.615377808,3.443237305,-1.785622271,0.209843013
0.603945564,-0.110138702,-0.373617554,-2.167025757,4.46887207,-1.389152133,0.372253624,-2.092541504,2.017584229,2.017584229,4.908416748,-1.685883493,-0.087431939
0.605945383,0.330416107,0.971438599,-2.615377808,7.106231689,-1.587369046,0.28872443,-1.652017975,3.512081909,2.764846802,5.641021729,-2.181862989,-0.045631941
0.607945203,0.110138702,0.074734497,-2.465936279,5.054931641,-1.785863428,0.371420061,-2.312818909,2.017584229,2.764846802,3.73626709,-2.280821356,-0.173144553
0.609945023,-0.110138702,0.821969604,-2.615377808,6.227111816,-1.98399121,0.288451394,-1.87229538,1.569232178,1.8681427,6.520141602,-2.181571484,-0.215363411
0.611944843,-0.110138702,0.373617554,-2.017584229,6.520141602,-1.983991819,0.288338558,-2.533096313,2.316494751,1.8681427,4.615386963,-2.281134234,-0.002196243
0.613944662,0.330416107,-0.373617554,-2.465936279,5.054931641,-2.182437045,0.287378351,-1.43174057,2.465936279,1.8681427,4.175811768,-1.785625341,0.209204446
0.615944482,-0.110138702,0.074734497,-2.465936279,6.227111816,-1.68611513,0.081670849,-2.312818909,2.167025757,2.91428833,3.882781982,-1.984388057,0.463257389
0.617944302,-0.110138702,1.120880127,-2.465936279,6.373626709,-1.685950729,-0.084382847,-1.87229538,2.316494751,1.718673706,6.080596924,-1.587388225,0.29418647
0.619944122,-0.330416107,0.224176025,-2.017584229,6.080596924,-1.487684634,-0.001121233,-2.312818909,2.017584229,2.615377808,4.322357178,-1.884384575,-0.00272991
0.621943941,-0.550662231,0.224176025,-2.465936279,7.106231689,-1.19019042,0.040518943,-2.533096313,2.167025757,2.316494751,4.761901855,-2.08261417,-0.087653124
0.623943761,-0.110138702,0.821969604,-2.615377808,4.908416748,-1.388539181,0.040529894,-1.87229538,3.063729858,2.615377808,5.934051514,-2.380071856,-0.130337098
0.625943581,-0.110138702,0.672528076,-1.8681427,5.494506836,-1.686215104,0.247469443,-2.312818909,2.615377808,2.615377808,4.322357178,-2.082467452,-0.172115704
0.627943401,0.550662231,0.074734497,-2.615377808,5.494506836,-1.785367537,0.205953968,-2.092541504,1.120880127,2.465936279,5.641021729,-1.983494672,-0.044895698
0.62994322,-0.110138702,0.074734497,-1.8681427,7.985351562,-1.785367921,0.205873461,-2.092541504,2.615377808,2.465936279,5.494506836,-1.983921901,0.208517874
0.63194304,0.770939636,1.419790649,-2.316494751,5.934051514,-1.785275889,0.123326507,-1.652017975,2.465936279,3.512081909,3.73626709,-1.884812961,0.250753712
0.63394286,0.550662231,0.224176025,-2.465936279,8.131866455,-1.785237788,0.040640715,-1.652017975,3.213198853,2.764846802,4.908416748,-1.289470635,0.167782884
0.63594268,0.330416107,-0.224176025,-3.063729858,6.520141602,-1.487609524,-0.083717076,-2.533096313,2.167025757,2.764846802,5.494506836,-1.487825751,0.082160457
0.637942499,0.330416107,0.971438599,-3.063729858,6.959716797,-1.487660528,-0.082946603,-2.312818909,2.167025757,3.063729858,5.641021729,-1.983400431,-0.128843805
0.639942319,0.330416107,0.523086548,-3.512081909,6.520141602,-1.388483295,-0.041966764,-2.973619843,2.017584229,2.91428833,4.029296875,-2.082392629,-0.255260285
0.641942139,0.110138702,0.821969604,-3.362640381,8.278381348,-1.091040537,0.081806637,-2.753342438,2.615377808,2.764846802,5.494506836,-2.280870143,-0.171183577
0.643941959,0.330416107,0.074734497,-3.512081909,7.83883667,-1.190314922,0.205410385,-2.092541504,2.465936279,3.213198853,5.641021729,-2.380254751,-0.044983514
0.645941778,0.110138702,0.523086548,-3.96043396,6.959716797,-1.19044407,0.370197933,-1.87229538,1.718673706,3.213198853,4.908416748,-1.686351449,0.250695229
0.647941598,0.330416107,0.821969604,-4.857138062,8.57144165,-1.289676628,0.41120033,-2.312818909,2.316494751,3.063729858,5.787536621,-1.686230734,0.166489134
0.649941418,-0.110138702,-0.074734497,-4.558255005,6.813201904,-1.388887148,0.452161315,-2.533096313,1.718673706,3.512081909,4.908416748,-1.487976087,0.250626129
0.651941238,0.550662231,0.224176025,-4.558255005,5.787536621,-1.488033157,0.410752135,-2.753342438,2.465936279,3.512081909,3.882781982,-1.28927442,-0.084597097
0.653941057,0.110138702,0.971438599,-5.156048584,8.717956543,-1.388881627,0.369347976,-2.533096313,1.718673706,3.512081909,4.615386963,-1.685683664,-0.25387965
0.655940877,0.550662231,0.074734497,-6.650546265,6.959716797,-1.289565704,0.24588351,-2.973619843,0.821969604,3.063729858,6.080596924,-1.983438065,-0.12778028
0.657940697,0.330416107,0.523086548,-5.604400635,7.545776367,-1.091210809,0.16323079,-2.092541504,1.8681427,3.362640381,5.054931641,-2.181693007,-0.211753307
0.659940517,0.550662231,0.672528076,-5.604400635,8.42489624,-0.991916585,0.122579077,-2.312818909,2.017584229,4.857138062,4.615386963,-2.181892361,-0.044055715
0.661940336,0.550662231,0.971438599,-4.259344482,7.399261475,-0.793580673,0.122588974,-1.87229538,1.718673706,4.408786011,6.520141602,-1.587106506,0.207824813
0.663940156,0.770939636,0.224176025,-5.305490112,7.83883667,-0.694448458,0.163733399,-2.092541504,1.270321655,4.109902954,4.175811768,-1.09142046,0.333664771
0.665939976,0.330416107,0.523086548,-5.903283691,13.260070801,-0.694539555,0.245845471,-1.87229538,2.615377808,4.259344482,5.934051514,-1.289663157,0.249598807
0.667939796,0.770939636,1.120880127,-5.305490112,9.157501221,-0.595339934,0.287041151,-2.533096313,1.8681427,5.305490112,5.347991943,-1.289438789,0.082202251
0.669939615,-0.110138702,0.224176025,-5.006607056,9.304016113,-0.396984417,0.287155576,-2.312818909,1.718673706,5.305490112,4.175811768,-1.586689546,-0.127153162
0.671939435,0.550662231,-0.224176025,-6.351635742,7.252746582,-0.496123444,0.245950589,-1.87229538,2.316494751,4.408786011,6.666656494,-1.78515081,-0.043984945
0.673939255,0.330416107,0.971438599,-6.501104736,6.813201904,-0.595360295,0.369039891,-2.312818909,2.167025757,4.707696533,4.615386963,-2.082745552,-0.002576986
0.675939075,0.550662231,-0.373617554,-5.903283691,7.83883667,-0.496149998,0.32801461,-2.092541504,0.821969604,5.156048584,5.054931641,-1.983778696,0.122760444
0.677938894,0.770939636,0.971438599,-5.753842163,6.666656494,-0.297742498,0.328159133,-1.652017975,1.419790649,5.604400635,6.373626709,-1.686435332,0.248208178
0.679938714,0.550662231,0.224176025,-6.202194214,9.304016113,-0.694345639,0.163851905,-1.43174057,2.465936279,5.305490112,4.175811768,-1.488005742,0.33236348
0.681938534,0.991217041,-0.224176025,-5.305490112,8.57144165,-0.396849021,0.287027875,-2.533096313,1.270321655,5.305490112,4.761901855,-1.389149878,0.373142703
0.683938354,0.330416107,-0.672528076,-5.305490112,6.959716797,-0.297612608,0.246064209,-2.533096313,0.971438599,5.305490112,6.373626709,-1.289529264,0.165301807
0.685938173,0.770939636,-0.224176025,-7.397808838,8.278381348,-0.29758203,0.081967114,-2.533096313,1.718673706,6.799987793,4.029296875,-1.785164538,-0.04340098
0.687937993,0.991217041,0.373617554,-7.547250366,8.278381348,-0.396753213,0.040866094,-2.092541504,2.615377808,6.501104736,5.787536621,-1.68570667,-0.334328149
0.689937813,0.550662231,0.373617554,-8.294512939,7.83883667,-0.198395229,0.123023874,-2.312818909,0.971438599,5.903283691,5.787536621,-2.181726139,-0.209837084
0.691937632,0.330416107,0.373617554,-8.593395996,7.985351562,0.099151491,0.082078737,-1.87229538,1.419790649,7.098898315,5.054931641,-1.983532273,-0.04304957
0.693937452,0.330416107,-0.373617554,-9.938452148,8.278381348,0.198364652,0.04107322,-2.092541504,0.971438599,5.753842163,6.813201904,-1.884393085,-0.001409972
0.695937272,0.550662231,0.373617554,-9.041748047,7.985351562,0.396693994,0.123184499,-1.652017975,1.718673706,5.903283691,4.615386963,-1.388474448,-0.042392885
0.697937092,0.330416107,-0.523086548,-9.191217041,9.157501221,0.793405365,0.12328693,-1.87229538,1.270321655,7.098898315,6.227111816,-1.4876837,-0.000928546
0.699936911,0.330416107,-1.270321655,-8.593395996,8.42489624,0.892570018,0.1643613,-2.092541504,1.270321655,6.650546265,5.054931641,-1.090974137,-0.000681428
0.701936731,0.110138702,0.074734497,-7.248339844,9.597076416,0.793425187,0.041341146,-1.87229538,1.419790649,5.903283691,6.666656494,-0.991720668,-0.124908578
0.703936551,0.110138702,-0.373617554,-8.294512939,7.692321777,1.289307222,0.164332034,-1.87229538,0.523086548,6.650546265,5.201477051,-1.388487728,-0.12449673
0.705936371,-0.110138702,-0.523086548,-8.294512939,8.42489624,1.487650285,0.082665202,-1.652017975,0.971438599,6.650546265,4.029296875,-1.586671825,-0.208335886
0.70793619,0.110138702,-0.672528076,-9.041748047,7.399261475,1.388492021,0.041586197,-1.87229538,0.523086548,6.351635742,5.787536621,-1.884162983,-0.332427438
0.70993601,0.330416107,-0.971438599,-9.191217041,6.813201904,1.388524633,-0.040701727,-2.312818909,0.971438599,6.202194214,5.201477051,-1.983499622,-0.125418745
0.71193583,0.330416107,-0.523086548,-10.536273193,8.57144165,1.28933362,0.0004962,-1.87229538,0.672528076,6.501104736,6.080596924,-1.58682493,-0.042564899
0.71393565,-0.110138702,-0.672528076,-9.490100098,7.985351562,1.586906215,-0.122818397,-2.312818909,-0.224176025,6.799987793,4.908416748,-1.487749363,0.08176965
0.715935469,0.550662231,-0.373617554,-9.78901062,8.131866455,1.586932209,-0.205023582,-1.87229538,1.419790649,7.397808838,4.761901855,-1.091281637,0.329842094
0.717935289,0.110138702,-0.523086548,-10.83515625,11.20880127,1.686096675,-0.163954841,-2.312818909,0.821969604,6.799987793,6.373626709,-0.991989561,0.205837428
0.719935109,-0.110138702,-0.523086548,-10.386804199,9.157501221,1.487715026,-0.16424926,-2.092541504,-0.074734497,7.547250366,5.054931641,-1.190345062,0.205607458
0.721934929,-0.330416107,-0.971438599,-10.237362671,8.278381348,1.686044195,-0.082243595,-1.43174057,0.672528076,7.547250366,6.373626709,-1.289331535,-0.00113617
0.723934748,0.110138702,-0.821969604,-10.237362671,8.864471436,1.586847052,-0.123610036,-1.87229538,0.373617554,6.351635742,5.494506836,-1.785245267,0.04036012
0.725934568,0.110138702,-1.419790649,-10.536273193,8.278381348,1.78518928,-0.042291794,-2.092541504,0.074734497,6.351635742,5.641021729,-1.884398455,-0.00213885
0.727934388,-0.330416107,-1.270321655,-10.536273193,10.183135986,1.785214525,-0.041396821,-1.87229538,1.120880127,6.799987793,4.908416748,-2.181998463,0.039306445
0.729934208,-0.330416107,-2.017584229,-9.639569092,8.131866455,1.388413921,-0.206534303,-1.87229538,-0.074734497,7.995602417,5.641021729,-2.182088531,0.121705084
0.731934027,-0.330416107,-1.419790649,-10.685714722,9.010986328,1.487453511,-0.330735855,-1.652017975,0.523086548,8.145043945,5.787536621,-1.884475639,0.080961799
0.733933847,-0.770939636,-0.971438599,-11.283508301,7.399261475,1.090771865,-0.330529562,-1.211463165,0.373617554,6.949456787,6.227111816,-1.487842012,0.163586267
0.735933667,-0.110138702,-1.120880127,-10.984625244,9.597076416,1.289047047,-0.495884483,-1.43174057,-0.074734497,7.696691895,4.761901855,-1.190347606,0.20490937
0.737933487,-0.110138702,-0.373617554,-11.881329346,8.42489624,1.289098048,-0.413612676,-1.87229538,0.821969604,7.547250366,6.080596924,-1.190187203,0.040397172
0.739933306,-0.550662231,-1.419790649,-12.628564453,8.864471436,1.487571706,-0.08435515,-1.43174057,1.270321655,8.593395996,5.347991943,-1.190142438,-0.041423307
0.741933126,-0.110138702,-0.821969604,-12.628564453,9.597076416,0.793442319,0.206796028,-1.652017975,0.074734497,8.593395996,5.054931641,-1.487534625,-0.165586136
0.743932946,-0.330416107,-0.971438599,-10.83515625,6.080596924,0.793455,0.041192883,-1.43174057,0.523086548,7.248339844,6.666656494,-1.586706198,-0.206453674
0.745932766,-0.330416107,-0.224176025,-12.180212402,10.036621094,0.694213776,-0.165865213,-1.211463165,0.224176025,8.443954468,6.373626709,-2.082585381,-0.247770699
0.747932585,-0.991217041,-0.821969604,-10.685714722,7.692321777,0.595020326,-0.290247452,-1.43174057,0.672528076,7.995602417,5.494506836,-1.884229913,-0.247549171
0.749932405,-0.330416107,-2.465936279,-11.283508301,7.83883667,0.793435299,-0.041582385,-1.43174057,0.373617554,9.639569092,5.787536621,-2.082701802,-0.083683033
0.751932225,-0.550662231,-2.017584229,-12.180212402,7.83883667,0.49593464,0.166001056,-1.43174057,-0.971438599,8.145043945,4.908416748,-2.082757389,-0.001585809
0.753932045,-0.550662231,-1.419790649,-11.432977295,8.42489624,0.595149837,0.207602813,-1.211463165,0.373617554,9.340658569,5.934051514,-1.686201161,0.162764444
0.755931864,-0.550662231,-2.017584229,-11.731860352,8.278381348,0.495934287,0.083040505,-1.43174057,0.523086548,8.443954468,5.201477051,-1.587004432,0.121584814
0.757931684,-0.770939636,-2.017584229,-12.030770874,6.813201904,0.594991449,-0.208303947,-1.211463165,-0.971438599,7.696691895,7.83883667,-1.190428594,0.28598994
0.759931504,-0.330416107,-3.063729858,-12.778033447,7.692321777,0.495807906,-0.16684974,-0.991217041,0.373617554,9.041748047,4.908416748,-1.091160666,0.162916486
0.761931324,-1.211463165,-1.8681427,-11.731860352,7.399261475,0.198448956,0.124942019,-1.211463165,0.523086548,8.443954468,6.520141602,-1.19035155,0.203883971
0.763931143,-0.770939636,-2.465936279,-11.283508301,9.304016113,-0.099051652,0.166959383,-1.43174057,-0.373617554,9.340658569,5.054931641,-1.28943874,0.1630919
0.765930963,-0.770939636,-3.512081909,-11.134066772,8.278381348,0.198241671,-0.125426089,-1.43174057,0.821969604,9.490100098,5.641021729,-1.487691543,-0.000755914
0.767930783,-0.550662231,-3.213198853,-10.984625244,9.597076416,0.495074976,-0.418929055,-1.211463165,0.523086548,9.490100098,5.054931641,-1.983344461,-0.206584089
0.769930603,-1.211463165,-2.615377808,-10.984625244,6.666656494,0.099064302,-0.251072282,-1.43174057,-0.373617554,9.938452148,6.666656494,-2.181824086,-0.124631058
0.771930422,-0.991217041,-3.661550903,-11.881329346,6.666656494,-0.396861767,-0.125298473,-1.43174057,0.224176025,9.041748047,6.227111816,-2.082704689,-0.083357949
0.773930242,-0.991217041,-3.810992432,-11.134066772,6.813201904,-0.694523648,-0.250903747,-1.43174057,0.373617554,10.087921143,4.615386963,-1.983621694,0.039348581
0.775930062,-0.330416107,-3.512081909,-12.030770874,6.373626709,-0.694761993,-0.502855803,-1.211463165,0.523086548,9.490100098,6.959716797,-2.082761081,-0.001594985
0.777929882,-0.550662231,-3.063729858,-12.180212402,6.080596924,-0.496406819,-0.503467045,-1.43174057,-0.373617554,10.536273193,4.615386963,-1.686113978,0.080598721
0.779929701,-0.991217041,-3.063729858,-10.83515625,5.641021729,-0.892913427,-0.335537828,-1.652017975,0.523086548,9.639569092,6.373626709,-1.388632342,0.121406554
0.781929521,-0.991217041,-3.96043396,-10.83515625,6.373626709,-1.388612325,-0.125148024,-1.43174057,0.224176025,8.74286499,5.494506836,-1.190191609,0.040050306
0.783929341,-0.770939636,-5.006607056,-10.83515625,5.641021729,-1.487801244,-0.167449347,-1.211463165,0.373617554,9.041748047,5.494506836,-0.991822402,0.0404149
0.785929161,-0.550662231,-4.408786011,-10.984625244,6.813201904,-1.091585833,-0.420014722,-0.770939636,1.569232178,9.041748047,6.227111816,-1.090981492,-0.000978018
0.78792898,-0.991217041,-4.857138062,-10.984625244,5.641021729,-1.289323954,-0.33727404,-0.991217041,0.373617554,9.191217041,4.615386963,-1.090916347,-0.08223065
0.7899288,-0.330416107,-4.707696533,-11.283508301,6.080596924,-1.586834645,0.042773274,-0.991217041,0.971438599,9.938452148,6.520141602,-1.289272716,-0.082336047
0.79192862,-0.991217041,-4.558255005,-11.881329346,5.054931641,-1.983490034,0.211857822,-0.991217041,0.224176025,10.536273193,5.054931641,-1.388398726,-0.12329429
0.79392844,-0.991217041,-5.454931641,-10.984625244,6.227111816,-2.082734451,0.085012783,-1.211463165,1.120880127,10.386804199,5.201477051,-1.685894112,-0.164222443
0.795928259,-1.211463165,-4.707696533,-9.938452148,6.080596924,-1.686054037,-0.084138985,-0.991217041,0.672528076,10.386804199,6.373626709,-1.586735657,-0.123579493
0.797928079,-0.770939636,-4.558255005,-10.386804199,6.813201904,-1.884442525,-0.253565727,-0.770939636,0.074734497,10.087921143,5.054931641,-1.785183932,-0.042311127
0.799927899,-0.770939636,-5.156048584,-8.892306519,7.106231689,-2.281137159,-0.169005528,-1.43174057,0.672528076,10.536273193,5.787536621,-1.884408468,-0.001936974
0.801927719,-1.211463165,-4.707696533,-8.74286499,6.520141602,-1.983565378,-0.042097869,-0.991217041,0.971438599,9.78901062,6.959716797,-1.88447369,0.080152048
0.803927538,-0.770939636,-4.707696533,-10.685714722,6.080596924,-2.181843265,0.128423312,-0.991217041,-0.224176025,9.78901062,4.761901855,-1.686262707,0.160953984
0.805927358,-0.991217041,-5.753842163,-10.685714722,5.934051514,-2.28108629,0.169789536,-1.211463165,0.074734497,9.490100098,6.227111816,-1.38888604,0.283199708
0.807927178,-1.211463165,-4.109902954,-10.536273193,6.666656494,-2.281037591,0.17042212,-0.991217041,0.523086548,9.78901062,5.934051514,-1.388747809,0.202015064
0.809926998,-1.211463165,-5.604400635,-8.892306519,4.908416748,-2.380291635,0.043268329,-1.652017975,0.821969604,9.340658569,4.761901855,-1.190437013,0.283595248
0.811926817,-1.43174057,-5.604400635,-9.78901062,4.46887207,-2.38034293,-0.126401264,-1.43174057,1.270321655,10.386804199,5.641021729,-1.190437302,0.283518778
0.813926637,-0.991217041,-4.857138062,-8.593395996,4.175811768,-2.380410067,-0.210990195,-1.43174057,0.821969604,9.78901062,6.227111816,-1.09114091,0.161671925
0.815926457,-1.211463165,-5.454931641,-8.593395996,4.029296875,-2.28125751,-0.253526249,-1.43174057,0.821969604,11.432977295,5.201477051,-1.091062249,0.080393115
0.817926277,-0.991217041,-5.753842163,-9.340658569,4.46887207,-2.182105043,-0.296046414,-1.87229538,0.523086548,8.443954468,5.641021729,-0.991844587,0.039846579
0.819926096,-0.991217041,-5.156048584,-10.386804199,4.029296875,-2.182062402,-0.29632585,-0.770939636,0.672528076,10.386804199,6.666656494,-0.892705888,0.08051314
0.821925916,-1.43174057,-5.903283691,-10.536273193,4.46887207,-1.884501727,-0.339122927,-0.991217041,0.821969604,10.386804199,4.761901855,-0.991858271,0.039573062
0.823925736,-1.211463165,-5.156048584,-10.536273193,4.175811768,-2.082830712,-0.254183139,-1.43174057,0.821969604,9.78901062,4.615386963,-1.289235044,-0.08250029
0.825925556,-0.991217041,-5.604400635,-8.593395996,4.322357178,-2.082781511,-0.084399221,-1.211463165,1.569232178,10.984625244,6.373626709,-1.190109563,-0.04180771
0.827925375,-1.211463165,-5.305490112,-7.846160889,3.73626709,-2.082781576,-0.084388709,-1.211463165,0.373617554,11.283508301,6.080596924,-1.190096565,-0.042111331
0.829925195,-0.991217041,-5.903283691,-9.191217041,3.150177002,-1.983576525,-0.041721694,-1.43174057,1.419790649,11.134066772,5.201477051,-1.289341179,-0.001665374
0.831925015,-1.211463165,-5.454931641,-8.145043945,3.882781982,-2.181896904,0.127842634,-0.991217041,1.120880127,10.685714722,4.908416748,-1.685790072,-0.164431989
0.833924835,-1.211463165,-4.857138062,-8.145043945,4.029296875,-2.281061449,0.170281511,-1.211463165,0.672528076,10.83515625,6.227111816,-1.487565719,-0.083038297
0.835924654,-1.87229538,-4.109902954,-9.639569092,3.589752197,-2.281098175,0.085141358,-1.211463165,1.8681427,10.386804199,6.080596924,-1.487433313,-0.16413283
0.837924474,-1.652017975,-5.604400635,-10.386804199,4.029296875,-2.181933412,0.127271203,-1.211463165,1.270321655,10.237362671,5.787536621,-1.487565827,-0.083017205
0.839924294,-1.211463165,-5.305490112,-9.041748047,3.73626709,-2.281109763,0.25449947,-0.770939636,1.419790649,10.536273193,5.347991943,-1.686055257,-0.002179852
0.841924114,-1.43174057,-4.558255005,-9.490100098,3.003662109,-2.182041894,0.381169471,-0.991217041,1.419790649,10.984625244,5.641021729,-1.388586376,0.038740652
0.843923933,-1.211463165,-5.454931641,-7.397808838,2.857147217,-2.281206813,0.3386949,-0.991217041,1.569232178,11.134066772,6.520141602,-1.289341558,-0.001500001
0.845923753,-0.550662231,-5.903283691,-8.294512939,2.271057129,-2.281304436,0.338060493,-1.211463165,2.167025757,11.134066772,6.080596924,-1.388579706,0.038912186
0.847923573,-0.991217041,-5.006607056,-7.696691895,1.684967041,-2.380620906,0.464818559,-1.211463165,1.718673706,11.134066772,5.641021729,-1.586817267,-0.042374372
0.849923393,-0.770939636,-5.454931641,-7.696691895,2.124542236,-2.380553922,0.465077828,-0.991217041,1.120880127,10.536273193,5.347991943,-1.388466991,-0.041960514
0.851923212,-1.211463165,-5.903283691,-7.547250366,2.271057129,-2.281414096,0.422388159,-0.991217041,2.316494751,10.984625244,5.347991943,-1.487605685,-0.082389273
0.853923032,-0.770939636,-5.305490112,-6.501104736,3.003662109,-2.479901705,0.506624378,-0.770939636,1.120880127,11.731860352,5.494506836,-1.388380969,-0.122821809
0.855922852,-0.770939636,-4.558255005,-7.547250366,1.831512451,-2.281621489,0.506396706,-0.991217041,1.419790649,11.432977295,5.494506836,-1.289262146,-0.082036856
0.857922672,-1.211463165,-5.156048584,-6.799987793,2.417572021,-2.281548456,0.506579123,-0.991217041,2.017584229,10.83515625,5.494506836,-1.289182881,-0.163075553
0.859922491,-1.652017975,-5.454931641,-5.903283691,1.978027344,-2.083013517,0.252314517,-0.991217041,2.167025757,11.881329346,5.347991943,-1.090706822,-0.244119417
0.861922311,-0.991217041,-5.006607056,-6.052752686,1.098907471,-2.182318952,0.293972064,-0.770939636,1.419790649,11.881329346,5.201477051,-1.189838927,-0.284731268
0.863922131,-1.211463165,-5.156048584,-6.052752686,1.098907471,-1.884575118,0.167731234,-0.110138702,2.167025757,10.984625244,4.615386963,-0.89225739,-0.324984489
0.86592195,-1.211463165,-4.558255005,-5.454931641,1.098907471,-1.785333764,0.125445678,-0.770939636,1.718673706,11.881329346,4.761901855,-0.793125284,-0.284372637
0.86792177,-0.770939636,-5.305490112,-7.846160889,1.098907471,-1.487748323,0.083543244,-0.770939636,0.971438599,10.685714722,5.347991943,-0.793184591,-0.203445461
0.86992159,-0.991217041,-5.753842163,-6.650546265,0.36630249,-1.289321663,-0.000777377,-0.770939636,1.8681427,11.582418823,5.934051514,-0.793290541,-0.12239539
0.87192141,-0.991217041,-3.810992432,-6.351635742,0.659332275,-1.388516552,0.041795388,-0.330416107,2.017584229,11.283508301,5.787536621,-0.594827757,-0.203240396
0.873921229,-0.991217041,-5.305490112,-5.305490112,0.952392578,-1.190126573,-0.042722188,-0.550662231,1.120880127,10.536273193,5.347991943,-0.396576874,-0.12198526
0.875921049,-0.991217041,-5.006607056,-5.006607056,-0.219787598,-1.289297532,-0.084878929,-0.770939636,1.718673706,10.984625244,5.494506836,-0.594933708,-0.122190325
0.877920869,-1.211463165,-5.156048584,-4.558255005,-0.36630249,-1.09096855,-0.169116135,-0.770939636,1.419790649,10.536273193,5.494506836,-0.495675679,-0.162688547
0.879920689,-1.211463165,-4.558255005,-4.408786011,1.098907471,-1.289322355,-0.169095084,-1.211463165,1.718673706,9.639569092,5.787536621,-0.594933716,-0.12220659
0.881920508,-1.43174057,-4.408786011,-4.259344482,0.219787598,-1.190182028,-0.126518168,-0.991217041,1.270321655,10.237362671,5.641021729,-0.396576895,-0.122001563
0.883920328,-1.43174057,-5.006607056,-5.753842163,-0.36630249,-1.289346913,-0.168887433,-1.211463165,2.465936279,10.685714722,5.494506836,-0.396682815,-0.040940572
0.885920148,-0.770939636,-4.408786011,-5.753842163,-0.36630249,-1.289395946,-0.16855532,-1.211463165,1.569232178,10.685714722,5.347991943,-0.495808265,-0.081573581
0.887919968,-0.991217041,-5.006607056,-4.857138062,-0.952392578,-1.091042188,-0.168606642,-0.770939636,1.120880127,9.938452148,5.494506836,-0.495808265,-0.081573581
0.889919787,-0.550662231,-5.156048584,-4.558255005,-0.36630249,-1.190200626,-0.126303743,-0.770939636,1.419790649,10.237362671,5.641021729,-0.198058694,-0.202906481
0.891919607,-0.330416107,-5.604400635,-3.96043396,-1.391937256,-1.091017754,-0.168706933,-1.211463165,1.569232178,9.78901062,5.494506836,-0.198058694,-0.202906481
0.893919427,-0.991217041,-3.810992432,-4.408786011,-0.512817383,-0.991810082,-0.126599916,-1.87229538,2.465936279,10.237362671,5.787536621,-0.098939903,-0.162257764
0.895919247,-1.43174057,-5.006607056,-4.109902954,-1.391937256,-0.892602436,-0.084577045,-0.770939636,1.270321655,10.536273193,5.787536621,0.099536183,-0.243093667
0.897919066,-0.550662231,-6.052752686,-3.362640381,-0.805847168,-0.694236404,-0.084631908,-0.991217041,1.718673706,9.639569092,5.787536621,0.000417391,-0.283742384
0.899918886,-0.110138702,-5.604400635,-4.259344482,-2.124542236,-0.595010778,-0.126968054,-0.770939636,1.718673706,8.74286499,6.080596924,0.099536183,-0.243093667
0.901918706,-0.550662231,-5.156048584,-4.259344482,-1.831512451,-0.396693355,-0.042509421,-0.991217041,0.821969604,8.74286499,5.494506836,0.198654975,-0.20244495
0.903918526,-0.991217041,-5.753842163,-4.259344482,-1.684967041,-0.396693355,-0.042509421,-1.211463165,2.465936279,10.237362671,5.641021729,0.099536183,-0.243093667
0.905918345,-1.43174057,-5.753842163,-5.454931641,-1.391937256,-0.495906967,-0.00048062,-1.43174057,1.419790649,10.984625244,5.787536621,0.297893017,-0.242862901
0.907918165,-0.550662231,-5.454931641,-5.006607056,-1.098907471,-0.396675128,-0.042645636,-0.991217041,1.419790649,10.536273193,5.934051514,0.39713106,-0.283280853
0.909917985,-0.550662231,-5.903283691,-3.810992432,-1.831512451,-0.396669063,-0.042691058,-1.43174057,1.8681427,9.78901062,5.934051514,0.397011809,-0.202214185
0.911917805,-1.211463165,-5.156048584,-3.512081909,-1.538452148,-0.297431006,-0.084781053,-1.43174057,2.017584229,10.237362671,5.641021729,0.496249852,-0.242632136
0.913917624,-1.652017975,-5.006607056,-3.512081909,-1.978027344,-0.198152444,-0.126896241,-0.770939636,0.971438599,9.78901062,5.641021729,0.595390764,-0.201974348
0.915917444,-1.43174057,-6.052752686,-3.063729858,-1.684967041,-0.098773858,-0.253386295,-1.652017975,1.419790649,10.237362671,5.787536621,0.496369103,-0.323698804
0.917917264,-1.43174057,-6.052752686,-3.362640381,-1.538452148,-0.098590563,-0.337832753,-1.43174057,1.419790649,7.547250366,5.641021729,0.496289874,-0.242584818
0.919917084,-0.991217041,-5.903283691,-3.661550903,-2.271057129,0.099763499,-0.337544207,-1.211463165,1.569232178,9.340658569,5.787536621,0.396934701,-0.121095483
0.921916903,-0.770939636,-5.454931641,-3.661550903,-1.831512451,0.000873652,-0.464344993,-1.211463165,1.419790649,8.74286499,5.787536621,0.595424129,-0.201911324
0.923916723,-0.770939636,-5.454931641,-4.408786011,-1.978027344,0.298643061,-0.590513103,-0.991217041,1.419790649,9.490100098,5.787536621,0.694589681,-0.161089478
0.925916543,-0.991217041,-5.604400635,-3.063729858,-2.417572021,0.398239021,-0.80152704,-1.211463165,1.419790649,9.490100098,6.520141602,0.694562843,-0.161190204
0.927916363,-1.211463165,-5.454931641,-3.063729858,-3.150177002,0.497740135,-0.843565702,-0.770939636,1.8681427,8.892306519,6.080596924,0.793688395,-0.120410278
0.929916182,-1.43174057,-4.558255005,-3.213198853,-2.857147217,0.696901708,-1.01189208,-1.652017975,1.419790649,6.949456787,5.787536621,0.892787145,-0.079720221
0.931916002,-1.211463165,-4.259344482,-4.109902954,-2.857147217,0.598384539,-1.13876847,-1.211463165,1.569232178,9.490100098,6.080596924,0.793708322,-0.120332532
0.933915822,-1.211463165,-4.259344482,-2.91428833,-3.73626709,0.301026163,-1.097323025,-0.991217041,1.120880127,8.892306519,6.227111816,0.991892695,-0.038893633
0.935915642,-1.43174057,-4.558255005,-2.764846802,-3.589752197,0.400702531,-1.054732782,-0.550662231,2.167025757,8.74286499,6.373626709,0.793688033,-0.120460074
0.937915461,-1.211463165,-3.810992432,-3.213198853,-3.443237305,0.201968595,-0.886455741,-0.770939636,0.971438599,9.78901062,6.373626709,0.694430009,-0.080061389
0.939915281,-1.87229538,-3.661550903,-2.615377808,-3.150177002,0.103086314,-0.84457748,-0.770939636,1.419790649,9.938452148,6.373626709,0.892627803,0.001384205
0.941915101,-0.991217041,-3.96043396,-2.91428833,-3.589752197,-0.293467369,-0.761917955,-0.991217041,1.569232178,7.397808838,6.666656494,0.991885591,-0.039042298
0.943914921,-2.533096313,-3.810992432,-2.615377808,-3.73626709,-0.29343182,-0.67761043,-0.770939636,0.971438599,10.087921143,6.666656494,0.892455677,0.082686371
0.94591474,-0.770939636,-3.213198853,-2.615377808,-3.882781982,-0.392412121,-0.636272526,-0.991217041,2.316494751,10.087921143,6.666656494,0.991587664,0.123205122
0.94791456,-1.211463165,-3.213198853,-4.558255005,-4.029296875,-0.193507529,-0.635339808,-0.770939636,1.419790649,8.145043945,6.227111816,1.09083872,0.082757564
0.94991438,-2.312818909,-2.316494751,-3.810992432,-4.029296875,-0.19140602,-0.804695492,-0.330416107,1.8681427,8.294512939,6.666656494,0.892336677,0.163727888
0.9519142,-2.092541504,-2.316494751,-3.96043396,-3.882781982,0.105521531,-0.675745985,-0.991217041,0.971438599,8.443954468,6.813201904,0.991442468,0.204537815
0.953914019,-1.87229538,-2.167025757,-3.96043396,-4.46887207,0.10600752,-0.675782385,-0.330416107,1.718673706,8.294512939,7.106231689,1.090838577,0.082821101
0.955913839,-1.87229538,-2.465936279,-4.408786011,-4.322357178,-0.093623833,-0.508414455,-0.770939636,0.672528076,7.547250366,6.959716797,0.991877785,-0.039242148
0.957913659,-2.092541504,-2.764846802,-3.512081909,-4.029296875,-0.393232349,-0.300033354,-1.652017975,1.718673706,6.650546265,6.666656494,0.892626992,0.001380239
0.959913479,-2.312818909,-1.569232178,-2.615377808,-3.73626709,-0.592470624,-0.217776663,-0.770939636,1.270321655,7.696691895,6.959716797,0.793534354,-0.03934108
0.961913298,-2.092541504,-1.569232178,-2.91428833,-3.443237305,-0.291890055,-0.426424809,-0.550662231,1.270321655,7.995602417,7.252746582,0.694441533,-0.08019923
0.963913118,-2.092541504,-1.569232178,-2.316494751,-3.589752197,0.0066256,-0.465474966,-0.550662231,1.419790649,6.949456787,7.399261475,0.69466563,-0.161426112
0.965912938,-2.533096313,-1.718673706,-2.615377808,-4.322357178,0.406229287,-0.629837664,-0.330416107,1.419790649,6.351635742,7.106231689,0.99233212,-0.201484444
0.967912758,-2.753342438,-2.615377808,-2.465936279,-4.175811768,0.308257755,-0.673306724,-0.991217041,1.120880127,6.650546265,6.666656494,0.7937844,-0.120421529
0.969912577,-2.533096313,-1.569232178,-2.167025757,-3.589752197,0.010481345,-0.635003948,-0.991217041,1.718673706,6.202194214,6.373626709,0.495914155,0.001339724
0.971912397,-2.533096313,-1.8681427,-2.615377808,-4.761901855,-0.288601599,-0.512426905,-0.330416107,1.270321655,6.202194214,7.252746582,0.892180154,0.164957201
0.973912217,-2.753342438,-1.419790649,-2.615377808,-4.908416748,-0.388083306,-0.472049299,-0.110138702,0.523086548,6.799987793,7.399261475,1.189289076,0.288319299
0.975912037,-2.973619843,-2.167025757,-2.017584229,-3.882781982,-0.384211151,-0.6418279,-0.330416107,0.971438599,7.846160889,7.545776367,1.287687646,0.574089847
0.977911856,-3.414174652,-1.270321655,-1.8681427,-4.46887207,-0.183441038,-0.723450901,-0.991217041,1.569232178,6.650546265,6.959716797,1.089332328,0.573857187
0.979911676,-2.753342438,-1.8681427,-2.316494751,-3.882781982,-0.180888086,-0.80838083,-0.770939636,0.672528076,5.903283691,6.373626709,0.891269267,0.491882917
0.981911496,-2.753342438,-1.8681427,-2.017584229,-4.908416748,-0.482335726,-0.60260823,-0.550662231,1.419790649,6.351635742,6.373626709,0.693410889,0.328201443
0.983911316,-3.193897247,-1.718673706,-1.8681427,-4.46887207,-0.882625678,-0.441643978,-0.330416107,1.120880127,7.397808838,7.985351562,0.396636831,0.041626601
0.985911135,-3.193897247,-2.017584229,-2.167025757,-4.46887207,-1.185119633,-0.23699124,-0.110138702,0.821969604,6.052752686,7.985351562,0.49647743,-0.244377526
0.987910955,-2.973619843,-2.316494751,-1.569232178,-3.296691895,-0.986527699,-0.233632355,-0.550662231,1.120880127,5.753842163,7.252746582,0.59570676,-0.285282349
0.989910775,-2.092541504,-2.764846802,-2.91428833,-3.589752197,-0.290690975,-0.261000434,-0.110138702,1.718673706,5.305490112,6.813201904,0.794175322,-0.284944592
0.991910595,-2.973619843,-2.615377808,-2.764846802,-4.761901855,0.108779706,-0.336540804,-0.330416107,1.120880127,5.305490112,8.864471436,1.19039217,-0.121023482
0.993910414,-2.753342438,-2.615377808,-2.465936279,-3.443237305,-0.091746632,-0.256624134,-0.770939636,0.971438599,5.156048584,9.010986328,1.388442502,0.042918227
0.995910234,-3.193897247,-1.270321655,-3.063729858,-5.347991943,-0.194517392,-0.13221275,-0.991217041,2.764846802,4.558255005,6.959716797,1.388417133,0.043656999
0.997910054,-2.973619843,-3.063729858,-3.063729858,-4.029296875,-0.697234067,0.066127809,-0.770939636,1.569232178,4.558255005,8.131866455,0.595429307,-0.286566537
0.999909874,-2.973619843,-1.8681427,-2.91428833,-2.271057129,-0.401081297,0.116073341,-0.330416107,2.017584229,4.259344482,7.83883667,0.496600217,-0.409846289
1.001909693,-3.414174652,-1.718673706,-2.91428833,-4.175811768,-0.398341334,0.03106857,-0.330416107,1.569232178,4.707696533,5.641021729,0.992559558,-0.450502702
1.003909513,-3.414174652,-2.167025757,-3.213198853,-3.150177002,-0.194043192,-0.132899686,-0.550662231,0.971438599,4.558255005,9.010986328,1.091262072,-0.162904918
1.005909333,-2.973619843,-3.213198853,-2.91428833,-3.882781982,-0.09318505,-0.172419333,-0.550662231,1.419790649,4.408786011,6.520141602,1.388280191,0.12551919
1.007909153,-3.193897247,-2.167025757,-2.91428833,-2.564117432,-0.294623063,-0.093886697,-0.550662231,1.8681427,4.558255005,8.57144165,1.387971575,0.290249086
1.009908972,-3.193897247,-2.615377808,-2.017584229,-2.124542236,-0.597005912,0.023571678,-0.770939636,1.120880127,4.857138062,8.864471436,1.288999771,0.166888819
1.011908792,-3.193897247,-3.362640381,-2.465936279,-3.150177002,-0.997214555,0.095155289,-0.550662231,1.120880127,4.259344482,6.959716797,0.992069434,-0.121911851
1.013908612,-3.193897247,-2.764846802,-2.91428833,-8.131866455,-1.199117717,0.172618342,-0.110138702,1.270321655,4.259344482,9.304016113,0.893198401,-0.245850798
1.015908432,-3.414174652,-3.96043396,-2.316494751,-5.347991943,-1.000845661,0.178388452,-0.110138702,0.971438599,4.558255005,7.106231689,1.090391877,0.16838127
1.017908251,-3.193897247,-3.512081909,-2.316494751,-2.564117432,-0.900032265,0.138985849,-0.550662231,1.718673706,4.558255005,6.666656494,1.586083705,0.374760625
1.019908071,-3.193897247,-2.764846802,-2.465936279,-2.124542236,-0.308069429,0.243845928,-0.330416107,1.718673706,4.109902954,10.769226074,1.288416077,0.333886331
1.021907891,-2.973619843,-3.063729858,-2.316494751,-0.805847168,-0.60420003,0.191032254,-0.550662231,0.224176025,4.259344482,6.520141602,1.586522556,0.127793535
1.023907711,-2.973619843,-2.465936279,-2.91428833,-1.245422363,-0.503291346,0.151954842,-0.770939636,1.718673706,3.96043396,9.743591309,0.892392991,0.084893827
1.02590753,-3.193897247,-2.615377808,-1.8681427,-1.391937256,0.005307316,-0.127049557,-0.110138702,1.8681427,3.512081909,7.545776367,1.288647641,0.251768676
1.02790735,-2.973619843,-2.167025757,-2.167025757,-1.245422363,-0.189567872,-0.21882236,-0.110138702,1.718673706,3.96043396,6.520141602,1.387278946,0.459792474
1.02990717,-2.753342438,-2.615377808,-2.167025757,-1.391937256,-0.189540313,-0.218851948,-0.110138702,0.672528076,3.810992432,10.183135986,1.387564372,0.3768948
1.03190699,-2.973619843,-2.167025757,-1.718673706,-1.831512451,-0.185877911,-0.303610102,-0.550662231,2.764846802,3.063729858,7.692321777,1.091266793,-0.080091518
1.033906809,-2.973619843,-2.316494751,-2.167025757,-1.098907471,-0.377106464,-0.480222468,-0.330416107,2.316494751,3.063729858,9.597076416,1.487532502,0.085491471
1.035906629,-2.753342438,-1.718673706,-2.167025757,-1.245422363,-0.275977598,-0.519034902,-0.770939636,1.120880127,3.213198853,7.545776367,1.685495881,0.253264801
1.037906449,-2.973619843,-0.971438599,-1.718673706,-1.391937256,-0.275910654,-0.519084896,-0.330416107,1.718673706,2.017584229,7.83883667,1.487683122,0.002580098
1.039906268,-2.753342438,-0.672528076,-1.419790649,-0.805847168,-0.373271352,-0.565112463,0.110138702,1.569232178,2.017584229,9.743591309,0.595633264,-0.291444891
1.041906088,-2.973619843,-0.523086548,-1.8681427,-1.245422363,-0.369534842,-0.649887104,0.110138702,1.569232178,1.270321655,9.450561523,1.785760243,-0.290032169
1.043905908,-2.753342438,-0.523086548,-1.120880127,-0.805847168,-0.568044192,-0.657155905,-0.330416107,2.316494751,1.8681427,10.915740967,1.785138172,0.044496777
1.045905728,-2.312818909,-1.419790649,-2.017584229,-0.805847168,-0.766494036,-0.664546011,-0.110138702,1.8681427,0.971438599,8.864471436,1.289923411,-0.333288603
1.047905547,-2.312818909,-0.672528076,-0.971438599,-0.073272705,-0.770078382,-0.579929574,0.110138702,2.615377808,1.270321655,9.304016113,1.091865385,-0.50176565
1.049905367,-2.533096313,0.373617554,-1.569232178,0.073272705,-0.672532201,-0.53405023,-0.550662231,1.419790649,1.270321655,9.157501221,1.785605175,-0.207351166
1.051905187,-2.533096313,0.074734497,-0.672528076,0.36630249,-0.975845688,-0.418143248,-0.110138702,0.821969604,0.821969604,7.252746582,1.983423327,0.047879697
1.053905007,-2.312818909,0.074734497,-1.120880127,0.36630249,-0.687339521,-0.195435309,-0.550662231,2.167025757,0.821969604,8.42489624,1.190578851,-0.293269476
1.055904826,-2.312818909,0.074734497,-1.120880127,0.36630249,-0.687339521,-0.195435309,-0.770939636,0.971438599,0.971438599,8.717956543,1.289128472,0.086840742
1.057904646,-2.092541504,0.373617554,-0.074734497,0.073272705,-0.897159649,0.050820723,0.330416107,2.167025757,-0.523086548,8.57144165,2.378940539,0.553723783
1.059904466,-2.092541504,0.523086548,-0.074734497,1.245422363,-1.200665616,0.166445486,-0.550662231,0.821969604,0.821969604,7.399261475,1.487054788,0.256668511
1.061904286,-2.092541504,-0.523086548,-0.523086548,1.245422363,-0.91249797,0.389295957,-0.330416107,0.971438599,1.120880127,6.959716797,1.586306616,0.215061776
1.063904105,-2.312818909,-0.672528076,-0.971438599,1.245422363,-0.920265032,0.558531972,-0.550662231,1.120880127,-0.224176025,8.717956543,1.68451963,0.596909611
1.065903925,-2.312818909,0.074734497,-0.074734497,1.831512451,-1.025287269,0.681753086,-0.550662231,1.8681427,-0.821969604,11.062255859,1.19025631,-0.039857965
1.067903745,-2.092541504,0.821969604,0.821969604,1.831512451,-1.036806399,0.935818982,-0.110138702,1.419790649,-0.224176025,10.036621094,1.289105267,0.087759025
1.069903565,-2.092541504,-0.971438599,-0.373617554,1.831512451,-1.243011165,1.097572579,-0.770939636,2.615377808,-0.523086548,7.985351562,1.883318376,0.429573664
1.071903384,-1.87229538,-0.523086548,0.672528076,1.684967041,-1.44522591,1.174771184,-0.550662231,1.419790649,0.224176025,8.42489624,1.091378992,-0.168232737
1.073903204,-2.092541504,0.074734497,0.971438599,1.978027344,-1.343684358,1.136602976,-0.110138702,0.373617554,-1.120880127,20.586090088,1.288654222,0.175088063
1.075903024,-2.092541504,0.672528076,1.569232178,2.124542236,-1.444514842,1.175589864,-0.770939636,2.615377808,-1.120880127,12.380950928,1.09084594,0.086786347
1.077902844,-2.312818909,0.373617554,1.569232178,2.124542236,-1.545306962,1.214454855,-0.770939636,0.971438599,-0.672528076,8.57144165,1.58694721,-0.039831011
1.079902663,-1.87229538,-0.672528076,0.821969604,3.003662109,-1.439885076,1.091817739,0.110138702,0.523086548,-0.821969604,9.890106201,2.082039772,0.346799545
1.081902483,-1.652017975,0.074734497,0.672528076,2.710632324,-1.435702816,1.007639831,-0.110138702,0.971438599,-2.764846802,10.476196289,0.694904666,-0.342503173
1.083902303,-1.87229538,0.523086548,1.718673706,2.124542236,-1.229429473,0.845992152,0.330416107,1.569232178,-2.764846802,9.597076416,1.785119598,0.045940161
1.085902123,-2.092541504,-0.074734497,1.718673706,3.296691895,-1.322753614,0.716014467,-0.550662231,0.224176025,-3.063729858,11.062255859,1.488004613,-0.169927827
1.087901942,-1.87229538,-0.523086548,0.821969604,3.443237305,-1.416121947,0.586242315,0.110138702,0.672528076,-3.810992432,9.743591309,1.190834319,-0.386622697
1.089901762,-1.87229538,0.224176025,1.120880127,3.296691895,-1.516742706,0.625788062,-0.110138702,0.971438599,-3.512081909,10.769226074,2.082588444,0.089833871
1.091901582,-2.092541504,-0.821969604,0.224176025,3.443237305,-1.913137008,0.613276808,-0.330416107,0.074734497,-4.558255005,10.036621094,0.992937583,-0.561160227
1.093901402,-1.87229538,0.672528076,0.821969604,3.296691895,-2.013441761,0.653690117,0.110138702,0.672528076,-4.857138062,11.062255859,1.784782771,0.219924995
1.095901221,-2.092541504,-0.074734497,1.120880127,4.029296875,-2.012782681,0.655237297,0.330416107,-0.821969604,-5.604400635,11.648345947,1.19040559,-0.128280365
1.097901041,-1.652017975,-0.224176025,1.419790649,4.615386963,-1.709503037,0.539286077,-0.330416107,0.074734497,-5.454931641,9.890106201,1.28931809,0.002202484
1.099900861,-1.652017975,-0.523086548,1.419790649,4.175811768,-1.803565774,0.410018703,-0.110138702,0.523086548,-6.501104736,9.743591309,1.685651017,0.177407138
1.101900681,-1.87229538,-0.224176025,0.821969604,4.761901855,-1.696203388,0.202486945,0.330416107,0.074734497,-7.696691895,10.769226074,0.892798279,-0.085713923
1.1039005,-1.43174057,0.074734497,0.821969604,5.494506836,-1.69288704,0.119131604,0.550662231,0.224176025,-6.501104736,11.501831055,1.585846178,0.484013937
1.10590032,-1.43174057,-0.373617554,0.074734497,6.666656494,-2.086722081,0.023771106,-0.110138702,0.523086548,-7.846160889,12.087921143,0.79362678,-0.041020295
1.10790014,-1.652017975,0.224176025,0.074734497,6.373626709,-2.489182556,0.183600857,-0.110138702,1.270321655,-7.846160889,11.94140625,1.18998287,0.13294518
1.10989996,-1.43174057,-0.821969604,0.373617554,5.201477051,-2.790750939,0.304140698,0.110138702,0.074734497,-7.098898315,11.501831055,0.792943969,0.221570965
1.111899779,-1.43174057,-0.373617554,0.821969604,6.959716797,-2.891017125,0.34527812,0.330416107,1.419790649,-8.74286499,11.355316162,0.89202341,0.266257856
1.113899599,-1.87229538,-1.120880127,1.718673706,4.029296875,-2.290031963,0.193369093,0.550662231,-0.971438599,-7.397808838,10.036621094,0.495536463,0.177578666
1.115899419,-1.652017975,-0.224176025,3.213198853,5.934051514,-2.686672871,0.184298883,-0.330416107,0.523086548,-9.490100098,10.622711182,0.792790924,0.311200006
1.117899239,-1.43174057,-1.270321655,2.615377808,6.373626709,-2.987981712,0.304733495,0.770939636,0.523086548,-9.191217041,10.769226074,0.396820608,-0.043649834
1.119899058,-1.211463165,-1.120880127,2.764846802,5.201477051,-3.191124924,0.470561361,0.110138702,0.971438599,-9.191217041,11.648345947,0.49553833,0.178552077
1.121898878,-1.43174057,-0.074734497,4.408786011,6.813201904,-3.491994795,0.591708014,0.110138702,0.224176025,-8.74286499,9.890106201,0.298045521,-0.266544308
1.123898698,-2.092541504,-0.523086548,5.156048584,7.252746582,-3.288440604,0.428237897,0.110138702,0.523086548,-10.237362671,11.20880127,0.297222694,0.09017644
1.125898518,-1.43174057,-1.8681427,5.156048584,3.73626709,-3.187196023,0.39229906,0.770939636,-0.672528076,-10.237362671,10.183135986,0.694085665,0.268493008
1.127898337,-1.652017975,-0.074734497,5.305490112,6.080596924,-3.686304236,0.508958477,0.770939636,-0.224176025,-9.938452148,12.380950928,-0.396364084,-0.224480426
1.129898157,-1.43174057,0.074734497,6.202194214,5.641021729,-3.986492523,0.631785539,0.770939636,-0.971438599,-10.984625244,10.769226074,0.09883445,0.269367082
1.131897977,-1.652017975,-0.672528076,6.351635742,5.934051514,-2.786970488,0.322026758,0.330416107,-0.523086548,-12.927474976,11.648345947,-1.189679888,-0.405768856
1.133897797,-1.211463165,-0.523086548,5.305490112,6.813201904,-3.183358446,0.316174767,0.991217041,0.074734497,-12.180212402,10.183135986,0.198426656,-0.044856325
1.135897616,-1.652017975,-0.523086548,7.397808838,8.717956543,-3.084666494,0.362517217,0.991217041,-0.971438599,-13.226385498,10.476196289,-0.991020875,-0.677833339
1.137897436,-1.652017975,-0.523086548,7.248339844,5.201477051,-2.880347969,0.115980071,0.330416107,-1.120880127,-13.226385498,11.501831055,-0.099085706,-0.09050371
1.139897256,-1.652017975,-0.523086548,7.547250366,6.959716797,-2.778324069,-0.00615183,0.991217041,-0.672528076,-13.076916504,12.234436035,-1.586650447,-0.227573663
1.141897076,-1.43174057,0.373617554,6.052752686,7.692321777,-3.371722065,-0.098116004,0.330416107,-0.523086548,-12.180212402,12.380950928,-0.793469993,0.044872947
1.143896895,-1.211463165,-0.224176025,7.547250366,7.252746582,-3.26673533,-0.389353448,0.110138702,-1.419790649,-12.180212402,12.673980713,-1.585759505,-0.412886865
1.145896715,-1.43174057,-0.523086548,7.547250366,6.227111816,-3.36732821,-0.342270341,0.991217041,-0.821969604,-12.180212402,10.915740967,-0.991789577,-0.136612083
1.147896535,-1.43174057,-0.971438599,7.547250366,7.252746582,-3.5686525,-0.176143771,0.770939636,-1.270321655,-13.674737549,10.476196289,-2.677185748,-0.641007317
1.149896355,-1.652017975,-0.523086548,8.145043945,7.252746582,-3.37170533,-0.087161498,0.991217041,-1.718673706,-13.824179077,10.622711182,-1.388544798,0.044591867
1.151896174,-1.652017975,0.373617554,8.145043945,6.813201904,-2.879050489,0.129770013,0.550662231,-1.419790649,-13.226385498,10.769226074,-3.074281401,-0.277116723
1.153895994,-1.211463165,-0.523086548,7.248339844,8.131866455,-3.868255341,-0.047909741,0.770939636,-0.971438599,-12.628564453,11.94140625,-2.57842084,-0.231284159
1.155895814,-1.652017975,-0.523086548,7.547250366,7.985351562,-3.172143795,-0.16285761,0.770939636,-0.523086548,-13.674737549,12.087921143,-2.479652947,0.181706037
1.157895634,-1.652017975,0.074734497,7.995602417,7.985351562,-3.174495287,0.00570251,0.770939636,-1.270321655,-14.272531128,10.915740967,-4.264524507,-0.187289086
1.159895453,-1.87229538,-0.224176025,7.846160889,6.959716797,-2.681257535,0.220429702,0.991217041,-0.672528076,-13.973620605,10.329681396,-3.273016436,0.089203484
1.161895273,-1.652017975,-1.270321655,8.443954468,7.985351562,-3.175440931,0.092053681,1.211463165,-0.821969604,-13.973620605,12.380950928,-3.76897332,0.134638396
1.163895093,-1.87229538,-0.523086548,9.340658569,9.597076416,-2.977194905,0.09186297,0.991217041,-1.270321655,-15.61758728,10.476196289,-4.46288428,-0.101012588
1.165894913,-1.43174057,-0.672528076,9.340658569,7.985351562,-2.777544487,0.01801861,1.43174057,-1.270321655,-15.61758728,10.476196289,-3.669852633,0.275227153
1.167894732,-1.652017975,-0.821969604,10.087921143,8.42489624,-3.074663111,-0.026344209,0.550662231,-1.718673706,-13.674737549,10.036621094,-3.670278309,0.458979255
1.169894552,-1.87229538,-0.373617554,8.892306519,7.545776367,-3.076291497,0.140179143,0.991217041,-1.569232178,-15.916470337,11.355316162,-4.462848934,-0.189603526
1.171894372,-1.43174057,-1.718673706,11.134066772,9.010986328,-1.987111121,0.355705392,0.550662231,-1.270321655,-13.226385498,10.915740967,-4.066480575,0.08887209
1.173894192,-1.652017975,-0.821969604,9.78901062,7.106231689,-2.479559411,-0.017949162,1.211463165,-0.821969604,-13.824179077,9.597076416,-4.265063868,0.274404663
1.175894011,-1.87229538,-0.523086548,10.087921143,7.692321777,-2.679256729,0.146529351,0.330416107,-1.419790649,-13.824179077,11.355316162,-4.165699564,0.135780874
1.177893831,-2.092541504,-1.270321655,10.087921143,6.813201904,-1.983289234,-0.05340917,0.991217041,-0.821969604,-15.318676758,10.915740967,-4.661456674,-0.003533353
1.179893651,-1.87229538,-0.672528076,11.432977295,8.57144165,-2.281764659,0.068440657,0.770939636,-0.821969604,-13.973620605,11.355316162,-4.463022202,-0.095947589
1.181893471,-1.87229538,-1.120880127,10.386804199,7.399261475,-2.0822407,-0.093229923,0.550662231,-0.672528076,-15.468118286,10.622711182,-4.264520314,-0.281547771
1.18389329,-1.87229538,-0.971438599,9.78901062,8.864471436,-1.288296137,-0.169815209,0.550662231,-1.419790649,-16.514291382,9.450561523,-4.264546015,-0.189413251
1.18589311,-1.87229538,-1.120880127,9.639569092,8.864471436,-2.281834897,0.066644582,0.770939636,-0.224176025,-16.514291382,9.890106201,-4.264656264,-0.187453275
1.18789293,-1.652017975,-0.672528076,9.639569092,8.131866455,-1.983408971,-0.047830947,0.991217041,-0.224176025,-15.318676758,10.769226074,-3.967079173,-0.23436849
1.18989275,-1.87229538,-1.8681427,9.78901062,8.864471436,-1.78586234,0.114434689,0.550662231,-0.821969604,-14.57144165,9.597076416,-4.066267733,-0.280611729
1.191892569,-1.652017975,-1.419790649,10.536273193,7.692321777,-1.984225797,0.113659707,0.550662231,-0.523086548,-14.870324707,9.450561523,-3.967079392,-0.234394505
1.193892389,-1.652017975,-0.821969604,9.490100098,8.278381348,-1.588228708,0.276953346,0.991217041,-0.821969604,-15.767028809,10.915740967,-4.661367228,-0.188045638
1.195892209,-1.43174057,-1.569232178,9.490100098,8.42489624,-1.0898926,-0.245779813,0.770939636,-0.074734497,-16.364822388,10.622711182,-4.958922457,-0.141568863
1.197892029,-1.652017975,-2.316494751,10.685714722,8.864471436,-1.488387903,0.156103246,0.991217041,-0.224176025,-17.859347534,11.20880127,-5.454765421,-0.188806839
1.199891848,-1.43174057,-1.120880127,10.087921143,7.985351562,-0.694603985,0.078151124,0.770939636,-0.523086548,-15.767028809,9.890106201,-5.454811012,-0.096176928
1.201891668,-1.43174057,-0.523086548,11.881329346,7.83883667,-0.695242168,0.157040291,0.550662231,-0.672528076,-16.514291382,9.157501221,-6.149073057,-0.141906697
1.203891488,-1.87229538,-1.419790649,11.881329346,7.399261475,-0.396828722,0.039321607,-0.110138702,-0.373617554,-16.514291382,10.476196289,-6.347219938,-0.238558239
1.205891308,-1.652017975,-1.569232178,10.536273193,8.131866455,-1.488213234,0.156089792,0.110138702,-0.523086548,-15.916470337,9.304016113,-6.050034078,0.088384458
1.207891127,-1.87229538,-1.718673706,10.83515625,8.278381348,-0.695034108,0.237378189,0.110138702,-0.523086548,-15.019793701,9.010986328,-6.149398274,0.227058579
1.209890947,-1.43174057,-0.373617554,11.134066772,8.57144165,-0.397078031,0.118438722,0.770939636,0.074734497,-16.66373291,11.20880127,-4.959386691,0.320298412
1.211890767,-1.87229538,-1.270321655,11.283508301,8.131866455,-1.289583271,0.076611581,0.330416107,-1.270321655,-16.514291382,8.42489624,-5.455329524,0.365990474
1.213890586,-1.87229538,-1.718673706,9.78901062,8.131866455,-0.099777237,0.237520596,0.110138702,-0.971438599,-18.008789062,10.329681396,-6.248296467,-0.006565967
1.215890406,-1.652017975,-1.120880127,10.536273193,8.131866455,-0.694881221,0.235945946,0.110138702,-0.971438599,-18.008789062,9.304016113,-6.149450464,0.225166249
1.217890226,-1.652017975,-2.316494751,7.696691895,7.985351562,-0.297913341,0.157373371,0.330416107,0.074734497,-16.514291382,10.476196289,-5.752862696,0.317923368
1.219890046,-1.652017975,-0.821969604,8.145043945,8.57144165,-0.000433245,0.19701226,0.110138702,-0.373617554,-18.307699585,9.304016113,-5.753045477,0.503102402
1.221889865,-1.43174057,-0.821969604,9.340658569,8.57144165,-0.19947835,0.274447496,0.770939636,-0.672528076,-18.158230591,9.450561523,-6.149102066,0.139108467
1.223889685,-1.652017975,-2.017584229,9.340658569,8.717956543,0.099091594,0.157004182,-0.330416107,0.074734497,-18.158230591,8.42489624,-6.050274102,0.176296285
1.225889505,-1.652017975,-0.821969604,8.892306519,8.864471436,-0.595163808,0.038497953,0.330416107,0.523086548,-18.606582642,9.157501221,-5.75261515,0.225807605
1.227889325,-1.211463165,-1.718673706,7.846160889,8.864471436,0.099062352,0.078275423,-0.110138702,0.373617554,-18.008789062,10.036621094,-6.743900873,-0.326677951
1.229889144,-0.991217041,-0.821969604,8.74286499,8.717956543,0.098586821,0.390210914,0.330416107,-0.373617554,-19.353845215,8.42489624,-5.454612938,-0.279416316
1.231888964,-0.991217041,-0.224176025,7.547250366,9.010986328,-0.099285377,0.077798144,0.110138702,0.074734497,-18.158230591,9.157501221,-5.25649321,-0.003122316
