sainanliu129-hub/model/applications/Body_GravityPara_Iden/data/跑步/PD-M1-v0_multi_joint_20260227-071606_sim_torque.csv
time,leg_l1_joint,leg_l2_joint,leg_l3_joint,leg_l4_joint,leg_l5_joint,leg_l6_joint,leg_r1_joint,leg_r2_joint,leg_r3_joint,leg_r4_joint,leg_r5_joint,leg_r6_joint
0,-0.020223625,0.21862665,1.139812283,2.167550213,-0.670849765,-0.000709786,-0.020223625,0.21862665,1.139812283,2.167550213,-0.670849765,-0.000709786
0.00199982,-0.021353713,0.224909734,1.148520045,2.119749489,-0.593512979,-0.000869058,-0.021353713,0.224909734,1.148520045,2.119749489,-0.593512979,-0.000869058
0.003999639,-0.020812012,0.229948314,1.138417786,2.09276014,-0.541279897,-0.000672036,-0.020812012,0.229948314,1.138417786,2.09276014,-0.541279897,-0.000672036
0.005999459,0.011482085,0.235316455,1.119446687,2.076952622,-0.506636285,-0.000499908,0.011482085,0.235316455,1.119446687,2.076952622,-0.506636285,-0.000499908
0.007999279,0.00906139,0.239265056,1.096917482,2.067270642,-0.485091875,-0.000188338,0.00906139,0.239265056,1.096917482,2.067270642,-0.485091875,-0.000188338
0.009999099,0.006984105,0.243710089,1.072022234,2.061839348,-0.473506839,-0.00020059,0.006984105,0.243710089,1.072022234,2.061839348,-0.473506839,-0.00020059
0.011998918,0.005135314,0.247571745,1.046059767,2.058685568,-0.469356073,-0.00018386,0.005135314,0.247571745,1.046059767,2.058685568,-0.469356073,-0.00018386
0.013998738,0.003675837,0.251293858,1.020164767,2.056546934,-0.470679189,-0.000110362,0.003675837,0.251293858,1.020164767,2.056546934,-0.470679189,-0.000110362
0.015998558,0.0022994,0.254299908,0.995324564,2.054515095,-0.476080669,-1.4592e-05,0.0022994,0.254299908,0.995324564,2.054515095,-0.476080669,-1.4592e-05
0.017998378,0.001185935,0.256910949,0.971562171,2.052204828,-0.484191948,6.7156e-05,0.001185935,0.256910949,0.971562171,2.052204828,-0.484191948,6.7156e-05
0.019998197,8.8971e-05,0.259422265,0.949010558,2.049328389,-0.494276981,0.000133638,8.8971e-05,0.259422265,0.949010558,2.049328389,-0.494276981,0.000133638
0.021998017,-0.000771506,0.261273777,0.927661183,2.04587325,-0.505670585,0.000190964,-0.000771506,0.261273777,0.927661183,2.04587325,-0.505670585,0.000190964
0.023997837,-0.001512116,0.26304357,0.907157099,2.041846981,-0.517866519,0.000235954,-0.001512116,0.26304357,0.907157099,2.041846981,-0.517866519,0.000235954
0.025997657,-0.002132741,0.264166967,0.887996427,2.037218716,-0.530360454,0.000275806,-0.002132741,0.264166967,0.887996427,2.037218716,-0.530360454,0.000275806
0.027997476,-0.002517037,0.265224102,0.869133047,2.032202437,-0.542999272,0.000303989,-0.002517037,0.265224102,0.869133047,2.032202437,-0.542999272,0.000303989
0.029997296,-0.002788529,0.265936967,0.85111016,2.026823641,-0.555430598,0.000328189,-0.002788529,0.265936967,0.85111016,2.026823641,-0.555430598,0.000328189
0.031997116,-0.002944225,0.266309281,0.833785473,2.021150251,-0.567623046,0.000345029,-0.002944225,0.266309281,0.833785473,2.021150251,-0.567623046,0.000345029
0.033996936,-0.00287644,0.266349757,0.816766907,2.015346948,-0.579442083,0.000354091,-0.00287644,0.266349757,0.816766907,2.015346948,-0.579442083,0.000354091
0.035996755,-0.002601579,0.265779265,0.80058114,2.009405776,-0.591188854,0.000356296,-0.002601579,0.265779265,0.80058114,2.009405776,-0.591188854,0.000356296
0.037996575,-0.002345142,0.264890553,0.785709497,2.003398082,-0.602796648,0.000347291,-0.002345142,0.264890553,0.785709497,2.003398082,-0.602796648,0.000347291
0.039996395,-0.001878771,0.263408476,0.771456396,1.997355978,-0.614118823,0.000328983,-0.001878771,0.263408476,0.771456396,1.997355978,-0.614118823,0.000328983
0.041996215,-0.001430107,0.261630613,0.75805551,1.99146173,-0.624835779,0.000299898,-0.001430107,0.261630613,0.75805551,1.99146173,-0.624835779,0.000299898
0.043996034,-0.00088286,0.259564892,0.745425554,1.985730525,-0.634728851,0.000262431,-0.00088286,0.259564892,0.745425554,1.985730525,-0.634728851,0.000262431
0.045995854,-0.000347537,0.256931804,0.733198635,1.980257734,-0.643839165,0.000218849,-0.000347537,0.256931804,0.733198635,1.980257734,-0.643839165,0.000218849
0.047995674,0.00028842,0.254036346,0.721065247,1.975157253,-0.652108369,0.000165373,0.00028842,0.254036346,0.721065247,1.975157253,-0.652108369,0.000165373
0.049995494,0.000906269,0.250884316,0.709621751,1.970433844,-0.659494732,0.000107115,0.000906269,0.250884316,0.709621751,1.970433844,-0.659494732,0.000107115
0.051995313,0.001510799,0.247479425,0.697963096,1.966157398,-0.665898203,4.4649e-05,0.001510799,0.247479425,0.697963096,1.966157398,-0.665898203,4.4649e-05
0.053995133,0.002099835,0.244119807,0.68672014,1.962314738,-0.671441865,-2.1688e-05,0.002099835,0.244119807,0.68672014,1.962314738,-0.671441865,-2.1688e-05
0.055994953,0.002672737,0.240517771,0.675601013,1.958941467,-0.676037774,0.000255112,0.002672737,0.240517771,0.675601013,1.958941467,-0.676037774,0.000255112
0.057994773,0.003122425,0.236713403,0.664348627,1.956046684,-0.679734391,-0.000342206,0.003122425,0.236713403,0.664348627,1.956046684,-0.679734391,-0.000342206
0.059994592,0.00356573,0.232923569,0.653305407,1.953748371,-0.682584039,-0.000315223,0.00356573,0.232923569,0.653305407,1.953748371,-0.682584039,-0.000315223
0.061994412,0.003996802,0.229205019,0.642239032,1.951900122,-0.684632735,-0.000345094,0.003996802,0.229205019,0.642239032,1.951900122,-0.684632735,-0.000345094
0.063994232,0.004305428,0.225552248,0.63120487,1.95055701,-0.685930661,-0.000399993,0.004305428,0.225552248,0.63120487,1.95055701,-0.685930661,-0.000399993
0.065994052,0.004499327,0.221682243,0.62026132,1.949692857,-0.686526839,-0.000467483,0.004499327,0.221682243,0.62026132,1.949692857,-0.686526839,-0.000467483
0.067993871,0.004588652,0.218172274,0.609173569,1.949360704,-0.686475121,-0.00054569,0.004588652,0.218172274,0.609173569,1.949360704,-0.686475121,-0.00054569
0.069993691,0.004683057,0.213597477,0.59918077,1.949437401,-0.686421101,-0.000624047,0.004683057,0.213597477,0.59918077,1.949437401,-0.686421101,-0.000624047
0.071993511,0.004895358,0.208832355,0.590261489,1.9499867,-0.686262457,-0.000719137,0.004895358,0.208832355,0.590261489,1.9499867,-0.686262457,-0.000719137
0.073993331,0.005107648,0.203310358,0.581871531,1.950847892,-0.686114787,-0.0008212,0.005107648,0.203310358,0.581871531,1.950847892,-0.686114787,-0.0008212
0.07599315,0.005216456,0.197344123,0.574343932,1.952041491,-0.686065885,-0.000937068,0.005216456,0.197344123,0.574343932,1.952041491,-0.686065885,-0.000937068
0.07799297,0.005450886,0.191235279,0.567409269,1.953537569,-0.68617675,-0.00106411,0.005450886,0.191235279,0.567409269,1.953537569,-0.68617675,-0.00106411
0.07999279,0.005476381,0.184700759,0.561121014,1.955211386,-0.686391366,-0.001195272,0.005476381,0.184700759,0.561121014,1.955211386,-0.686391366,-0.001195272
0.08199261,0.005640899,0.178331659,0.555191401,1.957056979,-0.686674879,-0.001335573,0.005640899,0.178331659,0.555191401,1.957056979,-0.686674879,-0.001335573
0.083992429,0.005607195,0.17183601,0.549946236,1.959032652,-0.687193118,-0.001474416,0.005607195,0.17183601,0.549946236,1.959032652,-0.687193118,-0.001474416
0.085992249,0.00550646,0.16522938,0.545095343,1.961122616,-0.687773934,-0.001616155,0.00550646,0.16522938,0.545095343,1.961122616,-0.687773934,-0.001616155
0.087992069,0.005455763,0.158804385,0.540651532,1.963249809,-0.688582483,-0.001759887,0.005455763,0.158804385,0.540651532,1.963249809,-0.688582483,-0.001759887
0.089991889,0.005129758,0.1525577,0.536345592,1.965389286,-0.689439966,-0.001900157,0.005129758,0.1525577,0.536345592,1.965389286,-0.689439966,-0.001900157
0.091991708,0.004880409,0.146502646,0.531904674,1.967529148,-0.690617707,-0.002038075,0.004880409,0.146502646,0.531904674,1.967529148,-0.690617707,-0.002038075
0.093991528,0.004482774,0.140919954,0.527963703,1.969604998,-0.691796731,-0.002170842,0.004482774,0.140919954,0.527963703,1.969604998,-0.691796731,-0.002170842
0.095991348,0.003955918,0.135799974,0.523899372,1.971595339,-0.693166333,-0.002295386,0.003955918,0.135799974,0.523899372,1.971595339,-0.693166333,-0.002295386
0.097991168,0.003312136,0.131145624,0.519751187,1.973467119,-0.694745684,-0.002410563,0.003312136,0.131145624,0.519751187,1.973467119,-0.694745684,-0.002410563
0.099990987,0.00256316,0.126953038,0.515535794,1.975265926,-0.696450976,-0.002515717,0.00256316,0.126953038,0.515535794,1.975265926,-0.696450976,-0.002515717
0.101990807,0.001080432,0.123499966,0.511270799,1.976847975,-0.698117673,-0.002610477,0.001080432,0.123499966,0.511270799,1.976847975,-0.698117673,-0.002610477
0.103990627,-0.001474467,0.119949684,0.507481311,1.978193258,-0.69983172,-0.002693832,-0.001474467,0.119949684,0.507481311,1.978193258,-0.69983172,-0.002693832
0.105990447,-0.005063941,0.116635258,0.503486475,1.979513121,-0.701572131,-0.002777315,-0.005063941,0.116635258,0.503486475,1.979513121,-0.701572131,-0.002777315
0.107990266,-0.009230154,0.113886622,0.499878074,1.980730647,-0.703089,-0.002856264,-0.009230154,0.113886622,0.499878074,1.980730647,-0.703089,-0.002856264
0.109990086,-0.013882661,0.111141162,0.496576843,1.981979363,-0.704418176,-0.002921955,-0.013882661,0.111141162,0.496576843,1.981979363,-0.704418176,-0.002921955
0.111989906,-0.018941117,0.108995117,0.493263522,1.983292953,-0.705591927,-0.002982753,-0.018941117,0.108995117,0.493263522,1.983292953,-0.705591927,-0.002982753
0.113989726,-0.02402076,0.107176853,0.489957039,1.984598953,-0.706617389,-0.003032733,-0.02402076,0.107176853,0.489957039,1.984598953,-0.706617389,-0.003032733
0.115989545,-0.029205675,0.105684332,0.486655413,1.985970833,-0.707410618,-0.003073057,-0.029205675,0.105684332,0.486655413,1.985970833,-0.707410618,-0.003073057
0.117989365,-0.034251591,0.104804729,0.483647084,1.98747721,-0.708016044,-0.003105954,-0.034251591,0.104804729,0.483647084,1.98747721,-0.708016044,-0.003105954
0.119989185,-0.039157933,0.103952076,0.480935297,1.989056914,-0.708362376,-0.00312639,-0.039157933,0.103952076,0.480935297,1.989056914,-0.708362376,-0.00312639
0.121989005,-0.043706824,0.103695547,0.47821546,1.990799383,-0.708611663,-0.003142642,-0.043706824,0.103695547,0.47821546,1.990799383,-0.708611663,-0.003142642
0.123988824,-0.047822082,0.10373027,0.475550971,1.992593451,-0.708563197,-0.003147322,-0.047822082,0.10373027,0.475550971,1.992593451,-0.708563197,-0.003147322
0.125988644,-0.051540783,0.10403412,0.473513093,1.994575878,-0.708392961,-0.003143604,-0.051540783,0.10403412,0.473513093,1.994575878,-0.708392961,-0.003143604
0.127988464,-0.054790166,0.104870542,0.47123728,1.996691721,-0.70792852,-0.003133386,-0.054790166,0.104870542,0.47123728,1.996691721,-0.70792852,-0.003133386
0.129988284,-0.057513735,0.105931243,0.469645498,1.998903774,-0.70733569,-0.003112771,-0.057513735,0.105931243,0.469645498,1.998903774,-0.70733569,-0.003112771
0.131988103,-0.059656762,0.107186213,0.46812865,2.001302353,-0.706662019,-0.003085192,-0.059656762,0.107186213,0.46812865,2.001302353,-0.706662019,-0.003085192
0.133987923,-0.061178344,0.108613282,0.467037134,2.003777855,-0.705718847,-0.003052026,-0.061178344,0.108613282,0.467037134,2.003777855,-0.705718847,-0.003052026
0.135987743,-0.063106158,0.110748419,0.46606425,2.006418899,-0.704995802,-0.003013952,-0.063106158,0.110748419,0.46606425,2.006418899,-0.704995802,-0.003013952
0.137987563,-0.065717821,0.113035439,0.465842428,2.008973121,-0.704428966,-0.002968711,-0.065717821,0.113035439,0.465842428,2.008973121,-0.704428966,-0.002968711
0.139987382,-0.068812921,0.115778362,0.465706506,2.011689277,-0.704004228,-0.002921393,-0.068812921,0.115778362,0.465706506,2.011689277,-0.704004228,-0.002921393
0.141987202,-0.072006576,0.118986643,0.46598991,2.01432845,-0.703674944,-0.002865072,-0.072006576,0.118986643,0.46598991,2.01432845,-0.703674944,-0.002865072
0.143987022,-0.075487157,0.122362177,0.466649962,2.017045755,-0.703227457,-0.002796169,-0.075487157,0.122362177,0.466649962,2.017045755,-0.703227457,-0.002796169
0.145986842,-0.078888381,0.125914212,0.467658884,2.019798606,-0.702797648,-0.002721602,-0.078888381,0.125914212,0.467658884,2.019798606,-0.702797648,-0.002721602
0.147986661,-0.082099907,0.129920663,0.468724874,2.022652382,-0.702384135,-0.002641157,-0.082099907,0.129920663,0.468724874,2.022652382,-0.702384135,-0.002641157
0.149986481,-0.085137992,0.133797267,0.469890922,2.02544227,-0.701874787,-0.002551463,-0.085137992,0.133797267,0.469890922,2.02544227,-0.701874787,-0.002551463
0.151986301,-0.087797662,0.137823994,0.471417711,2.028318302,-0.701205693,-0.002461443,-0.087797662,0.137823994,0.471417711,2.028318302,-0.701205693,-0.002461443
0.153986121,-0.090113847,0.141977452,0.473295171,2.031164553,-0.70052361,-0.002368092,-0.090113847,0.141977452,0.473295171,2.031164553,-0.70052361,-0.002368092
0.15598594,-0.092012592,0.145958707,0.475222244,2.034121718,-0.699745312,-0.002271941,-0.092012592,0.145958707,0.475222244,2.034121718,-0.699745312,-0.002271941
0.15798576,-0.093431342,0.149756836,0.477233836,2.037100845,-0.698892388,-0.002177632,-0.093431342,0.149756836,0.477233836,2.037100845,-0.698892388,-0.002177632
0.15998558,-0.094208508,0.153638107,0.479340821,2.040031778,-0.697998928,-0.002086247,-0.094208508,0.153638107,0.479340821,2.040031778,-0.697998928,-0.002086247
0.1619854,-0.094418638,0.157002691,0.481835163,2.042976558,-0.696878405,-0.00199363,-0.094418638,0.157002691,0.481835163,2.042976558,-0.696878405,-0.00199363
0.163985219,-0.094017517,0.160119285,0.484109714,2.045973004,-0.695712821,-0.001908956,-0.094017517,0.160119285,0.484109714,2.045973004,-0.695712821,-0.001908956
0.165985039,-0.09286892,0.162972741,0.486801041,2.048973308,-0.694521466,-0.001830265,-0.09286892,0.162972741,0.486801041,2.048973308,-0.694521466,-0.001830265
0.167984859,-0.091277205,0.165245383,0.489604356,2.051864716,-0.693327718,-0.001756601,-0.091277205,0.165245383,0.489604356,2.051864716,-0.693327718,-0.001756601
0.169984679,-0.089724383,0.166645323,0.492509866,2.054657513,-0.692354621,-0.001694126,-0.089724383,0.166645323,0.492509866,2.054657513,-0.692354621,-0.001694126
0.171984498,-0.088101054,0.16777806,0.495794142,2.057287805,-0.691566149,-0.001651483,-0.088101054,0.16777806,0.495794142,2.057287805,-0.691566149,-0.001651483
0.173984318,-0.086415388,0.168347808,0.499130068,2.059779247,-0.690929956,-0.001617979,-0.086415388,0.168347808,0.499130068,2.059779247,-0.690929956,-0.001617979
0.175984138,-0.084782001,0.168364092,0.502792766,2.062261537,-0.690422356,-0.001595009,-0.084782001,0.168364092,0.502792766,2.062261537,-0.690422356,-0.001595009
0.177983957,-0.083089262,0.167839095,0.506474209,2.064617569,-0.690019882,-0.001584022,-0.083089262,0.167839095,0.506474209,2.064617569,-0.690019882,-0.001584022
0.179983777,-0.081344795,0.167351045,0.510449692,2.067038323,-0.689697045,-0.001584442,-0.081344795,0.167351045,0.510449692,2.067038323,-0.689697045,-0.001584442
0.181983597,-0.079455273,0.166324405,0.514436519,2.069387964,-0.68933997,-0.001587937,-0.079455273,0.166324405,0.514436519,2.069387964,-0.68933997,-0.001587937
0.183983417,-0.07765406,0.16504816,0.518706256,2.071743168,-0.68895876,-0.001600738,-0.07765406,0.16504816,0.518706256,2.071743168,-0.68895876,-0.001600738
0.185983236,-0.075615154,0.163530356,0.523232746,2.074244893,-0.688671156,-0.001621301,-0.075615154,0.163530356,0.523232746,2.074244893,-0.688671156,-0.001621301
0.187983056,-0.073693248,0.161763894,0.527759214,2.07673251,-0.688246211,-0.001646569,-0.073693248,0.161763894,0.527759214,2.07673251,-0.688246211,-0.001646569
0.189982876,-0.071560835,0.160044108,0.532275208,2.079283675,-0.687820503,-0.001678425,-0.071560835,0.160044108,0.532275208,2.079283675,-0.687820503,-0.001678425
0.191982696,-0.069359168,0.158072914,0.537377616,2.081934682,-0.687395281,-0.001710365,-0.069359168,0.158072914,0.537377616,2.081934682,-0.687395281,-0.001710365
0.193982515,-0.067208962,0.156416626,0.542459471,2.08477065,-0.686876106,-0.001746668,-0.067208962,0.156416626,0.542459471,2.08477065,-0.686876106,-0.001746668
0.195982335,-0.064799067,0.154503491,0.547572137,2.087621806,-0.686381614,-0.001780364,-0.064799067,0.154503491,0.547572137,2.087621806,-0.686381614,-0.001780364
0.197982155,-0.062488852,0.152892189,0.553291965,2.090601721,-0.68571118,-0.001815841,-0.062488852,0.152892189,0.553291965,2.090601721,-0.68571118,-0.001815841
0.199981975,-0.060063804,0.151004987,0.559004528,2.093808858,-0.685112142,-0.001848396,-0.060063804,0.151004987,0.559004528,2.093808858,-0.685112142,-0.001848396
0.201981794,-0.057336752,0.149130913,0.565348896,2.096922987,-0.684365791,-0.001984588,-0.057336752,0.149130913,0.565348896,2.096922987,-0.684365791,-0.001984588
0.203981614,-0.054455242,0.146384568,0.571950275,2.099954735,-0.683627113,-0.002061047,-0.054455242,0.146384568,0.571950275,2.099954735,-0.683627113,-0.002061047
0.205981434,-0.05144102,0.142791983,0.578778822,2.102923433,-0.682911864,-0.002223193,-0.05144102,0.142791983,0.578778822,2.102923433,-0.682911864,-0.002223193
0.207981254,-0.048311583,0.138930816,0.586093925,2.105970684,-0.682322096,-0.002531189,-0.048311583,0.138930816,0.586093925,2.105970684,-0.682322096,-0.002531189
0.209981073,-0.045194547,0.134789297,0.593887952,2.108964869,-0.68183234,-0.002695498,-0.045194547,0.134789297,0.593887952,2.108964869,-0.68183234,-0.002695498
0.211980893,-0.042201971,0.1303883,0.601262966,2.112117619,-0.681530361,-0.002996326,-0.042201971,0.1303883,0.601262966,2.112117619,-0.681530361,-0.002996326
0.213980713,-0.039441016,0.126016597,0.609170838,2.115212365,-0.681247419,-0.003152815,-0.039441016,0.126016597,0.609170838,2.115212365,-0.681247419,-0.003152815
0.215980533,-0.036784624,0.121685577,0.616959842,2.118495362,-0.681299213,-0.003340709,-0.036784624,0.121685577,0.616959842,2.118495362,-0.681299213,-0.003340709
0.217980352,-0.03444857,0.117398531,0.624719186,2.121807066,-0.68137755,-0.003537754,-0.03444857,0.117398531,0.624719186,2.121807066,-0.68137755,-0.003537754
0.219980172,-0.032512162,0.113447343,0.63244777,2.125203246,-0.681771164,-0.003634364,-0.032512162,0.113447343,0.63244777,2.125203246,-0.681771164,-0.003634364
0.221979992,-0.030835274,0.110133185,0.640187089,2.128631836,-0.682175557,-0.003882614,-0.030835274,0.110133185,0.640187089,2.128631836,-0.682175557,-0.003882614
0.223979812,-0.029611681,0.107146403,0.647940418,2.132146141,-0.682682804,-0.003983448,-0.029611681,0.107146403,0.647940418,2.132146141,-0.682682804,-0.003983448
0.225979631,-0.028799296,0.105078143,0.655153444,2.135781884,-0.683442166,-0.004219395,-0.028799296,0.105078143,0.655153444,2.135781884,-0.683442166,-0.004219395
0.227979451,-0.028580128,0.103912551,0.662500726,2.139380552,-0.684259408,-0.004322723,-0.028580128,0.103912551,0.662500726,2.139380552,-0.684259408,-0.004322723
0.229979271,-0.028680406,0.103653742,0.669658774,2.14308868,-0.685308433,-0.004161894,-0.028680406,0.103653742,0.669658774,2.14308868,-0.685308433,-0.004161894
0.231979091,-0.029394463,0.104313854,0.676691228,2.146775224,-0.686287508,-0.004388249,-0.029394463,0.104313854,0.676691228,2.146775224,-0.686287508,-0.004388249
0.23397891,-0.030763056,0.106423176,0.6833029,2.150574189,-0.687499958,-0.004496796,-0.030763056,0.106423176,0.6833029,2.150574189,-0.687499958,-0.004496796
0.23597873,-0.033257465,0.108564034,0.690149046,2.154211718,-0.688942634,-0.005762411,-0.033257465,0.108564034,0.690149046,2.154211718,-0.688942634,-0.005762411
0.23797855,-0.036840689,0.110667866,0.69742911,2.157802928,-0.690546503,-0.007922835,-0.036840689,0.110667866,0.69742911,2.157802928,-0.690546503,-0.007922835
0.23997837,-0.041046103,0.112412979,0.705078017,2.161315164,-0.69224164,-0.010211529,-0.041046103,0.112412979,0.705078017,2.161315164,-0.69224164,-0.010211529
0.241978189,-0.045774435,0.114391782,0.713044121,2.164717849,-0.693975375,-0.012373778,-0.045774435,0.114391782,0.713044121,2.164717849,-0.693975375,-0.012373778
0.243978009,-0.050514413,0.116632691,0.721281516,2.168163036,-0.695609204,-0.014490377,-0.050514413,0.116632691,0.721281516,2.168163036,-0.695609204,-0.014490377
0.245977829,-0.055030358,0.11884554,0.729487998,2.171536626,-0.697226923,-0.016195529,-0.055030358,0.11884554,0.729487998,2.171536626,-0.697226923,-0.016195529
0.247977649,-0.059223481,0.121343223,0.737944697,2.174903798,-0.698703713,-0.017747795,-0.059223481,0.121343223,0.737944697,2.174903798,-0.698703713,-0.017747795
0.249977468,-0.06279541,0.124398137,0.746622417,2.178286462,-0.699947358,-0.019064285,-0.06279541,0.124398137,0.746622417,2.178286462,-0.699947358,-0.019064285
0.251977288,-0.065701756,0.127987497,0.755222924,2.181635066,-0.701085911,-0.020010927,-0.065701756,0.127987497,0.755222924,2.181635066,-0.701085911,-0.020010927
0.253977108,-0.067697466,0.131819981,0.764047528,2.185005399,-0.702120999,-0.020744661,-0.067697466,0.131819981,0.764047528,2.185005399,-0.702120999,-0.020744661
0.255976928,-0.068672793,0.13643115,0.773089072,2.188401467,-0.702954542,-0.021247375,-0.068672793,0.13643115,0.773089072,2.188401467,-0.702954542,-0.021247375
0.257976747,-0.06853968,0.141773542,0.782063082,2.191760971,-0.703516013,-0.02161214,-0.06853968,0.141773542,0.782063082,2.191760971,-0.703516013,-0.02161214
0.259976567,-0.067227296,0.14750643,0.791267266,2.195154586,-0.703957003,-0.021686887,-0.067227296,0.14750643,0.791267266,2.195154586,-0.703957003,-0.021686887
0.261976387,-0.064676962,0.153872311,0.80041853,2.198448967,-0.704298112,-0.021619941,-0.064676962,0.153872311,0.80041853,2.198448967,-0.704298112,-0.021619941
0.263976207,-0.060842591,0.161093529,0.809816051,2.201768192,-0.704447089,-0.021378061,-0.060842591,0.161093529,0.809816051,2.201768192,-0.704447089,-0.021378061
0.265976026,-0.055691848,0.169098302,0.819461283,2.20511564,-0.704344608,-0.020949763,-0.055691848,0.169098302,0.819461283,2.20511564,-0.704344608,-0.020949763
0.267975846,-0.049628806,0.178100432,0.828498272,2.20837273,-0.704454299,-0.021551088,-0.049628806,0.178100432,0.828498272,2.20837273,-0.704454299,-0.021551088
0.269975666,-0.043875028,0.189645327,0.835606718,2.211585703,-0.705413627,-0.025619241,-0.043875028,0.189645327,0.835606718,2.211585703,-0.705413627,-0.025619241
0.271975486,-0.038681645,0.202795377,0.841627326,2.214513219,-0.706843058,-0.031092032,-0.038681645,0.202795377,0.841627326,2.214513219,-0.706843058,-0.031092032
0.273975305,-0.033935716,0.217368265,0.846020162,2.217055435,-0.708607639,-0.036684458,-0.033935716,0.217368265,0.846020162,2.217055435,-0.708607639,-0.036684458
0.275975125,-0.029422414,0.233017794,0.849438289,2.219213465,-0.710485748,-0.041693922,-0.029422414,0.233017794,0.849438289,2.219213465,-0.710485748,-0.041693922
0.277974945,-0.025259596,0.249737403,0.852171988,2.220862611,-0.712321945,-0.045919802,-0.025259596,0.249737403,0.852171988,2.220862611,-0.712321945,-0.045919802
0.279974765,-0.021331605,0.266984501,0.853892618,2.22224974,-0.713901523,-0.049298714,-0.021331605,0.266984501,0.853892618,2.22224974,-0.713901523,-0.049298714
0.281974584,-0.017428477,0.28452278,0.855199355,2.223248678,-0.715361644,-0.051639018,-0.017428477,0.28452278,0.855199355,2.223248678,-0.715361644,-0.051639018
0.283974404,-0.013677494,0.302696559,0.855759571,2.223919152,-0.71661531,-0.053197375,-0.013677494,0.302696559,0.855759571,2.223919152,-0.71661531,-0.053197375
0.285974224,-0.009875552,0.320696578,0.856146544,2.224342189,-0.717495228,-0.053814175,-0.009875552,0.320696578,0.856146544,2.224342189,-0.717495228,-0.053814175
0.287974044,-0.006047657,0.338870091,0.856007205,2.224538886,-0.717988942,-0.053868917,-0.006047657,0.338870091,0.856007205,2.224538886,-0.717988942,-0.053868917
0.289973863,-0.002220012,0.356679714,0.856184943,2.224609184,-0.71819341,-0.053045508,-0.002220012,0.356679714,0.856184943,2.224609184,-0.71819341,-0.053045508
0.291973683,0.001804243,0.373913342,0.856028277,2.224566278,-0.718082676,-0.051646646,0.001804243,0.373913342,0.856028277,2.224566278,-0.718082676,-0.051646646
0.293973503,0.005985497,0.390621438,0.855824883,2.224434686,-0.717641987,-0.049631792,0.005985497,0.390621438,0.855824883,2.224434686,-0.717641987,-0.049631792
0.295973323,0.010394594,0.406571503,0.856109276,2.224319656,-0.7167657,-0.047107156,0.010394594,0.406571503,0.856109276,2.224319656,-0.7167657,-0.047107156
0.297973142,0.014992305,0.421523294,0.856806067,2.224235018,-0.715688357,-0.044044226,0.014992305,0.421523294,0.856806067,2.224235018,-0.715688357,-0.044044226
0.299972962,0.019956134,0.435256975,0.857593684,2.224278474,-0.714380274,-0.04065662,0.019956134,0.435256975,0.857593684,2.224278474,-0.714380274,-0.04065662
0.301972782,0.024376046,0.44895309,0.857634767,2.224259502,-0.713122423,-0.039280406,0.024376046,0.44895309,0.857634767,2.224259502,-0.713122423,-0.039280406
0.303972602,0.027649627,0.463596432,0.85615215,2.224123223,-0.712517809,-0.041404995,0.027649627,0.463596432,0.85615215,2.224123223,-0.712517809,-0.041404995
0.305972421,0.030189426,0.479178908,0.85274197,2.223665313,-0.712191384,-0.044339706,0.030189426,0.479178908,0.85274197,2.223665313,-0.712191384,-0.044339706
0.307972241,0.03193418,0.494760225,0.848074496,2.222938406,-0.71218111,-0.047326195,0.03193418,0.494760225,0.848074496,2.222938406,-0.71218111,-0.047326195
0.309972061,0.033167976,0.510623309,0.842186007,2.221976949,-0.712312446,-0.049519044,0.033167976,0.510623309,0.842186007,2.221976949,-0.712312446,-0.049519044
0.311971881,0.034040496,0.526545085,0.835425513,2.220739736,-0.712450881,-0.050953,0.034040496,0.526545085,0.835425513,2.220739736,-0.712450881,-0.050953
0.3139717,0.03479838,0.542301453,0.828095506,2.219227765,-0.712595292,-0.051573921,0.03479838,0.542301453,0.828095506,2.219227765,-0.712595292,-0.051573921
0.31597152,0.035449201,0.557959752,0.820196958,2.21751907,-0.712749538,-0.051190001,0.035449201,0.557959752,0.820196958,2.21751907,-0.712749538,-0.051190001
0.31797134,0.036104193,0.573325713,0.81175556,2.21573261,-0.712810939,-0.050055108,0.036104193,0.573325713,0.81175556,2.21573261,-0.712810939,-0.050055108
0.31997116,0.036969501,0.588181245,0.803093695,2.213851092,-0.712801105,-0.048114772,0.036969501,0.588181245,0.803093695,2.213851092,-0.712801105,-0.048114772
0.321970979,0.038017019,0.60287896,0.794499659,2.211819645,-0.712739411,-0.045378336,0.038017019,0.60287896,0.794499659,2.211819645,-0.712739411,-0.045378336
0.323970799,0.039433157,0.616631074,0.786233026,2.209919628,-0.712448268,-0.041875897,0.039433157,0.616631074,0.786233026,2.209919628,-0.712448268,-0.041875897
0.325970619,0.041280756,0.63008059,0.778000297,2.207978732,-0.712095296,-0.037965618,0.041280756,0.63008059,0.778000297,2.207978732,-0.712095296,-0.037965618
0.327970439,0.043607458,0.642406484,0.770102221,2.206244331,-0.711491731,-0.033311671,0.043607458,0.642406484,0.770102221,2.206244331,-0.711491731,-0.033311671
0.329970258,0.046458672,0.653969617,0.762828063,2.20459366,-0.710917972,-0.028207426,0.046458672,0.653969617,0.762828063,2.20459366,-0.710917972,-0.028207426
0.331970078,0.049873522,0.664528135,0.756445942,2.203221237,-0.710171693,-0.022594866,0.049873522,0.664528135,0.756445942,2.203221237,-0.710171693,-0.022594866
0.333969898,0.053778884,0.674134437,0.750652504,2.202014452,-0.70920483,-0.016876431,0.053778884,0.674134437,0.750652504,2.202014452,-0.70920483,-0.016876431
0.335969718,0.057042644,0.683380622,0.7445835,2.20060547,-0.708797905,-0.014676598,0.057042644,0.683380622,0.7445835,2.20060547,-0.708797905,-0.014676598
0.337969537,0.059296048,0.69200508,0.738001826,2.1988854,-0.708711685,-0.015198389,0.059296048,0.69200508,0.738001826,2.1988854,-0.708711685,-0.015198389
0.339969357,0.060750222,0.700108066,0.730600474,2.196806878,-0.708779555,-0.016164247,0.060750222,0.700108066,0.730600474,2.196806878,-0.708779555,-0.016164247
0.341969177,0.061278331,0.70740925,0.722937397,2.194578362,-0.70907771,-0.0168084,0.061278331,0.70740925,0.722937397,2.194578362,-0.70907771,-0.0168084
0.343968997,0.061099648,0.714272418,0.714705874,2.192209884,-0.709452152,-0.016893375,0.061099648,0.714272418,0.714705874,2.192209884,-0.709452152,-0.016893375
0.345968816,0.060304536,0.720498967,0.706211442,2.189817255,-0.709780391,-0.016018775,0.060304536,0.720498967,0.706211442,2.189817255,-0.709780391,-0.016018775
0.347968636,0.059083393,0.72649695,0.697452752,2.187346513,-0.709973462,-0.014345816,0.059083393,0.72649695,0.697452752,2.187346513,-0.709973462,-0.014345816
0.349968456,0.057284514,0.731794124,0.688709695,2.184938074,-0.710060031,-0.011669215,0.057284514,0.731794124,0.688709695,2.184938074,-0.710060031,-0.011669215
0.351968275,0.055204614,0.737097076,0.679686254,2.182605224,-0.709972849,-0.008348381,0.055204614,0.737097076,0.679686254,2.182605224,-0.709972849,-0.008348381
0.353968095,0.052675131,0.741914703,0.67098866,2.180519538,-0.709751088,-0.004154602,0.052675131,0.741914703,0.67098866,2.180519538,-0.709751088,-0.004154602
0.355967915,0.049978081,0.746648382,0.662326276,2.178620506,-0.709226933,0.00087047,0.049978081,0.746648382,0.662326276,2.178620506,-0.709226933,0.00087047
0.357967735,0.047042307,0.751109779,0.654002488,2.177026619,-0.708687276,0.006382345,0.047042307,0.751109779,0.654002488,2.177026619,-0.708687276,0.006382345
0.359967554,0.043911081,0.75565788,0.646331709,2.175710093,-0.70782598,0.012704131,0.043911081,0.75565788,0.646331709,2.175710093,-0.70782598,0.012704131
0.361967374,0.040518475,0.760099681,0.638999685,2.174756276,-0.706739813,0.01945395,0.040518475,0.760099681,0.638999685,2.174756276,-0.706739813,0.01945395
0.363967194,0.037124559,0.76479227,0.632037844,2.17426776,-0.70538921,0.026841726,0.037124559,0.76479227,0.632037844,2.17426776,-0.70538921,0.026841726
0.365967014,0.033635578,0.769519595,0.626067335,2.174202971,-0.703951087,0.034743675,0.033635578,0.769519595,0.626067335,2.174202971,-0.703951087,0.034743675
0.367966833,0.030719371,0.774062308,0.620787964,2.174744334,-0.70235596,0.041562673,0.030719371,0.774062308,0.620787964,2.174744334,-0.70235596,0.041562673
0.369966653,0.03002672,0.778601445,0.615418745,2.176267532,-0.700757048,0.042768702,0.03002672,0.778601445,0.615418745,2.176267532,-0.700757048,0.042768702
0.371966473,0.031383165,0.78225609,0.610529057,2.178466299,-0.699229491,0.041456537,0.031383165,0.78225609,0.610529057,2.178466299,-0.699229491,0.041456537
0.373966293,0.034090112,0.785030231,0.605969991,2.181147169,-0.697852061,0.039513904,0.034090112,0.785030231,0.605969991,2.181147169,-0.697852061,0.039513904
0.375966112,0.037747908,0.786845943,0.602152048,2.184068404,-0.696386984,0.037734375,0.037747908,0.786845943,0.602152048,2.184068404,-0.696386984,0.037734375
0.377965932,0.042019977,0.787982011,0.599080173,2.187157246,-0.69516952,0.036486093,0.042019977,0.787982011,0.599080173,2.187157246,-0.69516952,0.036486093
0.379965752,0.046608968,0.788193394,0.596781523,2.190374498,-0.693943357,0.035924561,0.046608968,0.788193394,0.596781523,2.190374498,-0.693943357,0.035924561
0.381965572,0.051150479,0.787833249,0.595516505,2.193540308,-0.69272142,0.036190736,0.051150479,0.787833249,0.595516505,2.193540308,-0.69272142,0.036190736
0.383965391,0.055538849,0.786993068,0.595193101,2.196663652,-0.691731269,0.037120436,0.055538849,0.786993068,0.595193101,2.196663652,-0.691731269,0.037120436
0.385965211,0.059359878,0.786041168,0.595466256,2.199711307,-0.69083063,0.038815512,0.059359878,0.786041168,0.595466256,2.199711307,-0.69083063,0.038815512
0.387965031,0.0624599,0.785081589,0.596846318,2.202659674,-0.690005495,0.04129518,0.0624599,0.785081589,0.596846318,2.202659674,-0.690005495,0.04129518
0.389964851,0.064711204,0.784217357,0.598913724,2.20554114,-0.689367592,0.044236991,0.064711204,0.784217357,0.598913724,2.20554114,-0.689367592,0.044236991
0.39196467,0.066000047,0.783534011,0.601597789,2.208272091,-0.688779973,0.047981688,0.066000047,0.783534011,0.601597789,2.208272091,-0.688779973,0.047981688
0.39396449,0.066231748,0.783433945,0.605360354,2.210804055,-0.688450572,0.052251643,0.066231748,0.783433945,0.605360354,2.210804055,-0.688450572,0.052251643
0.39596431,0.065114585,0.784002644,0.609483095,2.213233192,-0.688133419,0.056905518,0.065114585,0.784002644,0.609483095,2.213233192,-0.688133419,0.056905518
0.39796413,0.062816871,0.785331847,0.614170562,2.215558854,-0.687938579,0.062166201,0.062816871,0.785331847,0.614170562,2.215558854,-0.687938579,0.062166201
0.399963949,0.058960906,0.78751697,0.619603116,2.21772053,-0.687950347,0.067913886,0.058960906,0.78751697,0.619603116,2.21772053,-0.687950347,0.067913886
0.401963769,0.054712391,0.790944969,0.625642919,2.22075466,-0.687821715,0.070941781,0.054712391,0.790944969,0.625642919,2.22075466,-0.687821715,0.070941781
0.403963589,0.050761877,0.794216317,0.631819433,2.225697713,-0.687569588,0.069492727,0.050761877,0.794216317,0.631819433,2.225697713,-0.687569588,0.069492727
0.405963409,0.046946288,0.797775505,0.638778066,2.232022232,-0.687044332,0.066033379,0.046946288,0.797775505,0.638778066,2.232022232,-0.687044332,0.066033379
0.407963228,0.043339867,0.800854407,0.646686491,2.239432496,-0.686477111,0.061978493,0.043339867,0.800854407,0.646686491,2.239432496,-0.686477111,0.061978493
0.409963048,0.039599767,0.803972298,0.65567687,2.247651993,-0.685845963,0.057590993,0.039599767,0.803972298,0.65567687,2.247651993,-0.685845963,0.057590993
0.411962868,0.03596398,0.806816116,0.66553124,2.256536491,-0.685236152,0.053320997,0.03596398,0.806816116,0.66553124,2.256536491,-0.685236152,0.053320997
0.413962688,0.032008441,0.809394226,0.676323486,2.265806034,-0.684516483,0.049267046,0.032008441,0.809394226,0.676323486,2.265806034,-0.684516483,0.049267046
0.415962507,0.028004474,0.8123105,0.688032457,2.275394352,-0.684013799,0.045363277,0.028004474,0.8123105,0.688032457,2.275394352,-0.684013799,0.045363277
0.417962327,0.023761341,0.815000452,0.700386977,2.285073505,-0.683444981,0.041787176,0.023761341,0.815000452,0.700386977,2.285073505,-0.683444981,0.041787176
0.419962147,0.019224108,0.818076691,0.713904004,2.294808707,-0.683136663,0.038393697,0.019224108,0.818076691,0.713904004,2.294808707,-0.683136663,0.038393697
0.421961967,0.014450938,0.821272158,0.727649873,2.304508915,-0.682818398,0.035421684,0.014450938,0.821272158,0.727649873,2.304508915,-0.682818398,0.035421684
0.423961786,0.009386417,0.824922147,0.742170335,2.314059945,-0.682783588,0.032556906,0.009386417,0.824922147,0.742170335,2.314059945,-0.682783588,0.032556906
0.425961606,0.003983815,0.829036963,0.757086251,2.323323814,-0.682861352,0.029959051,0.003983815,0.829036963,0.757086251,2.323323814,-0.682861352,0.029959051
0.427961426,-0.001689682,0.833649371,0.772301665,2.332367595,-0.683229873,0.02758873,-0.001689682,0.833649371,0.772301665,2.332367595,-0.683229873,0.02758873
0.429961246,-0.007789635,0.839072438,0.787472097,2.341032723,-0.683705162,0.025319558,-0.007789635,0.839072438,0.787472097,2.341032723,-0.683705162,0.025319558
0.431961065,-0.014132899,0.845040557,0.802800523,2.349257229,-0.684356086,0.023295947,-0.014132899,0.845040557,0.802800523,2.349257229,-0.684356086,0.023295947
0.433960885,-0.020873146,0.851587703,0.817885188,2.357122577,-0.685245464,0.021773141,-0.020873146,0.851587703,0.817885188,2.357122577,-0.685245464,0.021773141
0.435960705,-0.027614223,0.859645901,0.833246685,2.365860708,-0.686393084,0.024286095,-0.027614223,0.859645901,0.833246685,2.365860708,-0.686393084,0.024286095
0.437960525,-0.034337878,0.868739561,0.848780157,2.375657797,-0.687561724,0.029389067,-0.034337878,0.868739561,0.848780157,2.375657797,-0.687561724,0.029389067
0.439960344,-0.040706154,0.879714728,0.864964294,2.386188722,-0.688764373,0.035103256,-0.040706154,0.879714728,0.864964294,2.386188722,-0.688764373,0.035103256
0.441960164,-0.046960238,0.892407614,0.881889599,2.397276585,-0.689822817,0.040614024,-0.046960238,0.892407614,0.881889599,2.397276585,-0.689822817,0.040614024
0.443959984,-0.053000376,0.907015631,0.899020978,2.408936754,-0.690525513,0.04534214,-0.053000376,0.907015631,0.899020978,2.408936754,-0.690525513,0.04534214
0.445959804,-0.05874742,0.923968635,0.916725525,2.420903986,-0.691112477,0.049257157,-0.05874742,0.923968635,0.916725525,2.420903986,-0.691112477,0.049257157
0.447959623,-0.064240069,0.944426571,0.934727466,2.433096626,-0.691376069,0.052283872,-0.064240069,0.944426571,0.934727466,2.433096626,-0.691376069,0.052283872
0.449959443,-0.06941701,0.971419703,0.953042323,2.445567014,-0.691267959,0.054541546,-0.06941701,0.971419703,0.953042323,2.445567014,-0.691267959,0.054541546
0.451959263,-0.074359755,0.925632759,0.971709048,2.458096842,-0.690945351,0.055857224,-0.074359755,0.925632759,0.971709048,2.458096842,-0.690945351,0.055857224
0.453959083,-0.078417113,0.957466147,0.989573325,2.471346714,-0.69057274,0.055382309,-0.078417113,0.957466147,0.989573325,2.471346714,-0.69057274,0.055382309
0.455958902,-0.082135744,0.982635234,1.008307903,2.483919674,-0.68960957,0.055107013,-0.082135744,0.982635234,1.008307903,2.483919674,-0.68960957,0.055107013
0.457958722,-0.085606949,1.005012604,1.027185807,2.4964326,-0.688319537,0.054118635,-0.085606949,1.005012604,1.027185807,2.4964326,-0.688319537,0.054118635
0.459958542,-0.088768184,1.026382221,1.045828489,2.509138335,-0.686881019,0.052469263,-0.088768184,1.026382221,1.045828489,2.509138335,-0.686881019,0.052469263
0.461958362,-0.091524621,1.047061232,1.063758144,2.521770849,-0.685412456,0.050305624,-0.091524621,1.047061232,1.063758144,2.521770849,-0.685412456,0.050305624
0.463958181,-0.094008297,1.0675945,1.081673696,2.534241473,-0.683604762,0.047515635,-0.094008297,1.0675945,1.081673696,2.534241473,-0.683604762,0.047515635
0.465958001,-0.096024116,1.087773609,1.098962068,2.546536967,-0.681661184,0.044166995,-0.096024116,1.087773609,1.098962068,2.546536967,-0.681661184,0.044166995
0.467957821,-0.097731142,1.107614455,1.115647776,2.5590347,-0.679539856,0.041413445,-0.097731142,1.107614455,1.115647776,2.5590347,-0.679539856,0.041413445
0.469957641,-0.09948653,1.128342588,1.132379559,2.572684046,-0.677189159,0.042488927,-0.09948653,1.128342588,1.132379559,2.572684046,-0.677189159,0.042488927
0.47195746,-0.101183488,1.150020786,1.149093435,2.587275529,-0.674736111,0.045213223,-0.101183488,1.150020786,1.149093435,2.587275529,-0.674736111,0.045213223
0.47395728,-0.10293866,1.172772589,1.165981203,2.602632151,-0.67218566,0.048226815,-0.10293866,1.172772589,1.165981203,2.602632151,-0.67218566,0.048226815
0.4759571,-0.10464924,1.196312297,1.18317241,2.618561421,-0.6697607,0.05129627,-0.10464924,1.196312297,1.18317241,2.618561421,-0.6697607,0.05129627
0.47795692,-0.106331247,1.220909854,1.200483714,2.634828992,-0.667524645,0.053800161,-0.106331247,1.220909854,1.200483714,2.634828992,-0.667524645,0.053800161
0.479956739,-0.107896387,1.246205108,1.217998365,2.651351169,-0.665533037,0.055781749,-0.107896387,1.246205108,1.217998365,2.651351169,-0.665533037,0.055781749
0.481956559,-0.109370904,1.271840758,1.235489115,2.667928537,-0.663730358,0.057175283,-0.109370904,1.271840758,1.235489115,2.667928537,-0.663730358,0.057175283
0.483956379,-0.110773592,1.297748149,1.25327222,2.684527338,-0.662277419,0.058070976,-0.110773592,1.297748149,1.25327222,2.684527338,-0.662277419,0.058070976
0.485956199,-0.112224454,1.324149892,1.271070557,2.700993751,-0.661083774,0.058327398,-0.112224454,1.324149892,1.271070557,2.700993751,-0.661083774,0.058327398
0.487956018,-0.113403481,1.350401988,1.288882616,2.717252466,-0.660396435,0.058212162,-0.113403481,1.350401988,1.288882616,2.717252466,-0.660396435,0.058212162
0.489955838,-0.114557218,1.376454739,1.306424759,2.733220973,-0.659880629,0.057450119,-0.114557218,1.376454739,1.306424759,2.733220973,-0.659880629,0.057450119
0.491955658,-0.115582567,1.402527138,1.323674063,2.748917535,-0.659895952,0.056343353,-0.115582567,1.402527138,1.323674063,2.748917535,-0.659895952,0.056343353
0.493955478,-0.11639181,1.428004899,1.340650881,2.764184785,-0.660192556,0.054845348,-0.11639181,1.428004899,1.340650881,2.764184785,-0.660192556,0.054845348
0.495955297,-0.117112388,1.453126452,1.357305826,2.778994256,-0.660892686,0.052841108,-0.117112388,1.453126452,1.357305826,2.778994256,-0.660892686,0.052841108
0.497955117,-0.117646785,1.477555551,1.373036034,2.793304499,-0.661881919,0.050603072,-0.117646785,1.477555551,1.373036034,2.793304499,-0.661881919,0.050603072
0.499954937,-0.11812188,1.501271258,1.388419342,2.806989294,-0.663268677,0.047958063,-0.11812188,1.501271258,1.388419342,2.806989294,-0.663268677,0.047958063
0.501954757,-0.11832436,1.525086927,1.402802759,2.821059547,-0.664932645,0.046862241,-0.11832436,1.525086927,1.402802759,2.821059547,-0.664932645,0.046862241
0.503954576,-0.11851003,1.549693522,1.416972899,2.835958317,-0.666722067,0.048167638,-0.11851003,1.549693522,1.416972899,2.835958317,-0.666722067,0.048167638
0.505954396,-0.118691741,1.575268781,1.430554125,2.851496763,-0.668624407,0.05016088,-0.118691741,1.575268781,1.430554125,2.851496763,-0.668624407,0.05016088
0.507954216,-0.118780834,1.601831053,1.44345829,2.86743791,-0.670313582,0.05213454,-0.118780834,1.601831053,1.44345829,2.86743791,-0.670313582,0.05213454
0.509954036,-0.118914867,1.628479004,1.456093925,2.883618957,-0.671780514,0.053661928,-0.118914867,1.628479004,1.456093925,2.883618957,-0.671780514,0.053661928
0.511953855,-0.118888615,1.655440679,1.467933664,2.900013648,-0.673131165,0.05464892,-0.118888615,1.655440679,1.467933664,2.900013648,-0.673131165,0.05464892
0.513953675,-0.118845806,1.682364135,1.479106063,2.916402675,-0.674229865,0.054878928,-0.118845806,1.682364135,1.479106063,2.916402675,-0.674229865,0.054878928
0.515953495,-0.118801384,1.708600019,1.489652312,2.932707078,-0.674898013,0.054578762,-0.118801384,1.708600019,1.489652312,2.932707078,-0.674898013,0.054578762
0.517953315,-0.118652835,1.73438766,1.49928884,2.948956668,-0.675423095,0.05366204,-0.118652835,1.73438766,1.49928884,2.948956668,-0.675423095,0.05366204
0.519953134,-0.118420847,1.759102715,1.507809904,2.965046991,-0.6756998,0.052220251,-0.118420847,1.759102715,1.507809904,2.965046991,-0.6756998,0.052220251
0.521952954,-0.118119311,1.782708161,1.515269492,2.980837505,-0.675671787,0.050103211,-0.118119311,1.782708161,1.515269492,2.980837505,-0.675671787,0.050103211
0.523952774,-0.117756765,1.804584071,1.521393826,2.99635449,-0.675502909,0.047570778,-0.117756765,1.804584071,1.521393826,2.99635449,-0.675502909,0.047570778
0.525952593,-0.11733867,1.825007698,1.525956968,3.011520519,-0.675018176,0.044444873,-0.11733867,1.825007698,1.525956968,3.011520519,-0.675018176,0.044444873
0.527952413,-0.116657256,1.843093207,1.529294037,3.02627374,-0.674392053,0.040975413,-0.116657256,1.843093207,1.529294037,3.02627374,-0.674392053,0.040975413
0.529952233,-0.116053352,1.859125878,1.531132186,3.040577952,-0.673569305,0.037073069,-0.116053352,1.859125878,1.531132186,3.040577952,-0.673569305,0.037073069
0.531952053,-0.115190395,1.872828816,1.530934391,3.054385007,-0.672606918,0.032614838,-0.115190395,1.872828816,1.530934391,3.054385007,-0.672606918,0.032614838
0.533951872,-0.114092723,1.883621724,1.528786534,3.067738257,-0.671643389,0.028269599,-0.114092723,1.883621724,1.528786534,3.067738257,-0.671643389,0.028269599
0.535951692,-0.111924599,1.892706923,1.523063244,3.081745739,-0.671707051,0.027359709,-0.111924599,1.892706923,1.523063244,3.081745739,-0.671707051,0.027359709
0.537951512,-0.108830435,1.900130647,1.514106444,3.096212196,-0.672835013,0.028876195,-0.108830435,1.900130647,1.514106444,3.096212196,-0.672835013,0.028876195
0.539951332,-0.104832111,1.906386853,1.502115841,3.110730997,-0.674372432,0.030744785,-0.104832111,1.906386853,1.502115841,3.110730997,-0.674372432,0.030744785
0.541951151,-0.100487725,1.911763753,1.487988302,3.125058301,-0.675943148,0.032105865,-0.100487725,1.911763753,1.487988302,3.125058301,-0.675943148,0.032105865
0.543950971,-0.095866155,1.915929115,1.471606494,3.139039402,-0.677290025,0.032577871,-0.095866155,1.915929115,1.471606494,3.139039402,-0.677290025,0.032577871
0.545950791,-0.091347358,1.918826613,1.453116911,3.152553348,-0.678124223,0.032214744,-0.091347358,1.918826613,1.453116911,3.152553348,-0.678124223,0.032214744
0.547950611,-0.086941627,1.920704306,1.432885919,3.165675281,-0.678352579,0.030666602,-0.086941627,1.920704306,1.432885919,3.165675281,-0.678352579,0.030666602
0.54995043,-0.082869296,1.921768527,1.410971403,3.178308409,-0.678013187,0.028025685,-0.082869296,1.921768527,1.410971403,3.178308409,-0.678013187,0.028025685
0.55195025,-0.079324019,1.921386472,1.387693208,3.1905024,-0.676944939,0.024577715,-0.079324019,1.921386472,1.387693208,3.1905024,-0.676944939,0.024577715
0.55395007,-0.076465946,1.920389661,1.362462471,3.2024119,-0.675058194,0.020169807,-0.076465946,1.920389661,1.362462471,3.2024119,-0.675058194,0.020169807
0.55594989,-0.074230501,1.918164935,1.336211976,3.213873655,-0.672579113,0.014882961,-0.074230501,1.918164935,1.336211976,3.213873655,-0.672579113,0.014882961
0.557949709,-0.072865708,1.914957199,1.308316906,3.225125733,-0.669307246,0.00877622,-0.072865708,1.914957199,1.308316906,3.225125733,-0.669307246,0.00877622
0.559949529,-0.072274865,1.910749434,1.279398851,3.236137186,-0.66539014,0.002010506,-0.072274865,1.910749434,1.279398851,3.236137186,-0.66539014,0.002010506
0.561949349,-0.072683241,1.905522933,1.249155195,3.246866724,-0.660762429,-0.005517745,-0.072683241,1.905522933,1.249155195,3.246866724,-0.660762429,-0.005517745
0.563949169,-0.074180065,1.899834715,1.217870338,3.257451674,-0.655588104,-0.013628604,-0.074180065,1.899834715,1.217870338,3.257451674,-0.655588104,-0.013628604
0.565948988,-0.076629866,1.893106138,1.185553629,3.267938968,-0.649688674,-0.022311629,-0.076629866,1.893106138,1.185553629,3.267938968,-0.649688674,-0.022311629
0.567948808,-0.079797696,1.885617296,1.151061945,3.278775063,-0.644267235,-0.030135631,-0.079797696,1.885617296,1.151061945,3.278775063,-0.644267235,-0.030135631
0.569948628,-0.083170354,1.877788255,1.111592303,3.291305467,-0.641673153,-0.032429584,-0.083170354,1.877788255,1.111592303,3.291305467,-0.641673153,-0.032429584
0.571948448,-0.086648839,1.869605676,1.067653548,3.304631055,-0.64089608,-0.031902035,-0.086648839,1.869605676,1.067653548,3.304631055,-0.64089608,-0.031902035
0.573948267,-0.090230784,1.861577004,1.020459454,3.31813666,-0.640810909,-0.030402962,-0.090230784,1.861577004,1.020459454,3.31813666,-0.640810909,-0.030402962
0.575948087,-0.093800147,1.853749731,0.970343074,3.331374915,-0.640820095,-0.028513348,-0.093800147,1.853749731,0.970343074,3.331374915,-0.640820095,-0.028513348
0.577947907,-0.097467271,1.845585435,0.917536977,3.344231603,-0.640280756,-0.026722892,-0.097467271,1.845585435,0.917536977,3.344231603,-0.640280756,-0.026722892
0.579947727,-0.101218854,1.837670751,0.86219631,3.356487001,-0.638824682,-0.025163274,-0.101218854,1.837670751,0.86219631,3.356487001,-0.638824682,-0.025163274
0.581947546,-0.105147385,1.829432506,0.804697678,3.368186107,-0.636208273,-0.023976342,-0.105147385,1.829432506,0.804697678,3.368186107,-0.636208273,-0.023976342
0.583947366,-0.109114896,1.821153257,0.744786296,3.379306387,-0.632167344,-0.023122396,-0.109114896,1.821153257,0.744786296,3.379306387,-0.632167344,-0.023122396
0.585947186,-0.11310698,1.812541052,0.683365621,3.389834848,-0.626733881,-0.022664711,-0.11310698,1.812541052,0.683365621,3.389834848,-0.626733881,-0.022664711
0.587947006,-0.11720923,1.803579755,0.619805923,3.39987649,-0.619876214,-0.022521791,-0.11720923,1.803579755,0.619805923,3.39987649,-0.619876214,-0.022521791
0.589946825,-0.121289632,1.794278436,0.554436056,3.40942987,-0.611367486,-0.022746273,-0.121289632,1.794278436,0.554436056,3.40942987,-0.611367486,-0.022746273
0.591946645,-0.125547079,1.784339581,0.487512507,3.418652611,-0.601390353,-0.023245917,-0.125547079,1.784339581,0.487512507,3.418652611,-0.601390353,-0.023245917
0.593946465,-0.129730025,1.7737764,0.419028578,3.427506225,-0.589999063,-0.023975173,-0.129730025,1.7737764,0.419028578,3.427506225,-0.589999063,-0.023975173
0.595946285,-0.133933997,1.762882145,0.348978097,3.436058576,-0.577256857,-0.025002382,-0.133933997,1.762882145,0.348978097,3.436058576,-0.577256857,-0.025002382
0.597946104,-0.138141037,1.751086472,0.27737504,3.444314713,-0.563136042,-0.026345544,-0.138141037,1.751086472,0.27737504,3.444314713,-0.563136042,-0.026345544
0.599945924,-0.142438259,1.7383977,0.204785405,3.45240373,-0.547751467,-0.027910149,-0.142438259,1.7383977,0.204785405,3.45240373,-0.547751467,-0.027910149
0.601945744,-0.146579518,1.726538631,0.126917794,3.46179221,-0.537169475,-0.028229378,-0.146579518,1.726538631,0.126917794,3.46179221,-0.537169475,-0.028229378
0.603945564,-0.150544771,1.716265024,0.041314362,3.472897306,-0.534871745,-0.026651712,-0.150544771,1.716265024,0.041314362,3.472897306,-0.534871745,-0.026651712
0.605945383,-0.154572205,1.707734742,-0.049807262,3.483934258,-0.537249002,-0.024257816,-0.154572205,1.707734742,-0.049807262,3.483934258,-0.537249002,-0.024257816
0.607945203,-0.158707658,1.700314606,-0.145551504,3.494162483,-0.54128138,-0.021675153,-0.158707658,1.700314606,-0.145551504,3.494162483,-0.54128138,-0.021675153
0.609945023,-0.163070952,1.693370706,-0.245368109,3.503221192,-0.545220253,-0.019006108,-0.163070952,1.693370706,-0.245368109,3.503221192,-0.545220253,-0.019006108
0.611944843,-0.167539972,1.686337611,-0.34827181,3.511071086,-0.547436376,-0.01640997,-0.167539972,1.686337611,-0.34827181,3.511071086,-0.547436376,-0.01640997
0.613944662,-0.172094966,1.678944021,-0.45458696,3.517759921,-0.546867739,-0.014062136,-0.172094966,1.678944021,-0.45458696,3.517759921,-0.546867739,-0.014062136
0.615944482,-0.176929586,1.670641412,-0.563495188,3.523380067,-0.542536192,-0.011833952,-0.176929586,1.670641412,-0.563495188,3.523380067,-0.542536192,-0.011833952
0.617944302,-0.181881641,1.661471402,-0.674895112,3.528303571,-0.534110254,-0.009772248,-0.181881641,1.661471402,-0.674895112,3.528303571,-0.534110254,-0.009772248
0.619944122,-0.187021989,1.650335306,-0.788626209,3.532794653,-0.521293967,-0.007989546,-0.187021989,1.650335306,-0.788626209,3.532794653,-0.521293967,-0.007989546
0.621943941,-0.192194507,1.637005636,-0.904237785,3.53706786,-0.503833472,-0.006343258,-0.192194507,1.637005636,-0.904237785,3.53706786,-0.503833472,-0.006343258
0.623943761,-0.197575547,1.621263596,-1.021579647,3.54140402,-0.481616195,-0.004965479,-0.197575547,1.621263596,-1.021579647,3.54140402,-0.481616195,-0.004965479
0.625943581,-0.203001215,1.602613857,-1.140463757,3.546000258,-0.454841678,-0.003709965,-0.203001215,1.602613857,-1.140463757,3.546000258,-0.454841678,-0.003709965
0.627943401,-0.208431267,1.580865785,-1.260667455,3.55113429,-0.423522823,-0.002714527,-0.208431267,1.580865785,-1.260667455,3.55113429,-0.423522823,-0.002714527
0.62994322,-0.21393654,1.555534516,-1.381366674,3.556918321,-0.387746744,-0.001834417,-0.21393654,1.555534516,-1.381366674,3.556918321,-0.387746744,-0.001834417
0.63194304,-0.219571825,1.526159808,-1.502647792,3.563579453,-0.34786139,-0.001210958,-0.219571825,1.526159808,-1.502647792,3.563579453,-0.34786139,-0.001210958
0.63394286,-0.224960049,1.492863522,-1.624511043,3.571494354,-0.304581645,-0.00080631,-0.224960049,1.492863522,-1.624511043,3.571494354,-0.304581645,-0.00080631
0.63594268,-0.228922699,1.461158348,-1.756485988,3.584312811,-0.268410243,-0.000390278,-0.228922699,1.461158348,-1.756485988,3.584312811,-0.268410243,-0.000390278
0.637942499,-0.231585214,1.432571901,-1.897590279,3.600423621,-0.240880528,1.9606e-05,-0.231585214,1.432571901,-1.897590279,3.600423621,-0.240880528,1.9606e-05
0.639942319,-0.233586116,1.405818945,-2.045072517,3.617606803,-0.220371644,0.000411959,-0.233586116,1.405818945,-2.045072517,3.617606803,-0.220371644,0.000411959
0.641942139,-0.235537287,1.379882389,-2.196836236,3.634409166,-0.205804897,0.000753567,-0.235537287,1.379882389,-2.196836236,3.634409166,-0.205804897,0.000753567
0.643941959,-0.237723013,1.353839293,-2.351493325,3.649865766,-0.196306226,0.001024125,-0.237723013,1.353839293,-2.351493325,3.649865766,-0.196306226,0.001024125
0.645941778,-0.240680975,1.326845578,-2.507351974,3.663272388,-0.191057762,0.001213096,-0.240680975,1.326845578,-2.507351974,3.663272388,-0.191057762,0.001213096
0.647941598,-0.244533347,1.298111691,-2.664184485,3.674152389,-0.18940355,0.001309796,-0.244533347,1.298111691,-2.664184485,3.674152389,-0.18940355,0.001309796
0.649941418,-0.249477082,1.266874,-2.820496586,3.68231275,-0.190910161,0.001305785,-0.249477082,1.266874,-2.820496586,3.68231275,-0.190910161,0.001305785
0.651941238,-0.255760348,1.232408428,-2.976096387,3.687535819,-0.195234976,0.001191376,-0.255760348,1.232408428,-2.976096387,3.687535819,-0.195234976,0.001191376
0.653941057,-0.263593732,1.194008788,-3.130388945,3.689896164,-0.201983339,0.000956316,-0.263593732,1.194008788,-3.130388945,3.689896164,-0.201983339,0.000956316
0.655940877,-0.272823796,1.150994265,-3.283115804,3.689393019,-0.210815138,0.000592753,-0.272823796,1.150994265,-3.283115804,3.689393019,-0.210815138,0.000592753
0.657940697,-0.28383217,1.102416869,-3.433784405,3.686213685,-0.221670676,9.5012e-05,-0.28383217,1.102416869,-3.433784405,3.686213685,-0.221670676,9.5012e-05
0.659940517,-0.296410601,1.048219751,-3.581953131,3.680366673,-0.234150045,-0.000549573,-0.296410601,1.048219751,-3.581953131,3.680366673,-0.234150045,-0.000549573
0.661940336,-0.310679301,0.987198986,-3.727807762,3.67203854,-0.248251434,-0.001337381,-0.310679301,0.987198986,-3.727807762,3.67203854,-0.248251434,-0.001337381
0.663940156,-0.326736587,0.91905097,-3.870652806,3.661389226,-0.263732664,-0.002281247,-0.326736587,0.91905097,-3.870652806,3.661389226,-0.263732664,-0.002281247
0.665939976,-0.344441823,0.842901305,-4.010148156,3.648677892,-0.280406674,-0.003382945,-0.344441823,0.842901305,-4.010148156,3.648677892,-0.280406674,-0.003382945
0.667939796,-0.363977456,0.760460819,-4.150792128,3.636058976,-0.292333014,-0.004648947,-0.363977456,0.760460819,-4.150792128,3.636058976,-0.292333014,-0.004648947
0.669939615,-0.385016937,0.677662844,-4.303639612,3.630064546,-0.283108531,-0.006052542,-0.385016937,0.677662844,-4.303639612,3.630064546,-0.283108531,-0.006052542
0.671939435,-0.407096273,0.595134967,-4.467513112,3.630205373,-0.258904805,-0.007499343,-0.407096273,0.595134967,-4.467513112,3.630205373,-0.258904805,-0.007499343
0.673939255,-0.430053831,0.512661304,-4.639702419,3.635151699,-0.226117538,-0.008954916,-0.430053831,0.512661304,-4.639702419,3.635151699,-0.226117538,-0.008954916
0.675939075,-0.453298619,0.43116974,-4.817102465,3.643282028,-0.189875413,-0.010411219,-0.453298619,0.43116974,-4.817102465,3.643282028,-0.189875413,-0.010411219
0.677938894,-0.476596113,0.350383894,-4.997783525,3.65320712,-0.15408353,-0.011845013,-0.476596113,0.350383894,-4.997783525,3.65320712,-0.15408353,-0.011845013
0.679938714,-0.49961071,0.270317135,-5.17949008,3.663600339,-0.121595617,-0.013250849,-0.49961071,0.270317135,-5.17949008,3.663600339,-0.121595617,-0.013250849
0.681938534,-0.522126225,0.191537949,-5.360551772,3.673061884,-0.094895413,-0.014623152,-0.522126225,0.191537949,-5.360551772,3.673061884,-0.094895413,-0.014623152
0.683938354,-0.543719201,0.113752273,-5.539576792,3.680519587,-0.075465398,-0.015949173,-0.543719201,0.113752273,-5.539576792,3.680519587,-0.075465398,-0.015949173
0.685938173,-0.564206975,0.037515801,-5.714849806,3.684964523,-0.064465575,-0.017227726,-0.564206975,0.037515801,-5.714849806,3.684964523,-0.064465575,-0.017227726
0.687937993,-0.583409583,-0.037485571,-5.885797097,3.685642297,-0.062755668,-0.018449249,-0.583409583,-0.037485571,-5.885797097,3.685642297,-0.062755668,-0.018449249
0.689937813,-0.600835665,-0.110984272,-6.051696619,3.681671711,-0.070851865,-0.01961514,-0.600835665,-0.110984272,-6.051696619,3.681671711,-0.070851865,-0.01961514
0.691937632,-0.616459867,-0.182733806,-6.211755764,3.67251848,-0.088702535,-0.020720931,-0.616459867,-0.182733806,-6.211755764,3.67251848,-0.088702535,-0.020720931
0.693937452,-0.629925929,-0.253065664,-6.365367381,3.657704416,-0.116532344,-0.02176343,-0.629925929,-0.253065664,-6.365367381,3.657704416,-0.116532344,-0.02176343
0.695937272,-0.64111161,-0.321452398,-6.512621923,3.636906035,-0.154052454,-0.022747695,-0.64111161,-0.321452398,-6.512621923,3.636906035,-0.154052454,-0.022747695
0.697937092,-0.649892626,-0.387947165,-6.653100783,3.609659582,-0.201182438,-0.023670079,-0.649892626,-0.387947165,-6.653100783,3.609659582,-0.201182438,-0.023670079
0.699936911,-0.655806837,-0.452324795,-6.786825655,3.575788354,-0.257318437,-0.024532216,-0.655806837,-0.452324795,-6.786825655,3.575788354,-0.257318437,-0.024532216
0.701936731,-0.662247195,-0.519494404,-6.923233347,3.541544612,-0.310734151,-0.025297183,-0.662247195,-0.519494404,-6.923233347,3.541544612,-0.310734151,-0.025297183
0.703936551,-0.671679727,-0.593556113,-7.071310757,3.51246975,-0.351645732,-0.026215187,-0.671679727,-0.593556113,-7.071310757,3.51246975,-0.351645732,-0.026215187
0.705936371,-0.683264305,-0.67339459,-7.227999803,3.486922993,-0.384116746,-0.027111897,-0.683264305,-0.67339459,-7.227999803,3.486922993,-0.384116746,-0.027111897
0.70793619,-0.696159425,-0.757984576,-7.390582596,3.463550571,-0.411304132,-0.028088176,-0.696159425,-0.757984576,-7.390582596,3.463550571,-0.411304132,-0.028088176
0.70993601,-0.709830331,-0.846902538,-7.556595396,3.440864106,-0.435614028,-0.029113013,-0.709830331,-0.846902538,-7.556595396,3.440864106,-0.435614028,-0.029113013
0.71193583,-0.762515443,-0.938595615,-7.72450266,3.417880398,-0.459169331,-0.03018243,-0.762515443,-0.938595615,-7.72450266,3.417880398,-0.459169331,-0.03018243
0.71393565,-0.773582439,-1.031682,-7.893307252,3.393782952,-0.483645803,-0.031069573,-0.773582439,-1.031682,-7.893307252,3.393782952,-0.483645803,-0.031069573
0.715935469,-0.746428298,-1.126679667,-8.06026574,3.36718424,-0.510018307,-0.031835895,-0.746428298,-1.126679667,-8.06026574,3.36718424,-0.510018307,-0.031835895
0.717935289,-0.76058492,-1.223282142,-8.223415776,3.336819568,-0.539283875,-0.032993133,-0.76058492,-1.223282142,-8.223415776,3.336819568,-0.539283875,-0.032993133
0.719935109,-0.772353739,-1.319383267,-8.382446938,3.302670415,-0.572159325,-0.0343891,-0.772353739,-1.319383267,-8.382446938,3.302670415,-0.572159325,-0.0343891
0.721934929,-0.78022077,-1.4145209,-8.536838462,3.264073501,-0.609026596,-0.035673689,-0.78022077,-1.4145209,-8.536838462,3.264073501,-0.609026596,-0.035673689
0.723934748,-0.78311674,-1.507998499,-8.685529778,3.220505312,-0.650135477,-0.036834577,-0.78311674,-1.507998499,-8.685529778,3.220505312,-0.650135477,-0.036834577
0.725934568,-0.780752296,-1.599613482,-8.827955026,3.171501998,-0.69573863,-0.037957302,-0.780752296,-1.599613482,-8.827955026,3.171501998,-0.69573863,-0.037957302
0.727934388,-0.772913452,-1.687996312,-8.963620132,3.116656217,-0.745736966,-0.039113005,-0.772913452,-1.687996312,-8.963620132,3.116656217,-0.745736966,-0.039113005
0.729934208,-0.759668875,-1.773245969,-9.091565504,3.05561658,-0.800301232,-0.040320914,-0.759668875,-1.773245969,-9.091565504,3.05561658,-0.800301232,-0.040320914
0.731934027,-0.740725637,-1.854043827,-9.211525085,2.988128058,-0.85908296,-0.04159724,-0.740725637,-1.854043827,-9.211525085,2.988128058,-0.85908296,-0.04159724
0.733933847,-0.716427856,-1.930526887,-9.324128829,2.914946899,-0.921028987,-0.042939533,-0.716427856,-1.930526887,-9.324128829,2.914946899,-0.921028987,-0.042939533
0.735933667,-0.690914254,-2.007351867,-9.442079693,2.84732313,-0.971029388,-0.04436266,-0.690914254,-2.007351867,-9.442079693,2.84732313,-0.971029388,-0.04436266
0.737933487,-0.665702213,-2.085507908,-9.566676728,2.787299928,-1.008005905,-0.045941131,-0.665702213,-2.085507908,-9.566676728,2.787299928,-1.008005905,-0.045941131
0.739933306,-0.640992874,-2.164621786,-9.695573317,2.732864355,-1.035572612,-0.047673188,-0.640992874,-2.164621786,-9.695573317,2.732864355,-1.035572612,-0.047673188
0.741933126,-0.616809285,-2.244347919,-9.826499765,2.682182695,-1.057062699,-0.049525948,-0.616809285,-2.244347919,-9.826499765,2.682182695,-1.057062699,-0.049525948
0.743932946,-0.593454819,-2.324046774,-9.957532195,2.63374332,-1.074935312,-0.051476333,-0.593454819,-2.324046774,-9.957532195,2.63374332,-1.074935312,-0.051476333
0.745932766,-0.570749746,-2.403359746,-10.087047477,2.585937912,-1.090944019,-0.053501645,-0.570749746,-2.403359746,-10.087047477,2.585937912,-1.090944019,-0.053501645
0.747932585,-0.548931708,-2.482223635,-10.21432385,2.537603686,-1.106777253,-0.055584803,-0.548931708,-2.482223635,-10.21432385,2.537603686,-1.106777253,-0.055584803
0.749932405,-0.527772843,-2.559986395,-10.337671756,2.487461015,-1.123641641,-0.05771198,-0.527772843,-2.559986395,-10.337671756,2.487461015,-1.123641641,-0.05771198
0.751932225,-0.507469016,-2.636315771,-10.456831063,2.434534977,-1.14244436,-0.059862098,-0.507469016,-2.636315771,-10.456831063,2.434534977,-1.14244436,-0.059862098
0.753932045,-0.48775931,-2.710581656,-10.571104562,2.377710628,-1.1638546,-0.062016801,-0.48775931,-2.710581656,-10.571104562,2.377710628,-1.1638546,-0.062016801
0.755931864,-0.468819655,-2.782752532,-10.67998852,2.316268694,-1.188258582,-0.064156984,-0.468819655,-2.782752532,-10.67998852,2.316268694,-1.188258582,-0.064156984
0.757931684,-0.450371205,-2.852222366,-10.783107127,2.249453457,-1.216104746,-0.066269832,-0.450371205,-2.852222366,-10.783107127,2.249453457,-1.216104746,-0.066269832
0.759931504,-0.43257919,-2.91897397,-10.880217927,2.17650448,-1.247484413,-0.068339919,-0.43257919,-2.91897397,-10.880217927,2.17650448,-1.247484413,-0.068339919
0.761931324,-0.415156472,-2.982135707,-10.971759819,2.096801941,-1.282511006,-0.070356515,-0.415156472,-2.982135707,-10.971759819,2.096801941,-1.282511006,-0.070356515
0.763931143,-0.398268002,-3.041997083,-11.057048721,2.009834656,-1.321320856,-0.072303461,-0.398268002,-3.041997083,-11.057048721,2.009834656,-1.321320856,-0.072303461
0.765930963,-0.381732647,-3.097711823,-11.136993325,1.915110422,-1.363758401,-0.074174557,-0.381732647,-3.097711823,-11.136993325,1.915110422,-1.363758401,-0.074174557
0.767930783,-0.365494304,-3.149870022,-11.213864923,1.81825311,-1.405906217,-0.075955201,-0.365494304,-3.149870022,-11.213864923,1.81825311,-1.405906217,-0.075955201
0.769930603,-0.350195262,-3.199022951,-11.297839132,1.73764897,-1.43518715,-0.077665881,-0.350195262,-3.199022951,-11.297839132,1.73764897,-1.43518715,-0.077665881
0.771930422,-0.335972637,-3.245897487,-11.385369547,1.670562395,-1.453042489,-0.079368731,-0.335972637,-3.245897487,-11.385369547,1.670562395,-1.453042489,-0.079368731
0.773930242,-0.32269475,-3.289986677,-11.473887453,1.613160693,-1.461583571,-0.081074383,-0.32269475,-3.289986677,-11.473887453,1.613160693,-1.461583571,-0.081074383
0.775930062,-0.31061354,-3.33190766,-11.56107682,1.562291456,-1.462938196,-0.082765505,-0.31061354,-3.33190766,-11.56107682,1.562291456,-1.462938196,-0.082765505
0.777929882,-0.299598249,-3.371370869,-11.645682514,1.514889781,-1.458585702,-0.084430407,-0.299598249,-3.371370869,-11.645682514,1.514889781,-1.458585702,-0.084430407
0.779929701,-0.289604888,-3.40865337,-11.725742153,1.468413025,-1.449894791,-0.086049978,-0.289604888,-3.40865337,-11.725742153,1.468413025,-1.449894791,-0.086049978
0.781929521,-0.280562102,-3.443466517,-11.800865773,1.420567888,-1.438234242,-0.08761051,-0.280562102,-3.443466517,-11.800865773,1.420567888,-1.438234242,-0.08761051
0.783929341,-0.272384814,-3.476368099,-11.870356861,1.369273081,-1.424410617,-0.089095083,-0.272384814,-3.476368099,-11.870356861,1.369273081,-1.424410617,-0.089095083
0.785929161,-0.265082812,-3.506779546,-11.934145506,1.312663229,-1.409327659,-0.090498955,-0.265082812,-3.506779546,-11.934145506,1.312663229,-1.409327659,-0.090498955
0.78792898,-0.258223106,-3.535273267,-11.991771581,1.248985998,-1.393616305,-0.091804205,-0.258223106,-3.535273267,-11.991771581,1.248985998,-1.393616305,-0.091804205
0.7899288,-0.25203759,-3.561852955,-12.043890605,1.176864744,-1.377797353,-0.093014676,-0.25203759,-3.561852955,-12.043890605,1.176864744,-1.377797353,-0.093014676
0.79192862,-0.246305216,-3.586227037,-12.090407369,1.094739087,-1.362395382,-0.094125736,-0.246305216,-3.586227037,-12.090407369,1.094739087,-1.362395382,-0.094125736
0.79392844,-0.240812428,-3.608416512,-12.131987061,1.001345623,-1.347729944,-0.095129105,-0.240812428,-3.608416512,-12.131987061,1.001345623,-1.347729944,-0.095129105
0.795928259,-0.235574398,-3.629009348,-12.169094901,0.895557817,-1.334048878,-0.096025174,-0.235574398,-3.629009348,-12.169094901,0.895557817,-1.334048878,-0.096025174
0.797928079,-0.230388566,-3.647732228,-12.20260675,0.776291467,-1.321654814,-0.096821873,-0.230388566,-3.647732228,-12.20260675,0.776291467,-1.321654814,-0.096821873
0.799927899,-0.225281696,-3.664891314,-12.233156695,0.64248798,-1.310677512,-0.097520277,-0.225281696,-3.664891314,-12.233156695,0.64248798,-1.310677512,-0.097520277
0.801927719,-0.220382081,-3.68022639,-12.269428965,0.510774354,-1.304646873,-0.098124711,-0.220382081,-3.68022639,-12.269428965,0.510774354,-1.304646873,-0.098124711
0.803927538,-0.215964242,-3.693815624,-12.316707399,0.396972863,-1.304907284,-0.098687153,-0.215964242,-3.693815624,-12.316707399,0.396972863,-1.304907284,-0.098687153
0.805927358,-0.21207043,-3.705827878,-12.370437966,0.297774556,-1.308632862,-0.099266068,-0.21207043,-3.705827878,-12.370437966,0.297774556,-1.308632862,-0.099266068
0.807927178,-0.20888474,-3.715889778,-12.428192031,0.211202389,-1.313927525,-0.099862404,-0.20888474,-3.715889778,-12.428192031,0.211202389,-1.313927525,-0.099862404
0.809926998,-0.206334442,-3.724404384,-12.486862996,0.135429303,-1.319124596,-0.100458422,-0.206334442,-3.724404384,-12.486862996,0.135429303,-1.319124596,-0.100458422
0.811926817,-0.20443596,-3.73171168,-12.543913165,0.06902498,-1.323087344,-0.101045512,-0.20443596,-3.73171168,-12.543913165,0.06902498,-1.323087344,-0.101045512
0.813926637,-0.202966274,-3.737249944,-12.597006633,0.010838055,-1.324895053,-0.1016172,-0.202966274,-3.737249944,-12.597006633,0.010838055,-1.324895053,-0.1016172
0.815926457,-0.202132584,-3.741633822,-12.644401441,-0.040047575,-1.324100632,-0.102156775,-0.202132584,-3.741633822,-12.644401441,-0.040047575,-1.324100632,-0.102156775
0.817926277,-0.201570306,-3.744581252,-12.683939105,-0.084369317,-1.320228915,-0.102658171,-0.201570306,-3.744581252,-12.683939105,-0.084369317,-1.320228915,-0.102658171
0.819926096,-0.201463381,-3.746125829,-12.713973421,-0.122799283,-1.313082486,-0.103113401,-0.201463381,-3.746125829,-12.713973421,-0.122799283,-1.313082486,-0.103113401
0.821925916,-0.201539164,-3.746294716,-12.733022129,-0.155627957,-1.302570318,-0.103511259,-0.201539164,-3.746294716,-12.733022129,-0.155627957,-1.302570318,-0.103511259
0.823925736,-0.201858072,-3.745401507,-12.740280602,-0.183321954,-1.288485801,-0.103848457,-0.201858072,-3.745401507,-12.740280602,-0.183321954,-1.288485801,-0.103848457
0.825925556,-0.202148009,-3.74318259,-12.733637598,-0.206056854,-1.271229245,-0.104124774,-0.202148009,-3.74318259,-12.733637598,-0.206056854,-1.271229245,-0.104124774
0.827925375,-0.202359658,-3.739682466,-12.712833072,-0.224130101,-1.250558489,-0.104335676,-0.202359658,-3.739682466,-12.712833072,-0.224130101,-1.250558489,-0.104335676
0.829925195,-0.202443473,-3.735216622,-12.676224551,-0.237560467,-1.226636702,-0.104481703,-0.202443473,-3.735216622,-12.676224551,-0.237560467,-1.226636702,-0.104481703
0.831925015,-0.202347185,-3.729540664,-12.622851942,-0.246543366,-1.19984695,-0.104565715,-0.202347185,-3.729540664,-12.622851942,-0.246543366,-1.19984695,-0.104565715
0.833924835,-0.201694446,-3.722984177,-12.553570304,-0.252649076,-1.170208472,-0.104582989,-0.201694446,-3.722984177,-12.553570304,-0.252649076,-1.170208472,-0.104582989
0.835924654,-0.198113909,-3.718140261,-12.484390533,-0.275125028,-1.141553729,-0.104848511,-0.198113909,-3.718140261,-12.484390533,-0.275125028,-1.141553729,-0.104848511
0.837924474,-0.191448259,-3.715244639,-12.419771713,-0.316189856,-1.11519738,-0.105282665,-0.191448259,-3.715244639,-12.419771713,-0.316189856,-1.11519738,-0.105282665
0.839924294,-0.182437249,-3.713642359,-12.35968349,-0.371759507,-1.091853774,-0.105868719,-0.182437249,-3.713642359,-12.35968349,-0.371759507,-1.091853774,-0.105868719
0.841924114,-0.171673403,-3.712691007,-12.303418052,-0.438153997,-1.071635394,-0.106580378,-0.171673403,-3.712691007,-12.303418052,-0.438153997,-1.071635394,-0.106580378
0.843923933,-0.159818172,-3.711788808,-12.250315938,-0.512046679,-1.054427968,-0.107484459,-0.159818172,-3.711788808,-12.250315938,-0.512046679,-1.054427968,-0.107484459
0.845923753,-0.147482002,-3.710370335,-12.19887259,-0.590367969,-1.040436314,-0.108278961,-0.147482002,-3.710370335,-12.19887259,-0.590367969,-1.040436314,-0.108278961
0.847923573,-0.13524509,-3.70758273,-12.147711887,-0.670215875,-1.029311061,-0.109115719,-0.13524509,-3.70758273,-12.147711887,-0.670215875,-1.029311061,-0.109115719
0.849923393,-0.123415963,-3.703196167,-12.095258495,-0.74907149,-1.020883344,-0.109929961,-0.123415963,-3.703196167,-12.095258495,-0.74907149,-1.020883344,-0.109929961
0.851923212,-0.112707329,-3.696422604,-12.040112986,-0.82457647,-1.014836624,-0.110680961,-0.112707329,-3.696422604,-12.040112986,-0.82457647,-1.014836624,-0.110680961
0.853923032,-0.103450439,-3.687074248,-11.980148705,-0.89442031,-1.011035665,-0.111318538,-0.103450439,-3.687074248,-11.980148705,-0.89442031,-1.011035665,-0.111318538
0.855922852,-0.095945197,-3.67441871,-11.913764048,-0.956518088,-1.009104864,-0.111704545,-0.095945197,-3.67441871,-11.913764048,-0.956518088,-1.009104864,-0.111704545
0.857922672,-0.090572424,-3.658309877,-11.838956346,-1.008976197,-1.008665137,-0.111962283,-0.090572424,-3.658309877,-11.838956346,-1.008976197,-1.008665137,-0.111962283
0.859922491,-0.087665586,-3.638077383,-11.753380511,-1.04994321,-1.009469642,-0.112028081,-0.087665586,-3.638077383,-11.753380511,-1.04994321,-1.009469642,-0.112028081
0.861922311,-0.087412998,-3.613370701,-11.655502404,-1.077662373,-1.011262848,-0.111747829,-0.087412998,-3.613370701,-11.655502404,-1.077662373,-1.011262848,-0.111747829
0.863922131,-0.090199679,-3.584128295,-11.542632296,-1.090568282,-1.01367402,-0.111247508,-0.090199679,-3.584128295,-11.542632296,-1.090568282,-1.01367402,-0.111247508
0.86592195,-0.096143612,-3.54949517,-11.412887534,-1.087004501,-1.016379881,-0.110362102,-0.096143612,-3.54949517,-11.412887534,-1.087004501,-1.016379881,-0.110362102
0.86792177,-0.104599989,-3.511195473,-11.271741784,-1.072380742,-1.017044544,-0.110314994,-0.104599989,-3.511195473,-11.271741784,-1.072380742,-1.017044544,-0.110314994
0.86992159,-0.112561452,-3.474179244,-11.14186789,-1.067048139,-1.008804661,-0.114474042,-0.112561452,-3.474179244,-11.14186789,-1.067048139,-1.008804661,-0.114474042
0.87192141,-0.119455768,-3.438473184,-11.023335443,-1.070056221,-0.9947981,-0.120372203,-0.119455768,-3.438473184,-11.023335443,-1.070056221,-0.9947981,-0.120372203
0.873921229,-0.125463994,-3.403765333,-10.913521124,-1.078996731,-0.97774257,-0.126378982,-0.125463994,-3.403765333,-10.913521124,-1.078996731,-0.97774257,-0.126378982
0.875921049,-0.130516412,-3.369564253,-10.810626043,-1.09163861,-0.96000805,-0.132069761,-0.130516412,-3.369564253,-10.810626043,-1.09163861,-0.96000805,-0.132069761
0.877920869,-0.134672751,-3.335073955,-10.712259467,-1.106104495,-0.943150428,-0.137161609,-0.134672751,-3.335073955,-10.712259467,-1.106104495,-0.943150428,-0.137161609
0.879920689,-0.137994849,-3.299510314,-10.616379846,-1.120503834,-0.928292859,-0.141336647,-0.137994849,-3.299510314,-10.616379846,-1.120503834,-0.928292859,-0.141336647
0.881920508,-0.140446299,-3.262354547,-10.520866726,-1.133345918,-0.916302735,-0.144681183,-0.140446299,-3.262354547,-10.520866726,-1.133345918,-0.916302735,-0.144681183
0.883920328,-0.142302578,-3.223113265,-10.423691556,-1.143052921,-0.907656127,-0.147359187,-0.142302578,-3.223113265,-10.423691556,-1.143052921,-0.907656127,-0.147359187
0.885920148,-0.143375609,-3.181329984,-10.322175342,-1.148232411,-0.902709153,-0.149149835,-0.143375609,-3.181329984,-10.322175342,-1.148232411,-0.902709153,-0.149149835
0.887919968,-0.143924532,-3.135685435,-10.214874914,-1.147550251,-0.901529358,-0.150288634,-0.143924532,-3.135685435,-10.214874914,-1.147550251,-0.901529358,-0.150288634
0.889919787,-0.143628364,-3.086630896,-10.099153533,-1.139796828,-0.904170611,-0.150568764,-0.143628364,-3.086630896,-10.099153533,-1.139796828,-0.904170611,-0.150568764
0.891919607,-0.142844445,-3.032595456,-9.973002084,-1.123758025,-0.910464982,-0.150252221,-0.142844445,-3.032595456,-9.973002084,-1.123758025,-0.910464982,-0.150252221
0.893919427,-0.141335486,-2.973797754,-9.834692786,-1.098260022,-0.920282929,-0.149230774,-0.141335486,-2.973797754,-9.834692786,-1.098260022,-0.920282929,-0.149230774
0.895919247,-0.139210048,-2.909580009,-9.681631402,-1.062274849,-0.933334123,-0.147594249,-0.139210048,-2.909580009,-9.681631402,-1.062274849,-0.933334123,-0.147594249
0.897919066,-0.13633834,-2.839332177,-9.511862829,-1.014704285,-0.949394473,-0.145384341,-0.13633834,-2.839332177,-9.511862829,-1.014704285,-0.949394473,-0.145384341
0.899918886,-0.132802954,-2.762747877,-9.323704094,-0.954533868,-0.968111041,-0.142527512,-0.132802954,-2.762747877,-9.323704094,-0.954533868,-0.968111041,-0.142527512
0.901918706,-0.134755555,-2.681796982,-9.134475496,-0.889729417,-0.984770677,-0.148808537,-0.134755555,-2.681796982,-9.134475496,-0.889729417,-0.984770677,-0.148808537
0.903918526,-0.146752135,-2.600373187,-8.962350077,-0.827988782,-0.995762169,-0.167294687,-0.146752135,-2.600373187,-8.962350077,-0.827988782,-0.995762169,-0.167294687
0.905918345,-0.166012224,-2.520648602,-8.805853083,-0.767856368,-1.002718818,-0.188756886,-0.166012224,-2.520648602,-8.805853083,-0.767856368,-1.002718818,-0.188756886
0.907918165,-0.190425073,-2.443925001,-8.662924995,-0.708150208,-1.006932303,-0.208716651,-0.190425073,-2.443925001,-8.662924995,-0.708150208,-1.006932303,-0.208716651
0.909917985,-0.218624406,-2.370529516,-8.532228097,-0.647732005,-1.009400206,-0.225646933,-0.218624406,-2.370529516,-8.532228097,-0.647732005,-1.009400206,-0.225646933
0.911917805,-0.249122775,-2.300499462,-8.411218142,-0.585718544,-1.010879752,-0.239046687,-0.249122775,-2.300499462,-8.411218142,-0.585718544,-1.010879752,-0.239046687
0.913917624,-0.280791978,-2.233743771,-8.298516808,-0.521228017,-1.012045791,-0.248784734,-0.280791978,-2.233743771,-8.298516808,-0.521228017,-1.012045791,-0.248784734
0.915917444,-0.312606291,-2.170063677,-8.192411235,-0.453333902,-1.013380138,-0.254992947,-0.312606291,-2.170063677,-8.192411235,-0.453333902,-1.013380138,-0.254992947
0.917917264,-0.343405077,-2.109785336,-8.090378444,-0.381423266,-1.014925435,-0.25800825,-0.343405077,-2.109785336,-8.090378444,-0.381423266,-1.014925435,-0.25800825
0.919917084,-0.372429304,-2.052065624,-7.991085346,-0.304684998,-1.017095103,-0.257953727,-0.372429304,-2.052065624,-7.991085346,-0.304684998,-1.017095103,-0.257953727
0.921916903,-0.39854929,-1.997150669,-7.892572436,-0.222478828,-1.019958811,-0.255229377,-0.39854929,-1.997150669,-7.892572436,-0.222478828,-1.019958811,-0.255229377
0.923916723,-0.421142894,-1.944411997,-7.79294093,-0.134227174,-1.023536304,-0.250067499,-0.421142894,-1.944411997,-7.79294093,-0.134227174,-1.023536304,-0.250067499
0.925916543,-0.439416879,-1.894056558,-7.690329737,-0.039173294,-1.027804919,-0.242791474,-0.439416879,-1.894056558,-7.690329737,-0.039173294,-1.027804919,-0.242791474
0.927916363,-0.452641023,-1.845121225,-7.583146729,0.063196257,-1.032708902,-0.23346936,-0.452641023,-1.845121225,-7.583146729,0.063196257,-1.032708902,-0.23346936
0.929916182,-0.460253223,-1.797759826,-7.469816815,0.173446063,-1.038270435,-0.222536999,-0.460253223,-1.797759826,-7.469816815,0.173446063,-1.038270435,-0.222536999
0.931916002,-0.461625,-1.751303816,-7.347929728,0.292174343,-1.04436523,-0.209984425,-0.461625,-1.751303816,-7.347929728,0.292174343,-1.04436523,-0.209984425
0.933915822,-0.45672417,-1.705811903,-7.216881884,0.419021917,-1.050669977,-0.197613511,-0.45672417,-1.705811903,-7.216881884,0.419021917,-1.050669977,-0.197613511
0.935915642,-0.452360738,-1.661048828,-7.079465446,0.54498017,-1.054992428,-0.204617623,-0.452360738,-1.661048828,-7.079465446,0.54498017,-1.054992428,-0.204617623
0.937915461,-0.448801469,-1.600998597,-6.938613064,0.668460941,-1.056720789,-0.223321273,-0.448801469,-1.600998597,-6.938613064,0.668460941,-1.056720789,-0.223321273
0.939915281,-0.444490937,-1.56400054,-6.795382102,0.790810712,-1.056025428,-0.243216297,-0.444490937,-1.56400054,-6.795382102,0.790810712,-1.056025428,-0.243216297
0.941915101,-0.439054277,-1.526650486,-6.651958502,0.913597798,-1.053202945,-0.260741927,-0.439054277,-1.526650486,-6.651958502,0.913597798,-1.053202945,-0.260741927
0.943914921,-0.431958524,-1.492748416,-6.508106494,1.037649088,-1.048222236,-0.2736058,-0.431958524,-1.492748416,-6.508106494,1.037649088,-1.048222236,-0.2736058
0.94591474,-0.423013819,-1.462513635,-6.364975353,1.16386665,-1.041363642,-0.281329072,-0.423013819,-1.462513635,-6.364975353,1.16386665,-1.041363642,-0.281329072
0.94791456,-0.41221501,-1.436003731,-6.223266248,1.293116761,-1.032854976,-0.283840971,-0.41221501,-1.436003731,-6.223266248,1.293116761,-1.032854976,-0.283840971
0.94991438,-0.399482239,-1.412559284,-6.083264728,1.426020889,-1.022471399,-0.281540135,-0.399482239,-1.412559284,-6.083264728,1.426020889,-1.022471399,-0.281540135
0.9519142,-0.384730869,-1.391527888,-5.945481452,1.563176665,-1.01066639,-0.274391688,-0.384730869,-1.391527888,-5.945481452,1.563176665,-1.01066639,-0.274391688
0.953914019,-0.367898399,-1.372768099,-5.810245999,1.705076181,-0.997278138,-0.262979131,-0.367898399,-1.372768099,-5.810245999,1.705076181,-0.997278138,-0.262979131
0.955913839,-0.34880273,-1.35589072,-5.677886362,1.852143555,-0.982607511,-0.247540763,-0.34880273,-1.35589072,-5.677886362,1.852143555,-0.982607511,-0.247540763
0.957913659,-0.327598005,-1.339922231,-5.548031535,2.004785035,-0.966470065,-0.228449161,-0.327598005,-1.339922231,-5.548031535,2.004785035,-0.966470065,-0.228449161
0.959913479,-0.303979903,-1.325090202,-5.421099651,2.16324194,-0.948951428,-0.205898285,-0.303979903,-1.325090202,-5.421099651,2.16324194,-0.948951428,-0.205898285
0.961913298,-0.278103167,-1.310427692,-5.297216662,2.327737578,-0.93031652,-0.180132223,-0.278103167,-1.310427692,-5.297216662,2.327737578,-0.93031652,-0.180132223
0.963913118,-0.249778929,-1.295582812,-5.175796188,2.498433894,-0.910355398,-0.151470357,-0.249778929,-1.295582812,-5.175796188,2.498433894,-0.910355398,-0.151470357
0.965912938,-0.218928899,-1.280225634,-5.057422647,2.675554801,-0.889229103,-0.120068226,-0.218928899,-1.280225634,-5.057422647,2.675554801,-0.889229103,-0.120068226
0.967912758,-0.187294478,-1.263716086,-4.93543786,2.855612015,-0.866947077,-0.093786325,-0.187294478,-1.263716086,-4.93543786,2.855612015,-0.866947077,-0.093786325
0.969912577,-0.159929592,-1.245161779,-4.79165166,3.028371735,-0.844320052,-0.092342061,-0.159929592,-1.245161779,-4.79165166,3.028371735,-0.844320052,-0.092342061
0.971912397,-0.13499242,-1.228440252,-4.628600115,3.195669792,-0.821950673,-0.100400679,-0.13499242,-1.228440252,-4.628600115,3.195669792,-0.821950673,-0.100400679
0.973912217,-0.111300993,-1.214757753,-4.448760596,3.359323536,-0.800070328,-0.109240452,-0.111300993,-1.214757753,-4.448760596,3.359323536,-0.800070328,-0.109240452
0.975912037,-0.088297664,-1.203703072,-4.254669028,3.520999035,-0.779108564,-0.114856556,-0.088297664,-1.203703072,-4.254669028,3.520999035,-0.779108564,-0.114856556
0.977911856,-0.065704644,-1.194314963,-4.04885467,3.68213662,-0.758839025,-0.115826997,-0.065704644,-1.194314963,-4.04885467,3.68213662,-0.758839025,-0.115826997
0.979911676,-0.043347714,-1.186003815,-3.833104881,3.84392349,-0.739670113,-0.111500358,-0.043347714,-1.186003815,-3.833104881,3.84392349,-0.739670113,-0.111500358
0.981911496,-0.021003692,-1.176925436,-3.608991343,4.007432181,-0.721451407,-0.102108721,-0.021003692,-1.176925436,-3.608991343,4.007432181,-0.721451407,-0.102108721
0.983911316,0.001241299,-1.166714712,-3.378786921,4.173581446,-0.704033417,-0.08752541,0.001241299,-1.166714712,-3.378786921,4.173581446,-0.704033417,-0.08752541
0.985911135,0.023718897,-1.153536844,-3.143349753,4.34293457,-0.68747422,-0.068303905,0.023718897,-1.153536844,-3.143349753,4.34293457,-0.68747422,-0.068303905
0.987910955,0.046575761,-1.136826751,-2.904022205,4.51635772,-0.671570683,-0.044634407,0.046575761,-1.136826751,-2.904022205,4.51635772,-0.671570683,-0.044634407
0.989910775,0.069849674,-1.115454215,-2.662261836,4.694122535,-0.656444043,-0.016675957,0.069849674,-1.115454215,-2.662261836,4.694122535,-0.656444043,-0.016675957
0.991910595,0.093704754,-1.088616623,-2.419119231,4.876794874,-0.641745956,0.015262926,0.093704754,-1.088616623,-2.419119231,4.876794874,-0.641745956,0.015262926
0.993910414,0.118531009,-1.055004238,-2.174880936,5.064650288,-0.62748753,0.050698242,0.118531009,-1.055004238,-2.174880936,5.064650288,-0.62748753,0.050698242
0.995910234,0.144308712,-1.01397013,-1.930953112,5.257917775,-0.613551847,0.08961452,0.144308712,-1.01397013,-1.930953112,5.257917775,-0.613551847,0.08961452
0.997910054,0.171349359,-0.964871686,-1.687715405,5.456724974,-0.599716717,0.131782115,0.171349359,-0.964871686,-1.687715405,5.456724974,-0.599716717,0.131782115
0.999909874,0.199856619,-0.906829511,-1.445516721,5.661232456,-0.586110731,0.176991401,0.199856619,-0.906829511,-1.445516721,5.661232456,-0.586110731,0.176991401
1.001909693,0.227061691,-0.840714195,-1.19460758,5.859912645,-0.570574023,0.206058002,0.227061691,-0.840714195,-1.19460758,5.859912645,-0.570574023,0.206058002
1.003909513,0.251431689,-0.770340879,-0.927430638,6.04351521,-0.552164666,0.209528037,0.251431689,-0.770340879,-0.927430638,6.04351521,-0.552164666,0.209528037
1.005909333,0.2743177,-0.700107784,-0.647039822,6.216032477,-0.532474354,0.202458145,0.2743177,-0.700107784,-0.647039822,6.216032477,-0.532474354,0.202458145
1.007909153,0.296267182,-0.630658485,-0.355884027,6.38056181,-0.512524225,0.191513933,0.296267182,-0.630658485,-0.355884027,6.38056181,-0.512524225,0.191513933
1.009908972,0.317624794,-0.562816517,-0.056380395,6.539657009,-0.493044454,0.179969565,0.317624794,-0.562816517,-0.056380395,6.539657009,-0.493044454,0.179969565
1.011908792,0.338083508,-0.495784775,0.250195871,6.695504006,-0.474320827,0.169064729,0.338083508,-0.495784775,0.250195871,6.695504006,-0.474320827,0.169064729
1.013908612,0.357514605,-0.428943011,0.561624326,6.850235299,-0.456831469,0.159544652,0.357514605,-0.428943011,0.561624326,6.850235299,-0.456831469,0.159544652
1.015908432,0.375867546,-0.362414173,0.8771804,7.005459246,-0.44076947,0.151573742,0.375867546,-0.362414173,0.8771804,7.005459246,-0.44076947,0.151573742
1.017908251,0.392969602,-0.295446741,1.195727865,7.162815734,-0.426017184,0.145054542,0.392969602,-0.295446741,1.195727865,7.162815734,-0.426017184,0.145054542
1.019908071,0.40867455,-0.227047428,1.516396658,7.323457618,-0.412836931,0.140101254,0.40867455,-0.227047428,1.516396658,7.323457618,-0.412836931,0.140101254
1.021907891,0.422751139,-0.157109163,1.838212712,7.488630927,-0.400856524,0.13651275,0.422751139,-0.157109163,1.838212712,7.488630927,-0.400856524,0.13651275
1.023907711,0.435103235,-0.085576178,2.161534323,7.659239622,-0.390249898,0.134354355,0.435103235,-0.085576178,2.161534323,7.659239622,-0.390249898,0.134354355
1.02590753,0.445852302,-0.011269606,2.485120109,7.836270327,-0.380694835,0.133493824,0.445852302,-0.011269606,2.485120109,7.836270327,-0.380694835,0.133493824
1.02790735,0.454608121,0.065814959,2.809642672,8.020407761,-0.372087407,0.133744275,0.454608121,0.065814959,2.809642672,8.020407761,-0.372087407,0.133744275
1.02990717,0.461663112,0.145869733,3.134429031,8.212233704,-0.364310891,0.135188009,0.461663112,0.145869733,3.134429031,8.212233704,-0.364310891,0.135188009
1.03190699,0.466756147,0.229133125,3.460092634,8.412328015,-0.357234731,0.13760892,0.466756147,0.229133125,3.460092634,8.412328015,-0.357234731,0.13760892
1.033906809,0.470305048,0.316042069,3.787003134,8.619893453,-0.350919334,0.142201331,0.470305048,0.316042069,3.787003134,8.619893453,-0.350919334,0.142201331
1.035906629,0.475747019,0.404090715,4.125728233,8.817640287,-0.349021269,0.161743064,0.475747019,0.404090715,4.125728233,8.817640287,-0.349021269,0.161743064
1.037906449,0.483094292,0.494849498,4.476346904,9.001131903,-0.350878197,0.189563869,0.483094292,0.494849498,4.476346904,9.001131903,-0.350878197,0.189563869
1.039906268,0.491245196,0.58957986,4.836456924,9.171611137,-0.354684985,0.217820163,0.491245196,0.58957986,4.836456924,9.171611137,-0.354684985,0.217820163
1.041906088,0.499694548,0.688535504,5.203109791,9.330219513,-0.358987945,0.24308214,0.499694548,0.688535504,5.203109791,9.330219513,-0.358987945,0.24308214
1.043905908,0.508046026,0.791343,5.574271098,9.478134966,-0.362741092,0.263960642,0.508046026,0.791343,5.574271098,9.478134966,-0.362741092,0.263960642
1.045905728,0.515997064,0.897342512,5.94743518,9.616518032,-0.365393788,0.280115129,0.515997064,0.897342512,5.94743518,9.616518032,-0.365393788,0.280115129
1.047905547,0.523596276,1.005524441,6.320877775,9.746401279,-0.366371954,0.291379696,0.523596276,1.005524441,6.320877775,9.746401279,-0.366371954,0.291379696
1.049905367,0.530343235,1.115151776,6.692458994,9.868722545,-0.365279422,0.298063089,0.530343235,1.115151776,6.692458994,9.868722545,-0.365279422,0.298063089
1.051905187,0.536178461,1.225518097,7.060255037,9.984294239,-0.362059496,0.300272998,0.536178461,1.225518097,7.060255037,9.984294239,-0.362059496,0.300272998
1.053905007,0.540817005,1.335652155,7.423360759,10.093863429,-0.356404736,0.298530923,0.540817005,1.335652155,7.423360759,10.093863429,-0.356404736,0.298530923
1.055904826,0.544060896,1.444941046,7.779823113,10.197928508,-0.348449925,0.292906689,0.544060896,1.444941046,7.779823113,10.197928508,-0.348449925,0.292906689
1.057904646,0.545716169,1.552795421,8.128472652,10.29716425,-0.338122112,0.283671043,0.545716169,1.552795421,8.128472652,10.29716425,-0.338122112,0.283671043
1.059904466,0.545475355,1.658654936,8.468208738,10.391790084,-0.325420074,0.271079239,0.545475355,1.658654936,8.468208738,10.391790084,-0.325420074,0.271079239
1.061904286,0.543145769,1.761413382,8.7980427,10.482283015,-0.310593125,0.255365408,0.543145769,1.761413382,8.7980427,10.482283015,-0.310593125,0.255365408
1.063904105,0.538409453,1.861170875,9.11712112,10.568892752,-0.293667705,0.236931138,0.538409453,1.861170875,9.11712112,10.568892752,-0.293667705,0.236931138
1.065903925,0.531181216,1.95690425,9.424343343,10.651754404,-0.274692997,0.215663313,0.531181216,1.95690425,9.424343343,10.651754404,-0.274692997,0.215663313
1.067903745,0.522113862,2.047892158,9.721296677,10.735305127,-0.258617347,0.197460602,0.522113862,2.047892158,9.721296677,10.735305127,-0.258617347,0.197460602
1.069903565,0.514263081,2.133099636,10.014976568,10.831683537,-0.259540563,0.197566947,0.514263081,2.133099636,10.014976568,10.831683537,-0.259540563,0.197566947
1.071903384,0.506523578,2.215570201,10.307735703,10.937483985,-0.272035143,0.205547274,0.506523578,2.215570201,10.307735703,10.937483985,-0.272035143,0.205547274
1.073903204,0.498355171,2.296477804,10.599385747,11.049264008,-0.291438774,0.215294953,0.498355171,2.296477804,10.599385747,11.049264008,-0.291438774,0.215294953
1.075903024,0.489351604,2.376277799,10.889962979,11.164366234,-0.313624229,0.22387937,0.489351604,2.376277799,10.889962979,11.164366234,-0.313624229,0.22387937
1.077902844,0.479502092,2.454398792,11.179051933,11.280512999,-0.336127732,0.230378826,0.479502092,2.454398792,11.179051933,11.280512999,-0.336127732,0.230378826
1.079902663,0.468622025,2.530174165,11.466314615,11.395857554,-0.356530644,0.234274025,0.468622025,2.530174165,11.466314615,11.395857554,-0.356530644,0.234274025
1.081902483,0.456668887,2.603704135,11.750957966,11.508974509,-0.373631211,0.235552489,0.456668887,2.603704135,11.750957966,11.508974509,-0.373631211,0.235552489
1.083902303,0.443619238,2.67421172,12.032048645,11.618565244,-0.386416744,0.234130598,0.443619238,2.67421172,12.032048645,11.618565244,-0.386416744,0.234130598
1.085902123,0.429554727,2.741208776,12.308545171,11.723547958,-0.394149719,0.230377355,0.429554727,2.741208776,12.308545171,11.723547958,-0.394149719,0.230377355
1.087901942,0.414318534,2.803997053,12.57989005,11.822918384,-0.39641037,0.224244418,0.414318534,2.803997053,12.57989005,11.822918384,-0.39641037,0.224244418
1.089901762,0.397973552,2.862730135,12.844821028,11.915953365,-0.393417819,0.21599954,0.397973552,2.862730135,12.844821028,11.915953365,-0.393417819,0.21599954
1.091901582,0.380257587,2.916465021,13.101802675,12.001886764,-0.384858545,0.205847233,0.380257587,2.916465021,13.101802675,12.001886764,-0.384858545,0.205847233
1.093901402,0.361335876,2.964868841,13.349814852,12.080127179,-0.371136961,0.193835673,0.361335876,2.964868841,13.349814852,12.080127179,-0.371136961,0.193835673
1.095901221,0.341138729,3.00820939,13.587793361,12.149906319,-0.352273502,0.180149501,0.341138729,3.00820939,13.587793361,12.149906319,-0.352273502,0.180149501
1.097901041,0.319400565,3.045615873,13.814627897,12.210733625,-0.328816683,0.164736828,0.319400565,3.045615873,13.814627897,12.210733625,-0.328816683,0.164736828
1.099900861,0.296290044,3.076793793,14.028341535,12.26213133,-0.300881,0.147923066,0.296290044,3.076793793,14.028341535,12.26213133,-0.300881,0.147923066
1.101900681,0.273014104,3.101542951,14.23184747,12.31062295,-0.279068837,0.137775148,0.273014104,3.101542951,14.23184747,12.31062295,-0.279068837,0.137775148
1.1039005,0.250609846,3.120309507,14.428094966,12.361824799,-0.270498231,0.13772944,0.250609846,3.120309507,14.428094966,12.361824799,-0.270498231,0.13772944
1.10590032,0.228476346,3.135020421,14.617373329,12.413618312,-0.270630741,0.140478595,0.228476346,3.135020421,14.617373329,12.413618312,-0.270630741,0.140478595
1.10790014,0.206314014,3.146471323,14.79988188,12.464582455,-0.275977905,0.142923908,0.206314014,3.146471323,14.79988188,12.464582455,-0.275977905,0.142923908
1.10989996,0.184092044,3.154970265,14.974825672,12.513665243,-0.283668275,0.143814086,0.184092044,3.154970265,14.974825672,12.513665243,-0.283668275,0.143814086
1.111899779,0.161839481,3.160107896,15.141734884,12.560152516,-0.291839517,0.142459535,0.161839481,3.160107896,15.141734884,12.560152516,-0.291839517,0.142459535
1.113899599,0.139386314,3.161971107,15.300332315,12.603454717,-0.298806642,0.138735552,0.139386314,3.161971107,15.300332315,12.603454717,-0.298806642,0.138735552
1.115899419,0.116909287,3.160601776,15.450301637,12.643133211,-0.303656476,0.132490112,0.116909287,3.160601776,15.450301637,12.643133211,-0.303656476,0.132490112
1.117899239,0.094365658,3.155172199,15.590723967,12.67878254,-0.305559125,0.124161433,0.094365658,3.155172199,15.590723967,12.67878254,-0.305559125,0.124161433
1.119899058,0.071787738,3.146389896,15.721242926,12.710128019,-0.303969057,0.113705073,0.071787738,3.146389896,15.721242926,12.710128019,-0.303969057,0.113705073
1.121898878,0.049121692,3.133768738,15.841498144,12.736888152,-0.298645641,0.10120073,0.049121692,3.133768738,15.841498144,12.736888152,-0.298645641,0.10120073
1.123898698,0.026409778,3.117138847,15.950522576,12.759007292,-0.289493049,0.086850212,0.026409778,3.117138847,15.950522576,12.759007292,-0.289493049,0.086850212
1.125898518,0.00357371,3.096669775,16.048271718,12.776216856,-0.276413466,0.070804975,0.00357371,3.096669775,16.048271718,12.776216856,-0.276413466,0.070804975
1.127898337,-0.019243546,3.071948254,16.133522935,12.788297866,-0.259425966,0.05320055,-0.019243546,3.071948254,16.133522935,12.788297866,-0.259425966,0.05320055
1.129898157,-0.042245152,3.043487543,16.206541099,12.795129667,-0.238713391,0.034039358,-0.042245152,3.043487543,16.206541099,12.795129667,-0.238713391,0.034039358
1.131897977,-0.065281399,3.011162717,16.266097844,12.79643002,-0.21450288,0.013388133,-0.065281399,3.011162717,16.266097844,12.79643002,-0.21450288,0.013388133
1.133897797,-0.088644154,2.974613523,16.312485253,12.792514509,-0.187726134,-0.007363937,-0.088644154,2.974613523,16.312485253,12.792514509,-0.187726134,-0.007363937
1.135897616,-0.112975178,2.931957623,16.347130491,12.788040272,-0.169254428,-0.015880743,-0.112975178,2.931957623,16.347130491,12.788040272,-0.169254428,-0.015880743
1.137897436,-0.139019807,2.884909976,16.371477555,12.782915153,-0.159538574,-0.015847174,-0.139019807,2.884909976,16.371477555,12.782915153,-0.159538574,-0.015847174
1.139897256,-0.166515204,2.835200619,16.386004206,12.776035418,-0.15549249,-0.01342284,-0.166515204,2.835200619,16.386004206,12.776035418,-0.15549249,-0.01342284
1.141897076,-0.195074191,2.782747211,16.390930553,12.766481844,-0.154686499,-0.011337021,-0.195074191,2.782747211,16.390930553,12.766481844,-0.154686499,-0.011337021
1.143896895,-0.224474093,2.728614892,16.386081348,12.753775979,-0.155450804,-0.011033116,-0.224474093,2.728614892,16.386081348,12.753775979,-0.155450804,-0.011033116
1.145896715,-0.254223138,2.671957543,16.372144854,12.737431542,-0.156422895,-0.012679242,-0.254223138,2.671957543,16.372144854,12.737431542,-0.156422895,-0.012679242
1.147896535,-0.283780947,2.613706903,16.348250839,12.717215076,-0.156505149,-0.016704396,-0.283780947,2.613706903,16.348250839,12.717215076,-0.156505149,-0.016704396
1.149896355,-0.31304065,2.553332167,16.315008123,12.692975634,-0.155075306,-0.022994087,-0.31304065,2.553332167,16.315008123,12.692975634,-0.155075306,-0.022994087
1.151896174,-0.341390486,2.491476889,16.272081767,12.66453469,-0.1516191,-0.031424794,-0.341390486,2.491476889,16.272081767,12.66453469,-0.1516191,-0.031424794
1.153895994,-0.36857898,2.427703355,16.219419212,12.631808767,-0.145787212,-0.041954429,-0.36857898,2.427703355,16.219419212,12.631808767,-0.145787212,-0.041954429
1.155895814,-0.394500112,2.362764486,16.156676422,12.594729555,-0.13726589,-0.054500342,-0.394500112,2.362764486,16.156676422,12.594729555,-0.13726589,-0.054500342
1.157895634,-0.418720404,2.296829283,16.08411162,12.553180961,-0.125963472,-0.068735976,-0.418720404,2.296829283,16.08411162,12.553180961,-0.125963472,-0.068735976
1.159895453,-0.441068002,2.229845015,16.001359005,12.507209732,-0.112078754,-0.084656873,-0.441068002,2.229845015,16.001359005,12.507209732,-0.112078754,-0.084656873
1.161895273,-0.461179109,2.162654313,15.908376003,12.45668775,-0.095396191,-0.102105455,-0.461179109,2.162654313,15.908376003,12.45668775,-0.095396191,-0.102105455
1.163895093,-0.479134909,2.094954739,15.805393907,12.401651729,-0.076006232,-0.121144606,-0.479134909,2.094954739,15.805393907,12.401651729,-0.076006232,-0.121144606
1.165894913,-0.494595918,2.027301555,15.691479112,12.341946511,-0.054137442,-0.141351672,-0.494595918,2.027301555,15.691479112,12.341946511,-0.054137442,-0.141351672
1.167894732,-0.507358232,1.959749159,15.567214814,12.279082861,-0.032224745,-0.158847766,-0.507358232,1.959749159,15.567214814,12.279082861,-0.032224745,-0.158847766
1.169894552,-0.517777891,1.890623816,15.431110242,12.217111551,-0.017513881,-0.161985943,-0.517777891,1.890623816,15.431110242,12.217111551,-0.017513881,-0.161985943
1.171894372,-0.5264269,1.822172205,15.284573461,12.154848111,-0.008749728,-0.15790184,-0.5264269,1.822172205,15.284573461,12.154848111,-0.008749728,-0.15790184
1.173894192,-0.533888951,1.755028081,15.128950577,12.091252344,-0.004078043,-0.151132999,-0.533888951,1.755028081,15.128950577,12.091252344,-0.004078043,-0.151132999
1.175894011,-0.540140364,1.689451733,14.964506766,12.025486545,-0.002361571,-0.143630084,-0.540140364,1.689451733,14.964506766,12.025486545,-0.002361571,-0.143630084
1.177893831,-0.545533727,1.62494975,14.791754868,11.957032225,-0.002598278,-0.136516468,-0.545533727,1.62494975,14.791754868,11.957032225,-0.002598278,-0.136516468
1.179893651,-0.55016014,1.562042259,14.611429836,11.885393544,-0.004013567,-0.130097083,-0.55016014,1.562042259,14.611429836,11.885393544,-0.004013567,-0.130097083
1.181893471,-0.554079939,1.499743006,14.423875356,11.810203097,-0.006013772,-0.124671149,-0.554079939,1.499743006,14.423875356,11.810203097,-0.006013772,-0.124671149
1.18389329,-0.557361554,1.438213128,14.229345786,11.731313807,-0.00826844,-0.120149626,-0.557361554,1.438213128,14.229345786,11.731313807,-0.00826844,-0.120149626
1.18589311,-0.560170643,1.377041307,14.028082101,11.648374544,-0.010301071,-0.116652049,-0.560170643,1.377041307,14.028082101,11.648374544,-0.010301071,-0.116652049
1.18789293,-0.562553356,1.315801748,13.820824171,11.561424791,-0.011780336,-0.113996004,-0.562553356,1.315801748,13.820824171,11.561424791,-0.011780336,-0.113996004
1.18989275,-0.564567295,1.25466903,13.607127276,11.47030816,-0.012864627,-0.112274299,-0.564567295,1.25466903,13.607127276,11.47030816,-0.012864627,-0.112274299
1.191892569,-0.566360134,1.192674905,13.387447795,11.374964391,-0.013081484,-0.111287085,-0.566360134,1.192674905,13.387447795,11.374964391,-0.013081484,-0.111287085
1.193892389,-0.567985363,1.130307677,13.161864453,11.275356078,-0.01260052,-0.111134546,-0.567985363,1.130307677,13.161864453,11.275356078,-0.01260052,-0.111134546
1.195892209,-0.569367753,1.066889478,12.930782607,11.17153769,-0.011242731,-0.111718525,-0.569367753,1.066889478,12.930782607,11.17153769,-0.011242731,-0.111718525
1.197892029,-0.570776937,1.002361156,12.69425914,11.063428256,-0.009013022,-0.112980964,-0.570776937,1.002361156,12.69425914,11.063428256,-0.009013022,-0.112980964
1.199891848,-0.572242664,0.936646737,12.452380929,10.950999997,-0.006013707,-0.114768922,-0.572242664,0.936646737,12.452380929,10.950999997,-0.006013707,-0.114768922
1.201891668,-0.57102212,0.869411231,12.20323105,10.840111553,-0.00578687,-0.113962222,-0.57102212,0.869411231,12.20323105,10.840111553,-0.00578687,-0.113962222
1.203891488,-0.565064266,0.801946293,11.945428995,10.734862966,-0.010894308,-0.108969057,-0.565064266,0.801946293,11.945428995,10.734862966,-0.010894308,-0.108969057
1.205891308,-0.555537269,0.73553255,11.681587013,10.632771207,-0.019683821,-0.10235872,-0.555537269,0.73553255,11.681587013,10.632771207,-0.019683821,-0.10235872
1.207891127,-0.543419626,0.670510695,11.412066365,10.532019608,-0.030843437,-0.095239263,-0.543419626,0.670510695,11.412066365,10.532019608,-0.030843437,-0.095239263
1.209890947,-0.52956802,0.606755729,11.138245878,10.431246231,-0.043460303,-0.088429445,-0.52956802,0.606755729,11.138245878,10.431246231,-0.043460303,-0.088429445
1.211890767,-0.514639752,0.544558419,10.861275534,10.329077015,-0.056737552,-0.081878645,-0.514639752,0.544558419,10.861275534,10.329077015,-0.056737552,-0.081878645
1.213890586,-0.499322953,0.483866628,10.580968668,10.224577515,-0.070177313,-0.075941923,-0.499322953,0.483866628,10.580968668,10.224577515,-0.070177313,-0.075941923
1.215890406,-0.48423036,0.42482187,10.298217502,10.116881968,-0.08329476,-0.070345721,-0.48423036,0.42482187,10.298217502,10.116881968,-0.08329476,-0.070345721
1.217890226,-0.469802904,0.366942377,10.013409611,10.005294961,-0.095772781,-0.065345183,-0.469802904,0.366942377,10.013409611,10.005294961,-0.095772781,-0.065345183
1.219890046,-0.4565432,0.310563767,9.726852508,9.889277347,-0.107581527,-0.06073225,-0.4565432,0.310563767,9.726852508,9.889277347,-0.107581527,-0.06073225
1.221889865,-0.444893506,0.254856015,9.438194186,9.768285883,-0.118522833,-0.056586848,-0.444893506,0.254856015,9.438194186,9.768285883,-0.118522833,-0.056586848
1.223889685,-0.435149519,0.199839235,9.147884564,9.641975696,-0.128461328,-0.052734716,-0.435149519,0.199839235,9.147884564,9.641975696,-0.128461328,-0.052734716
1.225889505,-0.427784713,0.145521613,8.855739065,9.510043127,-0.137425904,-0.04917896,-0.427784713,0.145521613,8.855739065,9.510043127,-0.137425904,-0.04917896
1.227889325,-0.422999705,0.091330939,8.561832407,9.372197481,-0.145355022,-0.046107372,-0.422999705,0.091330939,8.561832407,9.372197481,-0.145355022,-0.046107372
1.229889144,-0.421077635,0.0375348,8.2661933,9.228133868,-0.152336125,-0.043087976,-0.421077635,0.0375348,8.2661933,9.228133868,-0.152336125,-0.043087976
1.231888964,-0.42204876,-0.016702467,7.968239588,9.077724955,-0.158339327,-0.04051954,-0.42204876,-0.016702467,7.968239588,9.077724955,-0.158339327,-0.04051954
1.233888784,-0.426254403,-0.071070132,7.668281458,8.921476044,-0.163879104,-0.038074105,-0.426254403,-0.071070132,7.668281458,8.921476044,-0.163879104,-0.038074105
