sainanliu129-hub/model/applications/Body_GravityPara_Iden/data/跑步/PD-M1-v0_multi_joint_20260227-071606_sim.csv
time,cmd_leg_l1_joint,pos_leg_l1_joint,vel_leg_l1_joint,torque_leg_l1_joint,acc_leg_l1_joint,cmd_torque_leg_l1_joint,cmd_leg_l2_joint,pos_leg_l2_joint,vel_leg_l2_joint,torque_leg_l2_joint,acc_leg_l2_joint,cmd_torque_leg_l2_joint,cmd_leg_l3_joint,pos_leg_l3_joint,vel_leg_l3_joint,torque_leg_l3_joint,acc_leg_l3_joint,cmd_torque_leg_l3_joint,cmd_leg_l4_joint,pos_leg_l4_joint,vel_leg_l4_joint,torque_leg_l4_joint,acc_leg_l4_joint,cmd_torque_leg_l4_joint,cmd_leg_l5_joint,pos_leg_l5_joint,vel_leg_l5_joint,torque_leg_l5_joint,acc_leg_l5_joint,cmd_torque_leg_l5_joint,cmd_leg_l6_joint,pos_leg_l6_joint,vel_leg_l6_joint,torque_leg_l6_joint,acc_leg_l6_joint,cmd_torque_leg_l6_joint,cmd_leg_r1_joint,pos_leg_r1_joint,vel_leg_r1_joint,torque_leg_r1_joint,acc_leg_r1_joint,cmd_torque_leg_r1_joint,cmd_leg_r2_joint,pos_leg_r2_joint,vel_leg_r2_joint,torque_leg_r2_joint,acc_leg_r2_joint,cmd_torque_leg_r2_joint,cmd_leg_r3_joint,pos_leg_r3_joint,vel_leg_r3_joint,torque_leg_r3_joint,acc_leg_r3_joint,cmd_torque_leg_r3_joint,cmd_leg_r4_joint,pos_leg_r4_joint,vel_leg_r4_joint,torque_leg_r4_joint,acc_leg_r4_joint,cmd_torque_leg_r4_joint,cmd_leg_r5_joint,pos_leg_r5_joint,vel_leg_r5_joint,torque_leg_r5_joint,acc_leg_r5_joint,cmd_torque_leg_r5_joint,cmd_leg_r6_joint,pos_leg_r6_joint,vel_leg_r6_joint,torque_leg_r6_joint,acc_leg_r6_joint,cmd_torque_leg_r6_joint
0.000000000,0.000000000,0.000146828,0.000808656,0.012788746,0.011631752,-0.020223625,0.000000000,-0.000639776,-0.001625780,0.219201771,0.003538376,0.218626650,-0.006823000,-0.009894789,-0.011789717,1.136338453,0.011886845,1.139812283,0.424885005,0.347799668,0.380071077,2.162141714,-0.042571376,2.167550213,-0.396259993,-0.378060469,-0.411004308,-0.670729164,0.002854224,-0.670849765,0.000000000,0.000012023,-0.000177735,-0.000687890,-0.000049123,-0.000709786,0.000000000,-0.000007939,-0.000293106,0.002646142,-0.034401003,0.002503760,0.000000000,0.000642916,0.001334104,-0.213060645,0.000015402,-0.212921889,0.065402001,0.053208837,0.057192449,2.167036220,-0.045503085,2.172209814,0.276596010,0.223573755,0.241903512,1.625451947,-0.007886476,1.629700646,-0.291951001,-0.276843254,-0.306705190,-0.654803861,0.000041785,-0.654901625,0.000000000,0.000002804,0.000101669,-0.000571184,-0.000013196,-0.000572440
0.001999820,-0.000031000,0.000146796,0.000424771,-0.020223625,-0.018039400,-0.021353713,0.000016000,-0.000643009,-0.001661859,0.218626650,0.032015494,0.224909734,-0.006821000,-0.009918492,-0.011851697,1.139812283,0.009890650,1.148520045,0.424870014,0.348559489,0.379910657,2.167550213,-0.043941228,2.119749489,-0.396315992,-0.378882425,-0.410978031,-0.670849765,0.002639124,-0.593512979,0.000000000,0.000011798,-0.000113704,-0.000709786,-0.000142962,-0.000869058,-0.000017000,-0.000008117,-0.000273325,0.002503760,-0.080210141,0.000598815,-0.000004000,0.000645583,0.001333481,-0.212921889,-0.000093422,-0.214802601,0.065428004,0.053323036,0.057099598,2.172209814,-0.046425616,2.149240647,0.276553988,0.224057386,0.241815629,1.629700646,-0.008086379,1.597122473,-0.291940987,-0.277456697,-0.306721363,-0.654901625,0.000120408,-0.591846035,0.000004000,0.000002960,0.000106947,-0.000572440,-0.000066373,-0.000198900
0.003999639,-0.000061000,0.000146594,-0.000232697,-0.021353713,0.002914159,-0.020812012,0.000031000,-0.000646199,-0.001656031,0.224909734,-0.028629549,0.229948314,-0.006816000,-0.009940619,-0.011064178,1.148520045,0.065090318,1.138417786,0.424854010,0.349313224,0.376867439,2.119749489,-1.090616446,2.092760140,-0.396375000,-0.379688044,-0.402809512,-0.593512979,0.041588311,-0.541279897,0.000000000,0.000011459,-0.000170963,-0.000869058,-0.000601804,-0.000672036,-0.000034000,-0.000008219,-0.000143144,0.000598815,-1.521609243,-0.001938532,-0.000010000,0.000648302,0.001360278,-0.214802601,0.000812882,-0.217887214,0.065458000,0.053438168,0.057565949,2.149240647,0.233175832,2.114492916,0.276510000,0.224536655,0.239634396,1.597122473,3.350598801,1.579575147,-0.291929990,-0.278056737,-0.300020165,-0.591846035,-0.000431292,-0.549143046,0.000007000,0.000003252,0.000190124,-0.000198900,-0.000767073,-0.000161737
0.005999459,-0.000091000,-0.000146342,-0.000987274,-0.020812012,0.002914159,0.011482085,0.000045000,-0.000649422,-0.001676933,0.229948314,-0.028629549,0.235316455,-0.006810000,-0.009960420,-0.009901222,1.138417786,0.065090318,1.119446687,0.424836993,0.350057870,0.372322853,2.092760140,-1.090616446,2.076952622,-0.396436006,-0.380466990,-0.389473212,-0.541279897,0.041588311,-0.506636285,0.000000000,0.000011031,-0.000216286,-0.000672036,-0.000601804,-0.000499908,-0.000051000,-0.000008221,-0.000005734,-0.001938532,-1.521609243,-0.004527444,-0.000016000,0.000651023,0.001361034,-0.217887214,0.000812882,-0.220383242,0.065490000,0.053554672,0.058252239,2.114492916,0.233175832,2.074949939,0.276464999,0.225009470,0.236407672,1.579575147,3.350598801,1.569802804,-0.291918993,-0.278634804,-0.289033331,-0.549143046,-0.000431292,-0.520844891,0.000010000,0.000003731,0.000291017,-0.000161737,-0.000767073,-0.000193780
0.007999279,-0.000120000,-0.000146160,-0.001109279,0.011482085,-0.010451272,0.009061390,0.000057000,-0.000652622,-0.001660481,0.235316455,-0.022661553,0.239265056,-0.006802000,-0.009977596,-0.008588809,1.119446687,0.068704907,1.096917482,0.424820006,0.350791892,0.367011156,2.076952622,-1.613362283,2.067270642,-0.396499991,-0.381212629,-0.372819372,-0.506636285,0.050446777,-0.485091875,0.000000000,0.000010429,-0.000304484,-0.000499908,-0.000911525,-0.000188338,-0.000069000,-0.000008155,0.000090347,-0.004527444,-2.272292754,-0.006996507,-0.000024000,0.000653701,0.001339481,-0.220383242,0.000984125,-0.222930962,0.065523997,0.053672668,0.058998103,2.074949939,0.343144953,2.034202990,0.276419014,0.225474846,0.232687751,1.569802804,5.493417219,1.563943915,-0.291909009,-0.279185424,-0.275309990,-0.520844891,0.001080888,-0.503202930,0.000013000,0.000004421,0.000394657,-0.000193780,-0.002570114,-0.000254927
0.009999099,-0.000148000,-0.000146086,-0.001271113,0.009061390,0.008225808,0.006984105,0.000069000,-0.000655848,-0.001665668,0.239265056,-0.044099108,0.243710089,-0.006792000,-0.009991959,-0.007182011,1.096917482,0.048040859,1.072022234,0.424802989,0.351514301,0.361204383,2.067270642,-1.859960353,2.061839348,-0.396566004,-0.381920764,-0.354067651,-0.485091875,0.051819989,-0.473506839,0.000000000,0.000009875,-0.000280497,-0.000188338,-0.001123442,-0.000200590,-0.000088000,-0.000008077,0.000118930,-0.006996507,-2.655848606,-0.009191716,-0.000033000,0.000656313,0.001306223,-0.222930962,0.001290232,-0.225479317,0.065560997,0.053792108,0.059720195,2.034202990,0.372931960,1.994436691,0.276371002,0.225932430,0.228792102,1.563943915,6.861670516,1.559698234,-0.291898012,-0.279705279,-0.259927540,-0.503202930,0.001579930,-0.493284662,0.000015000,0.000005334,0.000499902,-0.000254927,-0.001294823,-0.000444346
0.011998918,-0.000176000,-0.000146138,-0.001470967,0.006984105,-0.002128691,0.005135314,0.000079000,-0.000659095,-0.001669926,0.243710089,0.006429103,0.247571745,-0.006781000,-0.010003461,-0.005751419,1.072022234,-0.022819795,1.046059767,0.424784988,0.352224652,0.355175604,2.061839348,-1.945522257,2.058685568,-0.396634012,-0.382589135,-0.334185542,-0.473506839,0.041532613,-0.469356073,0.000000000,0.000009348,-0.000267639,-0.000200590,-0.002070735,-0.000183860,-0.000106000,-0.000008038,0.000073290,-0.009191716,-3.014389585,-0.010856426,-0.000043000,0.000658847,0.001267282,-0.225479317,0.001829653,-0.228161263,0.065600999,0.053912858,0.060375225,1.994436691,0.327515101,1.956668325,0.276322007,0.226382232,0.224901057,1.559698234,8.144221741,1.555849257,-0.291887999,-0.280192557,-0.243639097,-0.493284662,0.002234118,-0.489333913,0.000017000,0.000006432,0.000582967,-0.000444346,-0.000800026,-0.000589348
0.013998738,-0.000202000,-0.000146336,-0.001699243,0.005135314,0.001001062,0.003675837,0.000089000,-0.000662349,-0.001667924,0.247571745,-0.003340860,0.251293858,-0.006769000,-0.010012154,-0.004346546,1.046059767,-0.057614943,1.020164767,0.424766988,0.352922876,0.349111779,2.058685568,-1.889411876,2.056546934,-0.396703988,-0.383216917,-0.313890865,-0.469356073,0.034985871,-0.470679189,0.000000000,0.000008809,-0.000274321,-0.000183860,-0.002454791,-0.000110362,-0.000125000,-0.000008078,-0.000041940,-0.010856426,-3.031912306,-0.012225743,-0.000055000,0.000661294,0.001223615,-0.228161263,0.002219816,-0.231280023,0.065641999,0.054034739,0.060940770,1.956668325,0.282772327,1.920886296,0.276271999,0.226824477,0.221122234,1.555849257,8.312558770,1.551615991,-0.291877002,-0.280646585,-0.227013979,-0.489333913,0.002447973,-0.489601368,0.000018000,0.000007686,0.000652939,-0.000589348,-0.000816002,-0.000813920
0.015998558,-0.000228000,-0.000146702,-0.001939021,0.003675837,0.004216929,0.002299400,0.000097000,-0.000665595,-0.001659490,0.251293858,-0.006807698,0.254299908,-0.006755000,-0.010018148,-0.002997086,1.020164767,-0.090742111,0.995324564,0.424748003,0.353609137,0.343130495,2.056546934,-1.806108155,2.054515095,-0.396777004,-0.383804327,-0.293704892,-0.470679189,0.021882118,-0.476080669,0.000000000,0.000008244,-0.000287936,-0.000110362,-0.002820434,-0.000014592,-0.000145000,-0.000008253,-0.000223424,-0.012225743,-2.990641911,-0.013312695,-0.000067000,0.000663642,0.001174160,-0.231280023,0.002586864,-0.234239786,0.065686002,0.054157556,0.061408185,1.920886296,0.233707534,1.887911597,0.276219994,0.227259497,0.217510017,1.551615991,8.285183951,1.546528684,-0.291866988,-0.281067472,-0.210443611,-0.489601368,0.002644309,-0.493161934,0.000019000,0.000009040,0.000696703,-0.000813920,-0.000718041,-0.000974130
0.017998378,-0.000252000,-0.000147266,-0.002183866,0.002299400,0.006549858,0.001185935,0.000104000,-0.000668824,-0.001646390,0.254299908,-0.004089387,0.256910949,-0.006740000,-0.010021578,-0.001714935,0.995324564,-0.119819144,0.971562171,0.424728990,0.354283720,0.337291887,2.054515095,-1.716346309,2.052204828,-0.396851003,-0.384352330,-0.274001588,-0.476080669,0.014036700,-0.484191948,0.000000000,0.000007665,-0.000296115,-0.000014592,-0.003173886,0.000067156,-0.000164000,-0.000008663,-0.000463062,-0.013312695,-2.919304251,-0.013939037,-0.000080000,0.000665881,0.001119248,-0.234239786,0.002926294,-0.237329141,0.065732002,0.054281120,0.061782032,1.887911597,0.186923503,1.857408345,0.276167989,0.227687651,0.214077325,1.546528684,8.113833469,1.540598976,-0.291855991,-0.281455904,-0.194215944,-0.493161934,0.002842392,-0.498928904,0.000020000,0.000010460,0.000724777,-0.000974130,-0.000649905,-0.001096355
0.019998197,-0.000276000,-0.000148062,-0.002427257,0.001185935,0.008579191,0.000088971,0.000111000,-0.000672024,-0.001629232,0.256910949,-0.001351837,0.259422265,-0.006724000,-0.010022586,-0.000504172,0.971562171,-0.142676656,0.949010558,0.424708992,0.354946970,0.331624910,2.052204828,-1.629101658,2.049328389,-0.396926999,-0.384862378,-0.255024255,-0.484191948,0.009639603,-0.494276981,0.000000000,0.000007084,-0.000298818,0.000067156,-0.003507835,0.000133638,-0.000184000,-0.000009474,-0.000748416,-0.013939037,-2.833488304,-0.014370787,-0.000093000,0.000667999,0.001059078,-0.237329141,0.003244984,-0.240265413,0.065779001,0.054405260,0.062070461,1.857408345,0.144214659,1.828956966,0.276113987,0.228109290,0.210819121,1.540598976,7.849754764,1.533714481,-0.291846007,-0.281812937,-0.178516435,-0.498928904,0.003044016,-0.506470071,0.000021000,0.000011925,0.000744056,-0.001096355,-0.000583289,-0.001198153
0.021998017,-0.000298000,-0.000149128,-0.002669678,0.000088971,0.010370828,-0.000771506,0.000116000,-0.000675188,-0.001608490,0.259422265,0.000192936,0.261273777,-0.006707000,-0.010021312,0.000637315,0.949010558,-0.161774158,0.927661183,0.424688995,0.355599244,0.326136887,2.049328389,-1.547984197,2.045873250,-0.397004992,-0.385336265,-0.236943147,-0.494276981,0.006604644,-0.505670585,0.000000000,0.000006506,-0.000298433,0.000133638,-0.003822010,0.000190964,-0.000205000,-0.000010887,-0.001071964,-0.014370787,-2.744011469,-0.014628990,-0.000108000,0.000669986,0.000993819,-0.240265413,0.003543242,-0.243617968,0.065828003,0.054529826,0.062282820,1.828956966,0.106179560,1.802675176,0.276059002,0.228524736,0.207723153,1.533714481,7.513685085,1.526005812,-0.291835994,-0.282139915,-0.163489065,-0.506470071,0.003242315,-0.515134817,0.000022000,0.000013421,0.000757265,-0.001198153,-0.000513666,-0.001285853
0.023997837,-0.000319000,-0.000150503,-0.002908623,-0.000771506,0.011905311,-0.001512116,0.000121000,-0.000678309,-0.001584679,0.261273777,0.002148893,0.263043570,-0.006690000,-0.010017884,0.001714363,0.927661183,-0.177726097,0.907157099,0.424668998,0.356240891,0.320823647,2.045873250,-1.478462818,2.041846981,-0.397085011,-0.385775997,-0.219866008,-0.505670585,0.005789490,-0.517866519,0.000000000,0.000005939,-0.000294135,0.000190964,-0.004119319,0.000235954,-0.000225000,-0.000013076,-0.001427416,-0.014628990,-2.656620410,-0.014517313,-0.000123000,0.000671833,0.000923335,-0.243617968,0.003823215,-0.246812273,0.065879002,0.054654688,0.062431204,1.802675176,0.074191864,1.778323656,0.276003003,0.228934268,0.204766227,1.526005812,7.136459835,1.517618373,-0.291826010,-0.282438347,-0.149216145,-0.515134817,0.003438654,-0.524542657,0.000022000,0.000014944,0.000768844,-0.001285853,-0.000450246,-0.001472678
0.025997657,-0.000339000,-0.000152228,-0.003143345,-0.001512116,0.013315935,-0.002132741,0.000124000,-0.000681381,-0.001558047,0.263043570,0.002779377,0.264166967,-0.006671000,-0.010012421,0.002731592,0.907157099,-0.187523329,0.887996427,0.424647987,0.356872246,0.315677555,2.041846981,-1.421187290,2.037218716,-0.397166014,-0.386183711,-0.203857196,-0.517866519,-0.005514630,-0.530360454,0.000000000,0.000005389,-0.000288576,0.000235954,-0.004395626,0.000275806,-0.000246000,-0.000016139,-0.001802463,-0.014517313,-2.573045715,-0.014308392,-0.000138000,0.000673532,0.000849365,-0.246812273,0.004087022,-0.249885685,0.065931000,0.054779743,0.062527188,1.778323656,0.047992065,1.755386579,0.275945991,0.229338116,0.201923853,1.517618373,6.734379097,1.508711778,-0.291815996,-0.282709842,-0.135747387,-0.524542657,0.003629538,-0.534383695,0.000022000,0.000016447,0.000757815,-0.001472678,-0.000384746,-0.001593293
0.027997476,-0.000357000,-0.000154342,-0.003374831,-0.002132741,0.014435393,-0.002517037,0.000127000,-0.000684397,-0.001529177,0.264166967,0.004426552,0.265224102,-0.006653000,-0.010005024,0.003698795,0.887996427,-0.194888309,0.869133047,0.424627006,0.357493597,0.310675223,2.037218716,-1.373700918,2.032202437,-0.397249013,-0.386561570,-0.188929711,-0.530360454,-0.010795936,-0.542999272,0.000000000,0.000004861,-0.000279723,0.000275806,-0.004655424,0.000303989,-0.000267000,-0.000020107,-0.002192239,-0.014308392,-2.501166079,-0.013919750,-0.000154000,0.000675076,0.000771735,-0.249885685,0.004333393,-0.253116450,0.065985002,0.054904902,0.062579472,1.755386579,0.026142121,1.733977912,0.275887996,0.229736469,0.199176451,1.508711778,6.319003851,1.499415074,-0.291806012,-0.282956061,-0.123109379,-0.534383695,0.003806125,-0.544420441,0.000022000,0.000017910,0.000736223,-0.001593293,-0.000313625,-0.001679744
0.029997296,-0.000374000,-0.000156882,-0.003599378,-0.002517037,0.015391068,-0.002788529,0.000129000,-0.000687355,-0.001498395,0.265224102,0.004679522,0.265936967,-0.006634000,-0.009995788,0.004618299,0.869133047,-0.199147274,0.851110160,0.424605995,0.358105217,0.305810095,2.032202437,-1.337447250,2.026823641,-0.397332996,-0.386911758,-0.175093865,-0.542999272,-0.012589283,-0.555430598,0.000000000,0.000004358,-0.000270364,0.000303989,-0.004895699,0.000328189,-0.000289000,-0.000024974,-0.002590534,-0.013919750,-2.432563991,-0.013493578,-0.000170000,0.000676457,0.000690616,-0.253116450,0.004560756,-0.256222198,0.066040002,0.055030097,0.062597585,1.733977912,0.009056430,1.713615655,0.275828987,0.230129472,0.196501556,1.499415074,5.901212293,1.489876904,-0.291795999,-0.283178675,-0.111306955,-0.544420441,0.003990787,-0.554464236,0.000023000,0.000019324,0.000711044,-0.001679744,-0.000269908,-0.001650018
0.031997116,-0.000390000,-0.000159881,-0.003816903,-0.002788529,0.016240557,-0.002944225,0.000130000,-0.000690249,-0.001465913,0.265936967,0.005442974,0.266309281,-0.006614000,-0.009984794,0.005497410,0.851110160,-0.201936171,0.833785473,0.424584001,0.358707341,0.301062059,2.026823641,-1.309243667,2.021150251,-0.397419006,-0.387236402,-0.162322121,-0.555430598,-0.003782893,-0.567623046,0.000000000,0.000003885,-0.000259478,0.000328189,-0.005119314,0.000345029,-0.000311000,-0.000030728,-0.002994406,-0.013493578,-2.374017946,-0.012941413,-0.000187000,0.000677669,0.000605711,-0.256222198,0.004771717,-0.259478273,0.066096000,0.055155273,0.062587907,1.713615655,-0.004839223,1.694171297,0.275768995,0.230517238,0.193883069,1.489876904,5.487071940,1.480206465,-0.291785985,-0.283379340,-0.100332811,-0.554464236,0.004152724,-0.564371433,0.000023000,0.000020725,0.000703479,-0.001650018,-0.000194823,-0.001770018
0.033996936,-0.000404000,-0.000163367,-0.004027081,-0.002944225,0.016878789,-0.002876440,0.000130000,-0.000693078,-0.001432156,0.266309281,0.006190072,0.266349757,-0.006594000,-0.009972112,0.006341767,0.833785473,-0.202572548,0.816766907,0.424562007,0.359300171,0.296414894,2.021150251,-1.288556626,2.015346948,-0.397507012,-0.387537576,-0.150587037,-0.567623046,-0.009036922,-0.579442083,0.000000000,0.000003447,-0.000247098,0.000345029,-0.005325696,0.000354091,-0.000333000,-0.000037349,-0.003399551,-0.012941413,-2.323582509,-0.012289561,-0.000204000,0.000678704,0.000517755,-0.259478273,0.004966873,-0.262615361,0.066152997,0.055280385,0.062556196,1.694171297,-0.015855365,1.675527099,0.275707990,0.230899850,0.191305956,1.480206465,5.082349374,1.470503501,-0.291776001,-0.283559676,-0.090168112,-0.564371433,0.004308051,-0.574034981,0.000022000,0.000022090,0.000685405,-0.001770018,-0.000142935,-0.001957656
0.035996755,-0.000416000,-0.000167358,-0.004226650,-0.002876440,0.017390070,-0.002601579,0.000128000,-0.000695839,-0.001397376,0.266349757,0.006691939,0.265779265,-0.006572000,-0.009957804,0.007154019,0.816766907,-0.201217239,0.800581140,0.424539000,0.359883889,0.291859091,2.015346948,-1.274431829,2.009405776,-0.397601008,-0.387817283,-0.139853450,-0.579442083,-0.021152262,-0.591188854,0.000000000,0.000003049,-0.000233714,0.000354091,-0.005514391,0.000356296,-0.000356000,-0.000044817,-0.003801986,-0.012289561,-2.277901578,-0.011669396,-0.000223000,0.000679560,0.000427544,-0.262615361,0.005145473,-0.266218673,0.066214003,0.055405399,0.062507270,1.675527099,-0.024463126,1.658439486,0.275644988,0.231277364,0.188757092,1.470503501,4.691043185,1.460795612,-0.291765004,-0.283721248,-0.080786026,-0.574034981,0.004459255,-0.583267555,0.000019000,0.000023371,0.000643100,-0.001957656,-0.000095043,-0.002270084
0.037996575,-0.000428000,-0.000171863,-0.004413261,-0.002601579,0.017390070,-0.002345142,0.000125000,-0.000698530,-0.001361968,0.265779265,0.006691939,0.264890553,-0.006546000,-0.009941928,0.007938724,0.800581140,-0.201217239,0.785709497,0.424515009,0.360458656,0.287383452,2.009405776,-1.274431829,2.003398082,-0.397702008,-0.388077504,-0.130110418,-0.591188854,-0.021152262,-0.602796648,0.000000000,0.000002698,-0.000218050,0.000356296,-0.005514391,0.000347291,-0.000379000,-0.000053113,-0.004201040,-0.011669396,-2.237819471,-0.010980042,-0.000244000,0.000680231,0.000335446,-0.266218673,0.005308340,-0.270295431,0.066279002,0.055530300,0.062450097,1.658439486,-0.028586548,1.642706048,0.275579005,0.231649789,0.186212620,1.460795612,4.324101338,1.451189704,-0.291752994,-0.283865524,-0.072137823,-0.583267555,0.004585476,-0.592059352,0.000012000,0.000024478,0.000555322,-0.002270084,-0.000031700,-0.002839857
0.039996395,-0.000438000,-0.000176887,-0.004589527,-0.002345142,0.017811295,-0.001878771,0.000120000,-0.000701150,-0.001326346,0.264890553,0.008539035,0.263408476,-0.006518000,-0.009924525,0.008702032,0.785709497,-0.196421830,0.771456396,0.424488991,0.361024602,0.282973031,2.003398082,-1.278922274,1.997355978,-0.397810012,-0.388320185,-0.121340346,-0.602796648,-0.090283833,-0.614118823,0.000000000,0.000002398,-0.000200972,0.000347291,-0.005850020,0.000328983,-0.000403000,-0.000062218,-0.004593884,-0.010980042,-2.205210311,-0.010346270,-0.000267000,0.000680715,0.000242037,-0.270295431,0.005457413,-0.274857926,0.066347003,0.055655082,0.062391097,1.642706048,-0.029499776,1.627900935,0.275510013,0.232017099,0.183654776,1.451189704,3.979676522,1.441811852,-0.291741014,-0.283993881,-0.064178470,-0.592059352,0.004697848,-0.600504586,0.000002000,0.000025225,0.000374755,-0.002839857,0.000018886,-0.003412672
0.041996215,-0.000448000,-0.000182424,-0.004752991,-0.001878771,0.017627891,-0.001430107,0.000114000,-0.000703701,-0.001291090,0.263408476,0.009419745,0.261630613,-0.006487000,-0.009905632,0.009446646,0.771456396,-0.194050049,0.758055510,0.424463004,0.361581841,0.278619450,1.997355978,-1.289217211,1.991461730,-0.397922993,-0.388547217,-0.113516347,-0.614118823,-0.135939461,-0.624835779,0.000000000,0.000002156,-0.000182133,0.000328983,-0.005990995,0.000299898,-0.000427000,-0.000072115,-0.004981984,-0.010346270,-2.176790687,-0.009654806,-0.000291000,0.000681008,0.000146182,-0.274857926,0.005589545,-0.279594858,0.066418998,0.055779747,0.062332828,1.627900935,-0.029134351,1.614247555,0.275438994,0.232379252,0.181076341,1.441811852,3.650630163,1.432778078,-0.291729003,-0.284107635,-0.056877209,-0.600504586,0.004817431,-0.608551654,-0.000012000,0.000025430,0.000102876,-0.003412672,0.000046645,-0.004075376
0.043996034,-0.000457000,-0.000188464,-0.004905556,-0.001430107,0.017276607,-0.000882860,0.000107000,-0.000706183,-0.001256537,0.261630613,0.009860384,0.259564892,-0.006453000,-0.009885280,0.010176530,0.758055510,-0.190660033,0.745425554,0.424436003,0.362130462,0.274310509,1.991461730,-1.303790558,1.985730525,-0.398039013,-0.388760384,-0.106583137,-0.624835779,-0.190083438,-0.634728851,0.000000000,0.000001972,-0.000162412,0.000299898,-0.006116476,0.000262431,-0.000452000,-0.000082787,-0.005363304,-0.009654806,-2.154470566,-0.009025641,-0.000318000,0.000681105,0.000048567,-0.279594858,0.005708485,-0.285089231,0.066494003,0.055904305,0.062278681,1.614247555,-0.027073490,1.601387317,0.275366008,0.232736189,0.178468760,1.432778078,3.339709255,1.424156653,-0.291716009,-0.284208031,-0.050197791,-0.608551654,0.004914435,-0.616081541,-0.000028000,0.000024878,-0.000277291,-0.004075376,0.000100990,-0.004555749
0.045995854,-0.000466000,-0.000194991,-0.005046836,-0.000882860,0.017276607,-0.000347537,0.000098000,-0.000708598,-0.001222876,0.259564892,0.009860384,0.256931804,-0.006417000,-0.009863490,0.010895655,0.745425554,-0.188858249,0.733198635,0.424407989,0.362670526,0.270032245,1.985730525,-1.320451609,1.980257734,-0.398158014,-0.388961316,-0.100466104,-0.634728851,-0.224982067,-0.643839165,0.000000000,0.000001843,-0.000142491,0.000262431,-0.006227298,0.000218849,-0.000477000,-0.000094225,-0.005741020,-0.009025641,-2.139131865,-0.008335295,-0.000346000,0.000681000,-0.000052989,-0.285089231,0.005812694,-0.290720996,0.066573001,0.056028764,0.062229828,1.601387317,-0.024426469,1.589570244,0.275292009,0.233087845,0.175827857,1.424156653,3.050587649,1.416041702,-0.291703999,-0.284296224,-0.044096616,-0.616081541,0.005002846,-0.623300109,-0.000047000,0.000023428,-0.000727255,-0.004555749,0.000137984,-0.005050265
0.047995674,-0.000474000,-0.000201986,-0.005178234,-0.000347537,0.015947007,0.000288420,0.000088000,-0.000710950,-0.001190982,0.256931804,0.010837783,0.254036346,-0.006380000,-0.009840280,0.011605377,0.733198635,-0.186324925,0.721065247,0.424380004,0.363202081,0.265777487,1.980257734,-1.337560152,1.975157253,-0.398279011,-0.389151511,-0.095097594,-0.643839165,-0.261390144,-0.652108369,0.000000000,0.000001762,-0.000120815,0.000218849,-0.006322944,0.000165373,-0.000503000,-0.000106415,-0.006113670,-0.008335295,-2.127379250,-0.007699948,-0.000375000,0.000680684,-0.000158053,-0.290720996,0.005902300,-0.296497929,0.066653997,0.056153138,0.062187136,1.589570244,-0.021346414,1.578205676,0.275216013,0.233434150,0.173152736,1.416041702,2.773560490,1.408381789,-0.291691989,-0.284373323,-0.038549495,-0.623300109,0.005087243,-0.630064740,-0.000069000,0.000020939,-0.001250036,-0.005050265,0.000167633,-0.005535827
0.049995494,-0.000482000,-0.000209426,-0.005298053,0.000288420,0.015947007,0.000906269,0.000077000,-0.000713242,-0.001161061,0.254036346,0.010837783,0.250884316,-0.006340000,-0.009815672,0.012304726,0.721065247,-0.186324925,0.709621751,0.424351990,0.363725170,0.261544644,1.975157253,-1.337560152,1.970433844,-0.398400992,-0.389332327,-0.090407995,-0.652108369,-0.261390144,-0.659494732,0.000000000,0.000001719,-0.000098782,0.000165373,-0.006322944,0.000107115,-0.000529000,-0.000119350,-0.006483068,-0.007699948,-2.116421094,-0.007003608,-0.000405000,0.000680150,-0.000267232,-0.296497929,0.005978189,-0.302403991,0.066737004,0.056277437,0.062149594,1.578205676,-0.018770626,1.567317732,0.275139987,0.233775040,0.170445039,1.408381789,2.514096959,1.401293616,-0.291680008,-0.284440366,-0.033521301,-0.630064740,0.005161343,-0.636373422,-0.000093000,0.000017274,-0.001843174,-0.005535827,0.000203593,-0.005904658
0.051995313,-0.000490000,-0.000217284,-0.005407631,0.000906269,0.013916623,0.001510799,0.000065000,-0.000715478,-0.001133228,0.250884316,0.011313902,0.247479425,-0.006300000,-0.009789680,0.012996202,0.709621751,-0.182928542,0.697963096,0.424324006,0.364239819,0.257324195,1.970433844,-1.368151138,1.966157398,-0.398521990,-0.389504967,-0.086319817,-0.659494732,-0.320359884,-0.665898203,0.000000000,0.000001700,-0.000076154,0.000107115,-0.006468043,0.000044649,-0.000555000,-0.000133022,-0.006848926,-0.007003608,-2.110224651,-0.006248788,-0.000436000,0.000679389,-0.000381043,-0.302403991,0.006042205,-0.308424823,0.066822998,0.056401668,0.062115572,1.567317732,-0.017011019,1.557218764,0.275063008,0.234110458,0.167708737,1.401293616,2.271618914,1.394694204,-0.291667998,-0.284498322,-0.028978063,-0.636373422,0.005211973,-0.642218686,-0.000118000,0.000012354,-0.002483893,-0.005904658,0.000247917,-0.006112496
0.053995133,-0.000498000,-0.000225533,-0.005507091,0.001510799,0.012599253,0.002099835,0.000053000,-0.000717664,-0.001108029,0.247479425,0.011753373,0.244119807,-0.006258000,-0.009762327,0.013677315,0.697963096,-0.180730205,0.686720140,0.424295992,0.364746053,0.253117223,1.966157398,-1.383525102,1.962314738,-0.398642004,-0.389670472,-0.082752719,-0.665898203,-0.328601564,-0.671441865,0.000000000,0.000001696,-0.000052647,0.000044649,-0.006521381,-0.000021688,-0.000582000,-0.000147421,-0.007210386,-0.006248788,-2.103485813,-0.005547964,-0.000469000,0.000678390,-0.000499864,-0.308424823,0.006091453,-0.314833298,0.066910997,0.056525840,0.062085896,1.557218764,-0.014837859,1.547608045,0.274984986,0.234440341,0.164941686,1.394694204,2.048329215,1.388597023,-0.291658014,-0.284548085,-0.024881405,-0.642218686,0.005269632,-0.647827197,-0.000146000,0.000006242,-0.003141096,-0.006112496,0.000257592,-0.006456186
0.055994953,-0.000506000,-0.000234146,-0.005596852,0.002099835,0.011388103,0.002672737,0.000040000,-0.000719804,-0.001085253,0.244119807,0.011596845,0.240517771,-0.006215000,-0.009733631,0.014348650,0.686720140,-0.179833083,0.675601013,0.424268007,0.365243891,0.248919093,1.962314738,-1.395318169,1.958941467,-0.398759007,-0.389829740,-0.079633734,-0.671441865,-0.348776963,-0.676037774,0.000000000,-0.000001696,-0.000029454,-0.000021688,-0.006560105,0.000255112,-0.000608000,-0.000162541,-0.007570052,-0.005547964,-2.099065303,-0.004673681,-0.000501000,0.000677142,-0.000624197,-0.314833298,0.006129416,-0.320762192,0.067001000,0.056649956,0.062058112,1.547608045,-0.013892352,1.538540035,0.274908006,0.234764643,0.162151050,1.388597023,1.831725021,1.383085920,-0.291648000,-0.284590521,-0.021217954,-0.647827197,0.005297789,-0.652941578,-0.000175000,-0.000002690,-0.003838650,-0.006456186,0.000305989,-0.006501242
0.057994773,-0.000515000,-0.000243093,-0.005677365,0.002672737,0.009341313,0.003122425,0.000026000,-0.000721906,-0.001066570,0.240517771,0.044735307,0.236713403,-0.006172000,-0.009703613,0.015009274,0.675601013,-0.176772885,0.664348627,0.424239993,0.365733347,0.244727871,1.958941467,-1.405982537,1.956046684,-0.398871988,-0.389983507,-0.076883573,-0.676037774,-0.342007093,-0.679734391,0.000000000,0.000001698,0.000060017,0.000255112,-0.006586079,-0.000342206,-0.000635000,-0.000178372,-0.007923598,-0.004673681,-2.095610953,-0.003864964,-0.000535000,0.000675635,-0.000753796,-0.320762192,0.006155742,-0.327066814,0.067092001,0.056774018,0.062031244,1.538540035,-0.013433897,1.529750346,0.274830997,0.235083321,0.159339085,1.383085920,1.634376085,1.378079774,-0.291639000,-0.284626419,-0.017949202,-0.652941578,0.005327986,-0.657696952,-0.000205000,-0.000011005,-0.004522665,-0.006501242,0.000316474,-0.006748138
0.059994592,-0.000524000,-0.000252351,-0.005750907,0.003122425,0.008798097,0.003565730,0.000012000,-0.000723974,-0.001048974,0.236713403,-0.004890067,0.232923569,-0.006128000,-0.009672300,0.015656936,0.664348627,-0.175248790,0.653305407,0.424214005,0.366214437,0.240545083,1.956046684,-1.413290733,1.953748371,-0.398979992,-0.390132365,-0.074428920,-0.679734391,-0.353154091,-0.682584039,0.000000000,0.000001706,0.000050237,-0.000342206,-0.006599579,-0.000315223,-0.000662000,-0.000194905,-0.008274096,-0.003864964,-2.091393924,-0.002998529,-0.000568000,0.000673858,-0.000889003,-0.327066814,0.006168691,-0.332883486,0.067184001,0.056898024,0.062002635,1.529750346,-0.014304541,1.521300093,0.274753988,0.235396346,0.156512504,1.378079774,1.449161355,1.373534604,-0.291631997,-0.284656521,-0.015050880,-0.657696952,0.005349467,-0.662186836,-0.000236000,-0.000021372,-0.005228973,-0.006748138,0.000338387,-0.006825448
0.061994412,-0.000533000,-0.000261892,-0.005816930,0.003565730,0.007043838,0.003996802,-0.000002000,-0.000726012,-0.001034887,0.232923569,0.004944917,0.229205019,-0.006084000,-0.009639722,0.016289718,0.653305407,-0.172884850,0.642239032,0.424187988,0.366687183,0.236372865,1.953748371,-1.417771677,1.951900122,-0.399082005,-0.390276767,-0.072201418,-0.682584039,-0.349440995,-0.684632735,0.000000000,0.000001723,0.000060127,-0.000315223,-0.006600159,-0.000345094,-0.000688000,-0.000212132,-0.008619865,-0.002998529,-2.086109069,-0.001978342,-0.000602000,0.000671799,-0.001029550,-0.332883486,0.006171879,-0.338783735,0.067276999,0.057021964,0.061970311,1.521300093,-0.016161962,1.513236027,0.274679005,0.235703700,0.153676960,1.373534604,1.272740659,1.369539357,-0.291626990,-0.284681532,-0.012505398,-0.662186836,0.005349618,-0.666389912,-0.000267000,-0.000033193,-0.005927855,-0.006825448,0.000370201,-0.006776810
0.063994232,-0.000543000,-0.000271692,-0.005875275,0.003996802,0.005451332,0.004305428,-0.000016000,-0.000728029,-0.001023984,0.229205019,0.009038664,0.225552248,-0.006040000,-0.009605912,0.016905604,0.642239032,-0.169489349,0.631204870,0.424163014,0.367151609,0.232212787,1.951900122,-1.418617990,1.950557010,-0.399177015,-0.390417039,-0.070135879,-0.684632735,-0.333410070,-0.685930661,0.000000000,0.000001758,0.000078204,-0.000345094,-0.006589464,-0.000399993,-0.000715000,-0.000230039,-0.008958844,-0.001978342,-2.080039040,-0.001030718,-0.000636000,0.000669449,-0.001175874,-0.338783735,0.006163226,-0.344470167,0.067371003,0.057145828,0.061931802,1.513236027,-0.019254735,1.505619666,0.274603993,0.236005380,0.150839724,1.369539357,1.105352086,1.365912686,-0.291622996,-0.284702121,-0.010294694,-0.666389912,0.005348315,-0.670190473,-0.000300000,-0.000046365,-0.006594675,-0.006776810,0.000378479,-0.006884982
0.065994052,-0.000554000,-0.000281729,-0.005927724,0.004305428,0.003871140,0.004499327,-0.000031000,-0.000730030,-0.001016242,0.225552248,0.010752629,0.221682243,-0.005996000,-0.009570908,0.017502476,0.631204870,-0.166561561,0.620261320,0.424138993,0.367607744,0.228067475,1.950557010,-1.419790038,1.949692857,-0.399264008,-0.390553383,-0.068171826,-0.685930661,-0.332689250,-0.686526839,0.000000000,0.000001821,0.000099709,-0.000399993,-0.006568500,-0.000467483,-0.000742000,-0.000248613,-0.009291967,-0.001030718,-2.072656006,-0.000045060,-0.000670000,0.000666796,-0.001326971,-0.344470167,0.006143881,-0.349962752,0.067465998,0.057269602,0.061887129,1.505619666,-0.022336324,1.498449775,0.274531990,0.236301380,0.148000144,1.365912686,0.954535218,1.362851530,-0.291621000,-0.284718892,-0.008385624,-0.670190473,0.005335487,-0.673721172,-0.000332000,-0.000060874,-0.007260053,-0.006884982,0.000396100,-0.006760982
0.067993871,-0.000566000,-0.000291984,-0.005976413,0.004499327,0.002139447,0.004588652,-0.000045000,-0.000732022,-0.001011963,0.221682243,0.011908457,0.218172274,-0.005953000,-0.009534752,0.018078679,0.620261320,-0.163572430,0.609173569,0.424116999,0.368055621,0.223938707,1.949692857,-1.416932064,1.949360704,-0.399342000,-0.390685887,-0.066252196,-0.686526839,-0.310203643,-0.686475121,0.000000000,0.000001925,0.000123526,-0.000467483,-0.006536784,-0.000545690,-0.000769000,-0.000267842,-0.009619112,-0.000045060,-2.064383988,0.000976656,-0.000703000,0.000663830,-0.001483677,-0.349962752,0.006114367,-0.354955172,0.067561999,0.057393269,0.061833535,1.498449775,-0.026796729,1.491798033,0.274461001,0.236591713,0.145166280,1.362851530,0.811710059,1.360171751,-0.291624010,-0.284732417,-0.006762204,-0.673721172,0.005313171,-0.677273920,-0.000366000,-0.000076628,-0.007880461,-0.006760982,0.000410822,-0.006841197
0.069993691,-0.000578000,-0.000302441,-0.006022172,0.004588652,0.000529232,0.004683057,-0.000063000,-0.000734012,-0.001010904,0.218172274,0.011048126,0.213597477,-0.005907000,-0.009497493,0.018630306,0.609173569,-0.159709910,0.599180770,0.424095988,0.368495289,0.219834110,1.949360704,-1.410412452,1.949437401,-0.399416000,-0.390814544,-0.064328202,-0.686475121,-0.308303301,-0.686421101,0.000000000,0.000002078,0.000145622,-0.000545690,-0.006492005,-0.000624047,-0.000797000,-0.000287711,-0.009938532,0.000976656,-2.052298620,0.001916283,-0.000738000,0.000660542,-0.001644415,-0.354955172,0.006075763,-0.360333515,0.067662999,0.057516807,0.061769202,1.491798033,-0.032166470,1.486846819,0.274392992,0.236876404,0.142345455,1.360171751,0.664959363,1.357943891,-0.291637003,-0.284743281,-0.005432285,-0.677273920,0.005283768,-0.681270071,-0.000407000,-0.000093618,-0.008497067,-0.006841197,0.000420305,-0.007514832
0.071993511,-0.000589000,-0.000313089,-0.006066356,0.004683057,0.000529232,0.004895358,-0.000082000,-0.000736007,-0.001013932,0.213597477,0.012895048,0.208832355,-0.005858000,-0.009459177,0.019158891,0.599180770,-0.156910942,0.590261489,0.424077004,0.368926796,0.215753556,1.949437401,-1.401081813,1.949986700,-0.399484992,-0.390939344,-0.062400107,-0.686421101,-0.361424978,-0.686262457,0.000000000,0.000002294,0.000171412,-0.000624047,-0.006443400,-0.000719137,-0.000825000,-0.000308209,-0.010252354,0.001916283,-2.040276827,0.002891249,-0.000775000,0.000656929,-0.001807309,-0.360333515,0.006027443,-0.366139035,0.067768998,0.057640196,0.061694960,1.486846819,-0.037121152,1.483582989,0.274327010,0.237155490,0.139543291,1.357943891,0.496605912,1.356065391,-0.291660994,-0.284752159,-0.004439073,-0.681270071,0.005228713,-0.685621139,-0.000453000,-0.000112054,-0.009219917,-0.007514832,0.000444454,-0.008245500
0.073993331,-0.000600000,-0.000323912,-0.006107243,0.004895358,-0.003550604,0.005107648,-0.000104000,-0.000738015,-0.001021033,0.208832355,0.012932148,0.203310358,-0.005808000,-0.009419850,0.019663944,0.590261489,-0.153934239,0.581871531,0.424057990,0.369350198,0.211700886,1.949986700,-1.390941455,1.950847892,-0.399549991,-0.391060272,-0.060463851,-0.686262457,-0.418900464,-0.686114787,0.000000000,0.000002576,0.000197277,-0.000719137,-0.006382670,-0.000821200,-0.000855000,-0.000329323,-0.010560222,0.002891249,-2.026334952,0.003685069,-0.000812000,0.000652985,-0.001972675,-0.366139035,0.005972323,-0.371794629,0.067878999,0.057763422,0.061612607,1.483582989,-0.041176483,1.481686686,0.274262011,0.237429013,0.136761409,1.356065391,0.311495786,1.354456292,-0.291693985,-0.284759791,-0.003816081,-0.685621139,0.005169954,-0.689955213,-0.000505000,-0.000132166,-0.010057718,-0.008245500,0.000446338,-0.009086330
0.075993150,-0.000612000,-0.000334896,-0.006145620,0.005107648,-0.006150484,0.005216456,-0.000128000,-0.000740046,-0.001033334,0.203310358,0.014076772,0.197344123,-0.005756000,-0.009379563,0.020143942,0.581871531,-0.152178990,0.574343932,0.424039990,0.369765562,0.207681885,1.950847892,-1.383012603,1.952041491,-0.399612010,-0.391177321,-0.058524773,-0.686114787,-0.487281681,-0.686065885,0.000000000,0.000002930,0.000225430,-0.000821200,-0.006312730,-0.000937068,-0.000885000,-0.000351046,-0.010864580,0.003685069,-2.009500615,0.004523986,-0.000851000,0.000648706,-0.002140002,-0.371794629,0.005905129,-0.377879288,0.067992002,0.057886471,0.061524941,1.481686686,-0.043833323,1.480813883,0.274199009,0.237697004,0.133995383,1.354456292,0.127386175,1.353210033,-0.291736990,-0.284766914,-0.003561309,-0.689955213,0.005122462,-0.694305958,-0.000562000,-0.000154229,-0.011032281,-0.009086330,0.000433636,-0.009846619
0.077992970,-0.000623000,-0.000346037,-0.006184424,0.005216456,-0.009062639,0.005450886,-0.000153000,-0.000742113,-0.001051460,0.197344123,0.014722222,0.191235279,-0.005703000,-0.009338367,0.020598862,0.574343932,-0.150487971,0.567409269,0.424023002,0.370172962,0.203700101,1.952041491,-1.373825171,1.953537569,-0.399672002,-0.391290510,-0.056594682,-0.686065885,-0.546937831,-0.686176750,0.000000000,0.000003359,0.000254875,-0.000937068,-0.006232509,-0.001064110,-0.000916000,-0.000373372,-0.011165556,0.004523986,-1.990891713,0.005301406,-0.000890000,0.000644087,-0.002310518,-0.377879288,0.005829922,-0.383794898,0.068108000,0.058009335,0.061432090,1.480813883,-0.046425480,1.480962482,0.274136990,0.237959499,0.131247733,1.353210033,-0.059418353,1.352242398,-0.291786999,-0.284774274,-0.003680146,-0.694305958,0.005055596,-0.698278326,-0.000623000,-0.000178479,-0.012126157,-0.009846619,0.000452556,-0.010450825
0.079992790,-0.000636000,-0.000357324,-0.006221226,0.005450886,-0.011928896,0.005476381,-0.000180000,-0.000744225,-0.001075317,0.191235279,0.014186397,0.184700759,-0.005649000,-0.009296314,0.021027008,0.567409269,-0.148856392,0.561121014,0.424005985,0.370572488,0.199763021,1.953537569,-1.368939881,1.955211386,-0.399729997,-0.391399895,-0.054692365,-0.686176750,-0.592270354,-0.686391366,0.000000000,0.000003859,0.000283248,-0.001064110,-0.006142187,-0.001195272,-0.000947000,-0.000396294,-0.011463269,0.005301406,-1.968540157,0.006123889,-0.000930000,0.000639120,-0.002484254,-0.383794898,0.005748279,-0.389823179,0.068226002,0.058132010,0.061337369,1.480962482,-0.047360055,1.481776894,0.274073988,0.238216519,0.128509853,1.352242398,-0.228412836,1.351489069,-0.291844010,-0.284782548,-0.004136971,-0.698278326,0.004989405,-0.701905267,-0.000688000,-0.000205099,-0.013310698,-0.010450825,0.000446065,-0.010962058
0.081992610,-0.000648000,-0.000368756,-0.006261017,0.005476381,-0.015213547,0.005640899,-0.000207000,-0.000746397,-0.001105744,0.184700759,0.014549056,0.178331659,-0.005595000,-0.009253457,0.021429190,0.561121014,-0.146660225,0.555191401,0.423988998,0.370964230,0.195871208,1.955211386,-1.366917977,1.957056979,-0.399785995,-0.391505550,-0.052827425,-0.686391366,-0.628455371,-0.686674879,0.000000000,0.000004429,0.000312346,-0.001195272,-0.006045924,-0.001335573,-0.000977000,-0.000419802,-0.011756589,0.006123889,-1.945906558,0.007090702,-0.000970000,0.000633798,-0.002661795,-0.389823179,0.005657372,-0.395664503,0.068346001,0.058254495,0.061242707,1.481776894,-0.047331040,1.483211379,0.274010986,0.238468071,0.125776017,1.351489069,-0.381933014,1.351052362,-0.291907012,-0.284792350,-0.004900837,-0.701905267,0.004915659,-0.705110298,-0.000756000,-0.000234233,-0.014567609,-0.010962058,0.000449837,-0.011316657
0.083992429,-0.000662000,-0.000380329,-0.006300801,0.005640899,-0.018251167,0.005607195,-0.000235000,-0.000748640,-0.001142247,0.178331659,0.013176862,0.171836010,-0.005540000,-0.009209850,0.021804255,0.555191401,-0.142534458,0.549946236,0.423972011,0.371348289,0.192029375,1.957056979,-1.367147793,1.959032652,-0.399841994,-0.391607568,-0.051009194,-0.686674879,-0.650300358,-0.687193118,0.000000000,0.000005061,0.000338699,-0.001335573,-0.005938528,-0.001474416,-0.001007000,-0.000443882,-0.012041658,0.007090702,-1.920916504,0.008071664,-0.001011000,0.000628114,-0.002843064,-0.395664503,0.005562032,-0.401602752,0.068466000,0.058376794,0.061149526,1.483211379,-0.046590717,1.484665347,0.273948014,0.238714154,0.123041722,1.351052362,-0.517037585,1.350966228,-0.291976005,-0.284804220,-0.005934913,-0.705110298,0.004835979,-0.707943513,-0.000825000,-0.000265969,-0.015868209,-0.011316657,0.000449724,-0.011385200
0.085992249,-0.000677000,-0.000392046,-0.006344867,0.005607195,-0.018251167,0.005506460,-0.000264000,-0.000750967,-0.001185349,0.171836010,0.013176862,0.165229380,-0.005485000,-0.009165546,0.022153116,0.549946236,-0.142534458,0.545095343,0.423954993,0.371724766,0.188238572,1.959032652,-1.367147793,1.961122616,-0.399897009,-0.391706085,-0.049258462,-0.687193118,-0.650300358,-0.687773934,0.000000000,0.000005752,0.000363987,-0.001474416,-0.005826166,-0.001616155,-0.001037000,-0.000468517,-0.012319498,0.008071664,-1.895401647,0.009071008,-0.001053000,0.000622057,-0.003029855,-0.401602752,0.005456911,-0.407594173,0.068585999,0.058498905,0.061055552,1.484665347,-0.046987043,1.486190669,0.273882985,0.238954777,0.120311485,1.350966228,-0.638432338,1.351066261,-0.292048991,-0.284818643,-0.007211777,-0.707943513,0.004749867,-0.710231989,-0.000896000,-0.000300282,-0.017157181,-0.011385200,0.000450532,-0.011428378
0.087992069,-0.000692000,-0.000403915,-0.006394934,0.005506460,-0.021551072,0.005455763,-0.000293000,-0.000753392,-0.001235252,0.165229380,0.012643923,0.158804385,-0.005430000,-0.009120595,0.022475873,0.545095343,-0.138919686,0.540651532,0.423936993,0.372093767,0.184500232,1.961122616,-1.365118133,1.963249809,-0.399953008,-0.391801249,-0.047581796,-0.687773934,-0.644486030,-0.688582483,0.000000000,0.000006498,0.000388037,-0.001616155,-0.005826166,-0.001759887,-0.001066000,-0.000493693,-0.012589635,0.009071008,-1.895401647,0.010191012,-0.001094000,0.000615615,-0.003221947,-0.407594173,0.005456911,-0.413072310,0.068705998,0.058620828,0.060961796,1.486190669,-0.046987043,1.487764353,0.273817003,0.239189937,0.117579930,1.351066261,-0.638432338,1.351460512,-0.292126000,-0.284836008,-0.008682451,-0.710231989,0.004749867,-0.712078817,-0.000968000,-0.000337140,-0.018429541,-0.011428378,0.000450532,-0.011362649
0.089991889,-0.000710000,-0.000415940,-0.006449911,0.005455763,-0.024951568,0.005129758,-0.000322000,-0.000755928,-0.001291647,0.158804385,0.012024879,0.152557700,-0.005376000,-0.009075052,0.022772511,0.540651532,-0.135068651,0.536345592,0.423918009,0.372455401,0.180816889,1.963249809,-1.365777891,1.965389286,-0.400009006,-0.391893250,-0.046000354,-0.688582483,-0.636179889,-0.689439966,0.000000000,0.000007291,0.000409180,-0.001759887,-0.005707304,-0.001900157,-0.001094000,-0.000519386,-0.012848412,0.010191012,-1.869169690,0.011408562,-0.001135000,0.000608780,-0.003418585,-0.413072310,0.005347027,-0.418335898,0.068824001,0.058742563,0.060867602,1.487764353,-0.046877880,1.488833929,0.273748010,0.239419631,0.114846986,1.351460512,-0.735336637,1.352019750,-0.292205006,-0.284856629,-0.010310155,-0.712078817,0.004660547,-0.713351998,-0.001041000,-0.000376474,-0.019667237,-0.011362649,0.000444471,-0.011246356
0.091991708,-0.000728000,-0.000428137,-0.006515182,0.005129758,-0.028197618,0.004880409,-0.000351000,-0.000758589,-0.001354950,0.152557700,0.010571448,0.146502646,-0.005324000,-0.009028967,0.023043180,0.536345592,-0.129388562,0.531904674,0.423898011,0.372809778,0.177188966,1.965389286,-1.366471750,1.967529148,-0.400068015,-0.391982287,-0.044518615,-0.689439966,-0.618847732,-0.690617707,0.000000000,0.000008126,0.000428008,-0.001900157,-0.005580122,-0.002038075,-0.001120000,-0.000545571,-0.013093806,0.011408562,-1.841671684,0.012815943,-0.001176000,0.000601543,-0.003619828,-0.418335898,0.005233057,-0.423380936,0.068939999,0.058864106,0.060771532,1.488833929,-0.047096964,1.489430885,0.273676008,0.239643856,0.112112302,1.352019750,-0.813852318,1.352746709,-0.292286992,-0.284880721,-0.012046367,-0.713351998,0.004562684,-0.714266951,-0.001112000,-0.000418196,-0.020861071,-0.011246356,0.000444581,-0.010811302
0.093991528,-0.000748000,-0.000440521,-0.006588427,0.004880409,-0.031651391,0.004482774,-0.000379000,-0.000761387,-0.001424839,0.146502646,0.009414076,0.140919954,-0.005272000,-0.008982397,0.023285652,0.531904674,-0.122696965,0.527963703,0.423877001,0.373157027,0.173624397,1.967529148,-1.367342319,1.969604998,-0.400128007,-0.392068622,-0.043167450,-0.690617707,-0.596917365,-0.691796731,0.000000000,0.000008996,0.000443781,-0.002038075,-0.005448784,-0.002170842,-0.001145000,-0.000572213,-0.013322273,0.012815943,-1.813961608,0.014282941,-0.001217000,0.000593894,-0.003826402,-0.423380936,0.005110685,-0.428188048,0.069054000,0.058985449,0.060671529,1.489430885,-0.048035319,1.489606053,0.273602009,0.239862614,0.109378920,1.352746709,-0.868105806,1.353683589,-0.292369992,-0.284908446,-0.013862556,-0.714266951,0.004467968,-0.714689828,-0.001183000,-0.000462098,-0.021951220,-0.010811302,0.000432674,-0.010450681
0.095991348,-0.000770000,-0.000453109,-0.006672675,0.004482774,-0.034944656,0.003955918,-0.000406000,-0.000764334,-0.001500740,0.140919954,0.007886735,0.135799974,-0.005222000,-0.008935393,0.023502983,0.527963703,-0.114233795,0.523899372,0.423853993,0.373497260,0.170116460,1.969604998,-1.366690826,1.971595339,-0.400191009,-0.392152508,-0.041943289,-0.691796731,-0.545074164,-0.693166333,0.000000000,0.000009893,0.000455715,-0.002170842,-0.005310437,-0.002295386,-0.001169000,-0.000599275,-0.013532364,0.014282941,-1.782284621,0.015797405,-0.001257000,0.000585822,-0.004037332,-0.428188048,0.004983548,-0.432492539,0.069164000,0.059106581,0.060566027,1.489606053,-0.050001123,1.488828362,0.273523003,0.240075909,0.106647920,1.353683589,-0.908094564,1.354632294,-0.292452008,-0.284939881,-0.015717450,-0.714689828,0.004367892,-0.714528343,-0.001252000,-0.000508003,-0.022952812,-0.010450681,0.000428793,-0.009937222
0.097991168,-0.000794000,-0.000465923,-0.006769676,0.003955918,-0.037950095,0.003312136,-0.000432000,-0.000767444,-0.001582629,0.135799974,0.005966846,0.131145624,-0.005174000,-0.008888006,0.023694091,0.523899372,-0.105045176,0.519751187,0.423828989,0.373830598,0.166668735,1.971595339,-1.365500032,1.973467119,-0.400258005,-0.392234236,-0.040864046,-0.693166333,-0.500796295,-0.694745684,0.000000000,0.000010807,0.000463705,-0.002295386,-0.005169137,-0.002410563,-0.001191000,-0.000626718,-0.013722517,0.015797405,-1.753968433,0.017452881,-0.001297000,0.000577320,-0.004252601,-0.432492539,0.004854111,-0.436576570,0.069270998,0.059227487,0.060453247,1.488828362,-0.052751387,1.487425910,0.273440987,0.240283747,0.103918597,1.354632294,-0.927446962,1.355723746,-0.292535007,-0.284975002,-0.017560349,-0.714528343,0.004249096,-0.714127850,-0.001318000,-0.000555680,-0.023838856,-0.009937222,0.000435881,-0.009269982
0.099990987,-0.000820000,-0.000478989,-0.006881020,0.003312136,-0.040944613,0.002563160,-0.000457000,-0.000770726,-0.001670193,0.131145624,0.002052596,0.126953038,-0.005128000,-0.008840290,0.023858889,0.519751187,-0.083917091,0.515535794,0.423803002,0.374157163,0.163282716,1.973467119,-1.360774867,1.975265926,-0.400328994,-0.392314132,-0.039947624,-0.694745684,-0.370973667,-0.696450976,0.000000000,0.000011732,0.000467810,-0.002410563,-0.004871971,-0.002515717,-0.001210000,-0.000654496,-0.013890351,0.017452881,-1.693009426,0.019337706,-0.001336000,0.000568379,-0.004472338,-0.436576570,0.004578852,-0.440150498,0.069371998,0.059348147,0.060330205,1.487425910,-0.061521152,1.484620716,0.273353994,0.240486141,0.101197047,1.355723746,-0.906947429,1.356789386,-0.292614996,-0.285013751,-0.019374244,-0.714127850,0.004027758,-0.713138963,-0.001381000,-0.000604842,-0.024580803,-0.009269982,0.000410348,-0.008559235
0.101990807,-0.000854000,-0.000492337,-0.007008106,0.002563160,-0.046410728,0.001080432,-0.000480000,-0.000774191,-0.001763015,0.126953038,0.000183731,0.123499966,-0.005084000,-0.008792298,0.023997269,0.515535794,-0.070062805,0.511270799,0.423774004,0.374477082,0.159959507,1.975265926,-1.355847309,1.976847975,-0.400402993,-0.392392541,-0.039204606,-0.696450976,-0.296065116,-0.698117673,0.000000000,0.000012660,0.000468177,-0.002515717,-0.004717035,-0.002610477,-0.001228000,-0.000682555,-0.014030477,0.019337706,-1.661604588,0.021202322,-0.001375000,0.000558992,-0.004695632,-0.440150498,0.004436645,-0.443517057,0.069471002,0.059468534,0.060193754,1.484620716,-0.068225528,1.481628817,0.273259997,0.240683111,0.098485352,1.356789386,-0.867465534,1.357685166,-0.292699993,-0.285055969,-0.021109175,-0.713138963,0.003910233,-0.712529900,-0.001442000,-0.000655187,-0.025172933,-0.008559235,0.000400356,-0.007952596
0.103990627,-0.000900000,-0.000506022,-0.007165421,0.001080432,-0.049320579,-0.001474467,-0.000504000,-0.000777851,-0.001861656,0.123499966,-0.001722764,0.119949684,-0.005040000,-0.008744076,0.024111750,0.511270799,-0.056412672,0.507481311,0.423741013,0.374790466,0.156692189,1.976847975,-1.348722156,1.978193258,-0.400480986,-0.392469797,-0.038627900,-0.698117673,-0.231160289,-0.699831720,0.000000000,0.000013581,0.000464732,-0.002610477,-0.004562974,-0.002693832,-0.001244000,-0.000710840,-0.014143302,0.021202322,-1.633658945,0.023149808,-0.001415000,0.000549153,-0.004921652,-0.443517057,0.004289389,-0.446977826,0.069569997,0.059588620,0.060043206,1.481628817,-0.075273806,1.479039234,0.273160011,0.240874687,0.095787908,1.357685166,-0.844802736,1.358442047,-0.292793989,-0.285101566,-0.022798780,-0.712529900,0.003782361,-0.712617794,-0.001503000,-0.000706457,-0.025635254,-0.007952596,0.000394762,-0.007621553
0.105990447,-0.000959000,-0.000520147,-0.007376537,-0.001474467,-0.049320579,-0.005063941,-0.000528000,-0.000781722,-0.001968086,0.119949684,-0.001722764,0.116635258,-0.004998000,-0.008695662,0.024207769,0.507481311,-0.056412672,0.503486475,0.423705995,0.375097402,0.153467746,1.978193258,-1.348722156,1.979513121,-0.400563002,-0.392546225,-0.038214347,-0.699831720,-0.231160289,-0.701572131,0.000000000,0.000014498,0.000461523,-0.002693832,-0.004562974,-0.002777315,-0.001259000,-0.000739293,-0.014227011,0.023149808,-1.633658945,0.025057091,-0.001455000,0.000538860,-0.005149085,-0.446977826,0.004289389,-0.450277481,0.069669001,0.059708377,0.059878416,1.479039234,-0.075273806,1.476867595,0.273054004,0.241060908,0.093110587,1.358442047,-0.844802736,1.359013863,-0.292896003,-0.285150576,-0.024505009,-0.712617794,0.003782361,-0.713123766,-0.001565000,-0.000758496,-0.026019514,-0.007621553,0.000394762,-0.007535829
0.107990266,-0.001028000,-0.000534856,-0.007663131,-0.005063941,-0.057999741,-0.009230154,-0.000551000,-0.000785821,-0.002084085,0.116635258,-0.002256887,0.113886622,-0.004956000,-0.008647094,0.024284763,0.503486475,-0.027117074,0.499878074,0.423667997,0.375397977,0.150287735,1.979513121,-1.328981544,1.980730647,-0.400647014,-0.392622161,-0.037967926,-0.701572131,-0.176755398,-0.703089000,0.000000000,0.000015406,0.000457009,-0.002777315,-0.004250832,-0.002856264,-0.001272000,-0.000767854,-0.014281245,0.025057091,-1.590005475,0.027022456,-0.001496000,0.000528112,-0.005376534,-0.450277481,0.003987331,-0.453731809,0.069766998,0.059827779,0.059700922,1.476867595,-0.088747221,1.474798321,0.272942007,0.241241814,0.090452624,1.359013863,-0.878604746,1.359405486,-0.293006003,-0.285203101,-0.026262219,-0.713123766,0.003525851,-0.713936825,-0.001626000,-0.000811242,-0.026373024,-0.007535829,0.000360962,-0.007365002
0.109990086,-0.001107000,-0.000550322,-0.008037976,-0.009230154,-0.062795926,-0.013882661,-0.000575000,-0.000790168,-0.002209677,0.113886622,-0.004296386,0.111141162,-0.004914000,-0.008598403,0.024346622,0.499878074,-0.011931091,0.496576843,0.423628002,0.375692260,0.147141510,1.980730647,-1.318872753,1.981979363,-0.400732994,-0.392697891,-0.037864779,-0.703089000,-0.152825277,-0.704418176,0.000000000,0.000016298,0.000448416,-0.002856264,-0.004086784,-0.002921955,-0.001285000,-0.000796462,-0.014305107,0.027022456,-1.573112709,0.028821167,-0.001537000,0.000516908,-0.005604694,-0.453731809,0.003836830,-0.457040450,0.069863997,0.059946801,0.059511086,1.474798321,-0.094917773,1.472832326,0.272825003,0.241417443,0.087814878,1.359405486,-0.917217594,1.359670374,-0.293121994,-0.285259294,-0.028096654,-0.713936825,0.003384866,-0.714764943,-0.001687000,-0.000864599,-0.026678675,-0.007365002,0.000367230,-0.007268458
0.111989906,-0.001196000,-0.000566736,-0.008511651,-0.013882661,-0.068074867,-0.018941117,-0.000598000,-0.000794784,-0.002345827,0.111141162,-0.004824853,0.108995117,-0.004873000,-0.008549614,0.024395231,0.496576843,0.001887181,0.493263522,0.423586011,0.375980308,0.144023824,1.981979363,-1.310453877,1.983292953,-0.400821000,-0.392773664,-0.037886780,-0.704418176,-0.136281543,-0.705591927,0.000000000,0.000017171,0.000438766,-0.002921955,-0.003922404,-0.002982753,-0.001298000,-0.000825064,-0.014301333,0.028821167,-1.558842957,0.030462800,-0.001578000,0.000505248,-0.005833157,-0.457040450,0.003683527,-0.460212540,0.069959998,0.060065421,0.059310237,1.472832326,-0.100424422,1.470945836,0.272702992,0.241587831,0.085193970,1.359670374,-0.955184604,1.359830425,-0.293242991,-0.285319308,-0.030007023,-0.714764943,0.003255047,-0.715497050,-0.001748000,-0.000918502,-0.026951238,-0.007268458,0.000339871,-0.007210886
0.113989726,-0.001292000,-0.000584307,-0.009091710,-0.018941117,-0.073496948,-0.024020760,-0.000621000,-0.000799690,-0.002492821,0.108995117,-0.006290083,0.107176853,-0.004833000,-0.008500756,0.024430097,0.493263522,0.014401186,0.489957039,0.423541009,0.376262179,0.140935348,1.983292953,-1.304275520,1.984598953,-0.400911003,-0.392849709,-0.038022287,-0.705591927,-0.123645336,-0.706617389,0.000000000,0.000018019,0.000426186,-0.002982753,-0.003754850,-0.003032733,-0.001309000,-0.000853607,-0.014272530,0.030462800,-1.544237743,0.032169954,-0.001619000,0.000493131,-0.006061843,-0.460212540,0.003528716,-0.463249698,0.070054002,0.060183620,0.059099802,1.470945836,-0.105217830,1.468828253,0.272576988,0.241753002,0.082585419,1.359830425,-0.987598411,1.359979933,-0.293368995,-0.285383273,-0.031982220,-0.715497050,0.003122863,-0.716151616,-0.001808000,-0.000972899,-0.027198529,-0.007210886,0.000328798,-0.007074112
0.115989545,-0.001396000,-0.000603246,-0.009778176,-0.024020760,-0.078742773,-0.029205675,-0.000644000,-0.000804907,-0.002650306,0.107176853,-0.007465934,0.105684332,-0.004794000,-0.008451855,0.024451632,0.489957039,0.027662224,0.486655413,0.423494011,0.376537927,0.137874265,1.984598953,-1.297290706,1.985970833,-0.401001990,-0.392926224,-0.038257704,-0.706617389,-0.103830450,-0.707410618,0.000000000,0.000018838,0.000411254,-0.003032733,-0.003584461,-0.003073057,-0.001321000,-0.000882041,-0.014217206,0.032169954,-1.530541774,0.033608736,-0.001660000,0.000480556,-0.006290976,-0.463249698,0.003373127,-0.466146677,0.070147000,0.060301378,0.058878839,1.468828253,-0.110481351,1.466788494,0.272446990,0.241912984,0.079990838,1.359979933,-1.017184315,1.360105667,-0.293498009,-0.285451306,-0.034016589,-0.716151616,0.002990621,-0.716530959,-0.001869000,-0.001027711,-0.027406190,-0.007074112,0.000315726,-0.007109096
0.117989365,-0.001506000,-0.000623766,-0.010572505,-0.029205675,-0.078742773,-0.034251591,-0.000666000,-0.000810456,-0.002818154,0.105684332,-0.007465934,0.104804729,-0.004755000,-0.008402937,0.024459997,0.486655413,0.038432808,0.483647084,0.423446000,0.376807606,0.134839197,1.985970833,-1.293203395,1.987477210,-0.401093990,-0.393003370,-0.038572798,-0.707410618,-0.100393109,-0.708016044,0.000000000,0.000019625,0.000394861,-0.003073057,-0.003416136,-0.003105954,-0.001332000,-0.000910320,-0.014140340,0.033608736,-1.517533934,0.035015930,-0.001700000,0.000467524,-0.006519969,-0.466146677,0.003216078,-0.468632582,0.070238002,0.060418675,0.058648961,1.466788494,-0.114939075,1.464513509,0.272312999,0.242067793,0.077404431,1.360105667,-1.033181520,1.360247788,-0.293628991,-0.285523472,-0.036082952,-0.716530959,0.002855831,-0.716600457,-0.001930000,-0.001082925,-0.027606976,-0.007109096,0.000302595,-0.007123038
0.119989185,-0.001622000,-0.000646075,-0.011470885,-0.034251591,-0.088602050,-0.039157933,-0.000689000,-0.000816355,-0.002995358,0.104804729,-0.009704823,0.103952076,-0.004716000,-0.008354028,0.024455367,0.483647084,0.049396632,0.480935297,0.423395991,0.377071265,0.131829559,1.987477210,-1.290131324,1.989056914,-0.401185989,-0.393081274,-0.038952061,-0.708016044,-0.095897875,-0.708362376,0.000000000,0.000020373,0.000375451,-0.003105954,-0.003244780,-0.003126390,-0.001344000,-0.000938402,-0.014041547,0.035015930,-1.504818945,0.036171477,-0.001739000,0.000454035,-0.006748512,-0.468632582,0.003060915,-0.470714682,0.070326999,0.060535495,0.058410003,1.464513509,-0.119478655,1.462010044,0.272177011,0.242217441,0.074824168,1.360247788,-1.035412911,1.360546075,-0.293761998,-0.285599779,-0.038153778,-0.716600457,0.002715175,-0.716443507,-0.001990000,-0.001138522,-0.027798772,-0.007123038,0.000294821,-0.007022706
0.121989005,-0.001742000,-0.000670376,-0.012470322,-0.039157933,-0.088602050,-0.043706824,-0.000711000,-0.000822623,-0.003181721,0.103952076,-0.009704823,0.103695547,-0.004678000,-0.008305152,0.024438938,0.480935297,0.049396632,0.478215460,0.423345000,0.377328948,0.128841391,1.989056914,-1.285037924,1.990799383,-0.401279002,-0.393160017,-0.039371648,-0.708362376,-0.081096245,-0.708611663,0.000000000,0.000021082,0.000355946,-0.003126390,-0.003075525,-0.003142642,-0.001356000,-0.000966254,-0.013926140,0.036171477,-1.494084002,0.037208474,-0.001777000,0.000440090,-0.006977325,-0.470714682,0.002903556,-0.472376632,0.070413999,0.060651815,0.058159936,1.462010044,-0.125033520,1.459332462,0.272038013,0.242361949,0.072254093,1.360546075,-1.029294242,1.360906503,-0.293895990,-0.285680204,-0.040212366,-0.716443507,0.002579599,-0.716004639,-0.002050000,-0.001194444,-0.027960964,-0.007022706,0.000274543,-0.006973751
0.123988824,-0.001865000,-0.000696856,-0.013561923,-0.043706824,-0.097202737,-0.047822082,-0.000733000,-0.000829275,-0.003376126,0.103695547,-0.011010416,0.103730270,-0.004641000,-0.008256338,0.024408268,0.478215460,0.065217924,0.475550971,0.423292011,0.377580709,0.125880837,1.990799383,-1.280463447,1.992593451,-0.401371002,-0.393239672,-0.039827534,-0.708611663,-0.072010594,-0.708563197,0.000000000,0.000021748,0.000333925,-0.003142642,-0.002904133,-0.003147322,-0.001368000,-0.000993844,-0.013795704,0.037208474,-1.480276842,0.038132674,-0.001814000,0.000425689,-0.007205807,-0.472376632,0.002746827,-0.473632161,0.070497997,0.060767612,0.057898478,1.459332462,-0.130729075,1.456207703,0.271896988,0.242501336,0.069693166,1.360906503,-1.010815670,1.361397415,-0.294028014,-0.285764672,-0.042233997,-0.716004639,0.002444882,-0.715063418,-0.002110000,-0.001250654,-0.028104985,-0.006973751,0.000259052,-0.006947345
0.125988644,-0.001991000,-0.000725683,-0.014735972,-0.047822082,-0.100648282,-0.051540783,-0.000755000,-0.000836326,-0.003577423,0.103730270,-0.011662730,0.104034120,-0.004603000,-0.008207613,0.024363589,0.475550971,0.071827472,0.473513093,0.423238993,0.377826601,0.122945685,1.992593451,-1.276062144,1.994575878,-0.401463002,-0.393320259,-0.040293147,-0.708563197,-0.065788085,-0.708392961,0.000000000,0.000022367,0.000310599,-0.003147322,-0.002734175,-0.003143604,-0.001382000,-0.001021147,-0.013652049,0.038132674,-1.467575924,0.038738328,-0.001850000,0.000410833,-0.007433690,-0.473632161,0.002589956,-0.474487798,0.070579000,0.060882860,0.057624358,1.456207703,-0.137059868,1.452673818,0.271755010,0.242635618,0.067141041,1.361397415,-0.970875121,1.362087929,-0.294160008,-0.285853024,-0.044175748,-0.715063418,0.002310470,-0.713953802,-0.002170000,-0.001307127,-0.028236562,-0.006947345,0.000245171,-0.006929725
0.127988464,-0.002119000,-0.000757006,-0.015983648,-0.051540783,-0.103561008,-0.054790166,-0.000776000,-0.000843786,-0.003784545,0.104034120,-0.011959671,0.104870542,-0.004567000,-0.008159003,0.024305743,0.473513093,0.074900523,0.471237280,0.423184991,0.378066670,0.120034760,1.994575878,-1.267416479,1.996691721,-0.401553005,-0.393401775,-0.040758198,-0.708392961,-0.060908070,-0.707928520,0.000000000,0.000022939,0.000286680,-0.003143604,-0.002565705,-0.003133386,-0.001396000,-0.001048151,-0.013502248,0.038738328,-1.455462795,0.039277296,-0.001884000,0.000395523,-0.007661479,-0.474487798,0.002434012,-0.474647922,0.070657000,0.060997528,0.057333945,1.452673818,-0.145206848,1.448820113,0.271611989,0.242764830,0.064606208,1.362087929,-0.926324249,1.362909875,-0.294288993,-0.285945080,-0.046028396,-0.713953802,0.002167358,-0.712418816,-0.002229000,-0.001363844,-0.028358378,-0.006929725,0.000239312,-0.006814163
0.129988284,-0.002248000,-0.000790954,-0.017293667,-0.054790166,-0.103561008,-0.057513735,-0.000797000,-0.000851667,-0.003996310,0.104870542,-0.011959671,0.105931243,-0.004530000,-0.008110541,0.024232078,0.471237280,0.074900523,0.469645498,0.423130006,0.378300976,0.117152780,1.996691721,-1.267416479,1.998903774,-0.401641995,-0.393484177,-0.041200913,-0.707928520,-0.060908070,-0.707335690,0.000000000,0.000023460,0.000260927,-0.003133386,-0.002565705,-0.003112771,-0.001412000,-0.001074843,-0.013346323,0.039277296,-1.455462795,0.039535211,-0.001917000,0.000379760,-0.007888473,-0.474647922,0.002434012,-0.474413144,0.070731997,0.061111581,0.057026550,1.448820113,-0.145206848,1.444671782,0.271468997,0.242889006,0.062087807,1.362909875,-0.926324249,1.363935059,-0.294414014,-0.286040590,-0.047754980,-0.712418816,0.002167358,-0.710492644,-0.002288000,-0.001420753,-0.028454933,-0.006814163,0.000239312,-0.006750900
0.131988103,-0.002377000,-0.000827634,-0.018654867,-0.057513735,-0.105882517,-0.059656762,-0.000818000,-0.000859973,-0.004211308,0.105931243,-0.012876332,0.107186213,-0.004494000,-0.008062254,0.024144725,0.469645498,0.077962559,0.468128650,0.423074991,0.378529566,0.114295084,1.998903774,-1.259200716,2.001302353,-0.401730001,-0.393567393,-0.041608148,-0.707335690,-0.048277667,-0.706662019,0.000000000,0.000023928,0.000234591,-0.003112771,-0.002397184,-0.003085192,-0.001429000,-0.001101222,-0.013190076,0.039535211,-1.440989753,0.039651410,-0.001947000,0.000363546,-0.008114785,-0.474413144,0.002278375,-0.473212866,0.070803002,0.061224981,0.056700192,1.444671782,-0.153697350,1.440002775,0.271324992,0.243008183,0.059588631,1.363935059,-0.863292166,1.365075304,-0.294535011,-0.286139238,-0.049324091,-0.710492644,0.002041303,-0.708290390,-0.002347000,-0.001477827,-0.028537053,-0.006750900,0.000206790,-0.006712079
0.133987923,-0.002505000,-0.000867125,-0.020054123,-0.059656762,-0.107498934,-0.061178344,-0.000839000,-0.000868710,-0.004428500,0.107186213,-0.013214418,0.108613282,-0.004458000,-0.008014173,0.024041177,0.468128650,0.077664957,0.467037134,0.423018992,0.378752502,0.111468070,2.001302353,-1.237787225,2.003777855,-0.401814997,-0.393651347,-0.041976953,-0.706662019,-0.038283286,-0.705718847,0.000000000,0.000024343,0.000208162,-0.003085192,-0.002066341,-0.003052026,-0.001447000,-0.001127291,-0.013034746,0.039651410,-1.413506846,0.039633104,-0.001976000,0.000346885,-0.008339462,-0.473212866,0.001971359,-0.471638124,0.070871003,0.061337686,0.056352359,1.440002775,-0.173916801,1.435163796,0.271180987,0.243122409,0.057113057,1.365075304,-0.695326318,1.366360529,-0.294651002,-0.286240668,-0.050714744,-0.708290390,0.001771207,-0.705808388,-0.002406000,-0.001535055,-0.028613619,-0.006712079,0.000178166,-0.006673568
0.135987743,-0.002641000,-0.000909480,-0.021478347,-0.061178344,-0.108596412,-0.063106158,-0.000858000,-0.000877880,-0.004646430,0.108613282,-0.013145801,0.110748419,-0.004423000,-0.007966330,0.023922791,0.467037134,0.075914318,0.466064250,0.422962993,0.378969837,0.108667541,2.003777855,-1.225353324,2.006418899,-0.401901007,-0.393735912,-0.042282620,-0.705718847,-0.035892033,-0.704995802,0.000000000,0.000024706,0.000181870,-0.003052026,-0.001904500,-0.003013952,-0.001467000,-0.001153057,-0.012882917,0.039633104,-1.400264792,0.039389037,-0.002003000,0.000329780,-0.008562411,-0.471638124,0.001820125,-0.469407945,0.070935003,0.061449649,0.055982035,1.435163796,-0.185161841,1.429906793,0.271032989,0.243231734,0.054662350,1.366360529,-0.594595168,1.367526342,-0.294766992,-0.286344476,-0.051903934,-0.705808388,0.001632561,-0.703658772,-0.002464000,-0.001592425,-0.028685403,-0.006673568,0.000178128,-0.006533078
0.137987563,-0.002788000,-0.000954764,-0.022933763,-0.063106158,-0.108964931,-0.065717821,-0.000877000,-0.000887485,-0.004865603,0.110748419,-0.013452483,0.113035439,-0.004387000,-0.007918758,0.023787171,0.466064250,0.072079364,0.465842428,0.422904015,0.379181641,0.105901896,2.006418899,-1.208424057,2.008973121,-0.401988000,-0.393821011,-0.042549339,-0.704995802,-0.025021937,-0.704428966,0.000000000,0.000025015,0.000154965,-0.003013952,-0.001745061,-0.002968711,-0.001488000,-0.001178533,-0.012738758,0.039389037,-1.382822491,0.039051021,-0.002030000,0.000312235,-0.008784188,-0.469407945,0.001664787,-0.467079043,0.070995003,0.061560822,0.055586316,1.429906793,-0.197859611,1.424311919,0.270877987,0.243336225,0.052245502,1.367526342,-0.510358812,1.368314430,-0.294885993,-0.286450325,-0.052924651,-0.703658772,0.001508870,-0.702086015,-0.002521000,-0.001649896,-0.028735447,-0.006533078,0.000150180,-0.006343237
0.139987382,-0.002945000,-0.001003072,-0.024435203,-0.065717821,-0.110619018,-0.068812921,-0.000895000,-0.000897530,-0.005086841,0.113035439,-0.012902837,0.115778362,-0.004352000,-0.007871482,0.023638917,0.465842428,0.067171967,0.465706506,0.422845006,0.379387965,0.103161902,2.008973121,-1.189233026,2.011689277,-0.402076006,-0.393906582,-0.042785320,-0.704428966,-0.009445286,-0.704004228,0.000000000,0.000025273,0.000129160,-0.002968711,-0.001589808,-0.002921393,-0.001511000,-0.001203742,-0.012604415,0.039051021,-1.369997034,0.038526698,-0.002056000,0.000294251,-0.009005262,-0.467079043,0.001512534,-0.464357038,0.071053997,0.061671151,0.055164470,1.424311919,-0.210922668,1.419261903,0.270716995,0.243435959,0.049867036,1.368314430,-0.451157362,1.368751794,-0.295004994,-0.286557979,-0.053826966,-0.702086015,0.001372866,-0.700667493,-0.002577000,-0.001707405,-0.028754338,-0.006343237,0.000149909,-0.006137058
0.141987202,-0.003109000,-0.001054515,-0.025992066,-0.068812921,-0.111827928,-0.072006576,-0.000912000,-0.000908019,-0.005310497,0.115778362,-0.013526664,0.118986643,-0.004317000,-0.007824532,0.023476213,0.465706506,0.061504388,0.465989910,0.422782987,0.379588873,0.100454115,2.011689277,-1.176584107,2.014328450,-0.402164996,-0.393992595,-0.043006931,-0.704004228,0.006789844,-0.703674944,0.000000000,0.000025477,0.000102106,-0.002921393,-0.001436825,-0.002865072,-0.001534000,-0.001228704,-0.012481406,0.038526698,-1.353893423,0.038040243,-0.002081000,0.000275833,-0.009224464,-0.464357038,0.001364878,-0.461269730,0.071108997,0.061780595,0.054722044,1.419261903,-0.221213328,1.413793795,0.270552009,0.243530987,0.047513868,1.368751794,-0.393815724,1.369054367,-0.295125991,-0.286667208,-0.054614598,-0.700667493,0.001251965,-0.699617613,-0.002633000,-0.001764886,-0.028740758,-0.006137058,0.000118249,-0.006025935
0.143987022,-0.003282000,-0.001109208,-0.027606566,-0.072006576,-0.111827928,-0.075487157,-0.000929000,-0.000918957,-0.005535910,0.118986643,-0.013526664,0.122362177,-0.004282000,-0.007777932,0.023301256,0.465989910,0.061504388,0.466649962,0.422719985,0.379784421,0.097774226,2.014328450,-1.176584107,2.017045755,-0.402253002,-0.394079035,-0.043220009,-0.703674944,0.006789844,-0.703227457,0.000000000,0.000025622,0.000072712,-0.002865072,-0.001436825,-0.002796169,-0.001559000,-0.001253440,-0.012368380,0.038040243,-1.353893423,0.037372975,-0.002105000,0.000256985,-0.009441561,-0.461269730,0.001364878,-0.457823840,0.071162999,0.061889106,0.054256014,1.413793795,-0.221213328,1.408840709,0.270384014,0.243621377,0.045195201,1.369054367,-0.393815724,1.369214493,-0.295246005,-0.286777856,-0.055324086,-0.699617613,0.001251965,-0.698547091,-0.002688000,-0.001822315,-0.028714557,-0.006025935,0.000118249,-0.005854927
0.145986842,-0.003461000,-0.001167279,-0.029284523,-0.075487157,-0.112706566,-0.078888381,-0.000946000,-0.000930348,-0.005763436,0.122362177,-0.014653566,0.125914212,-0.004247000,-0.007731703,0.023115541,0.466649962,0.050402954,0.467658884,0.422654986,0.379974659,0.095118787,2.017045755,-1.147000038,2.019798606,-0.402341008,-0.394165862,-0.043413137,-0.703227457,0.024596817,-0.702797648,0.000000000,0.000025708,0.000043405,-0.002796169,-0.001134073,-0.002721602,-0.001586000,-0.001277975,-0.012267574,0.037372975,-1.327719563,0.036540137,-0.002128000,0.000237716,-0.009656013,-0.457823840,0.001081771,-0.454033548,0.071214996,0.061996647,0.053770468,1.408840709,-0.242773175,1.404035415,0.270213008,0.243707179,0.042901201,1.369214493,-0.311555495,1.369298959,-0.295365989,-0.286889751,-0.055947197,-0.698547091,0.000999972,-0.697593177,-0.002743000,-0.001879646,-0.028665363,-0.005854927,0.000095128,-0.005759228
0.147986661,-0.003645000,-0.001228851,-0.031024272,-0.078888381,-0.113762987,-0.082099907,-0.000962000,-0.000942196,-0.005992747,0.125914212,-0.014653566,0.129920663,-0.004213000,-0.007685866,0.022919658,0.467658884,0.050402954,0.468724874,0.422589004,0.380159633,0.092487180,2.019798606,-1.147000038,2.022652382,-0.402429014,-0.394253038,-0.043588095,-0.702797648,0.024596817,-0.702384135,0.000000000,0.000025736,0.000014109,-0.002721602,-0.001134073,-0.002641157,-0.001613000,-0.001302337,-0.012181429,0.036540137,-1.327719563,0.035771844,-0.002151000,0.000218032,-0.009867778,-0.454033548,0.001081771,-0.450186158,0.071266003,0.062103178,0.053265554,1.404035415,-0.242773175,1.399673559,0.270040989,0.243788444,0.040632187,1.369298959,-0.311555495,1.369428460,-0.295484990,-0.287002739,-0.056494270,-0.697593177,0.000999972,-0.696645465,-0.002799000,-0.001936864,-0.028608738,-0.005759228,0.000085642,-0.005797169
0.149986481,-0.003834000,-0.001294038,-0.032820799,-0.082099907,-0.115183695,-0.085137992,-0.000979000,-0.000954502,-0.006223114,0.129920663,-0.015196605,0.133797267,-0.004180000,-0.007640444,0.022712006,0.468724874,0.036801410,0.469890922,0.422520012,0.380339401,0.089884079,2.022652382,-1.123301105,2.025442270,-0.402516007,-0.394340537,-0.043749281,-0.702384135,0.019206500,-0.701874787,0.000000000,0.000025704,-0.000016284,-0.002641157,-0.000841858,-0.002551463,-0.001642000,-0.001326553,-0.012107826,0.035771844,-1.301550913,0.034845591,-0.002174000,0.000197943,-0.010075995,-0.450186158,0.000809785,-0.446303909,0.071315996,0.062208663,0.052742718,1.399673559,-0.261418231,1.395726309,0.269867003,0.243865215,0.038385585,1.369428460,-0.235280568,1.369558234,-0.295601994,-0.287116669,-0.056964831,-0.696645465,0.000762738,-0.695618359,-0.002854000,-0.001994004,-0.028570325,-0.005797169,0.000064859,-0.005690054
0.151986301,-0.004026000,-0.001362947,-0.034670640,-0.085137992,-0.115605655,-0.087797662,-0.000996000,-0.000967270,-0.006454326,0.133797267,-0.014243451,0.137823994,-0.004147000,-0.007595458,0.022493888,0.469890922,0.029010787,0.471417711,0.422450006,0.380514013,0.087305679,2.025442270,-1.114307412,2.028318302,-0.402601004,-0.394428308,-0.043885956,-0.701874787,0.024007896,-0.701205693,0.000000000,0.000025614,-0.000044771,-0.002551463,-0.000702964,-0.002461443,-0.001672000,-0.001350652,-0.012049804,0.034845591,-1.289199886,0.033888501,-0.002195000,0.000177458,-0.010281605,-0.446303909,0.000676548,-0.441799778,0.071364999,0.062313071,0.052203724,1.395726309,-0.269496642,1.392169256,0.269694000,0.243937529,0.036156970,1.369558234,-0.192582846,1.369903816,-0.295717001,-0.287231369,-0.057349997,-0.695618359,0.000648231,-0.694554377,-0.002909000,-0.002051049,-0.028522309,-0.005690054,0.000054709,-0.005619922
0.153986121,-0.004221000,-0.001435668,-0.036565918,-0.087797662,-0.115605655,-0.090113847,-0.001013000,-0.000980498,-0.006685349,0.137823994,-0.014243451,0.141977452,-0.004114000,-0.007550928,0.022265994,0.471417711,0.029010787,0.473295171,0.422376990,0.380683513,0.084750140,2.028318302,-1.114307412,2.031164553,-0.402684987,-0.394516277,-0.043984195,-0.701205693,0.024007896,-0.700523610,0.000000000,0.000025470,-0.000072465,-0.002461443,-0.000702964,-0.002368092,-0.001704000,-0.001374664,-0.012006258,0.033888501,-1.277769622,0.032790802,-0.002216000,0.000156593,-0.010483533,-0.441799778,0.000550306,-0.437270682,0.071414001,0.062416367,0.051648076,1.392169256,-0.277824091,1.389304801,0.269522011,0.244005427,0.033948862,1.369903816,-0.149535504,1.370446594,-0.295830011,-0.287346667,-0.057649068,-0.694554377,0.000530344,-0.693472909,-0.002965000,-0.002107999,-0.028475046,-0.005619922,0.000047493,-0.005658267
0.155985940,-0.004418000,-0.001512276,-0.038499435,-0.090113847,-0.115102048,-0.092012592,-0.001031000,-0.000994186,-0.006915553,0.141977452,-0.013389636,0.145958707,-0.004082000,-0.007506872,0.022029292,0.473295171,0.013130485,0.475222244,0.422302991,0.380847944,0.082215308,2.031164553,-1.094065709,2.034121718,-0.402767003,-0.394604361,-0.044042229,-0.700523610,0.013280558,-0.699745312,0.000000000,0.000025272,-0.000099245,-0.002368092,-0.000431181,-0.002271941,-0.001737000,-0.001398624,-0.011979997,0.032790802,-1.267415793,0.031678674,-0.002237000,0.000135365,-0.010681717,-0.437270682,0.000425179,-0.432723276,0.071462996,0.062518520,0.051076700,1.389304801,-0.285688217,1.387118807,0.269351006,0.244068948,0.031760730,1.370446594,-0.106153527,1.371185921,-0.295938998,-0.287462390,-0.057861375,-0.693472909,0.000417570,-0.692188581,-0.003021000,-0.002164896,-0.028448485,-0.005658267,0.000030152,-0.005643127
0.157985760,-0.004616000,-0.001592831,-0.040462292,-0.092012592,-0.115102048,-0.093431342,-0.001050000,-0.001008331,-0.007144482,0.145958707,-0.013389636,0.149756836,-0.004051000,-0.007463309,0.021782487,0.475222244,0.004602283,0.477233836,0.422226995,0.381007352,0.079704271,2.034121718,-1.086148942,2.037100845,-0.402846992,-0.394692469,-0.044053657,-0.699745312,0.008000083,-0.698892388,0.000000000,0.000025025,-0.000123645,-0.002271941,-0.000302177,-0.002177632,-0.001772000,-0.001422565,-0.011970792,0.031678674,-1.255518474,0.030447841,-0.002257000,0.000113803,-0.010876318,-0.432723276,0.000301991,-0.427877565,0.071512997,0.062619502,0.050491340,1.387118807,-0.292679739,1.385867769,0.269183993,0.244128125,0.029588432,1.371185921,-0.053564845,1.372339381,-0.296043009,-0.287578327,-0.057968505,-0.692188581,0.000316370,-0.690678619,-0.003078000,-0.002221761,-0.028432485,-0.005643127,0.000009170,-0.005702261
0.159985580,-0.004813000,-0.001677371,-0.042444642,-0.093431342,-0.114464474,-0.094208508,-0.001069000,-0.001022929,-0.007371392,0.149756836,-0.012200351,0.153638107,-0.004021000,-0.007420261,0.021525357,0.477233836,0.004602283,0.479340821,0.422147989,0.381161787,0.077217464,2.037100845,-1.086148942,2.040031778,-0.402925014,-0.394780493,-0.044012357,-0.698892388,-0.005066828,-0.697998928,0.000000000,0.000024735,-0.000145469,-0.002177632,-0.000176525,-0.002086247,-0.001808000,-0.001446525,-0.011980019,0.030447841,-1.243403710,0.029216613,-0.002277000,0.000091956,-0.011066682,-0.427877565,0.000183683,-0.423046668,0.071562998,0.062719288,0.049892800,1.385867769,-0.299270321,1.385255140,0.269019991,0.244182987,0.027431279,1.372339381,0.007845314,1.373847839,-0.296144009,-0.287694233,-0.057952814,-0.690678619,0.000210992,-0.689216797,-0.003135000,-0.002278646,-0.028442619,-0.005702261,0.000004364,-0.005685049
0.161985400,-0.005009000,-0.001765907,-0.044433089,-0.094208508,-0.111791542,-0.094418638,-0.001090000,-0.001037974,-0.007594975,0.153638107,-0.010392096,0.157002691,-0.003991000,-0.007377747,0.021257831,0.479340821,-0.014079821,0.481835163,0.422066987,0.381311297,0.074754734,2.040031778,-1.067765670,2.042976558,-0.402999014,-0.394868323,-0.043914834,-0.697998928,-0.010724485,-0.696878405,0.000000000,0.000024403,-0.000166254,-0.002086247,-0.000052493,-0.001993630,-0.001845000,-0.001470541,-0.012008179,0.029216613,-1.231364893,0.027991874,-0.002296000,0.000069924,-0.011253686,-0.423046668,0.000069120,-0.417955001,0.071615003,0.062817847,0.049279559,1.385255140,-0.306620222,1.385893314,0.268860996,0.244233579,0.025295747,1.373847839,0.064256741,1.375788639,-0.296238989,-0.287809881,-0.057824301,-0.689216797,0.000108224,-0.687493289,-0.003194000,-0.002335574,-0.028464068,-0.005685049,-0.000006758,-0.005833487
0.163985219,-0.005203000,-0.001858430,-0.046416785,-0.094418638,-0.109832428,-0.094017517,-0.001112000,-0.001053459,-0.007814640,0.157002691,-0.008399689,0.160119285,-0.003963000,-0.007335786,0.020981820,0.481835163,-0.022646378,0.484109714,0.421983987,0.381455918,0.072310434,2.042976558,-1.059495605,2.045973004,-0.403070003,-0.394955800,-0.043738683,-0.696878405,-0.032843850,-0.695712821,0.000000000,0.000024038,-0.000183053,-0.001993630,0.000064094,-0.001908956,-0.001884000,-0.001494647,-0.012053472,0.027991874,-1.222150043,0.026660481,-0.002315000,0.000047990,-0.011435581,-0.417955001,-0.000041141,-0.413006704,0.071667999,0.062915155,0.048654329,1.385893314,-0.312615303,1.387439797,0.268707991,0.244279932,0.023176756,1.375788639,0.132343180,1.378257940,-0.296328992,-0.287925000,-0.057559614,-0.687493289,0.000007005,-0.685707422,-0.003253000,-0.002392634,-0.028529756,-0.005833487,-0.000019238,-0.005842853
0.165985039,-0.005393000,-0.001954902,-0.048382814,-0.094017517,-0.107594158,-0.092868920,-0.001135000,-0.001069374,-0.008029828,0.160119285,-0.006861442,0.162972741,-0.003935000,-0.007294399,0.020694607,0.484109714,-0.032874382,0.486801041,0.421898991,0.381595699,0.069890850,2.045973004,-1.047699673,2.048973308,-0.403138012,-0.395042768,-0.043483776,-0.695712821,-0.041105963,-0.694521466,0.000000000,0.000023645,-0.000196776,-0.001908956,0.000178206,-0.001830265,-0.001924000,-0.001518885,-0.012119220,0.026660481,-1.209791938,0.025352204,-0.002333000,0.000027334,-0.011614001,-0.413006704,-0.000150258,-0.408216011,0.071722999,0.063011186,0.048015422,1.387439797,-0.319453543,1.390228528,0.268561006,0.244322095,0.021081357,1.378257940,0.199634133,1.381204519,-0.296411991,-0.288039321,-0.057160346,-0.685707422,-0.000081400,-0.683677062,-0.003314000,-0.002449857,-0.028611967,-0.005842853,-0.000038682,-0.005990754
0.167984859,-0.005581000,-0.002055259,-0.050316287,-0.092868920,-0.104687166,-0.091277205,-0.001160000,-0.001085708,-0.008239202,0.162972741,-0.005581936,0.165245383,-0.003908000,-0.007253606,0.020397345,0.486801041,-0.042656916,0.489604356,0.421810001,0.381730687,0.067493702,2.048973308,-1.037292285,2.051864716,-0.403203011,-0.395129061,-0.043146674,-0.694521466,-0.062355668,-0.693327718,0.000000000,0.000023230,-0.000207940,-0.001830265,0.000288292,-0.001756601,-0.001966000,-0.001543294,-0.012204534,0.025352204,-1.198573744,0.023959557,-0.002352000,-0.000016472,-0.011788165,-0.408216011,-0.000253176,-0.397225566,0.071778998,0.063105915,0.047364695,1.390228528,-0.325363547,1.393938332,0.268418014,0.244360109,0.019006772,1.381204519,0.276942817,1.384517480,-0.296489000,-0.288152534,-0.056606460,-0.683677062,-0.000181368,-0.681592829,-0.003376000,-0.002507331,-0.028736679,-0.005990754,-0.000035613,-0.006093688
0.169984679,-0.005771000,-0.002159417,-0.052208918,-0.091277205,-0.101686190,-0.089724383,-0.001188000,-0.001102450,-0.008442575,0.165245383,-0.003375490,0.166645323,-0.003882000,-0.007213427,0.020090704,0.489604356,-0.044665145,0.492509866,0.421716988,0.381860920,0.065116917,2.051864716,-1.027310307,2.054657513,-0.403266996,-0.395214513,-0.042725859,-0.693327718,-0.094580248,-0.692354621,0.000000000,0.000022802,-0.000214691,-0.001756601,0.000401210,-0.001694126,-0.002013000,-0.001567881,-0.012293864,0.023959557,-1.188392474,0.022075728,-0.002371000,-0.000030389,-0.011948151,-0.397225566,-0.000344646,-0.395051833,0.071836002,0.063199322,0.046703497,1.393938332,-0.330598636,1.398546749,0.268270999,0.244394013,0.016952152,1.384517480,0.356155286,1.387693964,-0.296564013,-0.288264322,-0.055894150,-0.681592829,-0.000262354,-0.679901177,-0.003440000,-0.002565182,-0.028925839,-0.006093688,-0.000062447,-0.006177265
0.171984498,-0.005962000,-0.002267299,-0.054062690,-0.089724383,-0.099555806,-0.088101054,-0.001217000,-0.001119590,-0.008641686,0.166645323,0.000104289,0.167778060,-0.003856000,-0.007173879,0.019775246,0.492509866,-0.065127088,0.495794142,0.421618998,0.381986442,0.062760645,2.054657513,-1.016308227,2.057287805,-0.403329998,-0.395298992,-0.042239706,-0.692354621,-0.099390895,-0.691566149,0.000000000,0.000022374,-0.000214482,-0.001694126,0.000485585,-0.001651483,-0.002063000,-0.001592729,-0.012424119,0.022075728,-1.178136240,0.020131290,-0.002391000,-0.000052445,-0.012113241,-0.395051833,-0.000461641,-0.390733286,0.071893997,0.063291386,0.046032207,1.398546749,-0.335644935,1.404046738,0.268119991,0.244423852,0.014919535,1.387693964,0.416289599,1.390718572,-0.296636999,-0.288374445,-0.055061571,-0.679901177,-0.000352572,-0.678514923,-0.003504000,-0.002623432,-0.029124621,-0.006177265,-0.000059124,-0.006193333
0.173984318,-0.006154000,-0.002378826,-0.055877620,-0.088101054,-0.097227855,-0.086415388,-0.001248000,-0.001137121,-0.008836142,0.167778060,0.001597487,0.168347808,-0.003831000,-0.007134975,0.019453036,0.495794142,-0.081054813,0.499130068,0.421516001,0.382107284,0.060420996,2.057287805,-1.009501340,2.059779247,-0.403391987,-0.395382397,-0.041702187,-0.691566149,-0.107724174,-0.690929956,0.000000000,0.000021953,-0.000211287,-0.001651483,0.000588601,-0.001617979,-0.002117000,-0.001617901,-0.012586228,0.020131290,-1.169824310,0.017975206,-0.002412000,-0.000076156,-0.012276395,-0.390733286,-0.000550883,-0.386272327,0.071951002,0.063382096,0.045355205,1.404046738,-0.338501400,1.409779152,0.267967999,0.244449653,0.012900532,1.390718572,0.466803984,1.393839354,-0.296707004,-0.288482701,-0.054127963,-0.678514923,-0.000438199,-0.677303406,-0.003571000,-0.002682112,-0.029340069,-0.006193333,-0.000069265,-0.006421667
0.175984138,-0.006348000,-0.002493919,-0.057653790,-0.086415388,-0.095161156,-0.084782001,-0.001281000,-0.001155033,-0.009026464,0.168347808,0.003220920,0.168364092,-0.003806000,-0.007096728,0.019124633,0.499130068,-0.099123377,0.502792766,0.421409994,0.382223478,0.058097188,2.059779247,-1.000168174,2.062261537,-0.403452992,-0.395464648,-0.041125477,-0.690929956,-0.136412615,-0.690422356,0.000000000,0.000021544,-0.000204845,-0.001617979,0.000684911,-0.001595009,-0.002175000,-0.001643470,-0.012784475,0.017975206,-1.161904269,0.015639371,-0.002433000,-0.000100590,-0.012437127,-0.386272327,-0.000638164,-0.381660595,0.072008997,0.063471439,0.044671406,1.409779152,-0.341899306,1.416335680,0.267814010,0.244471454,0.010900196,1.393839354,0.508156978,1.396954032,-0.296775997,-0.288588925,-0.053111649,-0.677303406,-0.000507314,-0.676430044,-0.003638000,-0.002741338,-0.029612895,-0.006421667,-0.000092955,-0.006431731
0.177983957,-0.006543000,-0.002612505,-0.059393477,-0.084782001,-0.093407210,-0.083089262,-0.001316000,-0.001173320,-0.009213279,0.168364092,0.004975074,0.167839095,-0.003782000,-0.007059147,0.018791216,0.502792766,-0.119012616,0.506474209,0.421299011,0.382335054,0.055787956,2.062261537,-0.991480645,2.064617569,-0.403513014,-0.395545687,-0.040519884,-0.690422356,-0.143960890,-0.690019882,0.000000000,0.000021156,-0.000194895,-0.001595009,0.000773700,-0.001584022,-0.002235000,-0.001669515,-0.013022500,0.015639371,-1.154615899,0.013366040,-0.002453000,-0.000125513,-0.012596571,-0.381660595,-0.000722349,-0.376654660,0.072067000,0.063559405,0.043982868,1.416335680,-0.344269220,1.423392963,0.267661005,0.244489288,0.008917235,1.396954032,0.535328509,1.400257838,-0.296842009,-0.288693007,-0.052040992,-0.676430044,-0.000585063,-0.675626393,-0.003705000,-0.002801139,-0.029900816,-0.006431731,-0.000090625,-0.006340679
0.179983777,-0.006739000,-0.002734509,-0.061096705,-0.083089262,-0.091905387,-0.081344795,-0.001351000,-0.001191976,-0.009397089,0.167839095,0.006518673,0.167351045,-0.003758000,-0.007022243,0.018453290,0.506474209,-0.137742316,0.510449692,0.421186000,0.382442039,0.053492408,2.064617569,-0.981567804,2.067038323,-0.403571993,-0.395625475,-0.039893719,-0.690019882,-0.142705789,-0.689697045,0.000000000,0.000020793,-0.000181858,-0.001584022,0.000859472,-0.001584442,-0.002300000,-0.001696110,-0.013297985,0.013366040,-1.147773903,0.010830307,-0.002474000,-0.000150841,-0.012754554,-0.376654660,-0.000801941,-0.371851170,0.072126001,0.063645983,0.043289431,1.423392963,-0.346718062,1.431239022,0.267509997,0.244503196,0.006954099,1.400257838,0.558308939,1.403794850,-0.296905994,-0.288794855,-0.050924374,-0.675626393,-0.000652754,-0.674974297,-0.003774000,-0.002861512,-0.030186228,-0.006340679,-0.000105227,-0.006401204
0.181983597,-0.006935000,-0.002859857,-0.062762575,-0.081344795,-0.090286800,-0.079455273,-0.001388000,-0.001210995,-0.009577663,0.167351045,0.006591476,0.166324405,-0.003735000,-0.006986023,0.018110900,0.510449692,-0.159592233,0.514436519,0.421068996,0.382544463,0.051211908,2.067038323,-0.970057214,2.069387964,-0.403629005,-0.395703985,-0.039255079,-0.689697045,-0.154881814,-0.689339970,0.000000000,0.000020457,-0.000168675,-0.001584442,0.000940265,-0.001587937,-0.002367000,-0.001723344,-0.013617169,0.010830307,-1.140250028,0.008396556,-0.002493000,-0.000176533,-0.012911551,-0.371851170,-0.000878284,-0.366397740,0.072186001,0.063731165,0.042591136,1.431239022,-0.349147571,1.439875746,0.267363012,0.244513224,0.005013985,1.403794850,0.573273242,1.407667455,-0.296968013,-0.288894411,-0.049777827,-0.674974297,-0.000723901,-0.674440250,-0.003843000,-0.002922504,-0.030495992,-0.006401204,-0.000107301,-0.006329861
0.183983417,-0.007133000,-0.002988468,-0.064389010,-0.079455273,-0.088810933,-0.077654060,-0.001426000,-0.001230371,-0.009755285,0.166324405,0.007683400,0.165048160,-0.003712000,-0.006950495,0.017764704,0.514436519,-0.179466351,0.518706256,0.420949012,0.382642352,0.048944441,2.069387964,-0.956353929,2.071743168,-0.403683990,-0.395781184,-0.038599497,-0.689339970,-0.156324683,-0.688958760,0.000000000,0.000020151,-0.000153308,-0.001587937,0.001017346,-0.001600738,-0.002437000,-0.001751296,-0.013976102,0.008396556,-1.133733405,0.005944347,-0.002512000,-0.000202568,-0.013066667,-0.366397740,-0.000949518,-0.360889558,0.072245002,0.063814940,0.041887621,1.439875746,-0.351757652,1.448746703,0.267221004,0.244519427,0.003101277,1.407667455,0.581182428,1.411901259,-0.297028005,-0.288991642,-0.048615462,-0.674440250,-0.000782755,-0.673981309,-0.003913000,-0.002984121,-0.030808641,-0.006329861,-0.000123778,-0.006288230
0.185983236,-0.007330000,-0.003120269,-0.065978512,-0.077654060,-0.087543126,-0.075615154,-0.001465000,-0.001250098,-0.009930371,0.165048160,0.008449147,0.163530356,-0.003689000,-0.006915665,0.017415925,0.518706256,-0.199959171,0.523232746,0.420828015,0.382735726,0.046687469,2.071743168,-0.937173349,2.074244893,-0.403737992,-0.395857032,-0.037924052,-0.688958760,-0.160380040,-0.688671156,0.000000000,0.000019879,-0.000136410,-0.001600738,0.001089621,-0.001621301,-0.002509000,-0.001780048,-0.014376020,0.005944347,-1.128485988,0.003595957,-0.002530000,-0.000228932,-0.013220392,-0.360889558,-0.001017730,-0.355035002,0.072305001,0.063897291,0.041175531,1.448746703,-0.356044921,1.458500207,0.267084986,0.244521881,0.001226930,1.411901259,0.581889293,1.416477552,-0.297086000,-0.289086545,-0.047451684,-0.673981309,-0.000846478,-0.673559819,-0.003982000,-0.003046380,-0.031129401,-0.006288230,-0.000121089,-0.006057592
0.187983056,-0.007529000,-0.003255175,-0.067526490,-0.075615154,-0.086154191,-0.073693248,-0.001505000,-0.001270172,-0.010102680,0.163530356,0.008662611,0.161763894,-0.003667000,-0.006881540,0.017063435,0.523232746,-0.218911772,0.527759214,0.420704007,0.382824618,0.044445579,2.074244893,-0.917312849,2.076732510,-0.403789014,-0.395931511,-0.037239632,-0.688671156,-0.147282724,-0.688246211,0.000000000,0.000019642,-0.000119085,-0.001621301,0.001157982,-0.001646569,-0.002585000,-0.001809676,-0.014813844,0.003595957,-1.120945339,0.001128912,-0.002546000,-0.000255615,-0.013372259,-0.355035002,-0.001080613,-0.348563381,0.072365999,0.063978202,0.040455645,1.458500207,-0.359942853,1.469123077,0.266957998,0.244520665,-0.000607696,1.416477552,0.579990549,1.421573663,-0.297141999,-0.289179129,-0.046291703,-0.673559819,-0.000903603,-0.673160198,-0.004052000,-0.003109228,-0.031423967,-0.006057592,-0.000134027,-0.005942974
0.189982876,-0.007727000,-0.003393108,-0.069035785,-0.073693248,-0.085036490,-0.071560835,-0.001545000,-0.001290588,-0.010272753,0.161763894,0.009171352,0.160044108,-0.003646000,-0.006848127,0.016707781,0.527759214,-0.238474487,0.532275208,0.420578003,0.382909051,0.042216619,2.076732510,-0.893601988,2.079283675,-0.403838009,-0.396004579,-0.036533633,-0.688246211,-0.146468297,-0.687820503,0.000000000,0.000019441,-0.000100742,-0.001646569,0.001220468,-0.001678425,-0.002662000,-0.001840257,-0.015290793,0.001128912,-1.114479945,-0.001121819,-0.002560000,-0.000282607,-0.013521205,-0.348563381,-0.001140756,-0.341501429,0.072428003,0.064057655,0.039726333,1.469123077,-0.364656258,1.480659682,0.266840011,0.244515875,-0.002394899,1.421573663,0.573881793,1.427126983,-0.297196001,-0.289269417,-0.045143939,-0.673160198,-0.000954217,-0.672756038,-0.004122000,-0.003172661,-0.031716903,-0.005942974,-0.000142957,-0.005773776
0.191982696,-0.007925000,-0.003533982,-0.070501903,-0.071560835,-0.083647838,-0.069359168,-0.001586000,-0.001311341,-0.010440048,0.160044108,0.008578376,0.158072914,-0.003624000,-0.006815433,0.016347817,0.532275208,-0.255004543,0.537377616,0.420450985,0.382989059,0.040003934,2.079283675,-0.867858698,2.081934682,-0.403885007,-0.396076195,-0.035808068,-0.687820503,-0.141742581,-0.687395281,0.000000000,0.000019275,-0.000083585,-0.001678425,0.001281267,-0.001710365,-0.002742000,-0.001871858,-0.015800802,-0.001121819,-1.106342511,-0.003396623,-0.002572000,-0.000309897,-0.013666189,-0.341501429,-0.001195152,-0.333875879,0.072489999,0.064135629,0.038987275,1.480659682,-0.369529179,1.492834758,0.266732991,0.244507614,-0.004130617,1.427126983,0.565648889,1.433226355,-0.297248006,-0.289357442,-0.044012641,-0.672756038,-0.001004558,-0.672331933,-0.004191000,-0.003236662,-0.032000388,-0.005773776,-0.000145595,-0.005473059
0.193982515,-0.008124000,-0.003677707,-0.071924019,-0.069359168,-0.082247090,-0.067208962,-0.001626000,-0.001332424,-0.010604542,0.158072914,0.008727191,0.156416626,-0.003603000,-0.006783464,0.015985303,0.537377616,-0.271584212,0.542459471,0.420323998,0.383064668,0.037804581,2.081934682,-0.837043110,2.084770650,-0.403928995,-0.396146318,-0.035061617,-0.687395281,-0.125424392,-0.686876106,0.000000000,0.000019143,-0.000066131,-0.001710365,0.001335875,-0.001746668,-0.002823000,-0.001904546,-0.016343970,-0.003396623,-1.099676360,-0.005474734,-0.002583000,-0.000337477,-0.013807484,-0.333875879,-0.001246519,-0.325967350,0.072552003,0.064212100,0.038235655,1.492834758,-0.375809663,1.505723357,0.266638011,0.244496005,-0.005804703,1.433226355,0.554122593,1.439859656,-0.297298014,-0.289443251,-0.042904396,-0.672331933,-0.001056922,-0.671864497,-0.004260000,-0.003301165,-0.032251237,-0.005473059,-0.000145444,-0.005214422
0.195982335,-0.008321000,-0.003824196,-0.073302258,-0.067208962,-0.080808259,-0.064799067,-0.001667000,-0.001353833,-0.010766159,0.156416626,0.007721858,0.154503491,-0.003583000,-0.006752230,0.015618089,0.542459471,-0.285899863,0.547572137,0.420195013,0.383135916,0.035624101,2.084770650,-0.802473309,2.087621806,-0.403970987,-0.396214899,-0.034290338,-0.686876106,-0.113702858,-0.686381614,0.000000000,0.000019042,-0.000050687,-0.001746668,0.001387412,-0.001780364,-0.002906000,-0.001938377,-0.016915770,-0.005474734,-1.090240024,-0.007482197,-0.002590000,-0.000365334,-0.013944125,-0.325967350,-0.001295053,-0.316947902,0.072616003,0.064287039,0.037469751,1.505723357,-0.382952096,1.519938042,0.266557992,0.244481185,-0.007409650,1.439859656,0.541157036,1.447149262,-0.297347009,-0.289526895,-0.041822082,-0.671864497,-0.001094979,-0.671439700,-0.004328000,-0.003366122,-0.032478643,-0.005214422,-0.000162630,-0.004875426
0.197982155,-0.008519000,-0.003973350,-0.074631490,-0.064799067,-0.079193526,-0.062488852,-0.001707000,-0.001375560,-0.010924546,0.154503491,0.007503670,0.152892189,-0.003562000,-0.006721740,0.015245951,0.547572137,-0.298092935,0.553291965,0.420065999,0.383202843,0.033463639,2.087621806,-0.764828382,2.090601721,-0.404009014,-0.396281892,-0.033496481,-0.686381614,-0.096908199,-0.685711180,0.000000000,0.000018971,-0.000035680,-0.001780364,0.001434172,-0.001815841,-0.002991000,-0.001973401,-0.017511956,-0.007482197,-1.080230868,-0.009437844,-0.002595000,-0.000393456,-0.014074199,-0.316947902,-0.001338149,-0.307433464,0.072679996,0.064360418,0.036689152,1.519938042,-0.390299462,1.534926753,0.266492993,0.244463307,-0.008939306,1.447149262,0.523360383,1.455045711,-0.297394007,-0.289608446,-0.040775361,-0.671439700,-0.001134565,-0.670923482,-0.004395000,-0.003431467,-0.032672459,-0.004875426,-0.000163003,-0.004491706
0.199981975,-0.008716000,-0.004125075,-0.075913719,-0.062488852,-0.077420037,-0.060063804,-0.001748000,-0.001397599,-0.011079386,0.152892189,0.006527396,0.151004987,-0.003542000,-0.006691999,0.014870994,0.553291965,-0.309523994,0.559004528,0.419937998,0.383265480,0.031318343,2.090601721,-0.722610957,2.093808858,-0.404044986,-0.396347219,-0.032663625,-0.685711180,-0.076523831,-0.685112142,0.000000000,0.000018926,-0.000022625,-0.001815841,0.001475901,-0.001848396,-0.003078000,-0.002009662,-0.018131004,-0.009437844,-1.072648166,-0.011345421,-0.002596000,-0.000421829,-0.014197735,-0.307433464,-0.001377330,-0.296858755,0.072743997,0.064432200,0.035891355,1.534926753,-0.398898636,1.550760132,0.266443998,0.244442538,-0.010384528,1.455045711,0.505341580,1.463535456,-0.297439009,-0.289687975,-0.039764678,-0.670923482,-0.001180828,-0.670307297,-0.004462000,-0.003497118,-0.032825507,-0.004491706,-0.000156645,-0.004192909
0.201981794,-0.008910000,-0.004279271,-0.077146238,-0.060063804,-0.075791414,-0.057336752,-0.001789000,-0.001419944,-0.011230969,0.151004987,0.006518159,0.149130913,-0.003521000,-0.006663020,0.014490237,0.559004528,-0.319197779,0.565348896,0.419806987,0.383323874,0.029197084,2.093808858,-0.676923037,2.096922987,-0.404076993,-0.396410825,-0.031802877,-0.685112142,-0.066564013,-0.684365791,-0.000001000,0.000018906,-0.000009589,-0.001848396,0.001514771,-0.001984588,-0.003168000,-0.002047201,-0.018769400,-0.011345421,-1.060629355,-0.013327271,-0.002596000,-0.000450434,-0.014312728,-0.296858755,-0.001414372,-0.286126881,0.072811998,0.064502350,0.035074828,1.550760132,-0.408263560,1.568618604,0.266406000,0.244419061,-0.011738374,1.463535456,0.488340291,1.472241361,-0.297482014,-0.289765551,-0.038787998,-0.670307297,-0.001203789,-0.669590057,-0.004528000,-0.003563035,-0.032958635,-0.004192909,-0.000181889,-0.003822792
0.203981614,-0.009102000,-0.004435827,-0.078323866,-0.057336752,-0.075791414,-0.054455242,-0.001833000,-0.001442584,-0.011377968,0.149130913,0.006518159,0.146384568,-0.003500000,-0.006634807,0.014107731,0.565348896,-0.319197779,0.571950275,0.419672012,0.383378054,0.027089647,2.096922987,-0.676923037,2.099954735,-0.404105991,-0.396472618,-0.030896844,-0.684365791,-0.066564013,-0.683627113,-0.000002000,0.000018873,-0.000017036,-0.001984588,0.001514771,-0.002061047,-0.003265000,-0.002086054,-0.019426744,-0.013327271,-1.060629355,-0.015807976,-0.002595000,-0.000479253,-0.014418860,-0.286126881,-0.001414372,-0.275250199,0.072881997,0.064570844,0.034247199,1.568618604,-0.408263560,1.587766257,0.266368002,0.244393027,-0.013017156,1.472241361,0.488340291,1.480575252,-0.297520995,-0.289841210,-0.037829323,-0.669590057,-0.001203789,-0.668608787,-0.004595000,-0.003629151,-0.033057797,-0.003822792,-0.000181889,-0.003630238
0.205981434,-0.009292000,-0.004594630,-0.079444918,-0.054455242,-0.071825816,-0.051441020,-0.001880000,-0.001465514,-0.011521620,0.146384568,-0.006002764,0.142791983,-0.003479000,-0.006607358,0.013724808,0.571950275,-0.341819003,0.578778822,0.419533014,0.383428039,0.024992598,2.099954735,-0.614929793,2.102923433,-0.404132009,-0.396532507,-0.029944346,-0.683627113,-0.049455261,-0.682911864,-0.000004000,0.000018815,-0.000029041,-0.002061047,0.001570588,-0.002223193,-0.003368000,-0.002126274,-0.020110382,-0.015807976,-1.048524473,-0.018633809,-0.002592000,-0.000508270,-0.014516570,-0.275250199,-0.001475919,-0.263939435,0.072956003,0.064637679,0.033417790,1.587766257,-0.414704109,1.608565037,0.266330987,0.244364533,-0.014247015,1.480575252,0.488554206,1.488778900,-0.297558993,-0.289914914,-0.036852214,-0.668608787,-0.001275790,-0.667778032,-0.004662000,-0.003695464,-0.033156708,-0.003630238,-0.000185481,-0.003418455
0.207981254,-0.009480000,-0.004755565,-0.080508454,-0.051441020,-0.070391047,-0.048311583,-0.001928000,-0.001488727,-0.011662402,0.142791983,-0.014849218,0.138930816,-0.003457000,-0.006580675,0.013342544,0.578778822,-0.356977844,0.586093925,0.419391990,0.383473846,0.022903616,2.102923433,-0.598235818,2.105970684,-0.404155999,-0.396590400,-0.028946607,-0.682911864,-0.048513353,-0.682322096,-0.000008000,0.000018698,-0.000058740,-0.002223193,0.001595375,-0.002531189,-0.003476000,-0.002167923,-0.020824338,-0.018633809,-1.044490980,-0.021668932,-0.002589000,-0.000537468,-0.014606001,-0.263939435,-0.001502133,-0.252764629,0.073032998,0.064702866,0.032593629,1.608565037,-0.412080952,1.630562915,0.266297013,0.244333646,-0.015443487,1.488778900,0.495028308,1.497088387,-0.297594011,-0.289986638,-0.035862158,-0.667778032,-0.001302136,-0.666883012,-0.004729000,-0.003761971,-0.033253734,-0.003418455,-0.000179949,-0.003192368
0.209981073,-0.009667000,-0.004918514,-0.081513010,-0.048311583,-0.068736781,-0.045194547,-0.001977000,-0.001512217,-0.011799875,0.138930816,-0.037466749,0.134789297,-0.003434000,-0.006554754,0.012961257,0.586093925,-0.373958846,0.593887952,0.419247001,0.383515494,0.020823840,2.105970684,-0.585733067,2.108964869,-0.404177994,-0.396646232,-0.027915982,-0.682322096,-0.045732117,-0.681832340,-0.000012000,0.000018431,-0.000133673,-0.002531189,0.001619255,-0.002695498,-0.003590000,-0.002211067,-0.021572256,-0.021668932,-1.039887914,-0.024992138,-0.002586000,-0.000566831,-0.014688149,-0.252764629,-0.001524639,-0.241707450,0.073110998,0.064766423,0.031778463,1.630562915,-0.407582781,1.653106622,0.266263992,0.244300416,-0.016614953,1.497088387,0.505664751,1.505428365,-0.297627002,-0.290056340,-0.034850828,-0.666883012,-0.001326077,-0.666048076,-0.004796000,-0.003828662,-0.033345199,-0.003192368,-0.000180958,-0.002963654
0.211980893,-0.009854000,-0.005083360,-0.082459788,-0.045194547,-0.068736781,-0.042201971,-0.002027000,-0.001535980,-0.011935026,0.134789297,-0.037466749,0.130388300,-0.003413000,-0.006529589,0.012582872,0.593887952,-0.393970602,0.601262966,0.419101000,0.383552993,0.018749617,2.108964869,-0.573968972,2.112117619,-0.404199004,-0.396699951,-0.026859463,-0.681832340,-0.042336412,-0.681530361,-0.000018000,0.000017983,-0.000225206,-0.002695498,0.001640131,-0.002996326,-0.003707000,-0.002255787,-0.022360197,-0.024992138,-1.037111714,-0.028240787,-0.002581000,-0.000596347,-0.014764190,-0.241707450,-0.001545096,-0.230176407,0.073190004,0.064828369,0.030973295,1.653106622,-0.402584209,1.676167836,0.266232014,0.244264890,-0.017762891,1.505428365,0.513594136,1.513812010,-0.297659010,-0.290123987,-0.033823640,-0.666048076,-0.001343101,-0.665366458,-0.004863000,-0.003895522,-0.033429871,-0.002963654,-0.000186222,-0.002737086
