sainanliu129-hub/model/applications/Body_GravityPara_Iden/data/跑步/PD-M1-v0_multi_joint_20260226-182222.csv
time,cmd_leg_l1_joint,pos_leg_l1_joint,vel_leg_l1_joint,torque_leg_l1_joint,cmd_leg_l2_joint,pos_leg_l2_joint,vel_leg_l2_joint,torque_leg_l2_joint,cmd_leg_l3_joint,pos_leg_l3_joint,vel_leg_l3_joint,torque_leg_l3_joint,cmd_leg_l4_joint,pos_leg_l4_joint,vel_leg_l4_joint,torque_leg_l4_joint,cmd_leg_l5_joint,pos_leg_l5_joint,vel_leg_l5_joint,torque_leg_l5_joint,cmd_leg_l6_joint,pos_leg_l6_joint,vel_leg_l6_joint,torque_leg_l6_joint,cmd_leg_r1_joint,pos_leg_r1_joint,vel_leg_r1_joint,torque_leg_r1_joint,cmd_leg_r2_joint,pos_leg_r2_joint,vel_leg_r2_joint,torque_leg_r2_joint,cmd_leg_r3_joint,pos_leg_r3_joint,vel_leg_r3_joint,torque_leg_r3_joint,cmd_leg_r4_joint,pos_leg_r4_joint,vel_leg_r4_joint,torque_leg_r4_joint,cmd_leg_r5_joint,pos_leg_r5_joint,vel_leg_r5_joint,torque_leg_r5_joint,cmd_leg_r6_joint,pos_leg_r6_joint,vel_leg_r6_joint,torque_leg_r6_joint
0.000000000,0.000219000,-0.004005432,0.013187408,0.330416107,0.021794001,0.013923645,0.030769348,0.672528076,-0.023022000,-0.021553040,-0.065933228,1.120880127,0.421743006,0.322918892,0.312088013,2.857147217,-0.364342988,-0.337996795,-0.382346976,-1.686219551,0.000000000,-0.002174806,0.100151288,0.259458158,-0.011496000,-0.001716614,0.030769348,-0.770939636,-0.015576000,-0.013542175,0.013187408,-0.373617554,0.091288999,0.079537392,0.101099014,2.764846802,0.241106004,0.158885002,0.153846741,3.296691895,-0.271035999,-0.243793652,-0.167046945,-2.778183441,-0.005711000,-0.009740333,0.028773824,0.395241101
0.001999820,0.000198000,-0.004005432,-0.004396439,1.211463165,0.021787999,0.013923645,-0.057142258,1.120880127,-0.023053000,-0.021553040,-0.065933228,1.120880127,0.421732008,0.323681831,0.250549316,3.150177002,-0.364358008,-0.338569314,-0.377915397,-1.785301721,0.000000000,-0.000867991,0.090280110,0.303366072,-0.011509000,-0.001716614,0.030769348,-0.770939636,-0.015576000,-0.013542175,0.013187408,-0.373617554,0.091286004,0.079537392,0.101099014,2.764846802,0.241095006,0.158885002,0.153846741,3.296691895,-0.271008998,-0.243793652,-0.167046945,-2.778183441,-0.005725000,-0.009740333,0.028773824,0.395241101
0.003999639,0.000168000,-0.004005432,-0.004396439,1.211463165,0.021779001,0.013923645,-0.057142258,1.120880127,-0.023097999,-0.021553040,-0.092308044,0.971438599,0.421716005,0.323681831,0.250549316,3.150177002,-0.364380985,-0.338950373,-0.386715772,-1.983690164,0.000000000,-0.001739613,0.070095239,0.216048296,-0.011528000,-0.001716614,0.013187408,-0.770939636,-0.015576000,-0.013542175,-0.057142258,-0.672528076,0.091280997,0.079537392,0.065933228,2.615377808,0.241079003,0.159647942,0.162637711,3.150177002,-0.270969003,-0.244556321,-0.154128962,-2.381475443,-0.005747000,-0.009742524,0.136152861,0.396119464
0.005999459,0.000139000,-0.004005432,-0.013187408,0.330416107,0.021769000,0.013923645,0.030769348,0.523086548,-0.023143001,-0.021934509,-0.127471924,1.120880127,0.421700001,0.324444771,0.232967377,3.736267090,-0.364403009,-0.339903902,-0.351547818,-2.181978495,0.000000000,-0.001304162,0.050091734,0.129389292,-0.011546000,-0.001716614,0.030769348,-0.991217041,-0.015576000,-0.013542175,0.013187408,-0.821969604,0.091274999,0.079537392,-0.021978378,2.465936279,0.241062999,0.160029411,0.162637711,3.589752197,-0.270929009,-0.244747965,-0.158760018,-2.381422863,-0.005769000,-0.009319738,0.243505962,0.396349619
0.007999279,0.000110000,-0.004005432,0.021978378,0.991217041,0.021757999,0.013923645,0.057142258,0.373617554,-0.023187000,-0.021934509,-0.083517075,1.868142700,0.421685994,0.324826241,0.232967377,3.736267090,-0.364425004,-0.340476512,-0.342735591,-1.983562446,0.000000000,-0.000869467,-0.030239139,0.042913078,-0.011564000,-0.001716614,0.021978378,-0.550662231,-0.015576000,-0.013542175,-0.048351288,-0.971438599,0.091266997,0.079918861,0.039560318,2.465936279,0.241047993,0.160029411,0.145055771,3.736267090,-0.270889014,-0.244939565,-0.158778055,-2.281833419,-0.005791000,-0.008896902,0.263057165,0.262831296
0.009999099,0.000082000,-0.004005432,-0.004396439,0.330416107,0.021746000,0.013923645,-0.083517075,0.971438599,-0.023231000,-0.021934509,-0.127471924,0.373617554,0.421671003,0.325207710,0.268131256,3.736267090,-0.364446014,-0.341048411,-0.347108753,-1.983568454,0.000000000,-0.001305638,-0.080542622,0.042677342,-0.011582000,-0.001716614,-0.030769348,-0.550662231,-0.015576000,-0.013923645,-0.101099014,-0.074734497,0.091257997,0.079918861,0.048351288,2.615377808,0.241033003,0.160410881,0.180219650,3.003662109,-0.270850003,-0.245322630,-0.167470575,-2.182477427,-0.005813000,-0.008051081,0.243588076,0.218835911
0.011998918,0.000055000,-0.004005432,-0.021978378,0.550662231,0.021733001,0.013923645,-0.004396439,0.523086548,-0.023274001,-0.022315979,-0.057142258,1.120880127,0.421658009,0.325970650,0.285715103,3.296691895,-0.364466995,-0.341811577,-0.320736788,-1.785180460,0.000000000,-0.001304803,-0.100657817,-0.043966994,-0.011600000,-0.001716614,0.004396439,-0.550662231,-0.015576000,-0.013923645,-0.065933228,-0.373617554,0.091247998,0.079918861,0.013187408,3.063729858,0.241019994,0.160792351,0.206592560,3.003662109,-0.270812005,-0.245703967,-0.189462396,-2.082974829,-0.005836000,-0.008051981,0.253323301,0.085070268
0.013998738,0.000028000,-0.004005432,0.013187408,0.550662231,0.021720000,0.013923645,-0.101099014,0.074734497,-0.023317000,-0.022697449,-0.118680954,1.270321655,0.421645999,0.326352119,0.329669952,3.589752197,-0.364486992,-0.342764289,-0.342679787,-1.586880834,0.000000000,-0.002613996,-0.090779429,0.042243269,-0.011617000,-0.001716614,-0.004396439,-0.770939636,-0.015576000,-0.013923645,0.013187408,-0.074734497,0.091236003,0.079918861,0.065933228,3.063729858,0.241007000,0.161173820,0.197801590,2.710632324,-0.270772994,-0.246086854,-0.207055618,-1.785106352,-0.005859000,-0.007205864,0.292410302,-0.047889082
0.015998558,0.000002000,-0.004005432,0.004396439,0.991217041,0.021706000,0.013923645,0.021978378,1.419790649,-0.023358000,-0.022697449,-0.118680954,1.270321655,0.421633989,0.327496529,0.399999619,3.003662109,-0.364506990,-0.343336955,-0.338313723,-1.586862825,0.000000000,-0.001305311,-0.100710591,0.042783016,-0.011634000,-0.001716614,-0.030769348,-0.770939636,-0.015577000,-0.013923645,-0.004396439,-0.523086548,0.091224000,0.080300331,0.074726105,3.512081909,0.240994006,0.161555290,0.189010620,2.710632324,-0.270734996,-0.246659570,-0.206957882,-2.082572105,-0.005881000,-0.006783484,0.253433679,-0.092845165
0.017998378,-0.000023000,-0.004005432,0.030769348,1.431740570,0.021692000,0.013923645,0.074726105,1.270321655,-0.023399999,-0.022697449,-0.092308044,0.074734497,0.421622992,0.328640938,0.399999619,3.443237305,-0.364524990,-0.344099262,-0.351478223,-1.487727770,0.000000000,-0.002178508,-0.090776396,0.085784359,-0.011651000,-0.001716614,0.021978378,-0.991217041,-0.015577000,-0.013923645,-0.004396439,0.074734497,0.091210000,0.080300331,0.074726105,3.810992432,0.240982994,0.161936760,0.189010620,2.710632324,-0.270698011,-0.246850902,-0.198204765,-1.883886381,-0.005904000,-0.006360252,0.292550307,-0.270823526
0.019998197,-0.000047000,-0.004005432,0.013187408,0.770939636,0.021677000,0.013923645,-0.030769348,0.821969604,-0.023440000,-0.022697449,-0.145055771,1.270321655,0.421613991,0.329022408,0.320878983,3.589752197,-0.364542991,-0.344861952,-0.355925280,-1.388580725,0.000000000,-0.002178967,-0.000241322,0.129130436,-0.011667000,-0.001716614,-0.004396439,-0.770939636,-0.015577000,-0.013923645,0.030769348,-0.074734497,0.091196001,0.080300331,0.101099014,2.914288330,0.240972996,0.162699699,0.189010620,2.857147217,-0.270660996,-0.247233432,-0.198169703,-2.082455594,-0.005928000,-0.005513639,0.312165945,-0.181413859
0.021998017,-0.000070000,-0.004005432,0.057142258,0.991217041,0.021661000,0.013923645,0.030769348,1.569232178,-0.023480000,-0.023078918,-0.065933228,0.821969604,0.421604991,0.329785347,0.268131256,3.589752197,-0.364560992,-0.345624641,-0.360335721,-1.190227852,0.000000000,-0.002179425,0.029950755,0.129213455,-0.011683000,-0.001716614,-0.013187408,-0.991217041,-0.015577000,-0.013923645,-0.030769348,-0.373617554,0.091181003,0.080300331,0.057142258,3.661550903,0.240963995,0.163081169,0.197801590,3.003662109,-0.270624012,-0.247805970,-0.184942066,-1.983095299,-0.005951000,-0.005090816,0.302499067,-0.314887802
0.023997837,-0.000092000,-0.004005432,-0.004396439,0.110138702,0.021645000,0.013923645,-0.004396439,1.419790649,-0.023520000,-0.023078918,-0.030769348,0.074734497,0.421597987,0.330166817,0.232967377,3.589752197,-0.364576995,-0.346387331,-0.351559308,-1.091080819,0.000000000,-0.002179883,0.050097212,0.172528824,-0.011699000,-0.001716614,0.030769348,-0.991217041,-0.015578000,-0.013923645,-0.004396439,-0.971438599,0.091164999,0.080300331,0.030769348,3.063729858,0.240955994,0.163462639,0.162637711,2.857147217,-0.270588011,-0.247997123,-0.176098778,-2.181613711,-0.005975000,-0.004667335,0.283018039,-0.225660114
0.025997657,-0.000113000,-0.004005432,-0.013187408,0.770939636,0.021628000,0.013923645,0.039560318,1.120880127,-0.023558000,-0.023078918,-0.057142258,0.971438599,0.421591997,0.330548286,0.224176407,3.882781982,-0.364592999,-0.346959565,-0.334013752,-1.289457134,0.000000000,-0.001743364,0.130713398,0.259096200,-0.011714000,-0.001716614,-0.013187408,-0.991217041,-0.015578000,-0.013923645,-0.030769348,-0.373617554,0.091149002,0.080300331,0.013187408,3.213198853,0.240950003,0.163462639,0.153846741,3.150177002,-0.270552009,-0.248379294,-0.167211693,-2.280794830,-0.005998000,-0.003820225,0.244030090,-0.269872706
0.027997476,-0.000133000,-0.004005432,-0.013187408,0.330416107,0.021610999,0.013923645,-0.021978378,0.821969604,-0.023596000,-0.023460388,-0.092308044,1.569232178,0.421586990,0.330929756,0.215385437,3.736267090,-0.364607990,-0.347722255,-0.320827107,-1.388657175,0.000000000,-0.001743716,0.120680696,0.302259973,-0.011729000,-0.001716614,-0.021978378,-0.991217041,-0.015578000,-0.013923645,0.030769348,-0.523086548,0.091132000,0.080681801,0.021978378,1.868142700,0.240943998,0.163844109,0.162637711,3.003662109,-0.270516992,-0.248760636,-0.167156154,-2.379919778,-0.006022000,-0.003820635,0.185437369,-0.314543318
0.029997296,-0.000151000,-0.004005432,0.030769348,0.770939636,0.021593999,0.013923645,-0.057142258,0.971438599,-0.023633000,-0.023460388,-0.021978378,0.821969604,0.421582997,0.331692696,0.241758347,3.589752197,-0.364621997,-0.348294438,-0.312018241,-1.289457047,0.000000000,-0.001306938,0.100603807,0.345665173,-0.011744000,-0.001716614,0.004396439,-0.991217041,-0.015579000,-0.014305115,-0.048351288,-0.971438599,0.091113999,0.080681801,0.057142258,3.960433960,0.240941003,0.164225578,0.145055771,3.296691895,-0.270482004,-0.248951654,-0.149543559,-2.280737030,-0.006046000,-0.003396956,0.165947113,-0.358787204
0.031997116,-0.000169000,-0.004005432,0.004396439,0.770939636,0.021576000,0.013923645,0.021978378,0.821969604,-0.023669999,-0.023460388,0.004396439,0.074734497,0.421581000,0.332074165,0.268131256,3.150177002,-0.364634991,-0.348675783,-0.303222295,-1.289457082,0.000000000,-0.001307062,0.080469458,0.345623927,-0.011758000,-0.001716614,0.030769348,-0.770939636,-0.015579000,-0.014305115,0.013187408,0.074734497,0.091096997,0.080681801,0.074726105,2.914288330,0.240937993,0.164607048,0.127471924,3.003662109,-0.270446986,-0.249142628,-0.127531862,-2.379918734,-0.006071000,-0.002973226,0.136683042,-0.403195918
0.033996936,-0.000185000,-0.004005432,-0.013187408,0.550662231,0.021558000,0.013923645,0.039560318,1.270321655,-0.023705000,-0.023460388,-0.057142258,2.017584229,0.421579987,0.332455635,0.285715103,3.443237305,-0.364647001,-0.349438473,-0.294441268,-1.388615999,0.000000000,-0.001307309,0.100644623,0.302258540,-0.011772000,-0.001716614,0.013187408,-0.991217041,-0.015580000,-0.014305115,-0.013187408,-0.523086548,0.091078997,0.080681801,0.039560318,3.362640381,0.240936995,0.164988518,0.127471924,3.003662109,-0.270413011,-0.249523970,-0.092349512,-2.479055065,-0.006095000,-0.002973539,0.097639958,-0.447819319
0.035996755,-0.000199000,-0.004005432,-0.004396439,0.330416107,0.021538001,0.013923645,-0.013187408,1.120880127,-0.023740999,-0.023841858,-0.145055771,2.914288330,0.421581000,0.333218575,0.356044769,3.736267090,-0.364657998,-0.350010605,-0.281226678,-1.289409969,0.000000000,-0.000870220,0.010003928,0.345629514,-0.011786000,-0.001716614,0.021978378,-0.991217041,-0.015580000,-0.014305115,-0.004396439,-1.419790649,0.091058999,0.080681801,0.057142258,3.213198853,0.240937993,0.164988518,0.136262894,3.003662109,-0.270379990,-0.249523970,-0.039561715,-2.479135226,-0.006120000,-0.002973539,0.019508611,-0.358630048
0.037996575,-0.000212000,-0.004005432,0.021978378,0.770939636,0.021514000,0.013923645,-0.039560318,1.270321655,-0.023777001,-0.023841858,0.021978378,0.672528076,0.421582997,0.333981514,0.338460922,2.710632324,-0.364670008,-0.350582508,-0.276837287,-1.388616106,0.000000000,-0.001307679,0.020048984,0.302150190,-0.011801000,-0.001716614,-0.004396439,-0.770939636,-0.015582000,-0.014305115,-0.021978378,-0.672528076,0.091036998,0.080681801,0.057142258,2.764846802,0.240939006,0.165369987,0.118680954,3.296691895,-0.270348996,-0.249523970,-0.039547030,-2.280782297,-0.006145000,-0.002973539,-0.000035544,-0.358481010
0.039996395,-0.000224000,-0.004005432,0.021978378,0.770939636,0.021486999,0.013923645,0.065933228,0.074734497,-0.023813000,-0.023841858,-0.057142258,0.373617554,0.421586007,0.334744453,0.364835739,3.589752197,-0.364681989,-0.351154640,-0.276820998,-1.190198398,0.000000000,-0.000870432,-0.040403735,0.215852285,-0.011817000,-0.001716614,-0.004396439,-0.770939636,-0.015583000,-0.014305115,-0.065933228,0.074734497,0.091012999,0.081063271,0.057142258,3.362640381,0.240940005,0.165751457,0.136262894,2.857147217,-0.270318002,-0.249714899,-0.043897937,-2.181685588,-0.006170000,-0.002549710,-0.068444612,-0.313559391
0.041996215,-0.000235000,-0.004005432,0.004396439,0.550662231,0.021458000,0.013923645,0.004396439,0.373617554,-0.023848999,-0.024223328,-0.048351288,2.316494751,0.421590000,0.335125923,0.276922226,3.003662109,-0.364692986,-0.351726544,-0.250444274,-1.388580946,0.000000000,-0.001308047,-0.060602803,0.215606502,-0.011832000,-0.001716614,-0.021978378,-0.991217041,-0.015586000,-0.014305115,-0.048351288,-0.373617554,0.090985999,0.081063271,0.109889984,3.512081909,0.240942001,0.165751457,0.153846741,2.710632324,-0.270289004,-0.249905312,-0.035101603,-1.884156561,-0.006196000,-0.002973852,-0.068444030,-0.268963225
0.043996034,-0.000244000,-0.004005432,0.004396439,0.330416107,0.021428000,0.013923645,-0.127471924,0.821969604,-0.023885000,-0.024223328,-0.057142258,1.569232178,0.421595007,0.335888863,0.232967377,2.857147217,-0.364704996,-0.352107890,-0.241656242,-1.388580978,0.000000000,-0.001308169,-0.060606444,0.215580667,-0.011848000,-0.001716614,0.004396439,-0.991217041,-0.015589000,-0.014305115,0.057142258,-0.821969604,0.090957001,0.081063271,-0.013187408,3.512081909,0.240943998,0.166132927,0.136262894,2.710632324,-0.270260006,-0.249905312,-0.026254819,-1.884236729,-0.006223000,-0.002973852,-0.146626004,-0.179784237
0.045995854,-0.000254000,-0.004005432,-0.030769348,-0.110138702,0.021396000,0.013923645,0.004396439,0.373617554,-0.023921000,-0.024223328,-0.021978378,1.419790649,0.421600014,0.336270332,0.206592560,3.150177002,-0.364715993,-0.352679744,-0.219664169,-1.487763576,0.000000000,-0.001745992,-0.090900103,0.172129980,-0.011864000,-0.001716614,0.004396439,-0.991217041,-0.015592000,-0.014305115,-0.057142258,-0.971438599,0.090926997,0.081063271,0.004396439,2.465936279,0.240946993,0.166514397,0.136262894,2.564117432,-0.270231992,-0.249904661,-0.026242220,-2.082441635,-0.006249000,-0.003821867,-0.127085858,-0.269560244
0.047995674,-0.000262000,-0.004005432,0.021978378,0.770939636,0.021362999,0.013923645,-0.004396439,0.523086548,-0.023956001,-0.024223328,-0.057142258,0.821969604,0.421606004,0.336651802,0.206592560,3.150177002,-0.364726990,-0.353061089,-0.197669793,-1.388610672,0.000000000,-0.001746166,-0.141339491,0.215354685,-0.011879000,-0.001716614,-0.013187408,-0.770939636,-0.015596000,-0.014305115,-0.013187408,-0.523086548,0.090894997,0.081063271,0.057142258,3.063729858,0.240950003,0.166895866,0.180219650,2.857147217,-0.270204008,-0.249904661,-0.043837126,-1.785044568,-0.006276000,-0.003821867,-0.107559833,-0.135493844
0.049995494,-0.000271000,-0.004005432,0.004396439,0.991217041,0.021330999,0.013923645,-0.013187408,0.523086548,-0.023990000,-0.024604797,-0.039560318,1.718673706,0.421611995,0.337033272,0.189010620,3.443237305,-0.364737004,-0.353251547,-0.175700861,-1.388581425,0.000000000,-0.002183973,-0.111095497,0.128786674,-0.011894000,-0.001716614,0.004396439,-0.991217041,-0.015600000,-0.014305115,-0.048351288,-1.270321655,0.090861998,0.081063271,0.004396439,2.914288330,0.240952998,0.167277336,0.180219650,2.417572021,-0.270175993,-0.250094937,-0.026290558,-1.685908498,-0.006303000,-0.004246104,-0.068451942,-0.090984559
0.051995313,-0.000280000,-0.004005432,-0.004396439,0.770939636,0.021299001,0.013923645,-0.074726105,1.270321655,-0.024023000,-0.024604797,0.048351288,1.569232178,0.421618015,0.337414742,0.197801590,3.882781982,-0.364746988,-0.353632893,-0.175712519,-1.388581458,0.000000000,-0.002184199,-0.090929750,0.128771043,-0.011908000,-0.001716614,0.004396439,-0.770939636,-0.015604000,-0.014686584,-0.030769348,-0.224176025,0.090828001,0.081444740,0.039560318,3.063729858,0.240957007,0.167658806,0.180219650,2.710632324,-0.270148009,-0.250094937,-0.030696011,-1.686022970,-0.006329000,-0.004246104,-0.058681752,-0.001810259
0.053995133,-0.000289000,-0.004005432,-0.004396439,0.330416107,0.021268001,0.013923645,0.013187408,1.569232178,-0.024055000,-0.024604797,-0.021978378,1.569232178,0.421624005,0.337796211,0.215385437,3.736267090,-0.364755988,-0.354014239,-0.140559479,-1.388581492,0.000000000,-0.002184425,-0.090914429,0.128755411,-0.011921000,-0.001716614,-0.039560318,-0.991217041,-0.015609000,-0.014686584,-0.030769348,0.074734497,0.090792999,0.081444740,-0.013187408,2.914288330,0.240960002,0.168040276,0.189010620,2.710632324,-0.270119995,-0.250094937,-0.043888514,-1.785256726,-0.006356000,-0.004246104,-0.048924962,0.042670406
0.055994953,-0.000298000,-0.004005432,-0.004396439,0.770939636,0.021237999,0.013923645,0.039560318,1.120880127,-0.024086000,-0.024604797,-0.101099014,2.017584229,0.421629995,0.338177681,0.215385437,3.736267090,-0.364762992,-0.354204647,-0.100994874,-1.587023135,0.000000000,-0.002622389,-0.101000495,0.214816069,-0.011932000,-0.001716614,0.013187408,-0.770939636,-0.015614000,-0.014686584,0.013187408,-0.523086548,0.090756997,0.081444740,-0.004396439,3.213198853,0.240963995,0.168421745,0.180219650,2.564117432,-0.270090014,-0.250285168,-0.039477689,-1.785136946,-0.006383000,-0.004670388,-0.058701385,-0.046693291
0.057994773,-0.000308000,-0.004005432,0.013187408,0.550662231,0.021211000,0.013923645,-0.030769348,0.821969604,-0.024115000,-0.024986267,0.030769348,0.373617554,0.421635002,0.338559151,0.241758347,3.443237305,-0.364769995,-0.354395004,-0.083389789,-1.388782415,0.000000000,-0.003060407,-0.121185598,0.301141555,-0.011943000,-0.001716614,0.030769348,-0.770939636,-0.015619000,-0.014686584,-0.048351288,-0.672528076,0.090721004,0.081444740,0.021978378,1.868142700,0.240968004,0.168803215,0.189010620,2.710632324,-0.270060003,-0.250285168,-0.043861095,-1.884376443,-0.006409000,-0.004670388,-0.068483969,-0.002225791
0.059994592,-0.000320000,-0.004005432,0.013187408,0.550662231,0.021186000,0.013923645,-0.039560318,1.270321655,-0.024142001,-0.024986267,-0.021978378,1.569232178,0.421640009,0.339322090,0.285715103,3.296691895,-0.364775985,-0.354395004,-0.048286855,-1.488022362,0.000000000,-0.003060407,-0.060600196,0.344251836,-0.011952000,-0.001716614,-0.030769348,-0.770939636,-0.015624000,-0.014686584,0.004396439,-0.971438599,0.090685003,0.081444740,-0.004396439,2.764846802,0.240972996,0.169184685,0.189010620,2.710632324,-0.270029008,-0.250285168,-0.030689687,-1.884376443,-0.006436000,-0.004670388,-0.058688976,-0.002225791
0.061994412,-0.000332000,-0.004005432,-0.004396439,0.550662231,0.021165000,0.013923645,0.039560318,0.224176025,-0.024166999,-0.024986267,-0.030769348,0.523086548,0.421642989,0.339703560,0.312088013,3.003662109,-0.364780992,-0.354585310,-0.004337864,-1.488069875,0.000000000,-0.003498479,-0.060562587,0.344057518,-0.011959000,-0.001716614,0.004396439,-0.770939636,-0.015628999,-0.014686584,-0.057142258,-0.523086548,0.090649001,0.081444740,0.057142258,3.213198853,0.240977004,0.169184685,0.153846741,2.417572021,-0.269995987,-0.250475353,-0.021920557,-1.884376918,-0.006462000,-0.005094721,-0.039133061,-0.002428410
0.063994232,-0.000346000,-0.004005432,-0.021978378,0.550662231,0.021147000,0.013923645,-0.030769348,0.971438599,-0.024188999,-0.024986267,-0.065933228,0.224176025,0.421645999,0.340466499,0.303297043,3.296691895,-0.364784002,-0.354585310,-0.004356577,-1.488164265,0.000000000,-0.003498479,-0.040377389,0.430414279,-0.011964000,-0.001716614,-0.004396439,-0.991217041,-0.015635001,-0.014686584,-0.004396439,0.821969604,0.090613000,0.081444740,0.057142258,2.615377808,0.240980998,0.169566154,0.162637711,2.710632324,-0.269960999,-0.250475353,-0.017539156,-1.884376918,-0.006488000,-0.005094721,-0.029351488,-0.002428410
0.065994052,-0.000362000,-0.004005432,0.039560318,0.991217041,0.021135001,0.013923645,-0.048351288,0.672528076,-0.024210000,-0.025367737,-0.092308044,1.569232178,0.421647996,0.340847969,0.320878983,3.296691895,-0.364785999,-0.354585310,-0.004394957,-1.289811194,0.000000000,-0.003498479,-0.000004804,0.430598162,-0.011967000,-0.001716614,0.004396439,-0.770939636,-0.015640000,-0.014686584,-0.057142258,-0.224176025,0.090577997,0.081444740,0.057142258,2.615377808,0.240985006,0.169947624,0.136262894,2.710632324,-0.269924998,-0.250475353,-0.004394952,-2.082614822,-0.006513000,-0.005094721,-0.000006770,-0.091858282
0.067993871,-0.000380000,-0.004005432,-0.013187408,0.991217041,0.021126000,0.013923645,0.039560318,0.821969604,-0.024227001,-0.025367737,0.030769348,0.971438599,0.421647996,0.341610909,0.268131256,3.003662109,-0.364785999,-0.354585310,0.013182965,-1.388940534,0.000000000,-0.003498479,0.000014409,0.387327840,-0.011967000,-0.001716614,0.030769348,-0.770939636,-0.015645999,-0.014686584,-0.092308044,-0.971438599,0.090544000,0.081826210,0.030769348,2.316494751,0.240989000,0.170329094,0.136262894,2.857147217,-0.269887000,-0.250475353,-0.000037793,-2.082614822,-0.006538000,-0.005094721,0.029326533,-0.091858282
0.069993691,-0.000401000,-0.004005432,0.013187408,0.110138702,0.021119000,0.013923645,0.039560318,-0.074734497,-0.024243999,-0.025367737,-0.021978378,1.718673706,0.421645999,0.341992378,0.241758347,3.589752197,-0.364784002,-0.354585310,0.017529232,-1.289811194,0.000000000,-0.003498479,0.050484396,0.430598162,-0.011965000,-0.001716614,0.021978378,-0.770939636,-0.015652001,-0.014686584,-0.030769348,-0.971438599,0.090508997,0.081444740,-0.030769348,3.512081909,0.240994006,0.170710564,0.118680954,3.003662109,-0.269847006,-0.250475353,0.004394952,-1.983484811,-0.006564000,-0.005094721,0.000006770,-0.047138357
0.071993511,-0.000425000,-0.004005432,-0.039560318,0.550662231,0.021113001,0.013923645,-0.057142258,0.821969604,-0.024259999,-0.025367737,-0.048351288,0.523086548,0.421642005,0.342373848,0.197801590,3.589752197,-0.364780009,-0.354585310,0.017491807,-1.289811194,0.000000000,-0.003498479,0.090854792,0.430598162,-0.011959000,-0.001716614,-0.013187408,-0.770939636,-0.015660999,-0.014686584,-0.013187408,-0.224176025,0.090471998,0.081826210,0.057142258,3.063729858,0.240999997,0.170710564,0.109889984,3.150177002,-0.269805998,-0.250475353,-0.000012600,-1.983484811,-0.006592000,-0.005094721,0.009776925,-0.047138357
0.073993331,-0.000452000,-0.004005432,0.004396439,0.550662231,0.021105999,0.013923645,0.039560318,0.224176025,-0.024274999,-0.025367737,-0.057142258,-0.224176025,0.421636999,0.342755318,0.189010620,3.003662109,-0.364773989,-0.354395004,0.026306736,-1.289751886,0.000000000,-0.003060407,0.070671156,0.430774912,-0.011952000,-0.001716614,-0.039560318,-0.991217041,-0.015670000,-0.014686584,0.013187408,0.373617554,0.090434998,0.081826210,0.048351288,3.810992432,0.241007000,0.171092033,0.118680954,2.710632324,-0.269762993,-0.250475353,-0.004419195,-1.884376918,-0.006620000,-0.005094721,0.019544960,-0.002428410
0.075993150,-0.000483000,-0.004005432,0.039560318,0.550662231,0.021100000,0.013923645,-0.013187408,1.419790649,-0.024289001,-0.025367737,-0.030769348,0.821969604,0.421629995,0.343136787,0.171428680,3.443237305,-0.364766985,-0.354395004,0.039465148,-1.289647177,0.000000000,-0.003060407,0.100961846,0.344403093,-0.011942000,-0.001716614,0.004396439,-0.991217041,-0.015681000,-0.014686584,-0.057142258,-0.373617554,0.090396002,0.081826210,0.057142258,1.718673706,0.241014004,0.171473503,0.109889984,3.150177002,-0.269719988,-0.250475353,-0.004394952,-1.983369579,-0.006649000,-0.005094721,-0.000006770,-0.136312610
0.077992970,-0.000517000,-0.004005432,0.004396439,0.991217041,0.021094000,0.013923645,0.021978378,0.672528076,-0.024303000,-0.025749207,-0.074726105,1.120880127,0.421620995,0.343518257,0.162637711,3.589752197,-0.364758015,-0.354204647,0.043878845,-1.190387845,0.000000000,-0.002622389,0.090860182,0.301459449,-0.011930000,-0.001716614,0.004396439,-0.770939636,-0.015691999,-0.014686584,0.021978378,-0.672528076,0.090357997,0.081826210,-0.083517075,2.914288330,0.241022006,0.171473503,0.101099014,3.443237305,-0.269674003,-0.250475353,0.004368802,-2.082614822,-0.006679000,-0.005094721,0.019558498,-0.091858282
0.079992790,-0.000554000,-0.004005432,-0.004396439,0.330416107,0.021089001,0.013923645,0.030769348,0.523086548,-0.024316000,-0.025749207,-0.065933228,0.672528076,0.421611995,0.343900681,0.171428680,3.589752197,-0.364749014,-0.354204647,0.061440845,-1.289528981,0.000000000,-0.002622389,0.111057245,0.258206696,-0.011917000,-0.001716614,-0.004396439,-0.770939636,-0.015704000,-0.014686584,-0.021978378,0.224176025,0.090318002,0.081826210,-0.013187408,2.914288330,0.241029993,0.171854973,0.109889984,3.296691895,-0.269627005,-0.250475353,0.004368802,-1.884239569,-0.006708000,-0.005094721,0.019558498,-0.091592685
0.081992610,-0.000594000,-0.004005432,0.004396439,0.550662231,0.021083999,0.013923645,-0.013187408,0.373617554,-0.024328001,-0.025749207,-0.004396439,0.523086548,0.421602011,0.344282150,0.171428680,3.443237305,-0.364739001,-0.354014239,0.048253223,-1.289493381,0.000000000,-0.002184425,0.141307173,0.258372434,-0.011903000,-0.001716614,0.013187408,-0.770939636,-0.015716000,-0.014686584,-0.013187408,0.074734497,0.090278998,0.081826210,0.057142258,2.316494751,0.241037995,0.171854973,0.101099014,3.003662109,-0.269578010,-0.250475353,-0.000012600,-1.785131676,-0.006737000,-0.005094721,0.009776925,-0.046882738
0.083992429,-0.000637000,-0.004005432,0.004396439,0.330416107,0.021079000,0.013923645,-0.039560318,0.373617554,-0.024340000,-0.025749207,-0.004396439,0.672528076,0.421591997,0.344663620,0.197801590,3.150177002,-0.364728987,-0.354014239,0.052653075,-1.190287421,0.000000000,-0.002184425,0.131219469,0.215243346,-0.011887000,-0.001716614,0.021978378,-0.770939636,-0.015727000,-0.014686584,-0.039560318,-1.419790649,0.090239003,0.081826210,0.013187408,2.764846802,0.241046995,0.172236443,0.118680954,3.003662109,-0.269528002,-0.250475353,-0.000012600,-1.983484811,-0.006765000,-0.005094721,0.009776925,-0.047138357
0.085992249,-0.000684000,-0.004005432,-0.048351288,0.550662231,0.021074999,0.013923645,0.004396439,0.224176025,-0.024351001,-0.025749207,-0.004396439,1.120880127,0.421582013,0.345045090,0.197801590,3.443237305,-0.364717990,-0.353823781,0.057077282,-1.190257768,0.000000000,-0.001746514,0.100934044,0.215394816,-0.011871000,-0.001716614,0.004396439,-0.991217041,-0.015738999,-0.014686584,-0.039560318,-0.672528076,0.090200000,0.081826210,-0.048351288,2.914288330,0.241053998,0.172617912,0.109889984,3.003662109,-0.269475013,-0.250475353,-0.004419195,-2.082477472,-0.006792000,-0.005094721,0.019544960,-0.181022557
0.087992069,-0.000733000,-0.004005432,-0.021978378,0.110138702,0.021071000,0.013923645,0.021978378,0.821969604,-0.024362000,-0.025749207,-0.057142258,0.971438599,0.421572000,0.345426559,0.224176407,3.296691895,-0.364708006,-0.353823781,0.052678598,-1.091010619,0.000000000,-0.001746514,0.111021718,0.085873056,-0.011855000,-0.001716614,-0.013187408,-0.991217041,-0.015750000,-0.014686584,0.021978378,-0.672528076,0.090161003,0.081826210,0.004396439,3.063729858,0.241062000,0.172617912,0.109889984,2.857147217,-0.269421011,-0.250475353,0.008801547,-1.884239569,-0.006818000,-0.005094721,-0.009761265,-0.091592685
0.089991889,-0.000785000,-0.004005432,-0.030769348,0.550662231,0.021067999,0.013923645,-0.030769348,0.971438599,-0.024372000,-0.026130676,0.039560318,0.971438599,0.421561986,0.345808029,0.241758347,3.296691895,-0.364699006,-0.353633272,0.070267510,-1.289386979,0.000000000,-0.001308657,0.111014748,0.172319834,-0.011838000,-0.001716614,-0.004396439,-0.991217041,-0.015760001,-0.014686584,0.013187408,0.672528076,0.090121999,0.081826210,0.039560318,2.316494751,0.241069004,0.172999382,0.127471924,3.003662109,-0.269363999,-0.250475353,-0.000012600,-1.884239569,-0.006842000,-0.005094721,0.009776925,-0.091592685
0.091991708,-0.000840000,-0.004005432,0.030769348,0.991217041,0.021065000,0.013923645,-0.039560318,-0.523086548,-0.024382001,-0.026130676,-0.030769348,-0.821969604,0.421552986,0.346189499,0.232967377,3.150177002,-0.364690006,-0.353633272,0.070253490,-1.289351689,0.000000000,-0.001308657,0.151372507,0.085935956,-0.011821000,-0.001716614,-0.021978378,-0.991217041,-0.015768999,-0.014686584,0.004396439,-0.074734497,0.090084001,0.081826210,0.021978378,3.063729858,0.241074994,0.173380852,0.145055771,2.710632324,-0.269304991,-0.250475353,0.000012600,-1.884239569,-0.006863000,-0.005094721,-0.009776925,-0.091592685
0.093991528,-0.000898000,-0.004005432,0.004396439,0.770939636,0.021063000,0.013923645,-0.004396439,0.074734497,-0.024390999,-0.025749207,0.013187408,0.224176025,0.421543986,0.346570969,0.259340286,2.710632324,-0.364683002,-0.353251926,0.074658031,-1.190157541,0.000000000,-0.001308535,0.121091554,0.042783714,-0.011805000,-0.001716614,-0.013187408,-0.991217041,-0.015776999,-0.014686584,0.013187408,-0.074734497,0.090048000,0.081826210,-0.004396439,2.316494751,0.241080001,0.173380852,0.136262894,2.417572021,-0.269243985,-0.250475353,0.004394952,-1.785131676,-0.006883000,-0.005094721,0.000006770,-0.046882738
0.095991348,-0.000959000,-0.004005432,-0.021978378,0.770939636,0.021060999,0.013923645,-0.021978378,0.821969604,-0.024400000,-0.026130676,-0.083517075,1.868142700,0.421537012,0.347333908,0.250549316,2.857147217,-0.364677012,-0.353061367,0.057100690,-1.190151571,0.000000000,-0.000870784,0.100893792,0.042924232,-0.011790000,-0.001716614,0.013187408,-0.770939636,-0.015783001,-0.014686584,0.048351288,-0.821969604,0.090011999,0.081826210,-0.030769348,2.914288330,0.241083995,0.173762321,0.136262894,2.564117432,-0.269181013,-0.250475353,0.013182948,-1.884239569,-0.006900000,-0.005094721,0.000020307,-0.091592685
0.097991168,-0.001022000,-0.004005432,-0.021978378,0.550662231,0.021059999,0.013923645,-0.004396439,0.074734497,-0.024409000,-0.026130676,-0.004396439,0.523086548,0.421532005,0.347715378,0.206592560,1.978027344,-0.364672989,-0.353061367,0.048317340,-1.090986833,0.000000000,-0.000870784,0.080716187,0.086146978,-0.011776000,-0.001716614,-0.013187408,-0.991217041,-0.015787000,-0.014686584,-0.057142258,0.821969604,0.089978002,0.082207680,0.048351288,2.764846802,0.241087005,0.174143791,0.136262894,2.564117432,-0.269113988,-0.250475353,0.004394952,-1.884239569,-0.006914000,-0.005094721,0.000006770,-0.091592685
0.099990987,-0.001088000,-0.004005432,-0.030769348,-0.330416107,0.021059999,0.013923645,0.039560318,0.672528076,-0.024417000,-0.026130676,-0.013187408,0.224176025,0.421528012,0.348096848,0.197801590,2.710632324,-0.364670992,-0.353061367,0.035132018,-0.991775147,0.000000000,-0.000870784,0.090802403,-0.043429411,-0.011762000,-0.001716614,-0.021978378,-0.991217041,-0.015789000,-0.014686584,0.048351288,-0.373617554,0.089945003,0.082207680,0.013187408,2.615377808,0.241088003,0.174525261,0.162637711,2.564117432,-0.269046009,-0.250475353,-0.008801547,-1.884239569,-0.006924000,-0.005094721,0.009761265,-0.091592685
0.101990807,-0.001160000,-0.004005432,0.004396439,0.330416107,0.021060999,0.013923645,-0.021978378,0.821969604,-0.024424000,-0.026130676,-0.004396439,0.523086548,0.421526015,0.348478317,0.180219650,2.564117432,-0.364672005,-0.352870757,0.039538665,-0.892610378,0.000000000,-0.000433085,0.080703362,-0.000103329,-0.011750000,-0.001716614,0.021978378,-0.991217041,-0.015789000,-0.014686584,0.057142258,-0.523086548,0.089913003,0.082207680,-0.004396439,2.615377808,0.241088003,0.174525261,0.136262894,2.710632324,-0.268972993,-0.250475353,-0.000012600,-1.784994326,-0.006931000,-0.005094721,0.009776925,-0.136047013
0.103990627,-0.001249000,-0.004005432,0.030769348,0.330416107,0.021070000,0.013923645,-0.048351288,0.672528076,-0.024431000,-0.026130676,-0.039560318,1.270321655,0.421523988,0.348859787,0.162637711,2.857147217,-0.364674985,-0.352870757,0.021966338,-0.892610378,0.000000000,-0.000433085,0.040350883,-0.000103329,-0.011737000,-0.001716614,0.013187408,-0.991217041,-0.015787000,-0.014686584,-0.030769348,0.373617554,0.089878999,0.082207680,-0.004396439,2.167025757,0.241087005,0.174906731,0.136262894,2.564117432,-0.268891990,-0.250475353,-0.000012600,-1.983369579,-0.006938000,-0.005094721,0.009776925,-0.136312610
0.105990447,-0.001353000,-0.004005432,0.004396439,0.770939636,0.021085000,0.013923645,0.065933228,-0.523086548,-0.024436999,-0.026130676,0.039560318,0.821969604,0.421521991,0.348859787,0.145055771,2.857147217,-0.364679992,-0.352870757,-0.000001168,-0.793428074,0.000000000,-0.000433085,0.010089168,-0.043294328,-0.011723000,-0.001716614,0.004396439,-0.770939636,-0.015784999,-0.014686584,-0.004396439,-0.971438599,0.089845002,0.082207680,0.039560318,2.615377808,0.241084993,0.175288200,0.118680954,2.857147217,-0.268803000,-0.250475353,-0.004419195,-1.784994326,-0.006945000,-0.005094721,0.019544960,-0.136047013
0.107990266,-0.001472000,-0.004005432,0.013187408,0.770939636,0.021105999,0.013923645,0.048351288,0.224176025,-0.024443001,-0.026130676,-0.004396439,0.373617554,0.421519995,0.349241257,0.145055771,3.150177002,-0.364688009,-0.352870757,-0.017573495,-0.991781018,0.000000000,-0.000433085,-0.030263311,-0.043317289,-0.011709000,-0.001716614,-0.021978378,-0.991217041,-0.015781000,-0.014686584,0.074726105,-0.523086548,0.089809000,0.082207680,0.065933228,2.465936279,0.241081998,0.175669670,0.136262894,2.710632324,-0.268707007,-0.250475353,0.008801547,-1.685886434,-0.006952000,-0.005094721,-0.009761265,-0.091337066
0.109990086,-0.001604000,-0.004005432,-0.004396439,0.770939636,0.021131000,0.013923645,-0.013187408,1.120880127,-0.024448000,-0.026130676,-0.048351288,-0.224176025,0.421517998,0.349622726,0.109889984,3.150177002,-0.364697009,-0.352870757,-0.030752025,-1.090963321,0.000000000,-0.000433085,-0.060526028,-0.000126290,-0.011694000,-0.001716614,0.021978378,-0.770939636,-0.015776001,-0.014686584,-0.030769348,-0.523086548,0.089772999,0.082207680,-0.021978378,3.063729858,0.241079003,0.175669670,0.092308044,2.564117432,-0.268604994,-0.250475353,-0.000037793,-1.784994326,-0.006958000,-0.005094721,0.029326533,-0.136047013
0.111989906,-0.001747000,-0.004005432,-0.013187408,-0.110138702,0.021159999,0.013923645,-0.039560318,0.373617554,-0.024452001,-0.026130676,0.021978378,0.672528076,0.421516001,0.349622726,0.127471924,3.296691895,-0.364706993,-0.353061367,-0.021961665,-1.090963359,0.000000000,-0.000870784,-0.040356402,-0.000252589,-0.011679000,-0.001716614,-0.013187408,-0.991217041,-0.015769999,-0.014686584,0.039560318,0.373617554,0.089736000,0.082207680,0.030769348,2.914288330,0.241074994,0.176051140,0.101099014,2.710632324,-0.268498003,-0.250475353,-0.000037793,-1.884124337,-0.006964000,-0.005094721,0.029326533,-0.180766938
0.113989726,-0.001899000,-0.004005432,0.004396439,0.550662231,0.021191999,0.013923645,0.039560318,0.074734497,-0.024457000,-0.026130676,-0.013187408,0.971438599,0.421514004,0.350004196,0.136262894,3.443237305,-0.364717990,-0.353061367,-0.017569990,-1.289316309,0.000000000,-0.000870784,-0.030267600,-0.000298514,-0.011664000,-0.001716614,-0.004396439,-0.770939636,-0.015764000,-0.014686584,0.074726105,-0.074734497,0.089700997,0.082207680,0.065933228,2.914288330,0.241071001,0.176051140,0.092308044,2.564117432,-0.268386990,-0.250475353,-0.000012600,-1.784994326,-0.006970000,-0.005094721,0.009776925,-0.136047013
0.115989545,-0.002060000,-0.004005432,0.004396439,0.550662231,0.021226000,0.014305115,0.039560318,0.373617554,-0.024460999,-0.026512146,-0.021978378,0.672528076,0.421512991,0.350385666,0.145055771,3.443237305,-0.364730000,-0.353061367,-0.017574661,-1.289339783,0.000000000,-0.000870784,-0.010092384,0.086101054,-0.011650000,-0.001716614,-0.004396439,-0.770939636,-0.015756000,-0.014686584,-0.048351288,-0.373617554,0.089666001,0.082207680,-0.039560318,2.615377808,0.241065994,0.176432610,0.092308044,2.710632324,-0.268270999,-0.250475353,0.008750203,-1.983369579,-0.006975000,-0.005094721,0.029340070,-0.136312610
0.117989365,-0.002227000,-0.004005432,-0.030769348,-0.110138702,0.021261999,0.013923645,-0.057142258,1.419790649,-0.024465000,-0.026512146,0.021978378,0.821969604,0.421512008,0.350767136,0.136262894,3.736267090,-0.364742011,-0.353061367,0.008791310,-1.289339783,0.000000000,-0.000870784,-0.010085220,0.086101054,-0.011636000,-0.001716614,0.004396439,-0.991217041,-0.015748000,-0.014686584,-0.039560318,-0.224176025,0.089633003,0.082207680,-0.004396439,3.213198853,0.241061002,0.176432610,0.074726105,2.710632324,-0.268153012,-0.250475353,-0.004394952,-1.784994326,-0.006979000,-0.005094721,-0.000006770,-0.136047013
0.119989185,-0.002399000,-0.004005432,0.004396439,0.330416107,0.021298001,0.013923645,0.013187408,0.373617554,-0.024470000,-0.026130676,0.048351288,0.373617554,0.421510011,0.350767136,0.136262894,3.736267090,-0.364753991,-0.353061367,0.008781014,-1.388527995,0.000000000,-0.000870784,0.030267401,0.129277876,-0.011623000,-0.001716614,0.021978378,-0.770939636,-0.015738999,-0.014686584,-0.013187408,-0.373617554,0.089602999,0.082207680,-0.039560318,3.213198853,0.241056994,0.176814079,0.092308044,2.710632324,-0.268032998,-0.250475353,-0.000037793,-1.784994326,-0.006984000,-0.005094721,0.029326533,-0.136047013
0.121989005,-0.002574000,-0.004005432,0.013187408,0.770939636,0.021333000,0.013923645,0.013187408,1.270321655,-0.024475001,-0.026512146,-0.065933228,-0.224176025,0.421508998,0.351148605,0.145055771,3.003662109,-0.364764988,-0.353061367,0.013178314,-1.289339783,0.000000000,-0.000870784,0.020178798,0.086101054,-0.011611000,-0.001716614,-0.030769348,-0.991217041,-0.015729999,-0.014686584,-0.021978378,-0.224176025,0.089574002,0.082207680,-0.004396439,2.167025757,0.241053000,0.176814079,0.074726105,2.710632324,-0.267910987,-0.250475353,0.004394952,-1.685886434,-0.006988000,-0.005094721,0.000006770,-0.091337066
0.123988824,-0.002752000,-0.004005432,-0.013187408,0.770939636,0.021367000,0.013923645,0.021978378,0.821969604,-0.024480000,-0.026512146,-0.083517075,1.419790649,0.421508014,0.351530075,0.153846741,3.296691895,-0.364775985,-0.353061367,0.013172689,-1.289363257,0.000000000,-0.000870784,0.040356203,0.172500622,-0.011600000,-0.001716614,0.048351288,-0.770939636,-0.015720000,-0.014686584,0.004396439,-1.120880127,0.089548998,0.082207680,0.013187408,2.017584229,0.241049007,0.176814079,0.065933228,2.564117432,-0.267789006,-0.250475353,-0.004419195,-1.784879094,-0.006991000,-0.005094721,0.019544960,-0.225221266
0.125988644,-0.002930000,-0.004005432,0.030769348,0.110138702,0.021399001,0.013923645,0.013187408,1.120880127,-0.024484999,-0.026512146,-0.039560318,0.523086548,0.421507001,0.351911545,0.171428680,3.150177002,-0.364784986,-0.353061367,0.008781014,-1.190175045,0.000000000,-0.000870784,0.030267401,0.129323800,-0.011590000,-0.001716614,0.013187408,-0.991217041,-0.015710000,-0.014686584,0.039560318,0.224176025,0.089527003,0.082207680,-0.004396439,2.615377808,0.241044998,0.177195549,0.057142258,3.003662109,-0.267668009,-0.250475353,0.004368802,-1.983232230,-0.006994000,-0.005094721,0.019558498,-0.225476885
0.127988464,-0.003106000,-0.004005432,0.030769348,0.550662231,0.021427000,0.013923645,0.013187408,1.270321655,-0.024491999,-0.026512146,0.039560318,-0.224176025,0.421507001,0.351911545,0.180219650,3.589752197,-0.364793003,-0.352870757,0.008787808,-1.190157288,0.000000000,-0.000433085,0.010088166,0.129469667,-0.011582000,-0.001716614,0.004396439,-0.770939636,-0.015698999,-0.014686584,-0.039560318,-0.523086548,0.089509003,0.082207680,0.004396439,3.063729858,0.241042003,0.177195549,0.057142258,2.710632324,-0.267547011,-0.250475353,-0.000012600,-1.784994326,-0.006996000,-0.005094721,0.009776925,-0.136047013
0.129988284,-0.003280000,-0.004005432,-0.030769348,0.770939636,0.021452000,0.013923645,0.048351288,0.373617554,-0.024498999,-0.026130676,0.048351288,0.224176025,0.421505988,0.352293015,0.180219650,3.150177002,-0.364798993,-0.352870757,-0.008787808,-1.090974985,0.000000000,-0.000433085,-0.010088166,0.086278669,-0.011577000,-0.001716614,-0.039560318,-0.770939636,-0.015688000,-0.014686584,0.004396439,-0.821969604,0.089496002,0.082207680,-0.048351288,2.615377808,0.241040006,0.177195549,0.057142258,3.150177002,-0.267428994,-0.250475353,0.000012600,-1.784994326,-0.006997000,-0.005094721,-0.009776925,-0.136047013
0.131988103,-0.003450000,-0.004005432,-0.013187408,0.550662231,0.021470999,0.013923645,-0.004396439,1.270321655,-0.024506999,-0.026512146,-0.039560318,0.523086548,0.421505988,0.352674484,0.180219650,3.150177002,-0.364802986,-0.353061367,-0.008786639,-1.190175045,0.000000000,-0.000870784,-0.010089996,0.129323800,-0.011573000,-0.001716614,0.030769348,-0.770939636,-0.015676999,-0.014686584,-0.013187408,-0.224176025,0.089487001,0.082207680,-0.004396439,2.167025757,0.241037995,0.177577019,0.057142258,2.564117432,-0.267313004,-0.250475353,0.008776353,-1.784994326,-0.006998000,-0.005094721,0.009788343,-0.136047013
0.133987923,-0.003614000,-0.004005432,0.004396439,0.770939636,0.021485001,0.013923645,0.039560318,0.821969604,-0.024514999,-0.026512146,-0.021978378,1.569232178,0.421505988,0.353055954,0.206592560,3.443237305,-0.364805013,-0.353061367,0.004394964,-1.289339783,0.000000000,-0.000870784,0.000001194,0.086101054,-0.011572000,-0.001716614,-0.004396439,-0.770939636,-0.015666001,-0.014686584,0.039560318,-0.821969604,0.089484997,0.082207680,-0.004396439,2.615377808,0.241037995,0.177577019,0.039560318,2.710632324,-0.267199993,-0.250475353,0.004394952,-1.685749084,-0.006999000,-0.005094721,0.000006770,-0.180501341
0.135987743,-0.003778000,-0.004005432,0.021978378,0.110138702,0.021496000,0.013923645,0.039560318,1.419790649,-0.024527000,-0.026512146,-0.004396439,-0.074734497,0.421508998,0.353437424,0.189010620,3.150177002,-0.364800990,-0.353061367,0.013187657,-1.289363257,0.000000000,-0.000870784,-0.020171635,0.172500622,-0.011573000,-0.001716614,0.013187408,-0.770939636,-0.015651001,-0.014686584,-0.030769348,-0.672528076,0.089484997,0.082207680,0.013187408,2.465936279,0.241038993,0.177577019,0.039560318,3.003662109,-0.267089009,-0.250475353,-0.000012600,-1.685749084,-0.006998000,-0.005094721,0.009776925,-0.180501341
0.137987563,-0.003950000,-0.004005432,0.030769348,0.550662231,0.021507001,0.013923645,0.013187408,1.569232178,-0.024541000,-0.026512146,0.039560318,-0.373617554,0.421516001,0.353818893,0.171428680,2.857147217,-0.364789009,-0.353061367,-0.004398682,-1.190175045,0.000000000,-0.000870784,0.020176211,0.129323800,-0.011578000,-0.001716614,0.004396439,-0.770939636,-0.015631000,-0.014686584,-0.021978378,-0.672528076,0.089488000,0.082207680,-0.021978378,3.661550903,0.241044000,0.177577019,0.039560318,3.003662109,-0.266975999,-0.250475353,-0.000012600,-1.685886434,-0.006998000,-0.005094721,0.009776925,-0.091337066
0.139987382,-0.004127000,-0.004005432,0.004396439,0.110138702,0.021516999,0.013923645,-0.039560318,0.971438599,-0.024558000,-0.026512146,-0.048351288,-0.074734497,0.421528012,0.354200363,0.162637711,2.857147217,-0.364771008,-0.353061367,0.008781014,-0.991798621,0.000000000,-0.000870784,0.030267401,0.042970157,-0.011585000,-0.001716614,0.013187408,-0.991217041,-0.015607000,-0.014686584,-0.013187408,-0.821969604,0.089491002,0.082207680,0.039560318,1.868142700,0.241052002,0.177958488,0.039560318,3.296691895,-0.266860992,-0.250475353,-0.004394952,-1.685749084,-0.006996000,-0.005094721,-0.000006770,-0.180501341
0.141987202,-0.004309000,-0.004005432,0.013187408,0.330416107,0.021527000,0.013923645,-0.030769348,0.074734497,-0.024576999,-0.026512146,-0.021978378,0.373617554,0.421543002,0.354581833,0.145055771,3.296691895,-0.364746988,-0.353061367,-0.000007007,-1.190175045,0.000000000,-0.000870784,0.030265014,0.129323800,-0.011595000,-0.001716614,-0.013187408,-0.991217041,-0.015579000,-0.014686584,-0.039560318,-0.971438599,0.089496002,0.082207680,-0.039560318,3.063729858,0.241062000,0.177958488,0.039560318,2.564117432,-0.266745001,-0.250475353,-0.008801547,-1.685749084,-0.006995000,-0.005094721,0.009761265,-0.180501341
0.143987022,-0.004495000,-0.004005432,0.004396439,0.330416107,0.021537000,0.013923645,-0.013187408,-0.224176025,-0.024599001,-0.026512146,0.048351288,0.672528076,0.421561986,0.354581833,0.127471924,3.003662109,-0.364717990,-0.353061367,0.004384668,-1.190175045,0.000000000,-0.000870784,0.040353816,0.129323800,-0.011606000,-0.001716614,0.030769348,-0.991217041,-0.015548000,-0.014686584,-0.004396439,-0.971438599,0.089501999,0.082207680,0.030769348,2.017584229,0.241074994,0.177958488,0.057142258,2.710632324,-0.266629010,-0.250475353,0.013157754,-1.784994326,-0.006993000,-0.005094721,0.019569915,-0.136047013
0.145986842,-0.004682000,-0.004005432,-0.013187408,0.770939636,0.021546001,0.013923645,-0.074726105,0.074734497,-0.024622999,-0.026512146,0.021978378,0.074734497,0.421582997,0.354963303,0.136262894,2.857147217,-0.364684999,-0.353061367,0.013187657,-1.190175045,0.000000000,-0.000870784,-0.020171635,0.129323800,-0.011619000,-0.001716614,-0.013187408,-0.991217041,-0.015515000,-0.014686584,-0.004396439,-0.523086548,0.089509003,0.082207680,-0.021978378,2.465936279,0.241089001,0.178339958,0.065933228,2.564117432,-0.266512007,-0.250475353,-0.008801547,-1.685749084,-0.006991000,-0.005094721,0.009761265,-0.180501341
0.147986661,-0.004871000,-0.004005432,0.004396439,0.110138702,0.021555001,0.013923645,0.013187408,0.971438599,-0.024649000,-0.026512146,-0.013187408,-0.523086548,0.421606004,0.355344772,0.127471924,2.857147217,-0.364648998,-0.353061367,-0.000002336,-1.289339783,0.000000000,-0.000870784,0.010089797,0.086101054,-0.011632000,-0.001716614,0.004396439,-0.991217041,-0.015481000,-0.014686584,-0.039560318,-0.373617554,0.089515999,0.082207680,0.039560318,2.465936279,0.241105005,0.178339958,0.074726105,2.271057129,-0.266395003,-0.250475353,-0.004419195,-1.685886434,-0.006988000,-0.005094721,0.019544960,-0.091337066
0.149986481,-0.005059000,-0.004005432,0.030769348,0.330416107,0.021562999,0.013923645,0.039560318,1.120880127,-0.024676999,-0.026512146,-0.074726105,0.373617554,0.421629995,0.355344772,0.118680954,2.857147217,-0.364609987,-0.353061367,-0.000007007,-1.289339783,0.000000000,-0.000870784,0.030265014,0.086101054,-0.011646000,-0.001716614,-0.013187408,-0.991217041,-0.015446000,-0.014686584,0.013187408,-1.120880127,0.089524999,0.082207680,-0.057142258,2.167025757,0.241123006,0.178339958,0.074726105,2.857147217,-0.266279012,-0.250475353,0.013157754,-1.586778541,-0.006986000,-0.005094721,0.019569915,-0.046627119
0.151986301,-0.005245000,-0.004005432,0.030769348,0.110138702,0.021570999,0.013923645,0.039560318,0.523086548,-0.024705000,-0.026512146,0.013187408,0.821969604,0.421654999,0.355726242,0.101099014,2.857147217,-0.364569008,-0.353061367,0.004389339,-1.090986833,0.000000000,-0.000870784,0.020178599,0.086146978,-0.011661000,-0.001716614,0.030769348,-0.770939636,-0.015412000,-0.014686584,0.039560318,-1.120880127,0.089534000,0.082207680,-0.021978378,2.914288330,0.241142005,0.178721428,0.057142258,2.564117432,-0.266162992,-0.250475353,-0.000012600,-1.586641191,-0.006983000,-0.005094721,0.009776925,-0.135791394
0.153986121,-0.005428000,-0.004005432,-0.021978378,-0.110138702,0.021578001,0.013923645,-0.004396439,-0.074734497,-0.024735000,-0.026512146,0.004396439,-0.821969604,0.421680987,0.355726242,0.118680954,3.003662109,-0.364528000,-0.353061367,0.008781014,-1.289339783,0.000000000,-0.000870784,0.030267401,0.086101054,-0.011675000,-0.001716614,-0.004396439,-0.770939636,-0.015378000,-0.014686584,-0.039560318,-0.672528076,0.089543000,0.082207680,0.004396439,3.063729858,0.241162002,0.178721428,0.048351288,2.564117432,-0.266048998,-0.250475353,0.004368802,-1.685749084,-0.006980000,-0.005094721,0.019558498,-0.180501341
0.155985940,-0.005607000,-0.004005432,0.021978378,-0.330416107,0.021584000,0.013923645,-0.004396439,1.270321655,-0.024766000,-0.026512146,0.021978378,1.419790649,0.421705008,0.356107712,0.109889984,3.003662109,-0.364486992,-0.353061367,0.008791310,-0.991798621,0.000000000,-0.000870784,-0.010085220,0.042970157,-0.011688000,-0.001716614,-0.004396439,-0.991217041,-0.015347000,-0.014686584,-0.004396439,-0.074734497,0.089552000,0.082589149,0.092308044,1.868142700,0.241181999,0.178721428,0.065933228,2.564117432,-0.265935987,-0.250475353,-0.000012600,-1.784879094,-0.006977000,-0.005094721,0.009776925,-0.225221266
0.157985760,-0.005781000,-0.004005432,0.030769348,-0.330416107,0.021589000,0.013923645,-0.004396439,0.672528076,-0.024797000,-0.026512146,0.030769348,0.373617554,0.421728998,0.356489182,0.109889984,3.003662109,-0.364446998,-0.353061367,-0.004394964,-1.090986833,0.000000000,-0.000870784,-0.000001194,0.086146978,-0.011700000,-0.001716614,0.021978378,-0.550662231,-0.015319000,-0.014686584,-0.057142258,-1.569232178,0.089561999,0.082589149,-0.004396439,2.615377808,0.241202995,0.179102898,0.074726105,2.417572021,-0.265825003,-0.250475353,0.004394952,-1.685749084,-0.006974000,-0.005094721,0.000006770,-0.180501341
0.159985580,-0.005947000,-0.004005432,-0.004396439,-0.110138702,0.021593001,0.013923645,0.030769348,1.270321655,-0.024828000,-0.026512146,0.004396439,0.672528076,0.421750993,0.356489182,0.109889984,3.150177002,-0.364407986,-0.353061367,-0.004394964,-1.190175045,0.000000000,-0.000870784,-0.000001194,0.129323800,-0.011711000,-0.001716614,-0.004396439,-0.770939636,-0.015295000,-0.014686584,-0.039560318,-1.270321655,0.089571998,0.082589149,0.004396439,2.914288330,0.241224006,0.179102898,0.083517075,2.417572021,-0.265717000,-0.250475353,-0.013208142,-1.487395949,-0.006971000,-0.005094721,0.019529301,-0.180245722
0.161985400,-0.006106000,-0.004005432,0.039560318,0.330416107,0.021597000,0.013923645,-0.039560318,0.224176025,-0.024859000,-0.026512146,-0.004396439,-0.373617554,0.421770990,0.356870651,0.109889984,2.710632324,-0.364371985,-0.353061367,-0.000002336,-1.190175045,0.000000000,-0.000870784,0.010089797,0.129323800,-0.011720000,-0.001716614,0.004396439,-0.991217041,-0.015275000,-0.014686584,-0.021978378,-0.971438599,0.089580998,0.082589149,0.004396439,2.615377808,0.241245002,0.179484367,0.092308044,2.417572021,-0.265610993,-0.250475353,-0.013182948,-1.685749084,-0.006968000,-0.005094721,-0.000020307,-0.180501341
0.163985219,-0.006255000,-0.004005432,0.004396439,0.110138702,0.021599000,0.013923645,-0.048351288,0.821969604,-0.024890000,-0.026512146,0.004396439,-0.373617554,0.421788007,0.356870651,0.118680954,3.296691895,-0.364340007,-0.353061367,0.004389339,-1.190175045,0.000000000,-0.000870784,0.020178599,0.129323800,-0.011726000,-0.001716614,-0.013187408,-0.991217041,-0.015261000,-0.014686584,0.021978378,-0.672528076,0.089590997,0.082589149,0.004396439,2.615377808,0.241264999,0.179484367,0.101099014,2.564117432,-0.265507996,-0.250475353,0.013182948,-1.586641191,-0.006965000,-0.005094721,0.000020307,-0.135791394
0.165985039,-0.006394000,-0.004005432,0.004396439,-0.110138702,0.021601001,0.013923645,-0.021978378,1.120880127,-0.024920000,-0.026512146,-0.039560318,0.971438599,0.421802014,0.357252121,0.118680954,3.150177002,-0.364311993,-0.353061367,0.008781014,-1.090986833,0.000000000,-0.000870784,0.030267401,0.086146978,-0.011730000,-0.001716614,0.013187408,-0.770939636,-0.015252000,-0.014686584,-0.013187408,-0.523086548,0.089599997,0.082589149,0.030769348,2.316494751,0.241283998,0.179865837,0.074726105,2.271057129,-0.265408993,-0.250475353,-0.000012600,-1.586503842,-0.006962000,-0.005094721,0.009776925,-0.224955669
0.167984859,-0.006521000,-0.004005432,-0.013187408,-0.110138702,0.021601001,0.013923645,0.039560318,0.523086548,-0.024950000,-0.026512146,-0.057142258,1.270321655,0.421811998,0.357633591,0.127471924,3.003662109,-0.364288986,-0.353061367,0.004389339,-1.190175045,0.000000000,-0.000870784,0.020178599,0.129323800,-0.011730000,-0.001716614,0.021978378,-0.770939636,-0.015251000,-0.014686584,0.021978378,-0.672528076,0.089607999,0.082589149,-0.048351288,2.764846802,0.241301998,0.179865837,0.083517075,2.857147217,-0.265314013,-0.250475353,-0.000012600,-1.388288056,-0.006960000,-0.005094721,0.009776925,-0.135535775
0.169984679,-0.006640000,-0.004005432,0.013187408,-0.330416107,0.021598000,0.013923645,0.021978378,0.373617554,-0.024983000,-0.026512146,-0.013187408,-0.971438599,0.421820015,0.357633591,0.127471924,3.150177002,-0.364268988,-0.353061367,0.000002336,-1.090986833,0.000000000,-0.000870784,-0.010089797,0.086146978,-0.011724000,-0.001716614,0.013187408,-0.770939636,-0.015255000,-0.014686584,0.030769348,-0.373617554,0.089616999,0.082589149,0.092308044,3.063729858,0.241320997,0.179865837,0.083517075,2.857147217,-0.265221000,-0.250475353,0.017564349,-1.685749084,-0.006958000,-0.005094721,0.009801880,-0.180501341
0.171984498,-0.006754000,-0.004005432,-0.021978378,-0.110138702,0.021593001,0.013923645,-0.021978378,1.718673706,-0.025021000,-0.026512146,0.013187408,-0.373617554,0.421826988,0.358015060,0.136262894,3.003662109,-0.364250988,-0.353061367,-0.000002336,-1.090986833,0.000000000,-0.000870784,0.010089797,0.086146978,-0.011713000,-0.001716614,-0.004396439,-0.770939636,-0.015262000,-0.014686584,-0.074726105,-0.821969604,0.089625999,0.082589149,-0.021978378,2.764846802,0.241338998,0.180247307,0.092308044,2.564117432,-0.265130013,-0.250475353,0.004343608,-1.586641191,-0.006956000,-0.005094721,0.039108106,-0.135791394
0.173984318,-0.006862000,-0.004005432,0.004396439,-0.110138702,0.021585001,0.013923645,0.039560318,1.419790649,-0.025062000,-0.026512146,-0.004396439,1.120880127,0.421833009,0.358396530,0.127471924,3.150177002,-0.364234000,-0.353061367,-0.004394964,-1.190175045,0.000000000,-0.000870784,-0.000001194,0.129323800,-0.011695000,-0.001716614,0.004396439,-0.770939636,-0.015274000,-0.014686584,-0.013187408,-0.821969604,0.089635000,0.082589149,-0.030769348,2.914288330,0.241358995,0.180628777,0.092308044,2.271057129,-0.265040994,-0.250475353,0.000012600,-1.388425405,-0.006954000,-0.005094721,-0.009776925,-0.046371500
0.175984138,-0.006967000,-0.004005432,0.013187408,0.110138702,0.021576000,0.014305115,0.039560318,-0.224176025,-0.025105000,-0.026512146,-0.004396439,1.120880127,0.421838999,0.358396530,0.109889984,3.150177002,-0.364219010,-0.353061367,-0.008791310,-1.190175045,0.000000000,-0.000870784,0.010085220,0.129323800,-0.011673000,-0.001716614,-0.021978378,-0.770939636,-0.015288000,-0.014686584,-0.004396439,-0.821969604,0.089644998,0.082589149,0.013187408,3.810992432,0.241378993,0.180628777,0.109889984,2.710632324,-0.264952987,-0.250475353,-0.004394952,-1.487533298,-0.006952000,-0.005094721,-0.000006770,-0.091081447
0.177983957,-0.007067000,-0.004005432,0.013187408,0.110138702,0.021563999,0.014305115,0.039560318,-0.224176025,-0.025149999,-0.026512146,0.048351288,0.821969604,0.421842992,0.358396530,0.109889984,3.150177002,-0.364205003,-0.353061367,0.004384668,-1.190175045,0.000000000,-0.000870784,0.040353816,0.129323800,-0.011647000,-0.001716614,0.004396439,-0.991217041,-0.015306000,-0.014686584,-0.039560318,-0.523086548,0.089653999,0.082589149,0.057142258,3.362640381,0.241399005,0.181010246,0.083517075,2.710632324,-0.264867008,-0.250475353,-0.004419195,-1.586503842,-0.006951000,-0.005094721,0.019544960,-0.224955669
0.179983777,-0.007164000,-0.004005432,-0.013187408,-0.110138702,0.021550000,0.013923645,-0.092308044,1.569232178,-0.025195999,-0.026512146,-0.030769348,-0.224176025,0.421847999,0.358778000,0.083517075,3.150177002,-0.364190996,-0.353061367,0.004394964,-1.090986833,0.000000000,-0.000870784,0.000001194,0.086146978,-0.011617000,-0.001716614,0.030769348,-0.770939636,-0.015326000,-0.014686584,0.039560318,-1.120880127,0.089663997,0.082589149,-0.039560318,2.316494751,0.241419002,0.181010246,0.065933228,2.710632324,-0.264782012,-0.250475353,0.004394952,-1.487395949,-0.006949000,-0.005094721,0.000006770,-0.180245722
0.181983597,-0.007258000,-0.004005432,-0.021978378,0.330416107,0.021535000,0.014305115,0.030769348,0.373617554,-0.025242001,-0.026512146,-0.030769348,-0.224176025,0.421851993,0.359159470,0.127471924,2.710632324,-0.364178002,-0.353061367,-0.000002336,-1.289363257,0.000000000,-0.000870784,0.010089797,0.172500622,-0.011584000,-0.001716614,0.030769348,-0.770939636,-0.015348000,-0.014686584,-0.013187408,-0.821969604,0.089675002,0.082207680,-0.092308044,3.063729858,0.241439998,0.181010246,0.074726105,2.417572021,-0.264699012,-0.250475353,0.000012600,-1.388288056,-0.006947000,-0.005094721,-0.009776925,-0.135535775
0.183983417,-0.007350000,-0.004005432,0.013187408,-0.110138702,0.021517999,0.014305115,0.039560318,0.373617554,-0.025287000,-0.026512146,0.013187408,0.523086548,0.421855986,0.359540939,0.118680954,3.150177002,-0.364165008,-0.353061367,0.008781014,-1.091010307,0.000000000,-0.000870784,0.030267401,0.172546546,-0.011549000,-0.001716614,0.030769348,-0.770939636,-0.015373000,-0.014686584,-0.004396439,-0.224176025,0.089685000,0.082207680,0.039560318,3.512081909,0.241462007,0.181391716,0.057142258,2.417572021,-0.264618009,-0.250475353,-0.000012600,-1.487395949,-0.006946000,-0.005094721,0.009776925,-0.180245722
0.185983236,-0.007440000,-0.004005432,-0.013187408,-0.110138702,0.021500001,0.013923645,-0.065933228,1.270321655,-0.025330000,-0.026512146,0.013187408,1.419790649,0.421860009,0.359540939,0.092308044,2.857147217,-0.364151001,-0.353061367,-0.004398682,-1.190175045,0.000000000,-0.000870784,0.020176211,0.129323800,-0.011512000,-0.001716614,0.004396439,-0.770939636,-0.015398000,-0.014686584,-0.030769348,-0.971438599,0.089694999,0.082207680,0.004396439,2.764846802,0.241484001,0.181391716,0.065933228,2.564117432,-0.264537007,-0.250475353,-0.000012600,-1.388288056,-0.006944000,-0.005094721,0.009776925,-0.135535775
0.187983056,-0.007530000,-0.004005432,0.013187408,0.110138702,0.021482000,0.013923645,-0.004396439,0.074734497,-0.025371000,-0.026512146,-0.004396439,0.672528076,0.421864986,0.359922409,0.083517075,3.003662109,-0.364136994,-0.353061367,-0.013187657,-1.190175045,0.000000000,-0.000870784,0.020171635,0.129323800,-0.011474000,-0.001716614,0.030769348,-0.770939636,-0.015425000,-0.014686584,-0.021978378,-0.373617554,0.089704998,0.082207680,0.004396439,2.465936279,0.241505995,0.181391716,0.057142258,2.564117432,-0.264458001,-0.250475353,-0.008825790,-1.487395949,-0.006942000,-0.005094721,0.029312996,-0.180245722
0.189982876,-0.007618000,-0.004005432,0.004396439,-0.110138702,0.021462001,0.013923645,0.004396439,0.821969604,-0.025408000,-0.026512146,0.004396439,-0.672528076,0.421869993,0.359922409,0.074726105,3.150177002,-0.364122003,-0.353061367,-0.013182986,-1.090986833,0.000000000,-0.000870784,-0.000003582,0.086146978,-0.011436000,-0.001716614,0.030769348,-0.770939636,-0.015452000,-0.014686584,0.021978378,-0.672528076,0.089714997,0.082207680,-0.030769348,4.259344482,0.241528004,0.181773186,0.048351288,2.857147217,-0.264378995,-0.250475353,0.008776353,-1.487533298,-0.006939000,-0.005094721,0.009788343,-0.091081447
0.191982696,-0.007707000,-0.004005432,-0.004396439,-0.770939636,0.021443000,0.014305115,0.004396439,0.672528076,-0.025441000,-0.026512146,-0.101099014,0.074734497,0.421875000,0.359922409,0.074726105,3.003662109,-0.364104986,-0.353061367,0.008786639,-1.090986833,0.000000000,-0.000870784,0.010089996,0.086146978,-0.011398000,-0.001716614,0.004396439,-0.770939636,-0.015480000,-0.014686584,-0.021978378,-0.821969604,0.089725003,0.082207680,0.004396439,2.764846802,0.241550997,0.181773186,0.030769348,2.417572021,-0.264301986,-0.250475353,0.008776353,-1.289180163,-0.006937000,-0.005094721,0.009788343,-0.090825828
0.193982515,-0.007796000,-0.004005432,0.004396439,0.110138702,0.021423001,0.013923645,-0.021978378,1.569232178,-0.025469000,-0.026512146,0.013187408,0.074734497,0.421880990,0.360303879,0.065933228,2.710632324,-0.364086002,-0.353061367,0.004389339,-0.991798621,0.000000000,-0.000870784,0.020178599,0.042970157,-0.011361000,-0.001716614,-0.013187408,-0.770939636,-0.015508000,-0.014686584,-0.004396439,-0.971438599,0.089735001,0.082207680,-0.013187408,2.316494751,0.241574004,0.181773186,0.030769348,2.857147217,-0.264225006,-0.250475353,0.004368802,-1.388288056,-0.006934000,-0.005094721,0.019558498,-0.135535775
0.195982335,-0.007887000,-0.004005432,-0.004396439,-0.110138702,0.021403000,0.013923645,-0.004396439,0.523086548,-0.025490001,-0.026512146,0.021978378,0.971438599,0.421889007,0.360303879,0.065933228,2.857147217,-0.364066005,-0.353061367,-0.000002336,-1.190175045,0.000000000,-0.000870784,0.010089797,0.129323800,-0.011326000,-0.001716614,0.030769348,-0.770939636,-0.015535000,-0.014686584,-0.004396439,-0.074734497,0.089745000,0.082207680,-0.021978378,3.362640381,0.241596997,0.181773186,0.013187408,3.003662109,-0.264149994,-0.250475353,-0.000012600,-1.487395949,-0.006931000,-0.005094721,0.009776925,-0.180245722
0.197982155,-0.007979000,-0.004005432,0.013187408,-0.110138702,0.021384001,0.014305115,0.065933228,1.120880127,-0.025505001,-0.026512146,-0.092308044,0.971438599,0.421896994,0.360303879,0.074726105,2.857147217,-0.364042997,-0.353061367,-0.004398682,-1.289363257,0.000000000,-0.000870784,0.020176211,0.172500622,-0.011293000,-0.001716614,0.021978378,-0.770939636,-0.015561000,-0.014686584,-0.004396439,-0.672528076,0.089754000,0.082207680,0.048351288,3.213198853,0.241620004,0.181773186,0.021978378,2.857147217,-0.264075011,-0.250475353,0.004419195,-1.388288056,-0.006927000,-0.005094721,-0.019544960,-0.135535775
0.199981975,-0.008074000,-0.004005432,0.013187408,-0.110138702,0.021365000,0.013923645,0.030769348,1.270321655,-0.025512001,-0.026512146,0.048351288,-0.224176025,0.421905994,0.360685349,0.065933228,2.710632324,-0.364017010,-0.353061367,0.004394964,-1.190175045,0.000000000,-0.000870784,0.000001194,0.129323800,-0.011263000,-0.001716614,-0.004396439,-0.770939636,-0.015586000,-0.014686584,-0.021978378,-0.821969604,0.089763001,0.082207680,-0.030769348,3.810992432,0.241643995,0.181773186,0.004396439,3.150177002,-0.263999999,-0.250475353,0.004394952,-1.586503842,-0.006924000,-0.005094721,0.000006770,-0.224955669
0.201981794,-0.008172000,-0.004005432,0.021978378,-0.110138702,0.021345999,0.013923645,-0.004396439,0.373617554,-0.025512001,-0.026512146,0.065933228,-0.672528076,0.421918988,0.360685349,0.065933228,2.857147217,-0.363985986,-0.353061367,-0.004394964,-1.090986833,0.000000000,-0.000870784,-0.000001194,0.086146978,-0.011235000,-0.001716614,0.013187408,-0.770939636,-0.015611000,-0.014686584,-0.039560318,-0.971438599,0.089772001,0.082207680,0.004396439,2.615377808,0.241668001,0.182154655,0.004396439,3.003662109,-0.263925999,-0.250475353,0.008801547,-1.289180163,-0.006918000,-0.005094721,-0.009761265,-0.090825828
0.203981614,-0.008273000,-0.004005432,0.021978378,-0.550662231,0.021325000,0.013923645,-0.057142258,1.270321655,-0.025509000,-0.026512146,-0.021978378,0.672528076,0.421938002,0.360685349,0.065933228,3.150177002,-0.363941997,-0.353061367,-0.000002336,-1.090986833,0.000000000,-0.000870784,0.010089797,0.086146978,-0.011205000,-0.001716614,0.004396439,-0.991217041,-0.015637999,-0.014686584,-0.013187408,-0.523086548,0.089780003,0.082207680,0.004396439,2.764846802,0.241690993,0.182154655,0.004396439,3.150177002,-0.263853997,-0.250475353,0.008801547,-1.388288056,-0.006909000,-0.005094721,-0.009761265,-0.135535775
0.205981434,-0.008378000,-0.004005432,0.013187408,0.110138702,0.021302000,0.013923645,0.048351288,0.523086548,-0.025504000,-0.026512146,0.021978378,0.821969604,0.421963990,0.361066818,0.065933228,2.857147217,-0.363887012,-0.353061367,-0.000002336,-0.991798621,0.000000000,-0.000870784,0.010089797,0.042970157,-0.011173000,-0.001716614,0.004396439,-0.991217041,-0.015667001,-0.014686584,0.013187408,-0.971438599,0.089787997,0.082207680,0.030769348,3.960433960,0.241714999,0.182154655,0.004396439,3.003662109,-0.263781995,-0.250475353,0.013208142,-1.289180163,-0.006896000,-0.005094721,-0.019529301,-0.090825828
0.207981254,-0.008484000,-0.004005432,-0.004396439,0.330416107,0.021276999,0.013923645,0.013187408,0.523086548,-0.025496000,-0.026512146,-0.013187408,0.074734497,0.421997011,0.361066818,0.074726105,3.003662109,-0.363822013,-0.353061367,-0.008795029,-1.090986833,0.000000000,-0.000870784,0.030262626,0.086146978,-0.011139000,-0.001716614,0.030769348,-0.770939636,-0.015698001,-0.014686584,0.021978378,-0.373617554,0.089795001,0.082207680,-0.021978378,2.764846802,0.241739005,0.182154655,0.013187408,2.857147217,-0.263711989,-0.250475353,0.004394952,-1.388288056,-0.006879000,-0.005094721,0.000006770,-0.135535775
0.209981073,-0.008592000,-0.004005432,0.048351288,-0.550662231,0.021251000,0.013923645,0.039560318,2.017584229,-0.025486000,-0.026512146,-0.013187408,-0.074734497,0.422033995,0.361066818,0.083517075,2.857147217,-0.363747001,-0.353061367,-0.000002336,-1.289363257,0.000000000,-0.000870784,0.010089797,0.172500622,-0.011105000,-0.001716614,0.039560318,-0.770939636,-0.015729999,-0.014686584,0.004396439,-0.224176025,0.089801997,0.082207680,-0.057142258,3.213198853,0.241761997,0.182154655,-0.004396439,3.003662109,-0.263642013,-0.250284151,0.013210226,-1.487373517,-0.006859000,-0.005518494,-0.019526453,-0.180415627
0.211980893,-0.008701000,-0.004005432,-0.057142258,-0.550662231,0.021224000,0.013923645,0.030769348,1.270321655,-0.025474001,-0.026893616,-0.004396439,0.523086548,0.422077000,0.361448288,0.074726105,2.857147217,-0.363665998,-0.353061367,0.008781014,-1.090986833,0.000000000,-0.000870784,0.030267401,0.086146978,-0.011070000,-0.001716614,0.004396439,-0.770939636,-0.015761999,-0.014686584,-0.004396439,-0.373617554,0.089809000,0.082207680,0.013187408,2.167025757,0.241787001,0.182154655,-0.004396439,3.150177002,-0.263574004,-0.250284151,0.022025504,-1.388420088,-0.006837000,-0.005518494,-0.039060240,-0.046522894
0.213980713,-0.008809000,-0.004005432,0.004396439,0.330416107,0.021196000,0.013923645,-0.065933228,0.672528076,-0.025460999,-0.026893616,-0.039560318,1.270321655,0.422123998,0.361448288,0.083517075,2.857147217,-0.363579005,-0.353061367,-0.004394964,-1.091010307,0.000000000,-0.000870784,-0.000001194,0.172546546,-0.011036000,-0.001716614,-0.030769348,-0.770939636,-0.015796000,-0.014686584,0.083517075,-0.672528076,0.089815997,0.082207680,0.030769348,2.764846802,0.241811007,0.182154655,0.004396439,3.003662109,-0.263505995,-0.250284151,0.021970930,-1.289169103,-0.006812000,-0.005518494,0.000036658,-0.090969224
0.215980533,-0.008917000,-0.004005432,0.030769348,-0.110138702,0.021167001,0.013923645,-0.004396439,0.672528076,-0.025446000,-0.026893616,-0.013187408,0.523086548,0.422172993,0.361448288,0.074726105,2.857147217,-0.363487005,-0.353061367,-0.013182986,-1.190175045,0.000000000,-0.000870784,-0.000003582,0.129323800,-0.011003000,-0.001716614,-0.004396439,-0.991217041,-0.015829001,-0.014686584,0.004396439,0.523086548,0.089823000,0.082207680,-0.048351288,3.063729858,0.241835997,0.182154655,-0.013187408,3.150177002,-0.263439000,-0.250284151,0.017644201,-1.388271310,-0.006786000,-0.005518494,-0.048843918,-0.135692425
0.217980352,-0.009023000,-0.004005432,-0.021978378,-0.110138702,0.021139000,0.013923645,-0.039560318,0.672528076,-0.025429999,-0.026893616,-0.048351288,-0.373617554,0.422226012,0.361829758,0.065933228,3.003662109,-0.363393009,-0.353061367,0.000002336,-1.190175045,0.000000000,-0.000870784,-0.010089797,0.129323800,-0.010970000,-0.001716614,0.004396439,-0.991217041,-0.015862999,-0.014686584,-0.013187408,-0.672528076,0.089828998,0.081826210,0.004396439,3.213198853,0.241861999,0.182154655,-0.013187408,3.150177002,-0.263372004,-0.250284151,0.004394949,-1.289169103,-0.006759000,-0.005518494,0.000007333,-0.090969224
0.219980172,-0.009126000,-0.004005432,0.030769348,-0.110138702,0.021110000,0.013923645,0.021978378,0.971438599,-0.025412999,-0.026893616,-0.004396439,0.523086548,0.422280997,0.361829758,0.074726105,2.710632324,-0.363296986,-0.353061367,-0.008795029,-1.090986833,0.000000000,-0.000870784,0.030262626,0.086146978,-0.010940000,-0.001716614,0.013187408,-0.770939636,-0.015895000,-0.014686584,-0.004396439,-0.373617554,0.089837000,0.082207680,0.004396439,2.316494751,0.241888002,0.182154655,-0.013187408,3.150177002,-0.263307005,-0.250284151,0.008802588,-1.388271310,-0.006731000,-0.005518494,-0.009759560,-0.135692425
0.221979992,-0.009226000,-0.004005432,-0.021978378,-0.550662231,0.021082001,0.013923645,0.030769348,0.821969604,-0.025395000,-0.026893616,0.021978378,-0.224176025,0.422336996,0.361829758,0.065933228,3.003662109,-0.363200992,-0.353061367,0.000002336,-1.190198519,0.000000000,-0.000870784,-0.010089797,0.215723368,-0.010912000,-0.001716614,0.004396439,-0.550662231,-0.015927000,-0.014686584,0.039560318,-0.821969604,0.089844003,0.081826210,-0.004396439,3.810992432,0.241915002,0.182154655,-0.013187408,3.003662109,-0.263240993,-0.250284151,-0.008828924,-1.289169103,-0.006702000,-0.005518494,0.029310132,-0.090969224
0.223979812,-0.009322000,-0.004005432,0.004396439,-0.770939636,0.021055000,0.013923645,-0.074726105,-0.373617554,-0.025376000,-0.026893616,-0.083517075,-0.224176025,0.422392994,0.362211227,0.074726105,3.003662109,-0.363106996,-0.353061367,-0.000007007,-1.289363257,0.000000000,-0.000870784,0.030265014,0.172500622,-0.010887000,-0.001716614,-0.004396439,-0.550662231,-0.015957000,-0.014686584,-0.021978378,-0.373617554,0.089851998,0.082207680,0.048351288,3.661550903,0.241943002,0.182154655,-0.013187408,3.003662109,-0.263175994,-0.250284151,0.004339419,-1.487522295,-0.006673000,-0.005518494,0.039106350,-0.091246095
0.225979631,-0.009414000,-0.004005432,0.013187408,-0.110138702,0.021028999,0.013923645,-0.030769348,1.419790649,-0.025357001,-0.026893616,-0.030769348,0.672528076,0.422450006,0.362211227,0.083517075,2.857147217,-0.363014996,-0.353061367,-0.008799700,-1.190175045,0.000000000,-0.000870784,0.050437842,0.129323800,-0.010865000,-0.001716614,0.004396439,-0.770939636,-0.015985001,-0.014686584,0.013187408,-1.419790649,0.089860000,0.082207680,0.021978378,2.615377808,0.241971999,0.182154655,-0.004396439,3.003662109,-0.263110995,-0.250284151,-0.000013646,-1.289169103,-0.006645000,-0.005518494,0.009776345,-0.090969224
0.227979451,-0.009500000,-0.004005432,-0.021978378,-0.110138702,0.021005001,0.013923645,-0.039560318,0.971438599,-0.025336999,-0.026893616,-0.021978378,0.373617554,0.422506005,0.362592697,0.074726105,3.150177002,-0.362928003,-0.353061367,0.004398682,-0.991822095,0.000000000,-0.000870784,-0.020176211,0.129369724,-0.010847000,-0.001716614,0.021978378,-0.770939636,-0.016011000,-0.014686584,-0.039560318,-0.523086548,0.089869000,0.081826210,-0.057142258,3.512081909,0.242002994,0.182154655,-0.004396439,3.003662109,-0.263047010,-0.250284151,-0.000013646,-1.388420088,-0.006618000,-0.005518494,0.009776345,-0.046522894
0.229979271,-0.009579000,-0.004005432,-0.004396439,-0.330416107,0.020981999,0.013923645,-0.004396439,0.074734497,-0.025317000,-0.026893616,-0.030769348,-0.074734497,0.422560006,0.362592697,0.074726105,3.150177002,-0.362847000,-0.353061367,-0.000002336,-0.991822095,0.000000000,-0.000870784,0.010089797,0.129369724,-0.010833000,-0.001716614,0.004396439,-0.770939636,-0.016035000,-0.014686584,-0.013187408,0.074734497,0.089878999,0.081826210,0.039560318,2.914288330,0.242034003,0.182154655,0.004396439,2.857147217,-0.262982994,-0.250284151,0.004421285,-1.289020325,-0.006593000,-0.005518494,-0.019543238,-0.180138756
0.231979091,-0.009652000,-0.004005432,0.004396439,-0.550662231,0.020961000,0.013923645,-0.109889984,-0.373617554,-0.025296999,-0.026893616,0.021978378,-0.672528076,0.422612995,0.362592697,0.083517075,3.003662109,-0.362773001,-0.353061367,-0.004398682,-1.190175045,0.000000000,-0.000870784,0.020176211,0.129323800,-0.010825000,-0.001716614,0.013187408,-0.770939636,-0.016055999,-0.014686584,-0.004396439,-1.120880127,0.089890003,0.081826210,0.039560318,2.914288330,0.242066994,0.182154655,-0.013187408,2.857147217,-0.262919009,-0.250284151,0.008802588,-1.090815911,-0.006569000,-0.005518494,-0.009759560,-0.090692353
0.233978910,-0.009716000,-0.004005432,0.004396439,-0.550662231,0.020943001,0.013923645,0.004396439,0.074734497,-0.025277000,-0.026893616,-0.092308044,-0.373617554,0.422661990,0.362974167,0.083517075,3.003662109,-0.362708002,-0.353061367,-0.004398682,-1.190175045,0.000000000,-0.000870784,0.020176211,0.129323800,-0.010822000,-0.001716614,-0.004396439,-0.991217041,-0.016073000,-0.014686584,-0.101099014,-1.120880127,0.089901000,0.081826210,-0.030769348,4.109902954,0.242100999,0.182154655,0.013187408,3.003662109,-0.262854993,-0.250284151,0.000013646,-1.190066896,-0.006547000,-0.005518494,-0.009776345,-0.046246023
0.235978730,-0.009777000,-0.004005432,-0.030769348,-0.330416107,0.020927001,0.013923645,0.039560318,0.672528076,-0.025256000,-0.026893616,-0.039560318,-0.373617554,0.422711015,0.362974167,0.083517075,3.443237305,-0.362648994,-0.353061367,-0.000002336,-0.892633883,0.000000000,-0.000870784,0.010089797,0.086192903,-0.010822000,-0.001716614,0.013187408,-0.550662231,-0.016088000,-0.014686584,-0.004396439,-0.672528076,0.089914002,0.081826210,-0.030769348,4.109902954,0.242137000,0.182154655,-0.004396439,3.003662109,-0.262789011,-0.250284151,0.004394949,-1.190066896,-0.006526000,-0.005518494,0.000007333,-0.046246023
0.237978550,-0.009839000,-0.004005432,-0.004396439,-0.991217041,0.020911001,0.013923645,-0.039560318,0.821969604,-0.025233001,-0.026893616,-0.021978378,0.821969604,0.422760010,0.363355637,0.065933228,3.296691895,-0.362589985,-0.353061367,0.004389339,-0.991822095,0.000000000,-0.000870784,0.020178599,0.129369724,-0.010824000,-0.001716614,0.004396439,-0.770939636,-0.016104000,-0.014686584,0.013187408,-0.821969604,0.089928001,0.081826210,-0.057142258,2.764846802,0.242174998,0.182154655,0.004396439,3.003662109,-0.262721986,-0.250284151,-0.004421285,-1.090964689,-0.006504000,-0.005518494,0.019543238,-0.001522822
0.239978370,-0.009901000,-0.004005432,-0.004396439,-0.550662231,0.020896001,0.013923645,-0.004396439,0.821969604,-0.025207000,-0.026893616,0.048351288,0.074734497,0.422811002,0.363355637,0.057142258,3.150177002,-0.362533003,-0.353061367,0.013182986,-0.793445671,0.000000000,-0.000870784,0.000003582,0.043016081,-0.010826000,-0.001716614,0.030769348,-0.770939636,-0.016119000,-0.014686584,-0.030769348,-0.821969604,0.089943998,0.081826210,-0.057142258,2.764846802,0.242214993,0.182154655,-0.004396439,3.150177002,-0.262654006,-0.250284151,-0.008802588,-1.289169103,-0.006480000,-0.005518494,0.009759560,-0.090969224
0.241978189,-0.009963000,-0.004005432,-0.004396439,-0.770939636,0.020881999,0.013923645,0.004396439,0.373617554,-0.025180001,-0.026893616,0.048351288,0.821969604,0.422861993,0.363355637,0.057142258,2.857147217,-0.362477005,-0.353061367,0.013182986,-0.991798621,0.000000000,-0.000870784,0.000003582,0.042970157,-0.010829000,-0.001716614,-0.021978378,-0.770939636,-0.016133999,-0.014686584,0.030769348,-1.270321655,0.089961000,0.081826210,0.013187408,3.661550903,0.242256999,0.182154655,-0.013187408,2.857147217,-0.262585014,-0.250284151,0.004366706,-1.289169103,-0.006456000,-0.005518494,0.019557901,-0.090969224
0.243978009,-0.010023000,-0.004005432,0.048351288,-0.550662231,0.020868000,0.013923645,-0.057142258,0.373617554,-0.025149999,-0.026893616,-0.021978378,-0.224176025,0.422913015,0.363355637,0.057142258,3.003662109,-0.362423003,-0.353061367,0.004398682,-0.991822095,0.000000000,-0.000870784,-0.020176211,0.129369724,-0.010833000,-0.001716614,0.021978378,-0.770939636,-0.016147999,-0.014686584,-0.004396439,-0.523086548,0.089979999,0.081826210,-0.048351288,3.063729858,0.242300004,0.182154655,0.004396439,3.003662109,-0.262515008,-0.250284151,-0.004394949,-1.289169103,-0.006432000,-0.005518494,-0.000007333,-0.090969224
0.245977829,-0.010082000,-0.004005432,0.013187408,-0.110138702,0.020855000,0.013923645,-0.013187408,1.270321655,-0.025118999,-0.026893616,-0.109889984,0.523086548,0.422966003,0.363737106,0.048351288,3.150177002,-0.362370014,-0.353061367,-0.000002336,-0.892610409,0.000000000,-0.000870784,0.010089797,-0.000206665,-0.010837000,-0.001716614,0.030769348,-0.770939636,-0.016163001,-0.014686584,-0.030769348,-0.971438599,0.090000004,0.081826210,0.083517075,2.465936279,0.242345005,0.182154655,-0.004396439,2.857147217,-0.262445986,-0.250284151,0.004394949,-1.289169103,-0.006407000,-0.005518494,0.000007333,-0.090969224
0.247977649,-0.010138000,-0.004005432,-0.013187408,-1.211463165,0.020842001,0.013923645,0.057142258,-0.523086548,-0.025087001,-0.026893616,-0.004396439,0.523086548,0.423018008,0.363737106,0.039560318,3.296691895,-0.362318009,-0.353061367,-0.000002336,-1.091010307,0.000000000,-0.000870784,0.010089797,0.172546546,-0.010842000,-0.001716614,-0.013187408,-0.770939636,-0.016176000,-0.014686584,-0.004396439,-0.971438599,0.090020999,0.081826210,-0.048351288,3.213198853,0.242392004,0.182154655,0.004396439,3.150177002,-0.262376010,-0.250284151,0.008747058,-1.289169103,-0.006383000,-0.005518494,0.029339457,-0.090969224
0.249977468,-0.010192000,-0.004005432,0.021978378,0.110138702,0.020830000,0.013923645,-0.048351288,0.672528076,-0.025053000,-0.026893616,0.048351288,0.074734497,0.423070997,0.363737106,0.039560318,3.003662109,-0.362266988,-0.353061367,-0.000002336,-1.091010307,0.000000000,-0.000870784,0.010089797,0.172546546,-0.010848000,-0.001716614,0.013187408,-0.770939636,-0.016189000,-0.014686584,0.039560318,0.373617554,0.090043999,0.081826210,-0.048351288,3.512081909,0.242440999,0.182154655,-0.004396439,2.857147217,-0.262308002,-0.250284151,-0.008775301,-1.090964689,-0.006360000,-0.005518494,-0.009788889,-0.001522822
0.251977288,-0.010242000,-0.004005432,0.030769348,-0.110138702,0.020818001,0.013923645,-0.021978378,0.523086548,-0.025017999,-0.026893616,0.021978378,-0.074734497,0.423123002,0.363737106,0.039560318,2.710632324,-0.362217993,-0.353061367,0.008786639,-0.793469145,0.000000000,-0.000870784,0.010089996,0.129415649,-0.010854000,-0.001716614,0.004396439,-0.770939636,-0.016200000,-0.014686584,-0.048351288,-0.971438599,0.090067998,0.081826210,-0.039560318,2.764846802,0.242491007,0.182154655,-0.004396439,3.003662109,-0.262241989,-0.250284151,-0.008828924,-1.189918118,-0.006338000,-0.005518494,0.029310132,-0.135415554
0.253977108,-0.010289000,-0.004005432,-0.004396439,-0.550662231,0.020806000,0.013923645,0.021978378,1.120880127,-0.024982000,-0.026893616,-0.004396439,0.672528076,0.423175991,0.363737106,0.039560318,3.003662109,-0.362170994,-0.353061367,-0.004394964,-0.991822095,0.000000000,-0.000870784,-0.000001194,0.129369724,-0.010861000,-0.001716614,0.013187408,-0.550662231,-0.016210999,-0.014686584,-0.057142258,-0.821969604,0.090093002,0.081826210,0.004396439,2.465936279,0.242543995,0.182154655,-0.004396439,2.857147217,-0.262178004,-0.250284151,-0.004421285,-1.289169103,-0.006317000,-0.005518494,0.019543238,-0.090969224
0.255976928,-0.010330000,-0.004005432,0.048351288,-0.770939636,0.020794000,0.013923645,0.065933228,0.224176025,-0.024946000,-0.026893616,-0.004396439,-0.373617554,0.423227996,0.363737106,0.021978378,2.710632324,-0.362125009,-0.353061367,-0.013182986,-0.991822095,0.000000000,-0.000870784,-0.000003582,0.129369724,-0.010868000,-0.001716614,0.021978378,-0.770939636,-0.016221000,-0.014686584,-0.021978378,-0.224176025,0.090118997,0.081826210,0.004396439,3.362640381,0.242597997,0.182154655,-0.013187408,2.710632324,-0.262115985,-0.250284151,-0.000013646,-1.190066896,-0.006298000,-0.005518494,0.009776345,-0.046246023
0.257976747,-0.010367000,-0.004005432,0.030769348,-0.110138702,0.020783000,0.013923645,-0.057142258,1.569232178,-0.024909001,-0.026893616,0.004396439,0.074734497,0.423281014,0.364118576,0.021978378,3.443237305,-0.362080008,-0.353061367,-0.008795029,-0.892633883,0.000000000,-0.000870784,0.030262626,0.086192903,-0.010876000,-0.001716614,0.013187408,-0.770939636,-0.016229000,-0.014686584,-0.030769348,0.224176025,0.090147004,0.081826210,-0.004396439,3.362640381,0.242653996,0.182154655,-0.013187408,3.003662109,-0.262055993,-0.250284151,-0.004421285,-1.289169103,-0.006281000,-0.005518494,0.019543238,-0.090969224
0.259976567,-0.010397000,-0.004005432,0.004396439,-0.330416107,0.020771001,0.013923645,0.048351288,-0.074734497,-0.024871999,-0.026893616,-0.004396439,-0.074734497,0.423332006,0.364118576,0.013187408,3.296691895,-0.362037003,-0.353061367,0.004394964,-0.991822095,0.000000000,-0.000870784,0.000001194,0.129369724,-0.010884000,-0.001716614,-0.004396439,-0.550662231,-0.016236000,-0.014686584,-0.004396439,-1.718673706,0.090176001,0.081826210,0.048351288,3.512081909,0.242712006,0.182154655,0.004396439,3.150177002,-0.262001008,-0.250284151,-0.004394949,-1.190066896,-0.006267000,-0.005518494,-0.000007333,-0.046246023
0.261976387,-0.010422000,-0.004005432,0.057142258,-0.550662231,0.020760000,0.013923645,-0.004396439,0.672528076,-0.024835000,-0.026893616,-0.013187408,1.270321655,0.423384011,0.364118576,0.013187408,2.857147217,-0.361995012,-0.353061367,-0.004403354,-0.991822095,0.000000000,-0.000870784,0.040351428,0.129369724,-0.010893000,-0.001716614,-0.004396439,-0.770939636,-0.016241999,-0.014686584,0.074726105,-0.672528076,0.090205997,0.081826210,0.021978378,3.063729858,0.242771998,0.182154655,-0.004396439,2.857147217,-0.261949003,-0.250284151,-0.000013646,-1.090815911,-0.006255000,-0.005518494,0.009776345,-0.090692353
0.263976207,-0.010439000,-0.004005432,0.004396439,-0.330416107,0.020748001,0.013923645,-0.013187408,1.419790649,-0.024798000,-0.026893616,-0.039560318,-0.074734497,0.423433989,0.364118576,0.013187408,3.296691895,-0.361954987,-0.353061367,-0.000002336,-0.892657357,0.000000000,-0.000870784,0.010089797,0.172592470,-0.010902000,-0.001716614,0.021978378,-0.770939636,-0.016246000,-0.014686584,-0.101099014,-0.523086548,0.090236999,0.081826210,0.021978378,3.661550903,0.242833003,0.182154655,-0.004396439,2.857147217,-0.261902004,-0.250284151,-0.004394949,-0.991713704,-0.006247000,-0.005518494,-0.000007333,-0.045969152
0.265976026,-0.010448000,-0.004005432,0.004396439,-0.330416107,0.020736000,0.013923645,0.004396439,-0.373617554,-0.024761001,-0.026893616,-0.048351288,0.074734497,0.423483998,0.364118576,-0.004396439,3.589752197,-0.361916006,-0.353061367,-0.008791310,-0.793469145,0.000000000,-0.000870784,0.010085220,0.129415649,-0.010911000,-0.001716614,-0.030769348,-0.991217041,-0.016248001,-0.014686584,-0.004396439,-0.672528076,0.090269998,0.081826210,-0.030769348,2.764846802,0.242897004,0.182154655,-0.013187408,2.710632324,-0.261860013,-0.250284151,0.000013646,-1.289169103,-0.006242000,-0.005518494,-0.009776345,-0.090969224
0.267975846,-0.010450000,-0.004005432,0.013187408,-0.550662231,0.020724000,0.013923645,0.048351288,1.419790649,-0.024724999,-0.026893616,0.004396439,-0.224176025,0.423532993,0.364118576,-0.004396439,3.736267090,-0.361878991,-0.353061367,0.008791310,-0.892633883,0.000000000,-0.000870784,-0.010085220,0.086192903,-0.010921000,-0.001716614,-0.004396439,-0.991217041,-0.016248001,-0.014686584,0.039560318,-0.821969604,0.090302996,0.081826210,0.021978378,3.661550903,0.242962003,0.182154655,-0.004396439,3.003662109,-0.261821985,-0.250284151,0.004394949,-1.090964689,-0.006240000,-0.005518494,0.000007333,-0.001522822
0.269975666,-0.010441000,-0.004005432,0.030769348,-0.330416107,0.020713000,0.013923645,0.048351288,0.971438599,-0.024687000,-0.026893616,-0.030769348,0.074734497,0.423579991,0.364118576,0.013187408,3.736267090,-0.361844987,-0.353061367,-0.004398682,-0.892633883,0.000000000,-0.000870784,0.020176211,0.086192903,-0.010936000,-0.001716614,-0.021978378,-0.550662231,-0.016248001,-0.014686584,-0.048351288,-0.373617554,0.090342999,0.081826210,-0.039560318,3.362640381,0.243034005,0.182154655,-0.013187408,3.150177002,-0.261786014,-0.250284151,0.000040933,-1.090964689,-0.006240000,-0.005518494,-0.029324794,-0.001522822
0.271975486,-0.010424000,-0.004005432,0.013187408,-0.330416107,0.020702001,0.013923645,-0.004396439,0.523086548,-0.024648000,-0.026893616,-0.057142258,0.224176025,0.423626989,0.364118576,-0.004396439,3.296691895,-0.361813992,-0.352870757,-0.000005839,-1.090986648,0.000000000,-0.000433085,0.050437085,0.172683628,-0.010959000,-0.001716614,0.021978378,-0.991217041,-0.016247001,-0.014686584,-0.004396439,-1.868142700,0.090388000,0.081826210,0.004396439,3.362640381,0.243111998,0.182154655,-0.013187408,3.003662109,-0.261748999,-0.250284151,0.004339419,-1.190066896,-0.006240000,-0.005518494,0.039106350,-0.046246023
0.273975305,-0.010397000,-0.004386902,-0.030769348,-0.330416107,0.020691000,0.013923645,-0.039560318,0.523086548,-0.024607999,-0.026893616,0.039560318,0.224176025,0.423673987,0.364118576,0.004396439,2.564117432,-0.361784995,-0.353061367,0.004394964,-1.091010307,0.000000000,-0.000870784,0.000001194,0.172546546,-0.010986000,-0.001716614,0.021978378,-0.770939636,-0.016246000,-0.014686584,0.013187408,-0.074734497,0.090438999,0.081826210,-0.004396439,2.914288330,0.243195996,0.182154655,-0.013187408,3.150177002,-0.261712998,-0.250284151,-0.000013646,-1.289317882,-0.006239000,-0.005518494,0.009776345,-0.001799693
0.275975125,-0.010363000,-0.004005432,0.021978378,-0.330416107,0.020682000,0.013923645,-0.030769348,0.224176025,-0.024567001,-0.026893616,0.048351288,1.419790649,0.423718989,0.364118576,-0.004396439,3.003662109,-0.361757994,-0.353061367,-0.004394964,-0.793445671,0.000000000,-0.000870784,-0.000001194,0.043016081,-0.011018000,-0.001716614,-0.004396439,-0.991217041,-0.016245000,-0.014686584,-0.013187408,-0.523086548,0.090493999,0.081826210,-0.004396439,3.810992432,0.243285000,0.182154655,-0.004396439,3.150177002,-0.261676997,-0.250284151,-0.004366706,-1.090964689,-0.006239000,-0.005518494,-0.019557901,-0.001522822
0.277974945,-0.010322000,-0.004005432,-0.021978378,0.110138702,0.020671999,0.013923645,-0.039560318,0.672528076,-0.024526000,-0.026893616,0.039560318,0.821969604,0.423765004,0.364118576,0.013187408,3.003662109,-0.361732990,-0.353061367,-0.000002336,-0.892633883,0.000000000,-0.000870784,0.010089797,0.086192903,-0.011054000,-0.001716614,0.030769348,-0.991217041,-0.016243000,-0.014686584,0.065933228,-1.120880127,0.090553999,0.081826210,0.021978378,2.764846802,0.243377998,0.182154655,-0.004396439,3.296691895,-0.261642009,-0.250284151,0.004394949,-0.991862483,-0.006239000,-0.005518494,0.000007333,0.043200380
0.279974765,-0.010273000,-0.004005432,-0.004396439,-0.550662231,0.020662000,0.013923645,-0.013187408,0.821969604,-0.024483001,-0.026893616,0.004396439,0.224176025,0.423810005,0.364118576,0.013187408,3.589752197,-0.361707985,-0.353061367,0.008781014,-0.991822095,0.000000000,-0.000870784,0.030267401,0.129369724,-0.011092000,-0.001716614,-0.013187408,-0.770939636,-0.016241999,-0.014686584,-0.013187408,-0.821969604,0.090617001,0.081826210,-0.039560318,3.960433960,0.243475005,0.182154655,-0.013187408,3.003662109,-0.261608005,-0.250284151,-0.008802588,-1.090964689,-0.006238000,-0.005518494,0.009759560,-0.001522822
0.281974584,-0.010219000,-0.004005432,0.030769348,-0.550662231,0.020653000,0.013923645,0.021978378,0.373617554,-0.024440000,-0.026893616,0.004396439,-0.224176025,0.423855007,0.364118576,-0.004396439,3.150177002,-0.361685008,-0.353061367,0.008781014,-0.991822095,0.000000000,-0.000870784,0.030267401,0.129369724,-0.011132000,-0.001716614,0.013187408,-0.770939636,-0.016240001,-0.014686584,-0.021978378,-0.373617554,0.090682000,0.081826210,-0.030769348,3.063729858,0.243575007,0.182154655,0.004396439,3.150177002,-0.261575997,-0.250284151,0.004394949,-1.190066896,-0.006238000,-0.005518494,0.000007333,-0.046246023
0.283974404,-0.010160000,-0.004005432,-0.013187408,-0.770939636,0.020643000,0.013923645,-0.048351288,0.074734497,-0.024397001,-0.026893616,-0.074726105,1.270321655,0.423898995,0.364118576,0.004396439,3.296691895,-0.361660987,-0.353061367,0.004389339,-0.793469145,0.000000000,-0.000870784,0.020178599,0.129415649,-0.011172000,-0.001716614,0.021978378,-0.770939636,-0.016238000,-0.014686584,0.074726105,-0.523086548,0.090749003,0.081826210,0.030769348,3.661550903,0.243677005,0.182154655,-0.004396439,2.857147217,-0.261545986,-0.250284151,0.004394949,-1.289169103,-0.006238000,-0.005518494,0.000007333,-0.090969224
0.285974224,-0.010096000,-0.004005432,0.021978378,-0.110138702,0.020633001,0.013923645,-0.039560318,0.821969604,-0.024354000,-0.026893616,-0.048351288,0.373617554,0.423943996,0.364118576,0.013187408,3.150177002,-0.361636013,-0.353061367,-0.008791310,-0.991822095,0.000000000,-0.000870784,0.010085220,0.129369724,-0.011211000,-0.001716614,0.004396439,-0.770939636,-0.016236000,-0.014686584,0.039560318,-0.672528076,0.090818003,0.081826210,-0.030769348,3.661550903,0.243780002,0.182154655,-0.013187408,3.003662109,-0.261518002,-0.250284151,-0.004394949,-1.289317882,-0.006238000,-0.005518494,-0.000007333,-0.001799693
0.287974044,-0.010028000,-0.004005432,0.013187408,-0.770939636,0.020622000,0.013923645,0.048351288,0.672528076,-0.024311000,-0.026893616,0.074726105,-0.224176025,0.423988998,0.364118576,0.004396439,2.857147217,-0.361611009,-0.353061367,-0.000002336,-0.892633883,0.000000000,-0.000870784,0.010089797,0.086192903,-0.011249000,-0.001716614,-0.004396439,-0.770939636,-0.016235000,-0.014686584,-0.021978378,-0.672528076,0.090885997,0.081826210,0.004396439,3.213198853,0.243882999,0.182154655,-0.013187408,3.003662109,-0.261492014,-0.250094012,0.008776358,-1.190072289,-0.006238000,-0.005094163,0.009787213,-0.046120568
0.289973863,-0.009957000,-0.004005432,0.013187408,-0.550662231,0.020610999,0.013923645,-0.039560318,1.419790649,-0.024269000,-0.026893616,-0.030769348,0.074734497,0.424033999,0.364118576,-0.004396439,3.150177002,-0.361584991,-0.353061367,-0.004398682,-0.991822095,0.000000000,-0.000870784,0.020176211,0.129369724,-0.011284000,-0.001716614,0.004396439,-0.991217041,-0.016233001,-0.014686584,-0.004396439,-0.373617554,0.090954997,0.081826210,0.039560318,3.960433960,0.243986994,0.182154655,-0.004396439,3.150177002,-0.261469007,-0.250094012,-0.000037778,-0.991856491,-0.006237000,-0.005094163,0.029323152,0.043309533
0.291973683,-0.009883000,-0.004005432,0.004396439,0.110138702,0.020599000,0.013923645,-0.004396439,0.523086548,-0.024227001,-0.026893616,0.013187408,0.523086548,0.424080014,0.364118576,0.004396439,3.736267090,-0.361555994,-0.353061367,-0.000002336,-0.991822095,0.000000000,-0.000870784,0.010089797,0.129369724,-0.011316000,-0.001716614,0.048351288,-0.770939636,-0.016231000,-0.014686584,0.030769348,-0.373617554,0.091022000,0.081826210,0.057142258,3.810992432,0.244089007,0.182154655,-0.013187408,3.150177002,-0.261449009,-0.250094012,0.008750219,-1.090964390,-0.006237000,-0.005094163,0.029336686,-0.001405518
0.293973503,-0.009808000,-0.004005432,0.004396439,-0.550662231,0.020586001,0.013923645,-0.004396439,0.224176025,-0.024185000,-0.026893616,-0.004396439,0.821969604,0.424125999,0.364118576,-0.004396439,3.589752197,-0.361526012,-0.353061367,-0.008791310,-0.892633883,0.000000000,-0.000870784,0.010085220,0.086192903,-0.011343000,-0.001716614,-0.013187408,-0.770939636,-0.016230000,-0.014686584,-0.048351288,-1.270321655,0.091087997,0.081826210,0.004396439,3.362640381,0.244190007,0.182154655,-0.004396439,3.003662109,-0.261433005,-0.250094012,0.004394951,-1.091101729,-0.006237000,-0.005094163,0.000006769,0.087769039
0.295973323,-0.009731000,-0.004005432,-0.021978378,-0.330416107,0.020571999,0.013923645,0.021978378,1.120880127,-0.024145000,-0.026893616,-0.013187408,-0.224176025,0.424172997,0.364118576,0.013187408,3.150177002,-0.361492008,-0.353061367,-0.000002336,-0.793445671,0.000000000,-0.000870784,0.010089797,0.043016081,-0.011365000,-0.001716614,0.013187408,-0.770939636,-0.016229000,-0.014686584,-0.030769348,-0.373617554,0.091150999,0.081826210,0.048351288,4.558255005,0.244287997,0.182154655,-0.013187408,3.150177002,-0.261420012,-0.250284151,0.004421285,-0.991713704,-0.006237000,-0.005518494,-0.019543238,-0.045969152
0.297973142,-0.009654000,-0.004005432,0.048351288,-0.991217041,0.020555999,0.013923645,0.030769348,0.224176025,-0.024106000,-0.026893616,0.004396439,0.523086548,0.424221009,0.364118576,0.004396439,3.443237305,-0.361456007,-0.353061367,-0.000002336,-0.892633883,0.000000000,-0.000870784,0.010089797,0.086192903,-0.011379000,-0.001716614,0.013187408,-0.770939636,-0.016228000,-0.014686584,-0.004396439,-0.821969604,0.091210999,0.081826210,0.039560318,3.063729858,0.244383007,0.182154655,-0.004396439,3.150177002,-0.261411995,-0.250284151,-0.004421285,-1.189918118,-0.006237000,-0.005518494,0.019543238,-0.135415554
0.299972962,-0.009577000,-0.004005432,0.004396439,-0.110138702,0.020539001,0.013923645,0.048351288,1.419790649,-0.024068000,-0.026893616,0.039560318,1.120880127,0.424270004,0.364118576,-0.004396439,2.857147217,-0.361416012,-0.353061367,0.000002336,-0.793445671,0.000000000,-0.000870784,-0.010089797,0.043016081,-0.011386000,-0.001716614,-0.004396439,-0.770939636,-0.016228000,-0.014686584,0.004396439,-1.120880127,0.091266997,0.081826210,-0.101099014,3.960433960,0.244472995,0.182154655,-0.013187408,3.150177002,-0.261408001,-0.250284151,-0.000013646,-1.090964689,-0.006237000,-0.005518494,0.009776345,-0.001522822
0.301972782,-0.009498000,-0.004005432,0.004396439,-0.110138702,0.020520000,0.013923645,-0.030769348,1.270321655,-0.024031000,-0.026893616,0.021978378,0.821969604,0.424320012,0.364118576,0.013187408,3.003662109,-0.361369014,-0.353061367,-0.000002336,-0.892633883,0.000000000,-0.000870784,0.010089797,0.086192903,-0.011386000,-0.001716614,0.004396439,-0.770939636,-0.016230000,-0.014686584,-0.039560318,-0.523086548,0.091320001,0.081444740,-0.039560318,4.259344482,0.244562000,0.182154655,-0.004396439,3.003662109,-0.261411011,-0.250284151,-0.000013646,-1.190066896,-0.006238000,-0.005518494,0.009776345,-0.046246023
0.303972602,-0.009404000,-0.004005432,-0.021978378,-0.330416107,0.020493001,0.013923645,0.030769348,-0.074734497,-0.023992000,-0.026893616,0.083517075,-0.373617554,0.424374998,0.364118576,0.004396439,2.857147217,-0.361310005,-0.353061367,-0.000007007,-0.892657357,0.000000000,-0.000870784,0.030265014,0.172592470,-0.011380000,-0.001716614,0.013187408,-0.991217041,-0.016240999,-0.014686584,-0.004396439,-0.224176025,0.091375999,0.081826210,0.057142258,3.362640381,0.244654000,0.182154655,-0.004396439,2.857147217,-0.261426985,-0.250284151,-0.004421285,-0.991862483,-0.006241000,-0.005518494,0.019543238,0.043200380
0.305972421,-0.009297000,-0.004005432,-0.021978378,-0.330416107,0.020460000,0.013923645,-0.021978378,-0.523086548,-0.023952000,-0.026893616,-0.004396439,0.523086548,0.424434006,0.364118576,0.004396439,3.003662109,-0.361238986,-0.353061367,0.008791310,-0.793469145,0.000000000,-0.000870784,-0.010085220,0.129415649,-0.011369000,-0.001716614,0.021978378,-0.770939636,-0.016260000,-0.014686584,0.021978378,-1.569232178,0.091435000,0.081826210,0.004396439,3.063729858,0.244748995,0.182154655,-0.013187408,3.150177002,-0.261454999,-0.250284151,0.000013646,-1.190066896,-0.006246000,-0.005518494,-0.009776345,-0.046246023
0.307972241,-0.009178000,-0.004005432,0.030769348,-0.550662231,0.020421000,0.013923645,-0.030769348,0.074734497,-0.023910001,-0.026893616,-0.013187408,0.074734497,0.424495995,0.364118576,0.004396439,3.150177002,-0.361158013,-0.353061367,-0.008791310,-0.793469145,0.000000000,-0.000870784,0.010085220,0.129415649,-0.011354000,-0.001716614,-0.021978378,-0.770939636,-0.016286001,-0.014686584,0.030769348,-0.224176025,0.091495998,0.081826210,-0.021978378,4.109902954,0.244847000,0.182154655,-0.013187408,3.150177002,-0.261494994,-0.250094012,-0.000037778,-1.190072289,-0.006253000,-0.005094163,0.029323152,-0.046120568
0.309972061,-0.009050000,-0.004005432,0.013187408,-0.991217041,0.020377999,0.013923645,0.004396439,0.523086548,-0.023868000,-0.026893616,-0.013187408,-0.672528076,0.424558997,0.364118576,0.004396439,3.150177002,-0.361068994,-0.353061367,0.008791310,-0.793469145,0.000000000,-0.000870784,-0.010085220,0.129415649,-0.011335000,-0.001716614,0.021978378,-0.991217041,-0.016318999,-0.014686584,-0.004396439,-0.821969604,0.091558002,0.081826210,0.021978378,3.960433960,0.244946003,0.182154655,0.004396439,3.003662109,-0.261545986,-0.250284151,-0.004448572,-0.991713704,-0.006261000,-0.005518494,0.039091687,-0.045969152
0.311971881,-0.008914000,-0.004005432,-0.004396439,-0.550662231,0.020331001,0.013923645,0.057142258,0.224176025,-0.023825999,-0.026893616,-0.013187408,0.373617554,0.424623996,0.364118576,0.004396439,3.296691895,-0.360974014,-0.353061367,0.013182986,-0.892633883,0.000000000,-0.000870784,0.000003582,0.086192903,-0.011312000,-0.001716614,0.013187408,-0.770939636,-0.016357001,-0.014686584,0.021978378,-0.821969604,0.091619998,0.081444740,-0.004396439,3.960433960,0.245045006,0.182154655,0.004396439,3.150177002,-0.261606008,-0.250284151,-0.000040933,-0.991713704,-0.006271000,-0.005518494,0.029324794,-0.045969152
0.313971700,-0.008772000,-0.004386902,-0.021978378,-0.770939636,0.020282000,0.013923645,-0.004396439,0.523086548,-0.023784000,-0.026893616,-0.048351288,1.120880127,0.424688995,0.364118576,0.013187408,3.003662109,-0.360873997,-0.353061367,-0.013187657,-0.793469145,0.000000000,-0.000870784,0.020171635,0.129415649,-0.011286000,-0.001716614,-0.021978378,-0.770939636,-0.016400000,-0.014686584,-0.030769348,0.672528076,0.091681004,0.081826210,0.030769348,4.109902954,0.245143995,0.182154655,-0.004396439,3.296691895,-0.261675000,-0.250094012,0.008801541,-1.190072289,-0.006281000,-0.005094163,-0.009760141,-0.046120568
0.315971520,-0.008625000,-0.004386902,0.021978378,-0.770939636,0.020231999,0.013923645,0.013187408,0.971438599,-0.023744000,-0.026893616,0.004396439,0.373617554,0.424753994,0.364118576,0.004396439,3.150177002,-0.360771000,-0.352870757,-0.004396347,-0.694269098,0.000000000,-0.000433085,0.020175554,0.086324591,-0.011257000,-0.001716614,-0.021978378,-0.770939636,-0.016448000,-0.014686584,0.021978378,-1.120880127,0.091741003,0.081826210,0.057142258,3.512081909,0.245240003,0.182154655,-0.004396439,2.857147217,-0.261750996,-0.250094012,-0.004419184,-1.190072289,-0.006292000,-0.005094163,0.019542707,-0.046120568
0.317971340,-0.008475000,-0.004005432,0.004396439,-0.550662231,0.020180000,0.013923645,0.083517075,0.224176025,-0.023705000,-0.026893616,-0.013187408,0.224176025,0.424818009,0.364118576,0.004396439,3.296691895,-0.360666007,-0.352870757,-0.004394964,-0.892633705,0.000000000,-0.000433085,-0.000000593,0.172706589,-0.011225000,-0.001716614,-0.004396439,-0.770939636,-0.016497999,-0.014686584,-0.004396439,-0.373617554,0.091798000,0.081444740,-0.092308044,3.512081909,0.245333999,0.182154655,-0.004396439,3.003662109,-0.261833996,-0.250284151,0.000013646,-1.090964689,-0.006303000,-0.005518494,-0.009776345,-0.001522822
0.319971160,-0.008324000,-0.004005432,-0.004396439,-0.550662231,0.020129999,0.013923645,-0.048351288,0.672528076,-0.023667000,-0.026893616,0.004396439,1.270321655,0.424879014,0.364118576,0.004396439,3.003662109,-0.360561997,-0.353061367,-0.008795029,-0.793469145,0.000000000,-0.000870784,0.030262626,0.129415649,-0.011191000,-0.001716614,0.013187408,-0.770939636,-0.016550001,-0.014686584,-0.039560318,-0.074734497,0.091851003,0.081444740,0.021978378,3.362640381,0.245424002,0.182154655,-0.013187408,3.150177002,-0.261922002,-0.250284151,-0.004394949,-1.190066896,-0.006314000,-0.005518494,-0.000007333,-0.046246023
